P3
400 225
255
204 226 255
204 226 255
204 226 255
204 226 255
204 226 255
204 226 255
204 226 255
204 226 255
204 226 255
204 226 255
204 226 255
204 226 255
204 226 255
203 226 255
203 226 255
203 226 255
203 226 255
203 226 255
203 226 255
203 226 255
203 226 255
203 225 255
203 225 255
203 225 255
203 225 255
203 225 255
203 225 255
203 225 255
203 225 255
203 225 255
202 225 255
202 225 255
202 225 255
202 225 255
202 225 255
202 225 255
202 225 255
202 225 255
202 225 255
202 225 255
202 225 255
202 225 255
202 225 255
202 225 255
202 225 255
202 225 255
201 225 255
201 225 255
201 225 255
201 225 255
201 224 255
201 224 255
201 224 255
201 224 255
201 224 255
201 224 255
201 224 255
201 224 255
201 224 255
201 224 255
201 224 255
200 224 255
200 224 255
200 224 255
200 224 255
200 224 255
200 224 255
200 224 255
200 224 255
200 224 255
200 224 255
200 224 255
200 224 255
200 224 255
200 224 255
199 224 255
199 224 255
199 224 255
199 223 255
199 223 255
199 223 255
199 223 255
199 223 255
199 223 255
199 223 255
199 223 255
199 223 255
199 223 255
199 223 255
199 223 255
198 223 255
198 223 255
198 223 255
198 223 255
198 223 255
198 223 255
198 223 255
198 223 255
198 223 255
198 223 255
198 223 255
198 223 255
198 223 255
198 223 255
197 222 255
197 222 255
197 222 255
197 222 255
197 222 255
197 222 255
197 222 255
197 222 255
197 222 255
197 222 255
197 222 255
197 222 255
197 222 255
197 222 255
197 222 255
196 222 255
196 222 255
196 222 255
196 222 255
196 222 255
196 222 255
196 222 255
196 222 255
196 222 255
196 222 255
196 222 255
196 222 255
196 222 255
196 222 255
196 221 255
195 221 255
195 221 255
195 221 255
195 221 255
195 221 255
195 221 255
195 221 255
195 221 255
195 221 255
195 221 255
195 221 255
195 221 255
195 221 255
195 221 255
195 221 255
195 221 255
195 221 255
195 221 255
194 221 255
194 221 255
194 221 255
194 221 255
194 221 255
194 221 255
194 221 255
194 221 255
194 221 255
194 221 255
194 221 255
194 221 255
194 221 255
194 221 255
194 221 255
194 221 255
194 221 255
194 221 255
194 221 255
194 221 255
194 220 255
194 220 255
194 220 255
194 220 255
194 220 255
194 220 255
194 220 255
193 220 255
193 220 255
193 220 255
193 220 255
193 220 255
193 220 255
193 220 255
193 220 255
193 220 255
193 220 255
193 220 255
193 220 255
193 220 255
193 220 255
193 220 255
193 220 255
193 220 255
193 220 255
193 220 255
193 220 255
193 220 255
193 220 255
193 220 255
193 220 255
193 220 255
193 220 255
193 220 255
193 220 255
193 220 255
193 220 255
193 220 255
193 220 255
193 220 255
193 220 255
193 220 255
193 220 255
193 220 255
193 220 255
193 220 255
193 220 255
193 220 255
194 220 255
194 220 255
194 220 255
194 220 255
194 220 255
194 220 255
194 220 255
194 221 255
194 221 255
194 221 255
194 221 255
194 221 255
194 221 255
194 221 255
194 221 255
194 221 255
194 221 255
194 221 255
194 221 255
194 221 255
194 221 255
194 221 255
194 221 255
194 221 255
194 221 255
194 221 255
194 221 255
195 221 255
195 221 255
195 221 255
195 221 255
195 221 255
195 221 255
195 221 255
195 221 255
195 221 255
195 221 255
195 221 255
195 221 255
195 221 255
195 221 255
195 221 255
195 221 255
195 221 255
195 221 255
196 221 255
196 222 255
196 222 255
196 222 255
196 222 255
196 222 255
196 222 255
196 222 255
196 222 255
196 222 255
196 222 255
196 222 255
196 222 255
196 222 255
196 222 255
196 222 255
197 222 255
197 222 255
197 222 255
197 222 255
197 222 255
197 222 255
197 222 255
197 222 255
197 222 255
197 222 255
197 222 255
197 222 255
197 222 255
197 222 255
198 223 255
198 223 255
198 223 255
198 223 255
198 223 255
198 223 255
198 223 255
198 223 255
198 223 255
198 223 255
198 223 255
198 223 255
198 223 255
198 223 255
199 223 255
199 223 255
199 223 255
199 223 255
199 223 255
199 223 255
199 223 255
199 223 255
199 223 255
199 223 255
199 223 255
199 223 255
199 224 255
199 224 255
199 224 255
200 224 255
200 224 255
200 224 255
200 224 255
200 224 255
200 224 255
200 224 255
200 224 255
200 224 255
200 224 255
200 224 255
200 224 255
200 224 255
200 224 255
201 224 255
201 224 255
201 224 255
201 224 255
201 224 255
201 224 255
201 224 255
201 224 255
201 224 255
201 224 255
201 224 255
201 225 255
201 225 255
201 225 255
201 225 255
202 225 255
202 225 255
202 225 255
202 225 255
202 225 255
202 225 255
202 225 255
202 225 255
202 225 255
202 225 255
202 225 255
202 225 255
202 225 255
202 225 255
202 225 255
202 225 255
203 225 255
203 225 255
203 225 255
203 225 255
203 225 255
203 225 255
203 225 255
203 225 255
203 225 255
203 226 255
203 226 255
203 226 255
203 226 255
203 226 255
203 226 255
203 226 255
203 226 255
204 226 255
204 226 255
204 226 255
204 226 255
204 226 255
204 226 255
204 226 255
204 226 255
204 226 255
204 226 255
204 226 255
204 226 255
204 226 255
204 226 255
204 226 255
204 226 255
204 226 255
204 226 255
204 226 255
204 226 255
204 226 255
204 226 255
204 226 255
204 226 255
204 226 255
204 226 255
204 226 255
204 226 255
204 226 255
203 226 255
203 226 255
203 226 255
203 226 255
203 226 255
203 226 255
203 226 255
203 226 255
203 225 255
203 225 255
203 225 255
203 225 255
203 225 255
203 225 255
203 225 255
203 225 255
203 225 255
202 225 255
202 225 255
202 225 255
202 225 255
202 225 255
202 225 255
202 225 255
202 225 255
202 225 255
202 225 255
202 225 255
202 225 255
202 225 255
202 225 255
202 225 255
202 225 255
201 225 255
201 225 255
201 225 255
201 225 255
201 224 255
201 224 255
201 224 255
201 224 255
201 224 255
201 224 255
201 224 255
201 224 255
201 224 255
201 224 255
201 224 255
200 224 255
200 224 255
200 224 255
200 224 255
200 224 255
200 224 255
200 224 255
200 224 255
200 224 255
200 224 255
200 224 255
200 224 255
200 224 255
200 224 255
199 224 255
199 224 255
199 224 255
199 223 255
199 223 255
199 223 255
199 223 255
199 223 255
199 223 255
199 223 255
199 223 255
199 223 255
199 223 255
199 223 255
199 223 255
198 223 255
198 223 255
198 223 255
198 223 255
198 223 255
198 223 255
198 223 255
198 223 255
198 223 255
198 223 255
198 223 255
198 223 255
198 223 255
198 223 255
197 222 255
197 222 255
197 222 255
197 222 255
197 222 255
197 222 255
197 222 255
197 222 255
197 222 255
197 222 255
197 222 255
197 222 255
197 222 255
197 222 255
197 222 255
196 222 255
196 222 255
196 222 255
196 222 255
196 222 255
196 222 255
196 222 255
196 222 255
196 222 255
196 222 255
196 222 255
196 222 255
196 222 255
196 222 255
196 221 255
195 221 255
195 221 255
195 221 255
195 221 255
195 221 255
195 221 255
195 221 255
195 221 255
195 221 255
195 221 255
195 221 255
195 221 255
195 221 255
195 221 255
195 221 255
195 221 255
195 221 255
195 221 255
195 221 255
194 221 255
194 221 255
194 221 255
194 221 255
194 221 255
194 221 255
194 221 255
194 221 255
194 221 255
194 221 255
194 221 255
194 221 255
194 221 255
194 221 255
194 221 255
194 221 255
194 221 255
194 221 255
194 221 255
194 221 255
194 221 255
194 221 255
194 220 255
194 220 255
194 220 255
194 220 255
194 220 255
194 220 255
194 220 255
194 220 255
194 220 255
193 220 255
193 220 255
193 220 255
193 220 255
193 220 255
193 220 255
193 220 255
193 220 255
193 220 255
193 220 255
193 220 255
193 220 255
193 220 255
193 220 255
193 220 255
193 220 255
193 220 255
193 220 255
193 220 255
193 220 255
193 220 255
193 220 255
193 220 255
193 220 255
193 220 255
193 220 255
193 220 255
194 220 255
194 220 255
194 220 255
194 220 255
194 220 255
194 220 255
194 220 255
194 220 255
194 220 255
194 220 255
194 221 255
194 221 255
194 221 255
194 221 255
194 221 255
194 221 255
194 221 255
194 221 255
194 221 255
194 221 255
194 221 255
194 221 255
194 221 255
194 221 255
194 221 255
194 221 255
194 221 255
194 221 255
194 221 255
194 221 255
194 221 255
195 221 255
195 221 255
195 221 255
195 221 255
195 221 255
195 221 255
195 221 255
195 221 255
195 221 255
195 221 255
195 221 255
195 221 255
195 221 255
195 221 255
195 221 255
195 221 255
195 221 255
195 221 255
195 221 255
196 221 255
196 222 255
196 222 255
196 222 255
196 222 255
196 222 255
196 222 255
196 222 255
196 222 255
196 222 255
196 222 255
196 222 255
196 222 255
196 222 255
196 222 255
197 222 255
197 222 255
197 222 255
197 222 255
197 222 255
197 222 255
197 222 255
197 222 255
197 222 255
197 222 255
197 222 255
197 222 255
197 222 255
197 222 255
197 222 255
198 223 255
198 223 255
198 223 255
198 223 255
198 223 255
198 223 255
198 223 255
198 223 255
198 223 255
198 223 255
198 223 255
198 223 255
198 223 255
198 223 255
198 223 255
199 223 255
199 223 255
199 223 255
199 223 255
199 223 255
199 223 255
199 223 255
199 223 255
199 223 255
199 223 255
199 223 255
199 224 255
199 224 255
199 224 255
200 224 255
200 224 255
200 224 255
200 224 255
200 224 255
200 224 255
200 224 255
200 224 255
200 224 255
200 224 255
200 224 255
200 224 255
200 224 255
200 224 255
201 224 255
201 224 255
201 224 255
201 224 255
201 224 255
201 224 255
201 224 255
201 224 255
201 224 255
201 224 255
201 224 255
201 225 255
201 225 255
201 225 255
201 225 255
202 225 255
202 225 255
202 225 255
202 225 255
202 225 255
202 225 255
202 225 255
202 225 255
202 225 255
202 225 255
202 225 255
202 225 255
202 225 255
202 225 255
202 225 255
202 225 255
203 225 255
203 225 255
203 225 255
203 225 255
203 225 255
203 225 255
203 225 255
203 225 255
203 225 255
203 226 255
203 226 255
203 226 255
203 226 255
203 226 255
203 226 255
203 226 255
203 226 255
204 226 255
204 226 255
204 226 255
204 226 255
204 226 255
204 226 255
204 226 255
204 226 255
204 226 255
204 226 255
204 226 255
204 226 255
204 226 255
204 226 255
204 226 255
204 226 255
204 226 255
204 226 255
204 226 255
204 226 255
204 226 255
204 226 255
204 226 255
204 226 255
204 226 255
204 226 255
204 226 255
204 226 255
204 226 255
204 226 255
204 226 255
204 226 255
204 226 255
204 226 255
203 226 255
203 226 255
203 226 255
203 226 255
203 226 255
203 226 255
203 226 255
203 225 255
203 225 255
203 225 255
203 225 255
203 225 255
203 225 255
203 225 255
203 225 255
203 225 255
202 225 255
202 225 255
202 225 255
202 225 255
202 225 255
202 225 255
202 225 255
202 225 255
202 225 255
202 225 255
202 225 255
202 225 255
202 225 255
202 225 255
202 225 255
202 225 255
201 225 255
201 225 255
201 225 255
201 225 255
201 224 255
201 224 255
201 224 255
201 224 255
201 224 255
201 224 255
201 224 255
201 224 255
201 224 255
201 224 255
201 224 255
200 224 255
200 224 255
200 224 255
200 224 255
200 224 255
200 224 255
200 224 255
200 224 255
200 224 255
200 224 255
200 224 255
200 224 255
200 224 255
200 224 255
199 224 255
199 224 255
199 224 255
199 223 255
199 223 255
199 223 255
199 223 255
199 223 255
199 223 255
199 223 255
199 223 255
199 223 255
199 223 255
199 223 255
199 223 255
198 223 255
198 223 255
198 223 255
198 223 255
198 223 255
198 223 255
198 223 255
198 223 255
198 223 255
198 223 255
198 223 255
198 223 255
198 223 255
198 223 255
197 222 255
197 222 255
197 222 255
197 222 255
197 222 255
197 222 255
197 222 255
197 222 255
197 222 255
197 222 255
197 222 255
197 222 255
197 222 255
197 222 255
197 222 255
196 222 255
196 222 255
196 222 255
196 222 255
196 222 255
196 222 255
196 222 255
196 222 255
196 222 255
196 222 255
196 222 255
196 222 255
196 222 255
196 222 255
196 221 255
196 221 255
195 221 255
195 221 255
195 221 255
195 221 255
195 221 255
195 221 255
195 221 255
195 221 255
195 221 255
195 221 255
195 221 255
195 221 255
195 221 255
195 221 255
195 221 255
195 221 255
195 221 255
195 221 255
195 221 255
194 221 255
194 221 255
194 221 255
194 221 255
194 221 255
194 221 255
194 221 255
194 221 255
194 221 255
194 221 255
194 221 255
194 221 255
194 221 255
194 221 255
194 221 255
194 221 255
194 221 255
194 221 255
194 221 255
194 221 255
194 221 255
194 221 255
194 221 255
194 221 255
194 221 255
194 220 255
194 220 255
194 220 255
194 220 255
194 220 255
194 220 255
194 220 255
194 220 255
194 220 255
194 220 255
194 220 255
194 220 255
194 220 255
194 220 255
194 220 255
194 220 255
194 220 255
194 220 255
194 220 255
194 220 255
194 220 255
194 220 255
194 220 255
194 220 255
194 220 255
194 220 255
194 220 255
194 220 255
194 220 255
194 220 255
194 220 255
194 220 255
194 220 255
194 221 255
194 221 255
194 221 255
194 221 255
194 221 255
194 221 255
194 221 255
194 221 255
194 221 255
194 221 255
194 221 255
194 221 255
194 221 255
194 221 255
194 221 255
194 221 255
194 221 255
194 221 255
194 221 255
194 221 255
194 221 255
194 221 255
194 221 255
194 221 255
194 221 255
195 221 255
195 221 255
195 221 255
195 221 255
195 221 255
195 221 255
195 221 255
195 221 255
195 221 255
195 221 255
195 221 255
195 221 255
195 221 255
195 221 255
195 221 255
195 221 255
195 221 255
195 221 255
195 221 255
196 221 255
196 221 255
196 222 255
196 222 255
196 222 255
196 222 255
196 222 255
196 222 255
196 222 255
196 222 255
196 222 255
196 222 255
196 222 255
196 222 255
196 222 255
196 222 255
197 222 255
197 222 255
197 222 255
197 222 255
197 222 255
197 222 255
197 222 255
197 222 255
197 222 255
197 222 255
197 222 255
197 222 255
197 222 255
197 222 255
197 222 255
198 223 255
198 223 255
198 223 255
198 223 255
198 223 255
198 223 255
198 223 255
198 223 255
198 223 255
198 223 255
198 223 255
198 223 255
198 223 255
198 223 255
199 223 255
199 223 255
199 223 255
199 223 255
199 223 255
199 223 255
199 223 255
199 223 255
199 223 255
199 223 255
199 223 255
199 223 255
199 224 255
199 224 255
199 224 255
200 224 255
200 224 255
200 224 255
200 224 255
200 224 255
200 224 255
200 224 255
200 224 255
200 224 255
200 224 255
200 224 255
200 224 255
200 224 255
200 224 255
201 224 255
201 224 255
201 224 255
201 224 255
201 224 255
201 224 255
201 224 255
201 224 255
201 224 255
201 224 255
201 224 255
201 225 255
201 225 255
201 225 255
201 225 255
202 225 255
202 225 255
202 225 255
202 225 255
202 225 255
202 225 255
202 225 255
202 225 255
202 225 255
202 225 255
202 225 255
202 225 255
202 225 255
202 225 255
202 225 255
202 225 255
203 225 255
203 225 255
203 225 255
203 225 255
203 225 255
203 225 255
203 225 255
203 225 255
203 225 255
203 226 255
203 226 255
203 226 255
203 226 255
203 226 255
203 226 255
203 226 255
204 226 255
204 226 255
204 226 255
204 226 255
204 226 255
204 226 255
204 226 255
204 226 255
204 226 255
204 226 255
204 226 255
204 226 255
204 226 255
204 226 255
204 226 255
204 226 255
204 226 255
204 226 255
205 226 255
205 226 255
205 226 255
204 226 255
204 226 255
204 226 255
204 226 255
204 226 255
204 226 255
204 226 255
204 226 255
204 226 255
204 226 255
204 226 255
204 226 255
204 226 255
204 226 255
204 226 255
204 226 255
204 226 255
204 226 255
203 226 255
203 226 255
203 226 255
203 226 255
203 226 255
203 226 255
203 226 255
203 225 255
203 225 255
203 225 255
203 225 255
203 225 255
203 225 255
203 225 255
203 225 255
203 225 255
202 225 255
202 225 255
202 225 255
202 225 255
202 225 255
202 225 255
202 225 255
202 225 255
202 225 255
202 225 255
202 225 255
202 225 255
202 225 255
202 225 255
202 225 255
202 225 255
201 225 255
201 225 255
201 225 255
201 225 255
201 225 255
201 224 255
201 224 255
201 224 255
201 224 255
201 224 255
201 224 255
201 224 255
201 224 255
201 224 255
201 224 255
200 224 255
200 224 255
200 224 255
200 224 255
200 224 255
200 224 255
200 224 255
200 224 255
200 224 255
200 224 255
200 224 255
200 224 255
200 224 255
200 224 255
199 224 255
199 224 255
199 224 255
199 223 255
199 223 255
199 223 255
199 223 255
199 223 255
199 223 255
199 223 255
199 223 255
199 223 255
199 223 255
199 223 255
199 223 255
198 223 255
198 223 255
198 223 255
198 223 255
198 223 255
198 223 255
198 223 255
198 223 255
198 223 255
198 223 255
198 223 255
198 223 255
198 223 255
198 223 255
197 222 255
197 222 255
197 222 255
197 222 255
197 222 255
197 222 255
197 222 255
197 222 255
197 222 255
197 222 255
197 222 255
197 222 255
197 222 255
197 222 255
197 222 255
196 222 255
196 222 255
196 222 255
196 222 255
196 222 255
196 222 255
196 222 255
196 222 255
196 222 255
196 222 255
196 222 255
196 222 255
196 222 255
196 222 255
196 222 255
196 221 255
195 221 255
195 221 255
195 221 255
195 221 255
195 221 255
195 221 255
195 221 255
195 221 255
195 221 255
195 221 255
195 221 255
195 221 255
195 221 255
195 221 255
195 221 255
195 221 255
195 221 255
195 221 255
195 221 255
195 221 255
194 221 255
194 221 255
194 221 255
194 221 255
194 221 255
194 221 255
194 221 255
194 221 255
194 221 255
194 221 255
194 221 255
194 221 255
194 221 255
194 221 255
194 221 255
194 221 255
194 221 255
194 221 255
194 221 255
194 221 255
194 221 255
194 221 255
194 221 255
194 221 255
194 221 255
194 221 255
194 221 255
194 221 255
194 221 255
194 221 255
194 221 255
194 220 255
194 220 255
194 220 255
194 220 255
194 220 255
194 220 255
194 220 255
194 220 255
194 220 255
194 220 255
194 220 255
194 220 255
194 220 255
194 220 255
194 220 255
194 221 255
194 221 255
194 221 255
194 221 255
194 221 255
194 221 255
194 221 255
194 221 255
194 221 255
194 221 255
194 221 255
194 221 255
194 221 255
194 221 255
194 221 255
194 221 255
194 221 255
194 221 255
194 221 255
194 221 255
194 221 255
194 221 255
194 221 255
194 221 255
194 221 255
194 221 255
194 221 255
194 221 255
194 221 255
194 221 255
194 221 255
195 221 255
195 221 255
195 221 255
195 221 255
195 221 255
195 221 255
195 221 255
195 221 255
195 221 255
195 221 255
195 221 255
195 221 255
195 221 255
195 221 255
195 221 255
195 221 255
195 221 255
195 221 255
195 221 255
195 221 255
196 221 255
196 222 255
196 222 255
196 222 255
196 222 255
196 222 255
196 222 255
196 222 255
196 222 255
196 222 255
196 222 255
196 222 255
196 222 255
196 222 255
196 222 255
196 222 255
197 222 255
197 222 255
197 222 255
197 222 255
197 222 255
197 222 255
197 222 255
197 222 255
197 222 255
197 222 255
197 222 255
197 222 255
197 222 255
197 222 255
197 222 255
198 223 255
198 223 255
198 223 255
198 223 255
198 223 255
198 223 255
198 223 255
198 223 255
198 223 255
198 223 255
198 223 255
198 223 255
198 223 255
198 223 255
199 223 255
199 223 255
199 223 255
199 223 255
199 223 255
199 223 255
199 223 255
199 223 255
199 223 255
199 223 255
199 223 255
199 223 255
199 224 255
199 224 255
199 224 255
200 224 255
200 224 255
200 224 255
200 224 255
200 224 255
200 224 255
200 224 255
200 224 255
200 224 255
200 224 255
200 224 255
200 224 255
200 224 255
200 224 255
201 224 255
201 224 255
201 224 255
201 224 255
201 224 255
201 224 255
201 224 255
201 224 255
201 224 255
201 224 255
201 225 255
201 225 255
201 225 255
201 225 255
201 225 255
202 225 255
202 225 255
202 225 255
202 225 255
202 225 255
202 225 255
202 225 255
202 225 255
202 225 255
202 225 255
202 225 255
202 225 255
202 225 255
202 225 255
202 225 255
202 225 255
203 225 255
203 225 255
203 225 255
203 225 255
203 225 255
203 225 255
203 225 255
203 225 255
203 225 255
203 226 255
203 226 255
203 226 255
203 226 255
203 226 255
203 226 255
203 226 255
204 226 255
204 226 255
204 226 255
204 226 255
204 226 255
204 226 255
204 226 255
204 226 255
204 226 255
204 226 255
204 226 255
204 226 255
204 226 255
204 226 255
204 226 255
204 226 255
204 226 255
204 226 255
205 226 255
205 226 255
205 226 255
205 226 255
205 226 255
205 226 255
205 226 255
204 226 255
204 226 255
204 226 255
204 226 255
204 226 255
204 226 255
204 226 255
204 226 255
204 226 255
204 226 255
204 226 255
204 226 255
204 226 255
204 226 255
204 226 255
204 226 255
204 226 255
204 226 255
203 226 255
203 226 255
203 226 255
203 226 255
203 226 255
203 226 255
203 226 255
203 225 255
203 225 255
203 225 255
203 225 255
203 225 255
203 225 255
203 225 255
203 225 255
203 225 255
203 225 255
202 225 255
202 225 255
202 225 255
202 225 255
202 225 255
202 225 255
202 225 255
202 225 255
202 225 255
202 225 255
202 225 255
202 225 255
202 225 255
202 225 255
202 225 255
201 225 255
201 225 255
201 225 255
201 225 255
201 225 255
201 224 255
201 224 255
201 224 255
201 224 255
201 224 255
201 224 255
201 224 255
201 224 255
201 224 255
201 224 255
200 224 255
200 224 255
200 224 255
200 224 255
200 224 255
200 224 255
200 224 255
200 224 255
200 224 255
200 224 255
200 224 255
200 224 255
200 224 255
200 224 255
199 224 255
199 224 255
199 224 255
199 223 255
199 223 255
199 223 255
199 223 255
199 223 255
199 223 255
199 223 255
199 223 255
199 223 255
199 223 255
199 223 255
199 223 255
198 223 255
198 223 255
198 223 255
198 223 255
198 223 255
198 223 255
198 223 255
198 223 255
198 223 255
198 223 255
198 223 255
198 223 255
198 223 255
198 223 255
197 222 255
197 222 255
197 222 255
197 222 255
197 222 255
197 222 255
197 222 255
197 222 255
197 222 255
197 222 255
197 222 255
197 222 255
197 222 255
197 222 255
197 222 255
196 222 255
196 222 255
196 222 255
196 222 255
196 222 255
196 222 255
196 222 255
196 222 255
196 222 255
196 222 255
196 222 255
196 222 255
196 222 255
196 222 255
196 222 255
196 221 255
196 221 255
195 221 255
195 221 255
195 221 255
195 221 255
195 221 255
195 221 255
195 221 255
195 221 255
195 221 255
195 221 255
195 221 255
195 221 255
195 221 255
195 221 255
195 221 255
195 221 255
195 221 255
195 221 255
195 221 255
195 221 255
195 221 255
194 221 255
194 221 255
194 221 255
194 221 255
194 221 255
194 221 255
194 221 255
194 221 255
194 221 255
194 221 255
194 221 255
194 221 255
194 221 255
194 221 255
194 221 255
194 221 255
194 221 255
194 221 255
194 221 255
194 221 255
194 221 255
194 221 255
194 221 255
194 221 255
194 221 255
194 221 255
194 221 255
194 221 255
194 221 255
194 221 255
194 221 255
194 221 255
194 221 255
194 221 255
194 221 255
194 221 255
194 221 255
194 221 255
194 221 255
194 221 255
194 221 255
194 221 255
194 221 255
194 221 255
194 221 255
194 221 255
194 221 255
194 221 255
194 221 255
194 221 255
194 221 255
194 221 255
194 221 255
194 221 255
194 221 255
194 221 255
194 221 255
194 221 255
194 221 255
194 221 255
194 221 255
194 221 255
194 221 255
194 221 255
194 221 255
194 221 255
194 221 255
194 221 255
194 221 255
195 221 255
195 221 255
195 221 255
195 221 255
195 221 255
195 221 255
195 221 255
195 221 255
195 221 255
195 221 255
195 221 255
195 221 255
195 221 255
195 221 255
195 221 255
195 221 255
195 221 255
195 221 255
195 221 255
195 221 255
195 221 255
196 221 255
196 221 255
196 222 255
196 222 255
196 222 255
196 222 255
196 222 255
196 222 255
196 222 255
196 222 255
196 222 255
196 222 255
196 222 255
196 222 255
196 222 255
196 222 255
196 222 255
197 222 255
197 222 255
197 222 255
197 222 255
197 222 255
197 222 255
197 222 255
197 222 255
197 222 255
197 222 255
197 222 255
197 222 255
197 222 255
197 222 255
197 223 255
198 223 255
198 223 255
198 223 255
198 223 255
198 223 255
198 223 255
198 223 255
198 223 255
198 223 255
198 223 255
198 223 255
198 223 255
198 223 255
198 223 255
198 223 255
199 223 255
199 223 255
199 223 255
199 223 255
199 223 255
199 223 255
199 223 255
199 223 255
199 223 255
199 223 255
199 223 255
199 224 255
199 224 255
199 224 255
200 224 255
200 224 255
200 224 255
200 224 255
200 224 255
200 224 255
200 224 255
200 224 255
200 224 255
200 224 255
200 224 255
200 224 255
200 224 255
200 224 255
201 224 255
201 224 255
201 224 255
201 224 255
201 224 255
201 224 255
201 224 255
201 224 255
201 224 255
201 224 255
201 225 255
201 225 255
201 225 255
201 225 255
201 225 255
202 225 255
202 225 255
202 225 255
202 225 255
202 225 255
202 225 255
202 225 255
202 225 255
202 225 255
202 225 255
202 225 255
202 225 255
202 225 255
202 225 255
202 225 255
203 225 255
203 225 255
203 225 255
203 225 255
203 225 255
203 225 255
203 225 255
203 225 255
203 225 255
203 226 255
203 226 255
203 226 255
203 226 255
203 226 255
203 226 255
203 226 255
203 226 255
204 226 255
204 226 255
204 226 255
204 226 255
204 226 255
204 226 255
204 226 255
204 226 255
204 226 255
204 226 255
204 226 255
204 226 255
204 226 255
204 226 255
204 226 255
204 226 255
204 226 255
204 226 255
205 226 255
205 226 255
205 226 255
205 226 255
205 226 255
205 226 255
205 226 255
205 226 255
205 226 255
205 226 255
205 226 255
205 226 255
204 226 255
204 226 255
204 226 255
204 226 255
204 226 255
204 226 255
204 226 255
204 226 255
204 226 255
204 226 255
204 226 255
204 226 255
204 226 255
204 226 255
204 226 255
204 226 255
204 226 255
204 226 255
203 226 255
203 226 255
203 226 255
203 226 255
203 226 255
203 226 255
203 226 255
203 225 255
203 225 255
203 225 255
203 225 255
203 225 255
203 225 255
203 225 255
203 225 255
203 225 255
202 225 255
202 225 255
202 225 255
202 225 255
202 225 255
202 225 255
202 225 255
202 225 255
202 225 255
202 225 255
202 225 255
202 225 255
202 225 255
202 225 255
202 225 255
201 225 255
201 225 255
201 225 255
201 225 255
201 225 255
201 224 255
201 224 255
201 224 255
201 224 255
201 224 255
201 224 255
201 224 255
201 224 255
201 224 255
201 224 255
200 224 255
200 224 255
200 224 255
200 224 255
200 224 255
200 224 255
200 224 255
200 224 255
200 224 255
200 224 255
200 224 255
200 224 255
200 224 255
200 224 255
199 224 255
199 224 255
199 224 255
199 223 255
199 223 255
199 223 255
199 223 255
199 223 255
199 223 255
199 223 255
199 223 255
199 223 255
199 223 255
199 223 255
199 223 255
198 223 255
198 223 255
198 223 255
198 223 255
198 223 255
198 223 255
198 223 255
198 223 255
198 223 255
198 223 255
198 223 255
198 223 255
198 223 255
198 223 255
197 223 255
197 222 255
197 222 255
197 222 255
197 222 255
197 222 255
197 222 255
197 222 255
197 222 255
197 222 255
197 222 255
197 222 255
197 222 255
197 222 255
197 222 255
196 222 255
196 222 255
196 222 255
196 222 255
196 222 255
196 222 255
196 222 255
196 222 255
196 222 255
196 222 255
196 222 255
196 222 255
196 222 255
196 222 255
196 222 255
196 222 255
196 221 255
195 221 255
195 221 255
195 221 255
195 221 255
195 221 255
195 221 255
195 221 255
195 221 255
195 221 255
195 221 255
195 221 255
195 221 255
195 221 255
195 221 255
195 221 255
195 221 255
195 221 255
195 221 255
195 221 255
195 221 255
195 221 255
195 221 255
194 221 255
194 221 255
194 221 255
194 221 255
194 221 255
194 221 255
194 221 255
194 221 255
194 221 255
194 221 255
194 221 255
194 221 255
194 221 255
194 221 255
194 221 255
194 221 255
194 221 255
194 221 255
194 221 255
194 221 255
194 221 255
194 221 255
194 221 255
194 221 255
194 221 255
194 221 255
194 221 255
194 221 255
194 221 255
194 221 255
194 221 255
194 221 255
194 221 255
194 221 255
194 221 255
194 221 255
194 221 255
194 221 255
194 221 255
194 221 255
194 221 255
194 221 255
194 221 255
194 221 255
194 221 255
194 221 255
194 221 255
194 221 255
194 221 255
194 221 255
194 221 255
194 221 255
194 221 255
194 221 255
194 221 255
194 221 255
194 221 255
194 221 255
194 221 255
194 221 255
194 221 255
194 221 255
195 221 255
195 221 255
195 221 255
195 221 255
195 221 255
195 221 255
195 221 255
195 221 255
195 221 255
195 221 255
195 221 255
195 221 255
195 221 255
195 221 255
195 221 255
195 221 255
195 221 255
195 221 255
195 221 255
195 221 255
195 221 255
195 221 255
195 221 255
196 221 255
196 222 255
196 222 255
196 222 255
196 222 255
196 222 255
196 222 255
196 222 255
196 222 255
196 222 255
196 222 255
196 222 255
196 222 255
196 222 255
196 222 255
196 222 255
196 222 255
197 222 255
197 222 255
197 222 255
197 222 255
197 222 255
197 222 255
197 222 255
197 222 255
197 222 255
197 222 255
197 222 255
197 222 255
197 222 255
197 222 255
197 223 255
198 223 255
198 223 255
198 223 255
198 223 255
198 223 255
198 223 255
198 223 255
198 223 255
198 223 255
198 223 255
198 223 255
198 223 255
198 223 255
198 223 255
199 223 255
199 223 255
199 223 255
199 223 255
199 223 255
199 223 255
199 223 255
199 223 255
199 223 255
199 223 255
199 223 255
199 223 255
199 224 255
199 224 255
200 224 255
200 224 255
200 224 255
200 224 255
200 224 255
200 224 255
200 224 255
200 224 255
200 224 255
200 224 255
200 224 255
200 224 255
200 224 255
200 224 255
200 224 255
201 224 255
201 224 255
201 224 255
201 224 255
201 224 255
201 224 255
201 224 255
201 224 255
201 224 255
201 224 255
201 225 255
201 225 255
201 225 255
201 225 255
201 225 255
202 225 255
202 225 255
202 225 255
202 225 255
202 225 255
202 225 255
202 225 255
202 225 255
202 225 255
202 225 255
202 225 255
202 225 255
202 225 255
202 225 255
202 225 255
203 225 255
203 225 255
203 225 255
203 225 255
203 225 255
203 225 255
203 225 255
203 225 255
203 225 255
203 226 255
203 226 255
203 226 255
203 226 255
203 226 255
203 226 255
203 226 255
203 226 255
204 226 255
204 226 255
204 226 255
204 226 255
204 226 255
204 226 255
204 226 255
204 226 255
204 226 255
204 226 255
204 226 255
204 226 255
204 226 255
204 226 255
204 226 255
204 226 255
204 226 255
205 226 255
205 226 255
205 226 255
205 226 255
205 226 255
205 226 255
205 226 255
205 226 255
205 227 255
205 227 255
205 226 255
205 226 255
205 226 255
205 226 255
205 226 255
205 226 255
205 226 255
204 226 255
204 226 255
204 226 255
204 226 255
204 226 255
204 226 255
204 226 255
204 226 255
204 226 255
204 226 255
204 226 255
204 226 255
204 226 255
204 226 255
204 226 255
204 226 255
204 226 255
204 226 255
203 226 255
203 226 255
203 226 255
203 226 255
203 226 255
203 226 255
203 226 255
203 225 255
203 225 255
203 225 255
203 225 255
203 225 255
203 225 255
203 225 255
203 225 255
203 225 255
202 225 255
202 225 255
202 225 255
202 225 255
202 225 255
202 225 255
202 225 255
202 225 255
202 225 255
202 225 255
202 225 255
202 225 255
202 225 255
202 225 255
202 225 255
202 225 255
201 225 255
201 225 255
201 225 255
201 225 255
201 224 255
201 224 255
201 224 255
201 224 255
201 224 255
201 224 255
201 224 255
201 224 255
201 224 255
201 224 255
200 224 255
200 224 255
200 224 255
200 224 255
200 224 255
200 224 255
200 224 255
200 224 255
200 224 255
200 224 255
200 224 255
200 224 255
200 224 255
200 224 255
200 224 255
199 224 255
199 224 255
199 223 255
199 223 255
199 223 255
199 223 255
199 223 255
199 223 255
199 223 255
199 223 255
199 223 255
199 223 255
199 223 255
199 223 255
198 223 255
198 223 255
198 223 255
198 223 255
198 223 255
198 223 255
198 223 255
198 223 255
198 223 255
198 223 255
198 223 255
198 223 255
198 223 255
198 223 255
197 223 255
197 222 255
197 222 255
197 222 255
197 222 255
197 222 255
197 222 255
197 222 255
197 222 255
197 222 255
197 222 255
197 222 255
197 222 255
197 222 255
197 222 255
197 222 255
196 222 255
196 222 255
196 222 255
196 222 255
196 222 255
196 222 255
196 222 255
196 222 255
196 222 255
196 222 255
196 222 255
196 222 255
196 222 255
196 222 255
196 222 255
196 221 255
196 221 255
195 221 255
195 221 255
195 221 255
195 221 255
195 221 255
195 221 255
195 221 255
195 221 255
195 221 255
195 221 255
195 221 255
195 221 255
195 221 255
195 221 255
195 221 255
195 221 255
195 221 255
195 221 255
195 221 255
195 221 255
195 221 255
195 221 255
195 221 255
195 221 255
194 221 255
194 221 255
194 221 255
194 221 255
194 221 255
194 221 255
194 221 255
194 221 255
194 221 255
194 221 255
194 221 255
194 221 255
194 221 255
194 221 255
194 221 255
194 221 255
194 221 255
194 221 255
194 221 255
194 221 255
194 221 255
194 221 255
194 221 255
194 221 255
194 221 255
194 221 255
194 221 255
194 221 255
194 221 255
194 221 255
194 221 255
194 221 255
194 221 255
194 221 255
194 221 255
194 221 255
194 221 255
194 221 255
194 221 255
194 221 255
194 221 255
194 221 255
194 221 255
194 221 255
194 221 255
194 221 255
194 221 255
194 221 255
194 221 255
194 221 255
194 221 255
194 221 255
194 221 255
195 221 255
195 221 255
195 221 255
195 221 255
195 221 255
195 221 255
195 221 255
195 221 255
195 221 255
195 221 255
195 221 255
195 221 255
195 221 255
195 221 255
195 221 255
195 221 255
195 221 255
195 221 255
195 221 255
195 221 255
195 221 255
195 221 255
195 221 255
195 221 255
196 221 255
196 222 255
196 222 255
196 222 255
196 222 255
196 222 255
196 222 255
196 222 255
196 222 255
196 222 255
196 222 255
196 222 255
196 222 255
196 222 255
196 222 255
196 222 255
196 222 255
197 222 255
197 222 255
197 222 255
197 222 255
197 222 255
197 222 255
197 222 255
197 222 255
197 222 255
197 222 255
197 222 255
197 222 255
197 222 255
197 222 255
197 222 255
197 223 255
198 223 255
198 223 255
198 223 255
198 223 255
198 223 255
198 223 255
198 223 255
198 223 255
198 223 255
198 223 255
198 223 255
198 223 255
198 223 255
198 223 255
199 223 255
199 223 255
199 223 255
199 223 255
199 223 255
199 223 255
199 223 255
199 223 255
199 223 255
199 223 255
199 223 255
199 223 255
199 224 255
199 224 255
200 224 255
200 224 255
200 224 255
200 224 255
200 224 255
200 224 255
200 224 255
200 224 255
200 224 255
200 224 255
200 224 255
200 224 255
200 224 255
200 224 255
200 224 255
201 224 255
201 224 255
201 224 255
201 224 255
201 224 255
201 224 255
201 224 255
201 224 255
201 224 255
201 224 255
201 225 255
201 225 255
201 225 255
201 225 255
202 225 255
202 225 255
202 225 255
202 225 255
202 225 255
202 225 255
202 225 255
202 225 255
202 225 255
202 225 255
202 225 255
202 225 255
202 225 255
202 225 255
202 225 255
202 225 255
203 225 255
203 225 255
203 225 255
203 225 255
203 225 255
203 225 255
203 225 255
203 225 255
203 225 255
203 226 255
203 226 255
203 226 255
203 226 255
203 226 255
203 226 255
203 226 255
204 226 255
204 226 255
204 226 255
204 226 255
204 226 255
204 226 255
204 226 255
204 226 255
204 226 255
204 226 255
204 226 255
204 226 255
204 226 255
204 226 255
204 226 255
204 226 255
204 226 255
204 226 255
205 226 255
205 226 255
205 226 255
205 226 255
205 226 255
205 226 255
205 226 255
205 227 255
205 227 255
205 227 255
205 227 255
205 227 255
205 227 255
205 227 255
205 226 255
205 226 255
205 226 255
205 226 255
205 226 255
205 226 255
205 226 255
205 226 255
204 226 255
204 226 255
204 226 255
204 226 255
204 226 255
204 226 255
204 226 255
204 226 255
204 226 255
204 226 255
204 226 255
204 226 255
204 226 255
204 226 255
204 226 255
204 226 255
204 226 255
203 226 255
203 226 255
203 226 255
203 226 255
203 226 255
203 226 255
203 226 255
203 225 255
203 225 255
203 225 255
203 225 255
203 225 255
203 225 255
203 225 255
203 225 255
203 225 255
202 225 255
202 225 255
202 225 255
202 225 255
202 225 255
202 225 255
202 225 255
202 225 255
202 225 255
202 225 255
202 225 255
202 225 255
202 225 255
202 225 255
202 225 255
202 225 255
201 225 255
201 225 255
201 225 255
201 225 255
201 224 255
201 224 255
201 224 255
201 224 255
201 224 255
201 224 255
201 224 255
201 224 255
201 224 255
201 224 255
200 224 255
200 224 255
200 224 255
200 224 255
200 224 255
200 224 255
200 224 255
200 224 255
200 224 255
200 224 255
200 224 255
200 224 255
200 224 255
200 224 255
200 224 255
199 224 255
199 224 255
199 223 255
199 223 255
199 223 255
199 223 255
199 223 255
199 223 255
199 223 255
199 223 255
199 223 255
199 223 255
199 223 255
199 223 255
198 223 255
198 223 255
198 223 255
198 223 255
198 223 255
198 223 255
198 223 255
198 223 255
198 223 255
198 223 255
198 223 255
198 223 255
198 223 255
198 223 255
198 223 255
197 222 255
197 222 255
197 222 255
197 222 255
197 222 255
197 222 255
197 222 255
197 222 255
197 222 255
197 222 255
197 222 255
197 222 255
197 222 255
197 222 255
197 222 255
196 222 255
196 222 255
196 222 255
196 222 255
196 222 255
196 222 255
196 222 255
196 222 255
196 222 255
196 222 255
196 222 255
196 222 255
196 222 255
196 222 255
196 222 255
196 222 255
196 221 255
196 221 255
195 221 255
195 221 255
195 221 255
195 221 255
195 221 255
195 221 255
195 221 255
195 221 255
195 221 255
195 221 255
195 221 255
195 221 255
195 221 255
195 221 255
195 221 255
195 221 255
195 221 255
195 221 255
195 221 255
195 221 255
195 221 255
195 221 255
195 221 255
195 221 255
195 221 255
195 221 255
194 221 255
194 221 255
194 221 255
194 221 255
194 221 255
194 221 255
194 221 255
194 221 255
194 221 255
194 221 255
194 221 255
194 221 255
194 221 255
194 221 255
194 221 255
194 221 255
194 221 255
194 221 255
194 221 255
194 221 255
194 221 255
194 221 255
194 221 255
194 221 255
194 221 255
194 221 255
194 221 255
194 221 255
194 221 255
194 221 255
194 221 255
194 221 255
194 221 255
194 221 255
194 221 255
194 221 255
194 221 255
194 221 255
194 221 255
194 221 255
194 221 255
194 221 255
194 221 255
195 221 255
195 221 255
195 221 255
195 221 255
195 221 255
195 221 255
195 221 255
195 221 255
195 221 255
195 221 255
195 221 255
195 221 255
195 221 255
195 221 255
195 221 255
195 221 255
195 221 255
195 221 255
195 221 255
195 221 255
195 221 255
195 221 255
195 221 255
195 221 255
195 221 255
195 221 255
196 221 255
196 221 255
196 222 255
196 222 255
196 222 255
196 222 255
196 222 255
196 222 255
196 222 255
196 222 255
196 222 255
196 222 255
196 222 255
196 222 255
196 222 255
196 222 255
196 222 255
196 222 255
197 222 255
197 222 255
197 222 255
197 222 255
197 222 255
197 222 255
197 222 255
197 222 255
197 222 255
197 222 255
197 222 255
197 222 255
197 222 255
197 222 255
197 222 255
198 223 255
198 223 255
198 223 255
198 223 255
198 223 255
198 223 255
198 223 255
198 223 255
198 223 255
198 223 255
198 223 255
198 223 255
198 223 255
198 223 255
198 223 255
199 223 255
199 223 255
199 223 255
199 223 255
199 223 255
199 223 255
199 223 255
199 223 255
199 223 255
199 223 255
199 223 255
199 223 255
199 224 255
199 224 255
200 224 255
200 224 255
200 224 255
200 224 255
200 224 255
200 224 255
200 224 255
200 224 255
200 224 255
200 224 255
200 224 255
200 224 255
200 224 255
200 224 255
200 224 255
201 224 255
201 224 255
201 224 255
201 224 255
201 224 255
201 224 255
201 224 255
201 224 255
201 224 255
201 224 255
201 225 255
201 225 255
201 225 255
201 225 255
202 225 255
202 225 255
202 225 255
202 225 255
202 225 255
202 225 255
202 225 255
202 225 255
202 225 255
202 225 255
202 225 255
202 225 255
202 225 255
202 225 255
202 225 255
202 225 255
203 225 255
203 225 255
203 225 255
203 225 255
203 225 255
203 225 255
203 225 255
203 225 255
203 225 255
203 226 255
203 226 255
203 226 255
203 226 255
203 226 255
203 226 255
203 226 255
204 226 255
204 226 255
204 226 255
204 226 255
204 226 255
204 226 255
204 226 255
204 226 255
204 226 255
204 226 255
204 226 255
204 226 255
204 226 255
204 226 255
204 226 255
204 226 255
204 226 255
205 226 255
205 226 255
205 226 255
205 226 255
205 226 255
205 226 255
205 226 255
205 226 255
205 227 255
205 227 255
205 227 255
205 227 255
205 227 255
205 227 255
205 227 255
205 227 255
205 227 255
205 227 255
205 227 255
205 227 255
205 226 255
205 226 255
205 226 255
205 226 255
205 226 255
205 226 255
205 226 255
204 226 255
204 226 255
204 226 255
204 226 255
204 226 255
204 226 255
204 226 255
204 226 255
204 226 255
204 226 255
204 226 255
204 226 255
204 226 255
204 226 255
204 226 255
204 226 255
204 226 255
203 226 255
203 226 255
203 226 255
203 226 255
203 226 255
203 226 255
203 226 255
203 226 255
203 225 255
203 225 255
203 225 255
203 225 255
203 225 255
203 225 255
203 225 255
203 225 255
203 225 255
202 225 255
202 225 255
202 225 255
202 225 255
202 225 255
202 225 255
202 225 255
202 225 255
202 225 255
202 225 255
202 225 255
202 225 255
202 225 255
202 225 255
202 225 255
201 225 255
201 225 255
201 225 255
201 225 255
201 224 255
201 224 255
201 224 255
201 224 255
201 224 255
201 224 255
201 224 255
201 224 255
201 224 255
201 224 255
201 224 255
200 224 255
200 224 255
200 224 255
200 224 255
200 224 255
200 224 255
200 224 255
200 224 255
200 224 255
200 224 255
200 224 255
200 224 255
200 224 255
200 224 255
199 224 255
199 224 255
199 223 255
199 223 255
199 223 255
199 223 255
199 223 255
199 223 255
199 223 255
199 223 255
199 223 255
199 223 255
199 223 255
199 223 255
198 223 255
198 223 255
198 223 255
198 223 255
198 223 255
198 223 255
198 223 255
198 223 255
198 223 255
198 223 255
198 223 255
198 223 255
198 223 255
198 223 255
198 223 255
197 223 255
197 222 255
197 222 255
197 222 255
197 222 255
197 222 255
197 222 255
197 222 255
197 222 255
197 222 255
197 222 255
197 222 255
197 222 255
197 222 255
197 222 255
197 222 255
196 222 255
196 222 255
196 222 255
196 222 255
196 222 255
196 222 255
196 222 255
196 222 255
196 222 255
196 222 255
196 222 255
196 222 255
196 222 255
196 222 255
196 222 255
196 222 255
196 221 255
196 221 255
195 221 255
195 221 255
195 221 255
195 221 255
195 221 255
195 221 255
195 221 255
195 221 255
195 221 255
195 221 255
195 221 255
195 221 255
195 221 255
195 221 255
195 221 255
195 221 255
195 221 255
195 221 255
195 221 255
195 221 255
195 221 255
195 221 255
195 221 255
195 221 255
195 221 255
195 221 255
195 221 255
195 221 255
195 221 255
195 221 255
194 221 255
194 221 255
194 221 255
194 221 255
194 221 255
194 221 255
194 221 255
194 221 255
194 221 255
194 221 255
194 221 255
194 221 255
194 221 255
194 221 255
194 221 255
194 221 255
194 221 255
194 221 255
194 221 255
194 221 255
194 221 255
194 221 255
194 221 255
194 221 255
194 221 255
194 221 255
194 221 255
194 221 255
194 221 255
195 221 255
195 221 255
195 221 255
195 221 255
195 221 255
195 221 255
195 221 255
195 221 255
195 221 255
195 221 255
195 221 255
195 221 255
195 221 255
195 221 255
195 221 255
195 221 255
195 221 255
195 221 255
195 221 255
195 221 255
195 221 255
195 221 255
195 221 255
195 221 255
195 221 255
195 221 255
195 221 255
195 221 255
195 221 255
195 221 255
196 221 255
196 221 255
196 222 255
196 222 255
196 222 255
196 222 255
196 222 255
196 222 255
196 222 255
196 222 255
196 222 255
196 222 255
196 222 255
196 222 255
196 222 255
196 222 255
196 222 255
196 222 255
197 222 255
197 222 255
197 222 255
197 222 255
197 222 255
197 222 255
197 222 255
197 222 255
197 222 255
197 222 255
197 222 255
197 222 255
197 222 255
197 222 255
197 222 255
197 222 255
198 223 255
198 223 255
198 223 255
198 223 255
198 223 255
198 223 255
198 223 255
198 223 255
198 223 255
198 223 255
198 223 255
198 223 255
198 223 255
198 223 255
198 223 255
199 223 255
199 223 255
199 223 255
199 223 255
199 223 255
199 223 255
199 223 255
199 223 255
199 223 255
199 223 255
199 223 255
199 223 255
199 224 255
199 224 255
200 224 255
200 224 255
200 224 255
200 224 255
200 224 255
200 224 255
200 224 255
200 224 255
200 224 255
200 224 255
200 224 255
200 224 255
200 224 255
200 224 255
200 224 255
201 224 255
201 224 255
201 224 255
201 224 255
201 224 255
201 224 255
201 224 255
201 224 255
201 224 255
201 224 255
201 225 255
201 225 255
201 225 255
201 225 255
202 225 255
202 225 255
202 225 255
202 225 255
202 225 255
202 225 255
202 225 255
202 225 255
202 225 255
202 225 255
202 225 255
202 225 255
202 225 255
202 225 255
202 225 255
203 225 255
203 225 255
203 225 255
203 225 255
203 225 255
203 225 255
203 225 255
203 225 255
203 225 255
203 226 255
203 226 255
203 226 255
203 226 255
203 226 255
203 226 255
203 226 255
203 226 255
204 226 255
204 226 255
204 226 255
204 226 255
204 226 255
204 226 255
204 226 255
204 226 255
204 226 255
204 226 255
204 226 255
204 226 255
204 226 255
204 226 255
204 226 255
204 226 255
204 226 255
205 226 255
205 226 255
205 226 255
205 226 255
205 226 255
205 226 255
205 226 255
205 227 255
205 227 255
205 227 255
205 227 255
205 227 255
205 227 255
205 227 255
205 227 255
205 227 255
205 227 255
205 227 255
205 227 255
205 227 255
205 227 255
205 227 255
205 227 255
205 227 255
205 226 255
205 226 255
205 226 255
205 226 255
205 226 255
205 226 255
205 226 255
205 226 255
204 226 255
204 226 255
204 226 255
204 226 255
204 226 255
204 226 255
204 226 255
204 226 255
204 226 255
204 226 255
204 226 255
204 226 255
204 226 255
204 226 255
204 226 255
204 226 255
204 226 255
203 226 255
203 226 255
203 226 255
203 226 255
203 226 255
203 226 255
203 226 255
203 225 255
203 225 255
203 225 255
203 225 255
203 225 255
203 225 255
203 225 255
203 225 255
203 225 255
202 225 255
202 225 255
202 225 255
202 225 255
202 225 255
202 225 255
202 225 255
202 225 255
202 225 255
202 225 255
202 225 255
202 225 255
202 225 255
202 225 255
202 225 255
201 225 255
201 225 255
201 225 255
201 225 255
201 224 255
201 224 255
201 224 255
201 224 255
201 224 255
201 224 255
201 224 255
201 224 255
201 224 255
201 224 255
201 224 255
200 224 255
200 224 255
200 224 255
200 224 255
200 224 255
200 224 255
200 224 255
200 224 255
200 224 255
200 224 255
200 224 255
200 224 255
200 224 255
200 224 255
199 224 255
199 224 255
199 223 255
199 223 255
199 223 255
199 223 255
199 223 255
199 223 255
199 223 255
199 223 255
199 223 255
199 223 255
199 223 255
199 223 255
198 223 255
198 223 255
198 223 255
198 223 255
198 223 255
198 223 255
198 223 255
198 223 255
198 223 255
198 223 255
198 223 255
198 223 255
198 223 255
198 223 255
198 223 255
197 223 255
197 222 255
197 222 255
197 222 255
197 222 255
197 222 255
197 222 255
197 222 255
197 222 255
197 222 255
197 222 255
197 222 255
197 222 255
197 222 255
197 222 255
197 222 255
196 222 255
196 222 255
196 222 255
196 222 255
196 222 255
196 222 255
196 222 255
196 222 255
196 222 255
196 222 255
196 222 255
196 222 255
196 222 255
196 222 255
196 222 255
196 222 255
196 222 255
196 221 255
196 221 255
195 221 255
195 221 255
195 221 255
195 221 255
195 221 255
195 221 255
195 221 255
195 221 255
195 221 255
195 221 255
195 221 255
195 221 255
195 221 255
195 221 255
195 221 255
195 221 255
195 221 255
195 221 255
195 221 255
195 221 255
195 221 255
195 221 255
195 221 255
195 221 255
195 221 255
195 221 255
195 221 255
195 221 255
195 221 255
195 221 255
195 221 255
195 221 255
195 221 255
195 221 255
195 221 255
195 221 255
195 221 255
195 221 255
195 221 255
195 221 255
195 221 255
195 221 255
195 221 255
195 221 255
195 221 255
195 221 255
195 221 255
195 221 255
195 221 255
195 221 255
195 221 255
195 221 255
195 221 255
195 221 255
195 221 255
195 221 255
195 221 255
195 221 255
195 221 255
195 221 255
195 221 255
195 221 255
195 221 255
195 221 255
195 221 255
195 221 255
195 221 255
195 221 255
195 221 255
195 221 255
195 221 255
195 221 255
195 221 255
195 221 255
195 221 255
195 221 255
195 221 255
195 221 255
195 221 255
195 221 255
195 221 255
195 221 255
195 221 255
196 221 255
196 222 255
196 222 255
196 222 255
196 222 255
196 222 255
196 222 255
196 222 255
196 222 255
196 222 255
196 222 255
196 222 255
196 222 255
196 222 255
196 222 255
196 222 255
196 222 255
196 222 255
196 222 255
197 222 255
197 222 255
197 222 255
197 222 255
197 222 255
197 222 255
197 222 255
197 222 255
197 222 255
197 222 255
197 222 255
197 222 255
197 222 255
197 222 255
197 222 255
197 223 255
198 223 255
198 223 255
198 223 255
198 223 255
198 223 255
198 223 255
198 223 255
198 223 255
198 223 255
198 223 255
198 223 255
198 223 255
198 223 255
198 223 255
198 223 255
199 223 255
199 223 255
199 223 255
199 223 255
199 223 255
199 223 255
199 223 255
199 223 255
199 223 255
199 223 255
199 223 255
199 223 255
199 224 255
199 224 255
200 224 255
200 224 255
200 224 255
200 224 255
200 224 255
200 224 255
200 224 255
200 224 255
200 224 255
200 224 255
200 224 255
200 224 255
200 224 255
200 224 255
201 224 255
201 224 255
201 224 255
201 224 255
201 224 255
201 224 255
201 224 255
201 224 255
201 224 255
201 224 255
201 224 255
201 225 255
201 225 255
201 225 255
201 225 255
202 225 255
202 225 255
202 225 255
202 225 255
202 225 255
202 225 255
202 225 255
202 225 255
202 225 255
202 225 255
202 225 255
202 225 255
202 225 255
202 225 255
202 225 255
203 225 255
203 225 255
203 225 255
203 225 255
203 225 255
203 225 255
203 225 255
203 225 255
203 225 255
203 226 255
203 226 255
203 226 255
203 226 255
203 226 255
203 226 255
203 226 255
204 226 255
204 226 255
204 226 255
204 226 255
204 226 255
204 226 255
204 226 255
204 226 255
204 226 255
204 226 255
204 226 255
204 226 255
204 226 255
204 226 255
204 226 255
204 226 255
204 226 255
204 226 255
205 226 255
205 226 255
205 226 255
205 226 255
205 226 255
205 226 255
205 226 255
205 227 255
205 227 255
205 227 255
205 227 255
205 227 255
205 227 255
205 227 255
205 227 255
205 227 255
205 227 255
205 227 255
205 227 255
205 227 255
205 227 255
205 227 255
205 227 255
205 227 255
205 227 255
205 227 255
205 227 255
205 227 255
205 226 255
205 226 255
205 226 255
205 226 255
205 226 255
205 226 255
205 226 255
205 226 255
204 226 255
204 226 255
204 226 255
204 226 255
204 226 255
204 226 255
204 226 255
204 226 255
204 226 255
204 226 255
204 226 255
204 226 255
204 226 255
204 226 255
204 226 255
204 226 255
204 226 255
203 226 255
203 226 255
203 226 255
203 226 255
203 226 255
203 226 255
203 226 255
203 225 255
203 225 255
203 225 255
203 225 255
203 225 255
203 225 255
203 225 255
203 225 255
203 225 255
202 225 255
202 225 255
202 225 255
202 225 255
202 225 255
202 225 255
202 225 255
202 225 255
202 225 255
202 225 255
202 225 255
202 225 255
202 225 255
202 225 255
202 225 255
201 225 255
201 225 255
201 225 255
201 225 255
201 225 255
201 224 255
201 224 255
201 224 255
201 224 255
201 224 255
201 224 255
201 224 255
201 224 255
201 224 255
201 224 255
200 224 255
200 224 255
200 224 255
200 224 255
200 224 255
200 224 255
200 224 255
200 224 255
200 224 255
200 224 255
200 224 255
200 224 255
200 224 255
200 224 255
199 224 255
199 224 255
199 223 255
199 223 255
199 223 255
199 223 255
199 223 255
199 223 255
199 223 255
199 223 255
199 223 255
199 223 255
199 223 255
199 223 255
199 223 255
198 223 255
198 223 255
198 223 255
198 223 255
198 223 255
198 223 255
198 223 255
198 223 255
198 223 255
198 223 255
198 223 255
198 223 255
198 223 255
198 223 255
198 223 255
197 222 255
197 222 255
197 222 255
197 222 255
197 222 255
197 222 255
197 222 255
197 222 255
197 222 255
197 222 255
197 222 255
197 222 255
197 222 255
197 222 255
197 222 255
197 222 255
196 222 255
196 222 255
196 222 255
196 222 255
196 222 255
196 222 255
196 222 255
196 222 255
196 222 255
196 222 255
196 222 255
196 222 255
196 222 255
196 222 255
196 222 255
196 222 255
196 222 255
196 222 255
196 221 255
196 221 255
195 221 255
195 221 255
195 221 255
195 221 255
195 221 255
195 221 255
195 221 255
195 221 255
195 221 255
195 221 255
195 221 255
195 221 255
195 221 255
195 221 255
195 221 255
195 221 255
195 221 255
195 221 255
195 221 255
195 221 255
195 221 255
195 221 255
195 221 255
195 221 255
195 221 255
195 221 255
195 221 255
195 221 255
195 221 255
195 221 255
195 221 255
195 221 255
195 221 255
195 221 255
195 221 255
195 221 255
195 221 255
195 221 255
195 221 255
195 221 255
195 221 255
195 221 255
195 221 255
195 221 255
195 221 255
195 221 255
195 221 255
195 221 255
195 221 255
195 221 255
195 221 255
195 221 255
195 221 255
195 221 255
195 221 255
195 221 255
195 221 255
195 221 255
195 221 255
195 221 255
195 221 255
195 221 255
195 221 255
195 221 255
195 221 255
195 221 255
195 221 255
195 221 255
195 221 255
195 221 255
195 221 255
195 221 255
195 221 255
195 221 255
195 221 255
196 221 255
196 221 255
196 222 255
196 222 255
196 222 255
196 222 255
196 222 255
196 222 255
196 222 255
196 222 255
196 222 255
196 222 255
196 222 255
196 222 255
196 222 255
196 222 255
196 222 255
196 222 255
196 222 255
196 222 255
197 222 255
197 222 255
197 222 255
197 222 255
197 222 255
197 222 255
197 222 255
197 222 255
197 222 255
197 222 255
197 222 255
197 222 255
197 222 255
197 222 255
197 222 255
197 222 255
198 223 255
198 223 255
198 223 255
198 223 255
198 223 255
198 223 255
198 223 255
198 223 255
198 223 255
198 223 255
198 223 255
198 223 255
198 223 255
198 223 255
198 223 255
199 223 255
199 223 255
199 223 255
199 223 255
199 223 255
199 223 255
199 223 255
199 223 255
199 223 255
199 223 255
199 223 255
199 223 255
199 224 255
199 224 255
199 224 255
200 224 255
200 224 255
200 224 255
200 224 255
200 224 255
200 224 255
200 224 255
200 224 255
200 224 255
200 224 255
200 224 255
200 224 255
200 224 255
200 224 255
201 224 255
201 224 255
201 224 255
201 224 255
201 224 255
201 224 255
201 224 255
201 224 255
201 224 255
201 224 255
201 225 255
201 225 255
201 225 255
201 225 255
201 225 255
202 225 255
202 225 255
202 225 255
202 225 255
202 225 255
202 225 255
202 225 255
202 225 255
202 225 255
202 225 255
202 225 255
202 225 255
202 225 255
202 225 255
202 225 255
203 225 255
203 225 255
203 225 255
203 225 255
203 225 255
203 225 255
203 225 255
203 225 255
203 225 255
203 226 255
203 226 255
203 226 255
203 226 255
203 226 255
203 226 255
203 226 255
204 226 255
204 226 255
204 226 255
204 226 255
204 226 255
204 226 255
204 226 255
204 226 255
204 226 255
204 226 255
204 226 255
204 226 255
204 226 255
204 226 255
204 226 255
204 226 255
204 226 255
205 226 255
205 226 255
205 226 255
205 226 255
205 226 255
205 226 255
205 226 255
205 227 255
205 227 255
205 227 255
205 227 255
205 227 255
205 227 255
205 227 255
205 227 255
205 227 255
205 227 255
205 227 255
205 227 255
206 227 255
206 227 255
206 227 255
206 227 255
205 227 255
205 227 255
205 227 255
205 227 255
205 227 255
205 227 255
205 227 255
205 227 255
205 227 255
205 227 255
205 227 255
205 226 255
205 226 255
205 226 255
205 226 255
205 226 255
205 226 255
205 226 255
204 226 255
204 226 255
204 226 255
204 226 255
204 226 255
204 226 255
204 226 255
204 226 255
204 226 255
204 226 255
204 226 255
204 226 255
204 226 255
204 226 255
204 226 255
204 226 255
204 226 255
203 226 255
203 226 255
203 226 255
203 226 255
203 226 255
203 226 255
203 226 255
203 226 255
203 225 255
203 225 255
203 225 255
203 225 255
203 225 255
203 225 255
203 225 255
203 225 255
202 225 255
202 225 255
202 225 255
202 225 255
202 225 255
202 225 255
202 225 255
202 225 255
202 225 255
202 225 255
202 225 255
202 225 255
202 225 255
202 225 255
202 225 255
201 225 255
201 225 255
201 225 255
201 225 255
201 225 255
201 224 255
201 224 255
201 224 255
201 224 255
201 224 255
201 224 255
201 224 255
201 224 255
201 224 255
201 224 255
200 224 255
200 224 255
200 224 255
200 224 255
200 224 255
200 224 255
200 224 255
200 224 255
200 224 255
200 224 255
200 224 255
200 224 255
200 224 255
200 224 255
200 224 255
199 224 255
199 224 255
199 223 255
199 223 255
199 223 255
199 223 255
199 223 255
199 223 255
199 223 255
199 223 255
199 223 255
199 223 255
199 223 255
199 223 255
198 223 255
198 223 255
198 223 255
198 223 255
198 223 255
198 223 255
198 223 255
198 223 255
198 223 255
198 223 255
198 223 255
198 223 255
198 223 255
198 223 255
198 223 255
197 222 255
197 222 255
197 222 255
197 222 255
197 222 255
197 222 255
197 222 255
197 222 255
197 222 255
197 222 255
197 222 255
197 222 255
197 222 255
197 222 255
197 222 255
197 222 255
197 222 255
196 222 255
196 222 255
196 222 255
196 222 255
196 222 255
196 222 255
196 222 255
196 222 255
196 222 255
196 222 255
196 222 255
196 222 255
196 222 255
196 222 255
196 222 255
196 222 255
196 222 255
196 222 255
196 221 255
196 221 255
196 221 255
195 221 255
195 221 255
195 221 255
195 221 255
195 221 255
195 221 255
195 221 255
195 221 255
195 221 255
195 221 255
195 221 255
195 221 255
195 221 255
195 221 255
195 221 255
195 221 255
195 221 255
195 221 255
195 221 255
195 221 255
195 221 255
195 221 255
195 221 255
195 221 255
195 221 255
195 221 255
195 221 255
195 221 255
195 221 255
195 221 255
195 221 255
195 221 255
195 221 255
195 221 255
195 221 255
195 221 255
195 221 255
195 221 255
195 221 255
195 221 255
195 221 255
195 221 255
195 221 255
195 221 255
195 221 255
195 221 255
195 221 255
195 221 255
195 221 255
195 221 255
195 221 255
195 221 255
195 221 255
195 221 255
195 221 255
195 221 255
195 221 255
195 221 255
195 221 255
195 221 255
195 221 255
195 221 255
195 221 255
195 221 255
195 221 255
195 221 255
195 221 255
195 221 255
196 221 255
196 221 255
196 222 255
196 222 255
196 222 255
196 222 255
196 222 255
196 222 255
196 222 255
196 222 255
196 222 255
196 222 255
196 222 255
196 222 255
196 222 255
196 222 255
196 222 255
196 222 255
196 222 255
196 222 255
197 222 255
197 222 255
197 222 255
197 222 255
197 222 255
197 222 255
197 222 255
197 222 255
197 222 255
197 222 255
197 222 255
197 222 255
197 222 255
197 222 255
197 222 255
197 222 255
197 223 255
198 223 255
198 223 255
198 223 255
198 223 255
198 223 255
198 223 255
198 223 255
198 223 255
198 223 255
198 223 255
198 223 255
198 223 255
198 223 255
198 223 255
198 223 255
199 223 255
199 223 255
199 223 255
199 223 255
199 223 255
199 223 255
199 223 255
199 223 255
199 223 255
199 223 255
199 223 255
199 223 255
199 224 255
199 224 255
199 224 255
200 224 255
200 224 255
200 224 255
200 224 255
200 224 255
200 224 255
200 224 255
200 224 255
200 224 255
200 224 255
200 224 255
200 224 255
200 224 255
200 224 255
201 224 255
201 224 255
201 224 255
201 224 255
201 224 255
201 224 255
201 224 255
201 224 255
201 224 255
201 224 255
201 225 255
201 225 255
201 225 255
201 225 255
202 225 255
202 225 255
202 225 255
202 225 255
202 225 255
202 225 255
202 225 255
202 225 255
202 225 255
202 225 255
202 225 255
202 225 255
202 225 255
202 225 255
202 225 255
202 225 255
203 225 255
203 225 255
203 225 255
203 225 255
203 225 255
203 225 255
203 225 255
203 225 255
203 225 255
203 226 255
203 226 255
203 226 255
203 226 255
203 226 255
203 226 255
203 226 255
204 226 255
204 226 255
204 226 255
204 226 255
204 226 255
204 226 255
204 226 255
204 226 255
204 226 255
204 226 255
204 226 255
204 226 255
204 226 255
204 226 255
204 226 255
204 226 255
204 226 255
205 226 255
205 226 255
205 226 255
205 226 255
205 226 255
205 226 255
205 226 255
205 227 255
205 227 255
205 227 255
205 227 255
205 227 255
205 227 255
205 227 255
205 227 255
205 227 255
205 227 255
205 227 255
206 227 255
206 227 255
206 227 255
206 227 255
206 227 255
206 227 255
206 227 255
206 227 255
206 227 255
206 227 255
205 227 255
205 227 255
205 227 255
205 227 255
205 227 255
205 227 255
205 227 255
205 227 255
205 227 255
205 227 255
205 227 255
205 226 255
205 226 255
205 226 255
205 226 255
205 226 255
205 226 255
205 226 255
204 226 255
204 226 255
204 226 255
204 226 255
204 226 255
204 226 255
204 226 255
204 226 255
204 226 255
204 226 255
204 226 255
204 226 255
204 226 255
204 226 255
204 226 255
204 226 255
204 226 255
203 226 255
203 226 255
203 226 255
203 226 255
203 226 255
203 226 255
203 226 255
203 225 255
203 225 255
203 225 255
203 225 255
203 225 255
203 225 255
203 225 255
203 225 255
203 225 255
202 225 255
202 225 255
202 225 255
202 225 255
202 225 255
202 225 255
202 225 255
202 225 255
202 225 255
202 225 255
202 225 255
202 225 255
202 225 255
202 225 255
202 225 255
201 225 255
201 225 255
201 225 255
201 225 255
201 224 255
201 224 255
201 224 255
201 224 255
201 224 255
201 224 255
201 224 255
201 224 255
201 224 255
201 224 255
200 224 255
200 224 255
200 224 255
200 224 255
200 224 255
200 224 255
200 224 255
200 224 255
200 224 255
200 224 255
200 224 255
200 224 255
200 224 255
200 224 255
200 224 255
199 224 255
199 224 255
199 223 255
199 223 255
199 223 255
199 223 255
199 223 255
199 223 255
199 223 255
199 223 255
199 223 255
199 223 255
199 223 255
199 223 255
198 223 255
198 223 255
198 223 255
198 223 255
198 223 255
198 223 255
198 223 255
198 223 255
198 223 255
198 223 255
198 223 255
198 223 255
198 223 255
198 223 255
198 223 255
197 223 255
197 222 255
197 222 255
197 222 255
197 222 255
197 222 255
197 222 255
197 222 255
197 222 255
197 222 255
197 222 255
197 222 255
197 222 255
197 222 255
197 222 255
197 222 255
197 222 255
196 222 255
196 222 255
196 222 255
196 222 255
196 222 255
196 222 255
196 222 255
196 222 255
196 222 255
196 222 255
196 222 255
196 222 255
196 222 255
196 222 255
196 222 255
196 222 255
196 222 255
196 222 255
196 222 255
196 222 255
196 221 255
196 221 255
196 221 255
195 221 255
195 221 255
195 221 255
195 221 255
195 221 255
195 221 255
195 221 255
195 221 255
195 221 255
195 221 255
195 221 255
195 221 255
195 221 255
195 221 255
195 221 255
195 221 255
195 221 255
195 221 255
195 221 255
195 221 255
195 221 255
195 221 255
195 221 255
195 221 255
195 221 255
195 221 255
195 221 255
195 221 255
195 221 255
195 221 255
195 221 255
195 221 255
195 221 255
195 221 255
195 221 255
195 221 255
195 221 255
195 221 255
195 221 255
195 221 255
195 221 255
195 221 255
195 221 255
195 221 255
195 221 255
195 221 255
195 221 255
195 221 255
195 221 255
195 221 255
195 221 255
195 221 255
195 221 255
195 221 255
195 221 255
195 221 255
195 221 255
195 221 255
195 221 255
196 221 255
196 221 255
196 221 255
196 222 255
196 222 255
196 222 255
196 222 255
196 222 255
196 222 255
196 222 255
196 222 255
196 222 255
196 222 255
196 222 255
196 222 255
196 222 255
196 222 255
196 222 255
196 222 255
196 222 255
196 222 255
196 222 255
196 222 255
197 222 255
197 222 255
197 222 255
197 222 255
197 222 255
197 222 255
197 222 255
197 222 255
197 222 255
197 222 255
197 222 255
197 222 255
197 222 255
197 222 255
197 222 255
197 222 255
197 223 255
198 223 255
198 223 255
198 223 255
198 223 255
198 223 255
198 223 255
198 223 255
198 223 255
198 223 255
198 223 255
198 223 255
198 223 255
198 223 255
198 223 255
198 223 255
199 223 255
199 223 255
199 223 255
199 223 255
199 223 255
199 223 255
199 223 255
199 223 255
199 223 255
199 223 255
199 223 255
199 223 255
199 224 255
199 224 255
200 224 255
200 224 255
200 224 255
200 224 255
200 224 255
200 224 255
200 224 255
200 224 255
200 224 255
200 224 255
200 224 255
200 224 255
200 224 255
200 224 255
200 224 255
201 224 255
201 224 255
201 224 255
201 224 255
201 224 255
201 224 255
201 224 255
201 224 255
201 224 255
201 224 255
201 225 255
201 225 255
201 225 255
201 225 255
202 225 255
202 225 255
202 225 255
202 225 255
202 225 255
202 225 255
202 225 255
202 225 255
202 225 255
202 225 255
202 225 255
202 225 255
202 225 255
202 225 255
202 225 255
203 225 255
203 225 255
203 225 255
203 225 255
203 225 255
203 225 255
203 225 255
203 225 255
203 225 255
203 226 255
203 226 255
203 226 255
203 226 255
203 226 255
203 226 255
203 226 255
204 226 255
204 226 255
204 226 255
204 226 255
204 226 255
204 226 255
204 226 255
204 226 255
204 226 255
204 226 255
204 226 255
204 226 255
204 226 255
204 226 255
204 226 255
204 226 255
204 226 255
205 226 255
205 226 255
205 226 255
205 226 255
205 226 255
205 226 255
205 226 255
205 227 255
205 227 255
205 227 255
205 227 255
205 227 255
205 227 255
205 227 255
205 227 255
205 227 255
205 227 255
205 227 255
206 227 255
206 227 255
206 227 255
206 227 255
206 227 255
206 227 255
206 227 255
206 227 255
206 227 255
206 227 255
206 227 255
206 227 255
206 227 255
206 227 255
206 227 255
205 227 255
205 227 255
205 227 255
205 227 255
205 227 255
205 227 255
205 227 255
205 227 255
205 227 255
205 227 255
205 227 255
205 226 255
205 226 255
205 226 255
205 226 255
205 226 255
205 226 255
205 226 255
204 226 255
204 226 255
204 226 255
204 226 255
204 226 255
204 226 255
204 226 255
204 226 255
204 226 255
204 226 255
204 226 255
204 226 255
204 226 255
204 226 255
204 226 255
204 226 255
204 226 255
203 226 255
203 226 255
203 226 255
203 226 255
203 226 255
203 226 255
203 226 255
203 225 255
203 225 255
203 225 255
203 225 255
203 225 255
203 225 255
203 225 255
203 225 255
203 225 255
202 225 255
202 225 255
202 225 255
202 225 255
202 225 255
202 225 255
202 225 255
202 225 255
202 225 255
202 225 255
202 225 255
202 225 255
202 225 255
202 225 255
202 225 255
201 225 255
201 225 255
201 225 255
201 225 255
201 225 255
201 224 255
201 224 255
201 224 255
201 224 255
201 224 255
201 224 255
201 224 255
201 224 255
201 224 255
200 224 255
200 224 255
200 224 255
200 224 255
200 224 255
200 224 255
200 224 255
200 224 255
200 224 255
200 224 255
200 224 255
200 224 255
200 224 255
200 224 255
200 224 255
199 224 255
199 224 255
199 223 255
199 223 255
199 223 255
199 223 255
199 223 255
199 223 255
199 223 255
199 223 255
199 223 255
199 223 255
199 223 255
199 223 255
199 223 255
198 223 255
198 223 255
198 223 255
198 223 255
198 223 255
198 223 255
198 223 255
198 223 255
198 223 255
198 223 255
198 223 255
198 223 255
198 223 255
198 223 255
198 223 255
197 223 255
197 222 255
197 222 255
197 222 255
197 222 255
197 222 255
197 222 255
197 222 255
197 222 255
197 222 255
197 222 255
197 222 255
197 222 255
197 222 255
197 222 255
197 222 255
197 222 255
196 222 255
196 222 255
196 222 255
196 222 255
196 222 255
196 222 255
196 222 255
196 222 255
196 222 255
196 222 255
196 222 255
196 222 255
196 222 255
196 222 255
196 222 255
196 222 255
196 222 255
196 222 255
196 222 255
196 222 255
196 222 255
196 222 255
196 221 255
196 221 255
196 221 255
195 221 255
195 221 255
195 221 255
195 221 255
195 221 255
195 221 255
195 221 255
195 221 255
195 221 255
195 221 255
195 221 255
195 221 255
195 221 255
195 221 255
195 221 255
195 221 255
195 221 255
195 221 255
195 221 255
195 221 255
195 221 255
195 221 255
195 221 255
195 221 255
195 221 255
195 221 255
195 221 255
195 221 255
195 221 255
195 221 255
195 221 255
195 221 255
195 221 255
195 221 255
195 221 255
195 221 255
195 221 255
195 221 255
195 221 255
195 221 255
195 221 255
195 221 255
195 221 255
195 221 255
195 221 255
195 221 255
195 221 255
195 221 255
195 221 255
196 221 255
196 221 255
196 221 255
196 222 255
196 222 255
196 222 255
196 222 255
196 222 255
196 222 255
196 222 255
196 222 255
196 222 255
196 222 255
196 222 255
196 222 255
196 222 255
196 222 255
196 222 255
196 222 255
196 222 255
196 222 255
196 222 255
196 222 255
196 222 255
196 222 255
197 222 255
197 222 255
197 222 255
197 222 255
197 222 255
197 222 255
197 222 255
197 222 255
197 222 255
197 222 255
197 222 255
197 222 255
197 222 255
197 222 255
197 222 255
197 222 255
197 223 255
198 223 255
198 223 255
198 223 255
198 223 255
198 223 255
198 223 255
198 223 255
198 223 255
198 223 255
198 223 255
198 223 255
198 223 255
198 223 255
198 223 255
198 223 255
199 223 255
199 223 255
199 223 255
199 223 255
199 223 255
199 223 255
199 223 255
199 223 255
199 223 255
199 223 255
199 223 255
199 223 255
199 223 255
199 224 255
199 224 255
200 224 255
200 224 255
200 224 255
200 224 255
200 224 255
200 224 255
200 224 255
200 224 255
200 224 255
200 224 255
200 224 255
200 224 255
200 224 255
200 224 255
201 224 255
201 224 255
201 224 255
201 224 255
201 224 255
201 224 255
201 224 255
201 224 255
201 224 255
201 224 255
201 224 255
201 225 255
201 225 255
201 225 255
201 225 255
202 225 255
202 225 255
202 225 255
202 225 255
202 225 255
202 225 255
202 225 255
202 225 255
202 225 255
202 225 255
202 225 255
202 225 255
202 225 255
202 225 255
202 225 255
203 225 255
203 225 255
203 225 255
203 225 255
203 225 255
203 225 255
203 225 255
203 225 255
203 225 255
203 226 255
203 226 255
203 226 255
203 226 255
203 226 255
203 226 255
203 226 255
204 226 255
204 226 255
204 226 255
204 226 255
204 226 255
204 226 255
204 226 255
204 226 255
204 226 255
204 226 255
204 226 255
204 226 255
204 226 255
204 226 255
204 226 255
204 226 255
204 226 255
205 226 255
205 226 255
205 226 255
205 226 255
205 226 255
205 226 255
205 226 255
205 227 255
205 227 255
205 227 255
205 227 255
205 227 255
205 227 255
205 227 255
205 227 255
205 227 255
205 227 255
205 227 255
206 227 255
206 227 255
206 227 255
206 227 255
206 227 255
206 227 255
206 227 255
206 227 255
206 227 255
206 227 255
206 227 255
206 227 255
206 227 255
206 227 255
206 227 255
206 227 255
206 227 255
206 227 255
206 227 255
206 227 255
205 227 255
205 227 255
205 227 255
205 227 255
205 227 255
205 227 255
205 227 255
205 227 255
205 227 255
205 227 255
205 227 255
205 226 255
205 226 255
205 226 255
205 226 255
205 226 255
205 226 255
205 226 255
204 226 255
204 226 255
204 226 255
204 226 255
204 226 255
204 226 255
204 226 255
204 226 255
204 226 255
204 226 255
204 226 255
204 226 255
204 226 255
204 226 255
204 226 255
204 226 255
204 226 255
203 226 255
203 226 255
203 226 255
203 226 255
203 226 255
203 226 255
203 226 255
203 225 255
203 225 255
203 225 255
203 225 255
203 225 255
203 225 255
203 225 255
203 225 255
202 225 255
202 225 255
202 225 255
202 225 255
202 225 255
202 225 255
202 225 255
202 225 255
202 225 255
202 225 255
202 225 255
202 225 255
202 225 255
202 225 255
202 225 255
201 225 255
201 225 255
201 225 255
201 225 255
201 225 255
201 224 255
201 224 255
201 224 255
201 224 255
201 224 255
201 224 255
201 224 255
201 224 255
201 224 255
201 224 255
200 224 255
200 224 255
200 224 255
200 224 255
200 224 255
200 224 255
200 224 255
200 224 255
200 224 255
200 224 255
200 224 255
200 224 255
200 224 255
200 224 255
199 224 255
199 224 255
199 224 255
199 223 255
199 223 255
199 223 255
199 223 255
199 223 255
199 223 255
199 223 255
199 223 255
199 223 255
199 223 255
199 223 255
199 223 255
198 223 255
198 223 255
198 223 255
198 223 255
198 223 255
198 223 255
198 223 255
198 223 255
198 223 255
198 223 255
198 223 255
198 223 255
198 223 255
198 223 255
198 223 255
197 223 255
197 222 255
197 222 255
197 222 255
197 222 255
197 222 255
197 222 255
197 222 255
197 222 255
197 222 255
197 222 255
197 222 255
197 222 255
197 222 255
197 222 255
197 222 255
197 222 255
197 222 255
196 222 255
196 222 255
196 222 255
196 222 255
196 222 255
196 222 255
196 222 255
196 222 255
196 222 255
196 222 255
196 222 255
196 222 255
196 222 255
196 222 255
196 222 255
196 222 255
196 222 255
196 222 255
196 222 255
196 222 255
196 222 255
196 222 255
196 222 255
196 222 255
196 221 255
196 221 255
196 221 255
196 221 255
195 221 255
195 221 255
195 221 255
195 221 255
195 221 255
195 221 255
195 221 255
195 221 255
195 221 255
195 221 255
195 221 255
195 221 255
195 221 255
195 221 255
195 221 255
195 221 255
195 221 255
195 221 255
195 221 255
195 221 255
195 221 255
195 221 255
195 221 255
195 221 255
195 221 255
195 221 255
195 221 255
195 221 255
195 221 255
195 221 255
195 221 255
195 221 255
195 221 255
195 221 255
195 221 255
195 221 255
195 221 255
196 221 255
196 221 255
196 221 255
196 222 255
196 222 255
196 222 255
196 222 255
196 222 255
196 222 255
196 222 255
196 222 255
196 222 255
196 222 255
196 222 255
196 222 255
196 222 255
196 222 255
196 222 255
196 222 255
196 222 255
196 222 255
196 222 255
196 222 255
196 222 255
196 222 255
196 222 255
196 222 255
197 222 255
197 222 255
197 222 255
197 222 255
197 222 255
197 222 255
197 222 255
197 222 255
197 222 255
197 222 255
197 222 255
197 222 255
197 222 255
197 222 255
197 222 255
197 222 255
197 222 255
197 222 255
197 223 255
198 223 255
198 223 255
198 223 255
198 223 255
198 223 255
198 223 255
198 223 255
198 223 255
198 223 255
198 223 255
198 223 255
198 223 255
198 223 255
198 223 255
198 223 255
199 223 255
199 223 255
199 223 255
199 223 255
199 223 255
199 223 255
199 223 255
199 223 255
199 223 255
199 223 255
199 223 255
199 223 255
199 224 255
199 224 255
199 224 255
200 224 255
200 224 255
200 224 255
200 224 255
200 224 255
200 224 255
200 224 255
200 224 255
200 224 255
200 224 255
200 224 255
200 224 255
200 224 255
200 224 255
201 224 255
201 224 255
201 224 255
201 224 255
201 224 255
201 224 255
201 224 255
201 224 255
201 224 255
201 224 255
201 225 255
201 225 255
201 225 255
201 225 255
201 225 255
202 225 255
202 225 255
202 225 255
202 225 255
202 225 255
202 225 255
202 225 255
202 225 255
202 225 255
202 225 255
202 225 255
202 225 255
202 225 255
202 225 255
202 225 255
203 225 255
203 225 255
203 225 255
203 225 255
203 225 255
203 225 255
203 225 255
203 225 255
203 226 255
203 226 255
203 226 255
203 226 255
203 226 255
203 226 255
203 226 255
204 226 255
204 226 255
204 226 255
204 226 255
204 226 255
204 226 255
204 226 255
204 226 255
204 226 255
204 226 255
204 226 255
204 226 255
204 226 255
204 226 255
204 226 255
204 226 255
204 226 255
205 226 255
205 226 255
205 226 255
205 226 255
205 226 255
205 226 255
205 226 255
205 227 255
205 227 255
205 227 255
205 227 255
205 227 255
205 227 255
205 227 255
205 227 255
205 227 255
205 227 255
205 227 255
206 227 255
206 227 255
206 227 255
206 227 255
206 227 255
206 227 255
206 227 255
206 227 255
206 227 255
206 227 255
206 227 255
206 227 255
206 227 255
206 227 255
206 227 255
206 227 255
206 227 255
206 227 255
206 227 255
206 227 255
206 227 255
206 227 255
206 227 255
206 227 255
206 227 255
205 227 255
205 227 255
205 227 255
205 227 255
205 227 255
205 227 255
205 227 255
205 227 255
205 227 255
205 227 255
205 227 255
205 226 255
205 226 255
205 226 255
205 226 255
205 226 255
205 226 255
205 226 255
204 226 255
204 226 255
204 226 255
204 226 255
204 226 255
204 226 255
204 226 255
204 226 255
204 226 255
204 226 255
204 226 255
204 226 255
204 226 255
204 226 255
204 226 255
204 226 255
204 226 255
203 226 255
203 226 255
203 226 255
203 226 255
203 226 255
203 226 255
203 226 255
203 225 255
203 225 255
203 225 255
203 225 255
203 225 255
203 225 255
203 225 255
203 225 255
202 225 255
202 225 255
202 225 255
202 225 255
202 225 255
202 225 255
202 225 255
202 225 255
202 225 255
202 225 255
202 225 255
202 225 255
202 225 255
202 225 255
202 225 255
202 225 255
201 225 255
201 225 255
201 225 255
201 225 255
201 224 255
201 224 255
201 224 255
201 224 255
201 224 255
201 224 255
201 224 255
201 224 255
201 224 255
201 224 255
200 224 255
200 224 255
200 224 255
200 224 255
200 224 255
200 224 255
200 224 255
200 224 255
200 224 255
200 224 255
200 224 255
200 224 255
200 224 255
200 224 255
200 224 255
199 224 255
199 224 255
199 223 255
199 223 255
199 223 255
199 223 255
199 223 255
199 223 255
199 223 255
199 223 255
199 223 255
199 223 255
199 223 255
199 223 255
198 223 255
198 223 255
198 223 255
198 223 255
198 223 255
198 223 255
198 223 255
198 223 255
198 223 255
198 223 255
198 223 255
198 223 255
198 223 255
198 223 255
198 223 255
198 223 255
197 223 255
197 222 255
197 222 255
197 222 255
197 222 255
197 222 255
197 222 255
197 222 255
197 222 255
197 222 255
197 222 255
197 222 255
197 222 255
197 222 255
197 222 255
197 222 255
197 222 255
197 222 255
197 222 255
196 222 255
196 222 255
196 222 255
196 222 255
196 222 255
196 222 255
196 222 255
196 222 255
196 222 255
196 222 255
196 222 255
196 222 255
196 222 255
196 222 255
196 222 255
196 222 255
196 222 255
196 222 255
196 222 255
196 222 255
196 222 255
196 222 255
196 222 255
196 222 255
196 222 255
196 222 255
196 222 255
196 221 255
196 221 255
196 221 255
196 221 255
196 221 255
196 221 255
195 221 255
195 221 255
195 221 255
195 221 255
195 221 255
195 221 255
195 221 255
195 221 255
195 221 255
195 221 255
195 221 255
195 221 255
195 221 255
195 221 255
195 221 255
195 221 255
195 221 255
195 221 255
195 221 255
196 221 255
196 221 255
196 221 255
196 221 255
196 221 255
196 222 255
196 222 255
196 222 255
196 222 255
196 222 255
196 222 255
196 222 255
196 222 255
196 222 255
196 222 255
196 222 255
196 222 255
196 222 255
196 222 255
196 222 255
196 222 255
196 222 255
196 222 255
196 222 255
196 222 255
196 222 255
196 222 255
196 222 255
196 222 255
196 222 255
196 222 255
196 222 255
196 222 255
197 222 255
197 222 255
197 222 255
197 222 255
197 222 255
197 222 255
197 222 255
197 222 255
197 222 255
197 222 255
197 222 255
197 222 255
197 222 255
197 222 255
197 222 255
197 222 255
197 222 255
197 222 255
197 223 255
198 223 255
198 223 255
198 223 255
198 223 255
198 223 255
198 223 255
198 223 255
198 223 255
198 223 255
198 223 255
198 223 255
198 223 255
198 223 255
198 223 255
198 223 255
198 223 255
199 223 255
199 223 255
199 223 255
199 223 255
199 223 255
199 223 255
199 223 255
199 223 255
199 223 255
199 223 255
199 223 255
199 223 255
199 224 255
199 224 255
200 224 255
200 224 255
200 224 255
200 224 255
200 224 255
200 224 255
200 224 255
200 224 255
200 224 255
200 224 255
200 224 255
200 224 255
200 224 255
200 224 255
200 224 255
201 224 255
201 224 255
201 224 255
201 224 255
201 224 255
201 224 255
201 224 255
201 224 255
201 224 255
201 224 255
201 225 255
201 225 255
201 225 255
201 225 255
202 225 255
202 225 255
202 225 255
202 225 255
202 225 255
202 225 255
202 225 255
202 225 255
202 225 255
202 225 255
202 225 255
202 225 255
202 225 255
202 225 255
202 225 255
203 225 255
203 225 255
203 225 255
203 225 255
203 225 255
203 225 255
203 225 255
203 225 255
203 225 255
203 226 255
203 226 255
203 226 255
203 226 255
203 226 255
203 226 255
203 226 255
204 226 255
204 226 255
204 226 255
204 226 255
204 226 255
204 226 255
204 226 255
204 226 255
204 226 255
204 226 255
204 226 255
204 226 255
204 226 255
204 226 255
204 226 255
204 226 255
204 226 255
205 226 255
205 226 255
205 226 255
205 226 255
205 226 255
205 226 255
205 226 255
205 227 255
205 227 255
205 227 255
205 227 255
205 227 255
205 227 255
205 227 255
205 227 255
205 227 255
205 227 255
205 227 255
206 227 255
206 227 255
206 227 255
206 227 255
206 227 255
206 227 255
206 227 255
206 227 255
206 227 255
206 227 255
206 227 255
206 227 255
206 227 255
206 227 255
206 227 255
206 227 255
206 227 255
206 227 255
206 227 255
206 227 255
206 227 255
206 227 255
206 227 255
206 227 255
206 227 255
206 227 255
206 227 255
206 227 255
206 227 255
206 227 255
205 227 255
205 227 255
205 227 255
205 227 255
205 227 255
205 227 255
205 227 255
205 227 255
205 227 255
205 227 255
205 227 255
205 226 255
205 226 255
205 226 255
205 226 255
205 226 255
205 226 255
205 226 255
204 226 255
204 226 255
204 226 255
204 226 255
204 226 255
204 226 255
204 226 255
204 226 255
204 226 255
204 226 255
204 226 255
204 226 255
204 226 255
204 226 255
204 226 255
204 226 255
203 226 255
203 226 255
203 226 255
203 226 255
203 226 255
203 226 255
203 226 255
203 225 255
203 225 255
203 225 255
203 225 255
203 225 255
203 225 255
203 225 255
203 225 255
203 225 255
202 225 255
202 225 255
202 225 255
202 225 255
202 225 255
202 225 255
202 225 255
202 225 255
202 225 255
202 225 255
202 225 255
202 225 255
202 225 255
202 225 255
202 225 255
201 225 255
201 225 255
201 225 255
201 225 255
201 224 255
201 224 255
201 224 255
201 224 255
201 224 255
201 224 255
201 224 255
201 224 255
201 224 255
201 224 255
200 224 255
200 224 255
200 224 255
200 224 255
200 224 255
200 224 255
200 224 255
200 224 255
200 224 255
200 224 255
200 224 255
200 224 255
200 224 255
200 224 255
200 224 255
199 224 255
199 224 255
199 223 255
199 223 255
199 223 255
199 223 255
199 223 255
199 223 255
199 223 255
199 223 255
199 223 255
199 223 255
199 223 255
199 223 255
199 223 255
198 223 255
198 223 255
198 223 255
198 223 255
198 223 255
198 223 255
198 223 255
198 223 255
198 223 255
198 223 255
198 223 255
198 223 255
198 223 255
198 223 255
198 223 255
198 223 255
197 223 255
197 222 255
197 222 255
197 222 255
197 222 255
197 222 255
197 222 255
197 222 255
197 222 255
197 222 255
197 222 255
197 222 255
197 222 255
197 222 255
197 222 255
197 222 255
197 222 255
197 222 255
197 222 255
197 222 255
196 222 255
196 222 255
196 222 255
196 222 255
196 222 255
196 222 255
196 222 255
196 222 255
196 222 255
196 222 255
196 222 255
196 222 255
196 222 255
196 222 255
196 222 255
196 222 255
196 222 255
196 222 255
196 222 255
196 222 255
196 222 255
196 222 255
196 222 255
196 222 255
196 222 255
196 222 255
196 222 255
196 222 255
196 222 255
196 222 255
196 222 255
196 222 255
196 222 255
196 222 255
196 222 255
196 222 255
196 222 255
196 222 255
196 222 255
196 222 255
196 222 255
196 222 255
196 222 255
196 222 255
196 222 255
196 222 255
196 222 255
196 222 255
196 222 255
196 222 255
196 222 255
196 222 255
196 222 255
196 222 255
196 222 255
196 222 255
196 222 255
196 222 255
196 222 255
196 222 255
196 222 255
196 222 255
196 222 255
196 222 255
196 222 255
196 222 255
196 222 255
196 222 255
196 222 255
196 222 255
196 222 255
196 222 255
196 222 255
196 222 255
196 222 255
196 222 255
196 222 255
196 222 255
197 222 255
197 222 255
197 222 255
197 222 255
197 222 255
197 222 255
197 222 255
197 222 255
197 222 255
197 222 255
197 222 255
197 222 255
197 222 255
197 222 255
197 222 255
197 222 255
197 222 255
197 222 255
197 223 255
198 223 255
198 223 255
198 223 255
198 223 255
198 223 255
198 223 255
198 223 255
198 223 255
198 223 255
198 223 255
198 223 255
198 223 255
198 223 255
198 223 255
198 223 255
198 223 255
199 223 255
199 223 255
199 223 255
199 223 255
199 223 255
199 223 255
199 223 255
199 223 255
199 223 255
199 223 255
199 223 255
199 223 255
199 223 255
199 224 255
199 224 255
200 224 255
200 224 255
200 224 255
200 224 255
200 224 255
200 224 255
200 224 255
200 224 255
200 224 255
200 224 255
200 224 255
200 224 255
200 224 255
200 224 255
200 224 255
201 224 255
201 224 255
201 224 255
201 224 255
201 224 255
201 224 255
201 224 255
201 224 255
201 224 255
201 224 255
201 225 255
201 225 255
201 225 255
201 225 255
202 225 255
202 225 255
202 225 255
202 225 255
202 225 255
202 225 255
202 225 255
202 225 255
202 225 255
202 225 255
202 225 255
202 225 255
202 225 255
202 225 255
202 225 255
203 225 255
203 225 255
203 225 255
203 225 255
203 225 255
203 225 255
203 225 255
203 225 255
203 225 255
203 226 255
203 226 255
203 226 255
203 226 255
203 226 255
203 226 255
203 226 255
204 226 255
204 226 255
204 226 255
204 226 255
204 226 255
204 226 255
204 226 255
204 226 255
204 226 255
204 226 255
204 226 255
204 226 255
204 226 255
204 226 255
204 226 255
204 226 255
205 226 255
205 226 255
205 226 255
205 226 255
205 226 255
205 226 255
205 226 255
205 227 255
205 227 255
205 227 255
205 227 255
205 227 255
205 227 255
205 227 255
205 227 255
205 227 255
205 227 255
205 227 255
206 227 255
206 227 255
206 227 255
206 227 255
206 227 255
206 227 255
206 227 255
206 227 255
206 227 255
206 227 255
206 227 255
206 227 255
206 227 255
206 227 255
206 227 255
206 227 255
206 227 255
206 227 255
206 227 255
206 227 255
206 227 255
206 227 255
206 227 255
206 227 255
206 227 255
206 227 255
206 227 255
206 227 255
206 227 255
206 227 255
206 227 255
206 227 255
206 227 255
206 227 255
206 227 255
206 227 255
205 227 255
205 227 255
205 227 255
205 227 255
205 227 255
205 227 255
205 227 255
205 227 255
205 227 255
205 227 255
205 226 255
205 226 255
205 226 255
205 226 255
205 226 255
205 226 255
205 226 255
204 226 255
204 226 255
204 226 255
204 226 255
204 226 255
204 226 255
204 226 255
204 226 255
204 226 255
204 226 255
204 226 255
204 226 255
204 226 255
204 226 255
204 226 255
204 226 255
204 226 255
203 226 255
203 226 255
203 226 255
203 226 255
203 226 255
203 226 255
203 226 255
203 225 255
203 225 255
203 225 255
203 225 255
203 225 255
203 225 255
203 225 255
203 225 255
202 225 255
202 225 255
202 225 255
202 225 255
202 225 255
202 225 255
202 225 255
202 225 255
202 225 255
202 225 255
202 225 255
202 225 255
202 225 255
202 225 255
202 225 255
201 225 255
201 225 255
201 225 255
201 225 255
201 225 255
201 224 255
201 224 255
201 224 255
201 224 255
201 224 255
201 224 255
201 224 255
201 224 255
201 224 255
201 224 255
200 224 255
200 224 255
200 224 255
200 224 255
200 224 255
200 224 255
200 224 255
200 224 255
200 224 255
200 224 255
200 224 255
200 224 255
200 224 255
200 224 255
199 224 255
199 224 255
199 224 255
199 223 255
199 223 255
199 223 255
199 223 255
199 223 255
199 223 255
199 223 255
199 223 255
199 223 255
199 223 255
199 223 255
199 223 255
198 223 255
198 223 255
198 223 255
198 223 255
198 223 255
198 223 255
198 223 255
198 223 255
198 223 255
198 223 255
198 223 255
198 223 255
198 223 255
198 223 255
198 223 255
198 223 255
198 223 255
197 223 255
197 222 255
197 222 255
197 222 255
197 222 255
197 222 255
197 222 255
197 222 255
197 222 255
197 222 255
197 222 255
197 222 255
197 222 255
197 222 255
197 222 255
197 222 255
197 222 255
197 222 255
197 222 255
197 222 255
197 222 255
196 222 255
196 222 255
196 222 255
196 222 255
196 222 255
196 222 255
196 222 255
196 222 255
196 222 255
196 222 255
196 222 255
196 222 255
196 222 255
196 222 255
196 222 255
196 222 255
196 222 255
196 222 255
196 222 255
196 222 255
196 222 255
196 222 255
196 222 255
196 222 255
196 222 255
196 222 255
196 222 255
196 222 255
196 222 255
196 222 255
196 222 255
196 222 255
196 222 255
196 222 255
196 222 255
196 222 255
196 222 255
196 222 255
196 222 255
196 222 255
196 222 255
196 222 255
196 222 255
196 222 255
196 222 255
196 222 255
196 222 255
196 222 255
196 222 255
196 222 255
196 222 255
196 222 255
196 222 255
196 222 255
196 222 255
196 222 255
196 222 255
196 222 255
196 222 255
196 222 255
196 222 255
196 222 255
196 222 255
196 222 255
196 222 255
196 222 255
196 222 255
196 222 255
196 222 255
196 222 255
197 222 255
197 222 255
197 222 255
197 222 255
197 222 255
197 222 255
197 222 255
197 222 255
197 222 255
197 222 255
197 222 255
197 222 255
197 222 255
197 222 255
197 222 255
197 222 255
197 222 255
197 222 255
197 222 255
197 223 255
198 223 255
198 223 255
198 223 255
198 223 255
198 223 255
198 223 255
198 223 255
198 223 255
198 223 255
198 223 255
198 223 255
198 223 255
198 223 255
198 223 255
198 223 255
198 223 255
198 223 255
199 223 255
199 223 255
199 223 255
199 223 255
199 223 255
199 223 255
199 223 255
199 223 255
199 223 255
199 223 255
199 223 255
199 223 255
199 224 255
199 224 255
199 224 255
200 224 255
200 224 255
200 224 255
200 224 255
200 224 255
200 224 255
200 224 255
200 224 255
200 224 255
200 224 255
200 224 255
200 224 255
200 224 255
200 224 255
201 224 255
201 224 255
201 224 255
201 224 255
201 224 255
201 224 255
201 224 255
201 224 255
201 224 255
201 224 255
201 225 255
201 225 255
201 225 255
201 225 255
201 225 255
202 225 255
202 225 255
202 225 255
202 225 255
202 225 255
202 225 255
202 225 255
202 225 255
202 225 255
202 225 255
202 225 255
202 225 255
202 225 255
202 225 255
202 225 255
203 225 255
203 225 255
203 225 255
203 225 255
203 225 255
203 225 255
203 225 255
203 225 255
203 226 255
203 226 255
203 226 255
203 226 255
203 226 255
203 226 255
203 226 255
204 226 255
204 226 255
204 226 255
204 226 255
204 226 255
204 226 255
204 226 255
204 226 255
204 226 255
204 226 255
204 226 255
204 226 255
204 226 255
204 226 255
204 226 255
204 226 255
204 226 255
205 226 255
205 226 255
205 226 255
205 226 255
205 226 255
205 226 255
205 226 255
205 227 255
205 227 255
205 227 255
205 227 255
205 227 255
205 227 255
205 227 255
205 227 255
205 227 255
205 227 255
206 227 255
206 227 255
206 227 255
206 227 255
206 227 255
206 227 255
206 227 255
206 227 255
206 227 255
206 227 255
206 227 255
206 227 255
206 227 255
206 227 255
206 227 255
206 227 255
206 227 255
206 227 255
206 227 255
206 227 255
207 227 255
207 227 255
206 227 255
206 227 255
206 227 255
206 227 255
206 227 255
206 227 255
206 227 255
206 227 255
206 227 255
206 227 255
206 227 255
206 227 255
206 227 255
206 227 255
206 227 255
206 227 255
206 227 255
206 227 255
206 227 255
205 227 255
205 227 255
205 227 255
205 227 255
205 227 255
205 227 255
205 227 255
205 227 255
205 227 255
205 227 255
205 227 255
205 226 255
205 226 255
205 226 255
205 226 255
205 226 255
205 226 255
205 226 255
204 226 255
204 226 255
204 226 255
204 226 255
204 226 255
204 226 255
204 226 255
204 226 255
204 226 255
204 226 255
204 226 255
204 226 255
204 226 255
204 226 255
204 226 255
204 226 255
203 226 255
203 226 255
203 226 255
203 226 255
203 226 255
203 226 255
203 226 255
203 225 255
203 225 255
203 225 255
203 225 255
203 225 255
203 225 255
203 225 255
203 225 255
203 225 255
202 225 255
202 225 255
202 225 255
202 225 255
202 225 255
202 225 255
202 225 255
202 225 255
202 225 255
202 225 255
202 225 255
202 225 255
202 225 255
202 225 255
202 225 255
201 225 255
201 225 255
201 225 255
201 225 255
201 224 255
201 224 255
201 224 255
201 224 255
201 224 255
201 224 255
201 224 255
201 224 255
201 224 255
201 224 255
200 224 255
200 224 255
200 224 255
200 224 255
200 224 255
200 224 255
200 224 255
200 224 255
200 224 255
200 224 255
200 224 255
200 224 255
200 224 255
200 224 255
200 224 255
199 224 255
199 224 255
199 223 255
199 223 255
199 223 255
199 223 255
199 223 255
199 223 255
199 223 255
199 223 255
199 223 255
199 223 255
199 223 255
199 223 255
199 223 255
198 223 255
198 223 255
198 223 255
198 223 255
198 223 255
198 223 255
198 223 255
198 223 255
198 223 255
198 223 255
198 223 255
198 223 255
198 223 255
198 223 255
198 223 255
198 223 255
198 223 255
197 223 255
197 222 255
197 222 255
197 222 255
197 222 255
197 222 255
197 222 255
197 222 255
197 222 255
197 222 255
197 222 255
197 222 255
197 222 255
197 222 255
197 222 255
197 222 255
197 222 255
197 222 255
197 222 255
197 222 255
197 222 255
197 222 255
196 222 255
196 222 255
196 222 255
196 222 255
196 222 255
196 222 255
196 222 255
196 222 255
196 222 255
196 222 255
196 222 255
196 222 255
196 222 255
196 222 255
196 222 255
196 222 255
196 222 255
196 222 255
196 222 255
196 222 255
196 222 255
196 222 255
196 222 255
196 222 255
196 222 255
196 222 255
196 222 255
196 222 255
196 222 255
196 222 255
196 222 255
196 222 255
196 222 255
196 222 255
196 222 255
196 222 255
196 222 255
196 222 255
196 222 255
196 222 255
196 222 255
196 222 255
196 222 255
196 222 255
196 222 255
196 222 255
196 222 255
196 222 255
196 222 255
196 222 255
196 222 255
196 222 255
196 222 255
196 222 255
196 222 255
196 222 255
196 222 255
196 222 255
196 222 255
196 222 255
196 222 255
197 222 255
197 222 255
197 222 255
197 222 255
197 222 255
197 222 255
197 222 255
197 222 255
197 222 255
197 222 255
197 222 255
197 222 255
197 222 255
197 222 255
197 222 255
197 222 255
197 222 255
197 222 255
197 222 255
197 222 255
197 222 255
197 223 255
198 223 255
198 223 255
198 223 255
198 223 255
198 223 255
198 223 255
198 223 255
198 223 255
198 223 255
198 223 255
198 223 255
198 223 255
198 223 255
198 223 255
198 223 255
198 223 255
198 223 255
199 223 255
199 223 255
199 223 255
199 223 255
199 223 255
199 223 255
199 223 255
199 223 255
199 223 255
199 223 255
199 223 255
199 223 255
199 223 255
199 224 255
199 224 255
200 224 255
200 224 255
200 224 255
200 224 255
200 224 255
200 224 255
200 224 255
200 224 255
200 224 255
200 224 255
200 224 255
200 224 255
200 224 255
200 224 255
200 224 255
201 224 255
201 224 255
201 224 255
201 224 255
201 224 255
201 224 255
201 224 255
201 224 255
201 224 255
201 224 255
201 225 255
201 225 255
201 225 255
201 225 255
202 225 255
202 225 255
202 225 255
202 225 255
202 225 255
202 225 255
202 225 255
202 225 255
202 225 255
202 225 255
202 225 255
202 225 255
202 225 255
202 225 255
202 225 255
203 225 255
203 225 255
203 225 255
203 225 255
203 225 255
203 225 255
203 225 255
203 225 255
203 225 255
203 226 255
203 226 255
203 226 255
203 226 255
203 226 255
203 226 255
203 226 255
204 226 255
204 226 255
204 226 255
204 226 255
204 226 255
204 226 255
204 226 255
204 226 255
204 226 255
204 226 255
204 226 255
204 226 255
204 226 255
204 226 255
204 226 255
204 226 255
205 226 255
205 226 255
205 226 255
205 226 255
205 226 255
205 226 255
205 226 255
205 227 255
205 227 255
205 227 255
205 227 255
205 227 255
205 227 255
205 227 255
205 227 255
205 227 255
205 227 255
205 227 255
206 227 255
206 227 255
206 227 255
206 227 255
206 227 255
206 227 255
206 227 255
206 227 255
206 227 255
206 227 255
206 227 255
206 227 255
206 227 255
206 227 255
206 227 255
206 227 255
206 227 255
206 227 255
206 227 255
207 227 255
207 227 255
207 227 255
207 227 255
207 227 255
207 227 255
207 227 255
207 227 255
206 227 255
206 227 255
206 227 255
206 227 255
206 227 255
206 227 255
206 227 255
206 227 255
206 227 255
206 227 255
206 227 255
206 227 255
206 227 255
206 227 255
206 227 255
206 227 255
206 227 255
206 227 255
206 227 255
205 227 255
205 227 255
205 227 255
205 227 255
205 227 255
205 227 255
205 227 255
205 227 255
205 227 255
205 227 255
205 226 255
205 226 255
205 226 255
205 226 255
205 226 255
205 226 255
205 226 255
204 226 255
204 226 255
204 226 255
204 226 255
204 226 255
204 226 255
204 226 255
204 226 255
204 226 255
204 226 255
204 226 255
204 226 255
204 226 255
204 226 255
204 226 255
204 226 255
203 226 255
203 226 255
203 226 255
203 226 255
203 226 255
203 226 255
203 226 255
203 226 255
203 225 255
203 225 255
203 225 255
203 225 255
203 225 255
203 225 255
203 225 255
203 225 255
202 225 255
202 225 255
202 225 255
202 225 255
202 225 255
202 225 255
202 225 255
202 225 255
202 225 255
202 225 255
202 225 255
202 225 255
202 225 255
202 225 255
202 225 255
201 225 255
201 225 255
201 225 255
201 225 255
201 224 255
201 224 255
201 224 255
201 224 255
201 224 255
201 224 255
201 224 255
201 224 255
201 224 255
201 224 255
201 224 255
200 224 255
200 224 255
200 224 255
200 224 255
200 224 255
200 224 255
200 224 255
200 224 255
200 224 255
200 224 255
200 224 255
200 224 255
200 224 255
200 224 255
199 224 255
199 224 255
199 224 255
199 223 255
199 223 255
199 223 255
199 223 255
199 223 255
199 223 255
199 223 255
199 223 255
199 223 255
199 223 255
199 223 255
199 223 255
199 223 255
198 223 255
198 223 255
198 223 255
198 223 255
198 223 255
198 223 255
198 223 255
198 223 255
198 223 255
198 223 255
198 223 255
198 223 255
198 223 255
198 223 255
198 223 255
198 223 255
198 223 255
197 223 255
197 222 255
197 222 255
197 222 255
197 222 255
197 222 255
197 222 255
197 222 255
197 222 255
197 222 255
197 222 255
197 222 255
197 222 255
197 222 255
197 222 255
197 222 255
197 222 255
197 222 255
197 222 255
197 222 255
197 222 255
197 222 255
197 222 255
197 222 255
196 222 255
196 222 255
196 222 255
196 222 255
196 222 255
196 222 255
196 222 255
196 222 255
196 222 255
196 222 255
196 222 255
196 222 255
196 222 255
196 222 255
196 222 255
196 222 255
196 222 255
196 222 255
196 222 255
196 222 255
196 222 255
196 222 255
196 222 255
196 222 255
196 222 255
196 222 255
196 222 255
196 222 255
196 222 255
196 222 255
196 222 255
196 222 255
196 222 255
196 222 255
196 222 255
196 222 255
196 222 255
196 222 255
196 222 255
196 222 255
196 222 255
196 222 255
196 222 255
196 222 255
196 222 255
196 222 255
196 222 255
196 222 255
196 222 255
196 222 255
196 222 255
197 222 255
197 222 255
197 222 255
197 222 255
197 222 255
197 222 255
197 222 255
197 222 255
197 222 255
197 222 255
197 222 255
197 222 255
197 222 255
197 222 255
197 222 255
197 222 255
197 222 255
197 222 255
197 222 255
197 222 255
197 222 255
197 222 255
197 222 255
197 223 255
198 223 255
198 223 255
198 223 255
198 223 255
198 223 255
198 223 255
198 223 255
198 223 255
198 223 255
198 223 255
198 223 255
198 223 255
198 223 255
198 223 255
198 223 255
198 223 255
198 223 255
199 223 255
199 223 255
199 223 255
199 223 255
199 223 255
199 223 255
199 223 255
199 223 255
199 223 255
199 223 255
199 223 255
199 223 255
199 223 255
199 224 255
199 224 255
199 224 255
200 224 255
200 224 255
200 224 255
200 224 255
200 224 255
200 224 255
200 224 255
200 224 255
200 224 255
200 224 255
200 224 255
200 224 255
200 224 255
200 224 255
201 224 255
201 224 255
201 224 255
201 224 255
201 224 255
201 224 255
201 224 255
201 224 255
201 224 255
201 224 255
201 224 255
201 225 255
201 225 255
201 225 255
201 225 255
202 225 255
202 225 255
202 225 255
202 225 255
202 225 255
202 225 255
202 225 255
202 225 255
202 225 255
202 225 255
202 225 255
202 225 255
202 225 255
202 225 255
202 225 255
203 225 255
203 225 255
203 225 255
203 225 255
203 225 255
203 225 255
203 225 255
203 225 255
203 226 255
203 226 255
203 226 255
203 226 255
203 226 255
203 226 255
203 226 255
204 226 255
204 226 255
204 226 255
204 226 255
204 226 255
204 226 255
204 226 255
204 226 255
204 226 255
204 226 255
204 226 255
204 226 255
204 226 255
204 226 255
204 226 255
204 226 255
204 226 255
205 226 255
205 226 255
205 226 255
205 226 255
205 226 255
205 226 255
205 226 255
205 227 255
205 227 255
205 227 255
205 227 255
205 227 255
205 227 255
205 227 255
205 227 255
205 227 255
205 227 255
206 227 255
206 227 255
206 227 255
206 227 255
206 227 255
206 227 255
206 227 255
206 227 255
206 227 255
206 227 255
206 227 255
206 227 255
206 227 255
206 227 255
206 227 255
206 227 255
206 227 255
206 227 255
206 227 255
207 227 255
207 227 255
207 227 255
207 227 255
207 227 255
207 228 255
207 228 255
207 228 255
207 228 255
207 227 255
207 227 255
207 227 255
207 227 255
207 227 255
206 227 255
206 227 255
206 227 255
206 227 255
206 227 255
206 227 255
206 227 255
206 227 255
206 227 255
206 227 255
206 227 255
206 227 255
206 227 255
206 227 255
206 227 255
206 227 255
206 227 255
206 227 255
205 227 255
205 227 255
205 227 255
205 227 255
205 227 255
205 227 255
205 227 255
205 227 255
205 227 255
205 227 255
205 227 255
205 226 255
205 226 255
205 226 255
205 226 255
205 226 255
205 226 255
205 226 255
204 226 255
204 226 255
204 226 255
204 226 255
204 226 255
204 226 255
204 226 255
204 226 255
204 226 255
204 226 255
204 226 255
204 226 255
204 226 255
204 226 255
204 226 255
204 226 255
203 226 255
203 226 255
203 226 255
203 226 255
203 226 255
203 226 255
203 226 255
203 225 255
203 225 255
203 225 255
203 225 255
203 225 255
203 225 255
203 225 255
203 225 255
203 225 255
202 225 255
202 225 255
202 225 255
202 225 255
202 225 255
202 225 255
202 225 255
202 225 255
202 225 255
202 225 255
202 225 255
202 225 255
202 225 255
202 225 255
201 225 255
201 225 255
201 225 255
201 225 255
201 225 255
201 224 255
201 224 255
201 224 255
201 224 255
201 224 255
201 224 255
201 224 255
201 224 255
201 224 255
201 224 255
200 224 255
200 224 255
200 224 255
200 224 255
200 224 255
200 224 255
200 224 255
200 224 255
200 224 255
200 224 255
200 224 255
200 224 255
200 224 255
200 224 255
200 224 255
199 224 255
199 224 255
199 223 255
199 223 255
199 223 255
199 223 255
199 223 255
199 223 255
199 223 255
199 223 255
199 223 255
199 223 255
199 223 255
199 223 255
199 223 255
199 223 255
198 223 255
198 223 255
198 223 255
198 223 255
198 223 255
198 223 255
198 223 255
198 223 255
198 223 255
198 223 255
198 223 255
198 223 255
198 223 255
198 223 255
198 223 255
198 223 255
198 223 255
198 223 255
197 222 255
197 222 255
197 222 255
197 222 255
197 222 255
197 222 255
197 222 255
197 222 255
197 222 255
197 222 255
197 222 255
197 222 255
197 222 255
197 222 255
197 222 255
197 222 255
197 222 255
197 222 255
197 222 255
197 222 255
197 222 255
197 222 255
197 222 255
197 222 255
197 222 255
197 222 255
196 222 255
196 222 255
196 222 255
196 222 255
196 222 255
196 222 255
196 222 255
196 222 255
196 222 255
196 222 255
196 222 255
196 222 255
196 222 255
196 222 255
196 222 255
196 222 255
196 222 255
196 222 255
196 222 255
196 222 255
196 222 255
196 222 255
196 222 255
196 222 255
196 222 255
196 222 255
196 222 255
196 222 255
196 222 255
196 222 255
196 222 255
196 222 255
196 222 255
196 222 255
196 222 255
196 222 255
196 222 255
196 222 255
196 222 255
197 222 255
197 222 255
197 222 255
197 222 255
197 222 255
197 222 255
197 222 255
197 222 255
197 222 255
197 222 255
197 222 255
197 222 255
197 222 255
197 222 255
197 222 255
197 222 255
197 222 255
197 222 255
197 222 255
197 222 255
197 222 255
197 222 255
197 222 255
197 222 255
197 222 255
197 222 255
197 223 255
198 223 255
198 223 255
198 223 255
198 223 255
198 223 255
198 223 255
198 223 255
198 223 255
198 223 255
198 223 255
198 223 255
198 223 255
198 223 255
198 223 255
198 223 255
198 223 255
198 223 255
199 223 255
199 223 255
199 223 255
199 223 255
199 223 255
199 223 255
199 223 255
199 223 255
199 223 255
199 223 255
199 223 255
199 223 255
199 223 255
199 223 255
199 224 255
199 224 255
200 224 255
200 224 255
200 224 255
200 224 255
200 224 255
200 224 255
200 224 255
200 224 255
200 224 255
200 224 255
200 224 255
200 224 255
200 224 255
200 224 255
200 224 255
201 224 255
201 224 255
201 224 255
201 224 255
201 224 255
201 224 255
201 224 255
201 224 255
201 224 255
201 224 255
201 225 255
201 225 255
201 225 255
201 225 255
201 225 255
202 225 255
202 225 255
202 225 255
202 225 255
202 225 255
202 225 255
202 225 255
202 225 255
202 225 255
202 225 255
202 225 255
202 225 255
202 225 255
202 225 255
203 225 255
203 225 255
203 225 255
203 225 255
203 225 255
203 225 255
203 225 255
203 225 255
203 225 255
203 226 255
203 226 255
203 226 255
203 226 255
203 226 255
203 226 255
203 226 255
204 226 255
204 226 255
204 226 255
204 226 255
204 226 255
204 226 255
204 226 255
204 226 255
204 226 255
204 226 255
204 226 255
204 226 255
204 226 255
204 226 255
204 226 255
204 226 255
205 226 255
205 226 255
205 226 255
205 226 255
205 226 255
205 226 255
205 226 255
205 227 255
205 227 255
205 227 255
205 227 255
205 227 255
205 227 255
205 227 255
205 227 255
205 227 255
205 227 255
206 227 255
206 227 255
206 227 255
206 227 255
206 227 255
206 227 255
206 227 255
206 227 255
206 227 255
206 227 255
206 227 255
206 227 255
206 227 255
206 227 255
206 227 255
206 227 255
206 227 255
206 227 255
206 227 255
206 227 255
207 227 255
207 227 255
207 227 255
207 227 255
207 228 255
207 228 255
207 228 255
207 228 255
207 228 255
207 228 255
207 228 255
207 228 255
207 228 255
207 227 255
207 227 255
207 227 255
207 227 255
207 227 255
206 227 255
206 227 255
206 227 255
206 227 255
206 227 255
206 227 255
206 227 255
206 227 255
206 227 255
206 227 255
206 227 255
206 227 255
206 227 255
206 227 255
206 227 255
206 227 255
206 227 255
206 227 255
206 227 255
205 227 255
205 227 255
205 227 255
205 227 255
205 227 255
205 227 255
205 227 255
205 227 255
205 227 255
205 227 255
205 227 255
205 226 255
205 226 255
205 226 255
205 226 255
205 226 255
205 226 255
204 226 255
204 226 255
204 226 255
204 226 255
204 226 255
204 226 255
204 226 255
204 226 255
204 226 255
204 226 255
204 226 255
204 226 255
204 226 255
204 226 255
204 226 255
204 226 255
204 226 255
203 226 255
203 226 255
203 226 255
203 226 255
203 226 255
203 226 255
203 225 255
203 225 255
203 225 255
203 225 255
203 225 255
203 225 255
203 225 255
203 225 255
203 225 255
202 225 255
202 225 255
202 225 255
202 225 255
202 225 255
202 225 255
202 225 255
202 225 255
202 225 255
202 225 255
202 225 255
202 225 255
202 225 255
202 225 255
202 225 255
201 225 255
201 225 255
201 225 255
201 225 255
201 224 255
201 224 255
201 224 255
201 224 255
201 224 255
201 224 255
201 224 255
201 224 255
201 224 255
201 224 255
201 224 255
200 224 255
200 224 255
200 224 255
200 224 255
200 224 255
200 224 255
200 224 255
200 224 255
200 224 255
200 224 255
200 224 255
200 224 255
200 224 255
200 224 255
200 224 255
199 224 255
199 224 255
199 223 255
199 223 255
199 223 255
199 223 255
199 223 255
199 223 255
199 223 255
199 223 255
199 223 255
199 223 255
199 223 255
199 223 255
199 223 255
198 223 255
198 223 255
198 223 255
198 223 255
198 223 255
198 223 255
198 223 255
198 223 255
198 223 255
198 223 255
198 223 255
198 223 255
198 223 255
198 223 255
198 223 255
198 223 255
198 223 255
198 223 255
198 223 255
197 223 255
197 222 255
197 222 255
197 222 255
197 222 255
197 222 255
197 222 255
197 222 255
197 222 255
197 222 255
197 222 255
197 222 255
197 222 255
197 222 255
197 222 255
197 222 255
197 222 255
197 222 255
197 222 255
197 222 255
197 222 255
197 222 255
197 222 255
197 222 255
197 222 255
197 222 255
197 222 255
197 222 255
197 222 255
197 222 255
197 222 255
197 222 255
197 222 255
196 222 255
196 222 255
196 222 255
196 222 255
196 222 255
196 222 255
196 222 255
196 222 255
196 222 255
196 222 255
196 222 255
196 222 255
196 222 255
196 222 255
196 222 255
196 222 255
196 222 255
196 222 255
196 222 255
197 222 255
197 222 255
197 222 255
197 222 255
197 222 255
197 222 255
197 222 255
197 222 255
197 222 255
197 222 255
197 222 255
197 222 255
197 222 255
197 222 255
197 222 255
197 222 255
197 222 255
197 222 255
197 222 255
197 222 255
197 222 255
197 222 255
197 222 255
197 222 255
197 222 255
197 222 255
197 222 255
197 222 255
197 222 255
197 222 255
197 222 255
197 222 255
197 223 255
198 223 255
198 223 255
198 223 255
198 223 255
198 223 255
198 223 255
198 223 255
198 223 255
198 223 255
198 223 255
198 223 255
198 223 255
198 223 255
198 223 255
198 223 255
198 223 255
198 223 255
198 223 255
198 223 255
199 223 255
199 223 255
199 223 255
199 223 255
199 223 255
199 223 255
199 223 255
199 223 255
199 223 255
199 223 255
199 223 255
199 223 255
199 223 255
199 224 255
199 224 255
200 224 255
200 224 255
200 224 255
200 224 255
200 224 255
200 224 255
200 224 255
200 224 255
200 224 255
200 224 255
200 224 255
200 224 255
200 224 255
200 224 255
200 224 255
200 224 255
201 224 255
201 224 255
201 224 255
201 224 255
201 224 255
201 224 255
201 224 255
201 224 255
201 224 255
201 224 255
201 225 255
201 225 255
201 225 255
201 225 255
202 225 255
202 225 255
202 225 255
202 225 255
202 225 255
202 225 255
202 225 255
202 225 255
202 225 255
202 225 255
202 225 255
202 225 255
202 225 255
202 225 255
202 225 255
203 225 255
203 225 255
203 225 255
203 225 255
203 225 255
203 225 255
203 225 255
203 225 255
203 226 255
203 226 255
203 226 255
203 226 255
203 226 255
203 226 255
203 226 255
204 226 255
204 226 255
204 226 255
204 226 255
204 226 255
204 226 255
204 226 255
204 226 255
204 226 255
204 226 255
204 226 255
204 226 255
204 226 255
204 226 255
204 226 255
204 226 255
205 226 255
205 226 255
205 226 255
205 226 255
205 226 255
205 226 255
205 226 255
205 227 255
205 227 255
205 227 255
205 227 255
205 227 255
205 227 255
205 227 255
205 227 255
205 227 255
205 227 255
205 227 255
206 227 255
206 227 255
206 227 255
206 227 255
206 227 255
206 227 255
206 227 255
206 227 255
206 227 255
206 227 255
206 227 255
206 227 255
206 227 255
206 227 255
206 227 255
206 227 255
206 227 255
206 227 255
206 227 255
207 227 255
207 227 255
207 227 255
207 227 255
207 227 255
207 228 255
207 228 255
207 228 255
207 228 255
207 228 255
207 228 255
207 228 255
207 228 255
207 228 255
207 228 255
207 228 255
207 228 255
207 228 255
207 228 255
207 227 255
207 227 255
207 227 255
207 227 255
207 227 255
206 227 255
206 227 255
206 227 255
206 227 255
206 227 255
206 227 255
206 227 255
206 227 255
206 227 255
206 227 255
206 227 255
206 227 255
206 227 255
206 227 255
206 227 255
206 227 255
206 227 255
206 227 255
206 227 255
205 227 255
205 227 255
205 227 255
205 227 255
205 227 255
205 227 255
205 227 255
205 227 255
205 227 255
205 227 255
205 226 255
205 226 255
205 226 255
205 226 255
205 226 255
205 226 255
205 226 255
204 226 255
204 226 255
204 226 255
204 226 255
204 226 255
204 226 255
204 226 255
204 226 255
204 226 255
204 226 255
204 226 255
204 226 255
204 226 255
204 226 255
204 226 255
204 226 255
203 226 255
203 226 255
203 226 255
203 226 255
203 226 255
203 226 255
203 226 255
203 225 255
203 225 255
203 225 255
203 225 255
203 225 255
203 225 255
203 225 255
203 225 255
203 225 255
202 225 255
202 225 255
202 225 255
202 225 255
202 225 255
202 225 255
202 225 255
202 225 255
202 225 255
202 225 255
202 225 255
202 225 255
202 225 255
202 225 255
201 225 255
201 225 255
201 225 255
201 225 255
201 225 255
201 224 255
201 224 255
201 224 255
201 224 255
201 224 255
201 224 255
201 224 255
201 224 255
201 224 255
201 224 255
200 224 255
200 224 255
200 224 255
200 224 255
200 224 255
200 224 255
200 224 255
200 224 255
200 224 255
200 224 255
200 224 255
200 224 255
200 224 255
200 224 255
200 224 255
199 224 255
199 224 255
199 224 255
199 223 255
199 223 255
199 223 255
199 223 255
199 223 255
199 223 255
199 223 255
199 223 255
199 223 255
199 223 255
199 223 255
199 223 255
199 223 255
198 223 255
198 223 255
198 223 255
198 223 255
198 223 255
198 223 255
198 223 255
198 223 255
198 223 255
198 223 255
198 223 255
198 223 255
198 223 255
198 223 255
198 223 255
198 223 255
198 223 255
198 223 255
198 223 255
198 223 255
197 223 255
197 222 255
197 222 255
197 222 255
197 222 255
197 222 255
197 222 255
197 222 255
197 222 255
197 222 255
197 222 255
197 222 255
197 222 255
197 222 255
197 222 255
197 222 255
197 222 255
197 222 255
197 222 255
197 222 255
197 222 255
197 222 255
197 222 255
197 222 255
197 222 255
197 222 255
197 222 255
197 222 255
197 222 255
197 222 255
197 222 255
197 222 255
197 222 255
197 222 255
197 222 255
197 222 255
197 222 255
197 222 255
197 222 255
197 222 255
197 222 255
197 222 255
197 222 255
197 222 255
197 222 255
197 222 255
197 222 255
197 222 255
197 222 255
197 222 255
197 222 255
197 222 255
197 222 255
197 222 255
197 222 255
197 222 255
197 222 255
197 222 255
197 222 255
197 222 255
197 222 255
197 222 255
197 222 255
197 222 255
197 222 255
197 222 255
197 222 255
197 222 255
197 222 255
197 222 255
197 222 255
197 222 255
197 222 255
197 222 255
197 222 255
197 222 255
197 223 255
198 223 255
198 223 255
198 223 255
198 223 255
198 223 255
198 223 255
198 223 255
198 223 255
198 223 255
198 223 255
198 223 255
198 223 255
198 223 255
198 223 255
198 223 255
198 223 255
198 223 255
198 223 255
198 223 255
198 223 255
199 223 255
199 223 255
199 223 255
199 223 255
199 223 255
199 223 255
199 223 255
199 223 255
199 223 255
199 223 255
199 223 255
199 223 255
199 223 255
199 224 255
199 224 255
199 224 255
200 224 255
200 224 255
200 224 255
200 224 255
200 224 255
200 224 255
200 224 255
200 224 255
200 224 255
200 224 255
200 224 255
200 224 255
200 224 255
200 224 255
200 224 255
201 224 255
201 224 255
201 224 255
201 224 255
201 224 255
201 224 255
201 224 255
201 224 255
201 224 255
201 224 255
201 225 255
201 225 255
201 225 255
201 225 255
201 225 255
202 225 255
202 225 255
202 225 255
202 225 255
202 225 255
202 225 255
202 225 255
202 225 255
202 225 255
202 225 255
202 225 255
202 225 255
202 225 255
202 225 255
202 225 255
203 225 255
203 225 255
203 225 255
203 225 255
203 225 255
203 225 255
203 225 255
203 225 255
203 226 255
203 226 255
203 226 255
203 226 255
203 226 255
203 226 255
203 226 255
204 226 255
204 226 255
204 226 255
204 226 255
204 226 255
204 226 255
204 226 255
204 226 255
204 226 255
204 226 255
204 226 255
204 226 255
204 226 255
204 226 255
204 226 255
204 226 255
205 226 255
205 226 255
205 226 255
205 226 255
205 226 255
205 226 255
205 226 255
205 227 255
205 227 255
205 227 255
205 227 255
205 227 255
205 227 255
205 227 255
205 227 255
205 227 255
205 227 255
206 227 255
206 227 255
206 227 255
206 227 255
206 227 255
206 227 255
206 227 255
206 227 255
206 227 255
206 227 255
206 227 255
206 227 255
206 227 255
206 227 255
206 227 255
206 227 255
206 227 255
206 227 255
206 227 255
207 227 255
207 227 255
207 227 255
207 227 255
207 227 255
207 228 255
207 228 255
207 228 255
207 228 255
207 228 255
207 228 255
207 228 255
207 228 255
207 228 255
207 228 255
207 228 255
207 228 255
207 228 255
207 228 255
207 228 255
207 228 255
207 228 255
207 228 255
207 228 255
207 228 255
207 227 255
207 227 255
207 227 255
207 227 255
207 227 255
206 227 255
206 227 255
206 227 255
206 227 255
206 227 255
206 227 255
206 227 255
206 227 255
206 227 255
206 227 255
206 227 255
206 227 255
206 227 255
206 227 255
206 227 255
206 227 255
206 227 255
206 227 255
206 227 255
205 227 255
205 227 255
205 227 255
205 227 255
205 227 255
205 227 255
205 227 255
205 227 255
205 227 255
205 227 255
205 226 255
205 226 255
205 226 255
205 226 255
205 226 255
205 226 255
205 226 255
204 226 255
204 226 255
204 226 255
204 226 255
204 226 255
204 226 255
204 226 255
204 226 255
204 226 255
204 226 255
204 226 255
204 226 255
204 226 255
204 226 255
204 226 255
204 226 255
203 226 255
203 226 255
203 226 255
203 226 255
203 226 255
203 226 255
203 226 255
203 225 255
203 225 255
203 225 255
203 225 255
203 225 255
203 225 255
203 225 255
203 225 255
202 225 255
202 225 255
202 225 255
202 225 255
202 225 255
202 225 255
202 225 255
202 225 255
202 225 255
202 225 255
202 225 255
202 225 255
202 225 255
202 225 255
202 225 255
201 225 255
201 225 255
201 225 255
201 225 255
201 224 255
201 224 255
201 224 255
201 224 255
201 224 255
201 224 255
201 224 255
201 224 255
201 224 255
201 224 255
201 224 255
200 224 255
200 224 255
200 224 255
200 224 255
200 224 255
200 224 255
200 224 255
200 224 255
200 224 255
200 224 255
200 224 255
200 224 255
200 224 255
200 224 255
200 224 255
199 224 255
199 224 255
199 223 255
199 223 255
199 223 255
199 223 255
199 223 255
199 223 255
199 223 255
199 223 255
199 223 255
199 223 255
199 223 255
199 223 255
199 223 255
199 223 255
198 223 255
198 223 255
198 223 255
198 223 255
198 223 255
198 223 255
198 223 255
198 223 255
198 223 255
198 223 255
198 223 255
198 223 255
198 223 255
198 223 255
198 223 255
198 223 255
198 223 255
198 223 255
198 223 255
198 223 255
198 223 255
197 223 255
197 222 255
197 222 255
197 222 255
197 222 255
197 222 255
197 222 255
197 222 255
197 222 255
197 222 255
197 222 255
197 222 255
197 222 255
197 222 255
197 222 255
197 222 255
197 222 255
197 222 255
197 222 255
197 222 255
197 222 255
197 222 255
197 222 255
197 222 255
197 222 255
197 222 255
197 222 255
197 222 255
197 222 255
197 222 255
197 222 255
197 222 255
197 222 255
197 222 255
197 222 255
197 222 255
197 222 255
197 222 255
197 222 255
197 222 255
197 222 255
197 222 255
197 222 255
197 222 255
197 222 255
197 222 255
197 222 255
197 222 255
197 222 255
197 222 255
197 222 255
197 222 255
197 222 255
197 222 255
197 222 255
197 222 255
197 222 255
197 222 255
197 222 255
197 222 255
197 222 255
197 222 255
197 222 255
197 222 255
197 222 255
197 222 255
197 222 255
197 222 255
197 223 255
198 223 255
198 223 255
198 223 255
198 223 255
198 223 255
198 223 255
198 223 255
198 223 255
198 223 255
198 223 255
198 223 255
198 223 255
198 223 255
198 223 255
198 223 255
198 223 255
198 223 255
198 223 255
198 223 255
198 223 255
198 223 255
199 223 255
199 223 255
199 223 255
199 223 255
199 223 255
199 223 255
199 223 255
199 223 255
199 223 255
199 223 255
199 223 255
199 223 255
199 223 255
199 223 255
199 224 255
199 224 255
200 224 255
200 224 255
200 224 255
200 224 255
200 224 255
200 224 255
200 224 255
200 224 255
200 224 255
200 224 255
200 224 255
200 224 255
200 224 255
200 224 255
200 224 255
201 224 255
201 224 255
201 224 255
201 224 255
201 224 255
201 224 255
201 224 255
201 224 255
201 224 255
201 224 255
201 224 255
201 225 255
201 225 255
201 225 255
201 225 255
202 225 255
202 225 255
202 225 255
202 225 255
202 225 255
202 225 255
202 225 255
202 225 255
202 225 255
202 225 255
202 225 255
202 225 255
202 225 255
202 225 255
202 225 255
203 225 255
203 225 255
203 225 255
203 225 255
203 225 255
203 225 255
203 225 255
203 225 255
203 226 255
203 226 255
203 226 255
203 226 255
203 226 255
203 226 255
203 226 255
204 226 255
204 226 255
204 226 255
204 226 255
204 226 255
204 226 255
204 226 255
204 226 255
204 226 255
204 226 255
204 226 255
204 226 255
204 226 255
204 226 255
204 226 255
204 226 255
205 226 255
205 226 255
205 226 255
205 226 255
205 226 255
205 226 255
205 226 255
205 227 255
205 227 255
205 227 255
205 227 255
205 227 255
205 227 255
205 227 255
205 227 255
205 227 255
205 227 255
205 227 255
206 227 255
206 227 255
206 227 255
206 227 255
206 227 255
206 227 255
206 227 255
206 227 255
206 227 255
206 227 255
206 227 255
206 227 255
206 227 255
206 227 255
206 227 255
206 227 255
206 227 255
206 227 255
207 227 255
207 227 255
207 227 255
207 227 255
207 227 255
207 228 255
207 228 255
207 228 255
207 228 255
207 228 255
207 228 255
207 228 255
207 228 255
207 228 255
207 228 255
207 228 255
207 228 255
207 228 255
207 228 255
207 228 255
207 228 255
207 228 255
207 228 255
207 228 255
207 228 255
207 228 255
207 228 255
207 228 255
207 228 255
207 228 255
207 228 255
207 227 255
207 227 255
207 227 255
207 227 255
207 227 255
206 227 255
206 227 255
206 227 255
206 227 255
206 227 255
206 227 255
206 227 255
206 227 255
206 227 255
206 227 255
206 227 255
206 227 255
206 227 255
206 227 255
206 227 255
206 227 255
206 227 255
206 227 255
205 227 255
205 227 255
205 227 255
205 227 255
205 227 255
205 227 255
205 227 255
205 227 255
205 227 255
205 227 255
205 227 255
205 226 255
205 226 255
205 226 255
205 226 255
205 226 255
205 226 255
204 226 255
204 226 255
204 226 255
204 226 255
204 226 255
204 226 255
204 226 255
204 226 255
204 226 255
204 226 255
204 226 255
204 226 255
204 226 255
204 226 255
204 226 255
204 226 255
203 226 255
203 226 255
203 226 255
203 226 255
203 226 255
203 226 255
203 226 255
203 225 255
203 225 255
203 225 255
203 225 255
203 225 255
203 225 255
203 225 255
203 225 255
202 225 255
202 225 255
202 225 255
202 225 255
202 225 255
202 225 255
202 225 255
202 225 255
202 225 255
202 225 255
202 225 255
202 225 255
202 225 255
202 225 255
202 225 255
201 225 255
201 225 255
201 225 255
201 225 255
201 225 255
201 224 255
201 224 255
201 224 255
201 224 255
201 224 255
201 224 255
201 224 255
201 224 255
201 224 255
201 224 255
200 224 255
200 224 255
200 224 255
200 224 255
200 224 255
200 224 255
200 224 255
200 224 255
200 224 255
200 224 255
200 224 255
200 224 255
200 224 255
200 224 255
200 224 255
200 224 255
199 224 255
199 224 255
199 223 255
199 223 255
199 223 255
199 223 255
199 223 255
199 223 255
199 223 255
199 223 255
199 223 255
199 223 255
199 223 255
199 223 255
199 223 255
199 223 255
199 223 255
198 223 255
198 223 255
198 223 255
198 223 255
198 223 255
198 223 255
198 223 255
198 223 255
198 223 255
198 223 255
198 223 255
198 223 255
198 223 255
198 223 255
198 223 255
198 223 255
198 223 255
198 223 255
198 223 255
198 223 255
198 223 255
198 223 255
197 223 255
197 222 255
197 222 255
197 222 255
197 222 255
197 222 255
197 222 255
197 222 255
197 222 255
197 222 255
197 222 255
197 222 255
197 222 255
197 222 255
197 222 255
197 222 255
197 222 255
197 222 255
197 222 255
197 222 255
197 222 255
197 222 255
197 222 255
197 222 255
197 222 255
197 222 255
197 222 255
197 222 255
197 222 255
197 222 255
197 222 255
197 222 255
197 222 255
197 222 255
197 222 255
197 222 255
197 222 255
197 222 255
197 222 255
197 222 255
197 222 255
197 222 255
197 222 255
197 222 255
197 222 255
197 222 255
197 222 255
197 222 255
197 222 255
197 222 255
197 222 255
197 222 255
197 222 255
197 222 255
197 222 255
197 222 255
197 222 255
197 222 255
197 223 255
198 223 255
198 223 255
198 223 255
198 223 255
198 223 255
198 223 255
198 223 255
198 223 255
198 223 255
198 223 255
198 223 255
198 223 255
198 223 255
198 223 255
198 223 255
198 223 255
198 223 255
198 223 255
198 223 255
198 223 255
198 223 255
198 223 255
199 223 255
199 223 255
199 223 255
199 223 255
199 223 255
199 223 255
199 223 255
199 223 255
199 223 255
199 223 255
199 223 255
199 223 255
199 223 255
199 223 255
199 223 255
199 224 255
199 224 255
200 224 255
200 224 255
200 224 255
200 224 255
200 224 255
200 224 255
200 224 255
200 224 255
200 224 255
200 224 255
200 224 255
200 224 255
200 224 255
200 224 255
200 224 255
200 224 255
201 224 255
201 224 255
201 224 255
201 224 255
201 224 255
201 224 255
201 224 255
201 224 255
201 224 255
201 224 255
201 225 255
201 225 255
201 225 255
201 225 255
201 225 255
202 225 255
202 225 255
202 225 255
202 225 255
202 225 255
202 225 255
202 225 255
202 225 255
202 225 255
202 225 255
202 225 255
202 225 255
202 225 255
202 225 255
202 225 255
203 225 255
203 225 255
203 225 255
203 225 255
203 225 255
203 225 255
203 225 255
203 225 255
203 226 255
203 226 255
203 226 255
203 226 255
203 226 255
203 226 255
203 226 255
204 226 255
204 226 255
204 226 255
204 226 255
204 226 255
204 226 255
204 226 255
204 226 255
204 226 255
204 226 255
204 226 255
204 226 255
204 226 255
204 226 255
204 226 255
204 226 255
205 226 255
205 226 255
205 226 255
205 226 255
205 226 255
205 226 255
205 226 255
205 227 255
205 227 255
205 227 255
205 227 255
205 227 255
205 227 255
205 227 255
205 227 255
205 227 255
205 227 255
206 227 255
206 227 255
206 227 255
206 227 255
206 227 255
206 227 255
206 227 255
206 227 255
206 227 255
206 227 255
206 227 255
206 227 255
206 227 255
206 227 255
206 227 255
206 227 255
206 227 255
206 227 255
207 227 255
207 227 255
207 227 255
207 227 255
207 227 255
207 228 255
207 228 255
207 228 255
207 228 255
207 228 255
207 228 255
207 228 255
207 228 255
207 228 255
207 228 255
207 228 255
207 228 255
207 228 255
207 228 255
207 228 255
208 228 255
207 228 255
207 228 255
207 228 255
207 228 255
207 228 255
207 228 255
207 228 255
207 228 255
207 228 255
207 228 255
207 228 255
207 228 255
207 228 255
207 228 255
207 228 255
207 228 255
207 227 255
207 227 255
207 227 255
207 227 255
207 227 255
206 227 255
206 227 255
206 227 255
206 227 255
206 227 255
206 227 255
206 227 255
206 227 255
206 227 255
206 227 255
206 227 255
206 227 255
206 227 255
206 227 255
206 227 255
206 227 255
206 227 255
206 227 255
205 227 255
205 227 255
205 227 255
205 227 255
205 227 255
205 227 255
205 227 255
205 227 255
205 227 255
205 227 255
205 226 255
205 226 255
205 226 255
205 226 255
205 226 255
205 226 255
205 226 255
204 226 255
204 226 255
204 226 255
204 226 255
204 226 255
204 226 255
204 226 255
204 226 255
204 226 255
204 226 255
204 226 255
204 226 255
204 226 255
204 226 255
204 226 255
204 226 255
203 226 255
203 226 255
203 226 255
203 226 255
203 226 255
203 226 255
203 225 255
203 225 255
203 225 255
203 225 255
203 225 255
203 225 255
203 225 255
203 225 255
203 225 255
202 225 255
202 225 255
202 225 255
202 225 255
202 225 255
202 225 255
202 225 255
202 225 255
202 225 255
202 225 255
202 225 255
202 225 255
202 225 255
202 225 255
202 225 255
201 225 255
201 225 255
201 225 255
201 225 255
201 224 255
201 224 255
201 224 255
201 224 255
201 224 255
201 224 255
201 224 255
201 224 255
201 224 255
201 224 255
201 224 255
200 224 255
200 224 255
200 224 255
200 224 255
200 224 255
200 224 255
200 224 255
200 224 255
200 224 255
200 224 255
200 224 255
200 224 255
200 224 255
200 224 255
200 224 255
199 224 255
199 224 255
199 224 255
199 223 255
199 223 255
199 223 255
199 223 255
199 223 255
199 223 255
199 223 255
199 223 255
199 223 255
199 223 255
199 223 255
199 223 255
199 223 255
199 223 255
199 223 255
198 223 255
198 223 255
198 223 255
198 223 255
198 223 255
198 223 255
198 223 255
198 223 255
198 223 255
198 223 255
198 223 255
198 223 255
198 223 255
198 223 255
198 223 255
198 223 255
198 223 255
198 223 255
198 223 255
198 223 255
198 223 255
198 223 255
198 223 255
198 223 255
198 223 255
197 223 255
197 222 255
197 222 255
197 222 255
197 222 255
197 222 255
197 222 255
197 222 255
197 222 255
197 222 255
197 222 255
197 222 255
197 222 255
197 222 255
197 222 255
197 222 255
197 222 255
197 222 255
197 222 255
197 222 255
197 222 255
197 222 255
197 222 255
197 222 255
197 222 255
197 222 255
197 222 255
197 222 255
197 222 255
197 222 255
197 222 255
197 222 255
197 222 255
197 222 255
197 222 255
197 222 255
197 222 255
197 222 255
197 222 255
197 222 255
197 222 255
197 222 255
197 222 255
197 222 255
197 222 255
197 222 255
197 223 255
198 223 255
198 223 255
198 223 255
198 223 255
198 223 255
198 223 255
198 223 255
198 223 255
198 223 255
198 223 255
198 223 255
198 223 255
198 223 255
198 223 255
198 223 255
198 223 255
198 223 255
198 223 255
198 223 255
198 223 255
198 223 255
198 223 255
198 223 255
198 223 255
198 223 255
199 223 255
199 223 255
199 223 255
199 223 255
199 223 255
199 223 255
199 223 255
199 223 255
199 223 255
199 223 255
199 223 255
199 223 255
199 223 255
199 223 255
199 223 255
199 224 255
199 224 255
199 224 255
200 224 255
200 224 255
200 224 255
200 224 255
200 224 255
200 224 255
200 224 255
200 224 255
200 224 255
200 224 255
200 224 255
200 224 255
200 224 255
200 224 255
200 224 255
201 224 255
201 224 255
201 224 255
201 224 255
201 224 255
201 224 255
201 224 255
201 224 255
201 224 255
201 224 255
201 224 255
201 225 255
201 225 255
201 225 255
201 225 255
202 225 255
202 225 255
202 225 255
202 225 255
202 225 255
202 225 255
202 225 255
202 225 255
202 225 255
202 225 255
202 225 255
202 225 255
202 225 255
202 225 255
202 225 255
203 225 255
203 225 255
203 225 255
203 225 255
203 225 255
203 225 255
203 225 255
203 225 255
203 226 255
203 226 255
203 226 255
203 226 255
203 226 255
203 226 255
203 226 255
204 226 255
204 226 255
204 226 255
204 226 255
204 226 255
204 226 255
204 226 255
204 226 255
204 226 255
204 226 255
204 226 255
204 226 255
204 226 255
204 226 255
204 226 255
204 226 255
205 226 255
205 226 255
205 226 255
205 226 255
205 226 255
205 226 255
205 226 255
205 227 255
205 227 255
205 227 255
205 227 255
205 227 255
205 227 255
205 227 255
205 227 255
205 227 255
205 227 255
206 227 255
206 227 255
206 227 255
206 227 255
206 227 255
206 227 255
206 227 255
206 227 255
206 227 255
206 227 255
206 227 255
206 227 255
206 227 255
206 227 255
206 227 255
206 227 255
206 227 255
206 227 255
207 227 255
207 227 255
207 227 255
207 227 255
207 227 255
207 228 255
207 228 255
207 228 255
207 228 255
207 228 255
207 228 255
207 228 255
207 228 255
207 228 255
207 228 255
207 228 255
207 228 255
207 228 255
207 228 255
207 228 255
207 228 255
208 228 255
208 228 255
208 228 255
208 228 255
208 228 255
208 228 255
207 228 255
207 228 255
207 228 255
207 228 255
207 228 255
207 228 255
207 228 255
207 228 255
207 228 255
207 228 255
207 228 255
207 228 255
207 228 255
207 228 255
207 228 255
207 228 255
207 227 255
207 227 255
207 227 255
207 227 255
206 227 255
206 227 255
206 227 255
206 227 255
206 227 255
206 227 255
206 227 255
206 227 255
206 227 255
206 227 255
206 227 255
206 227 255
206 227 255
206 227 255
206 227 255
206 227 255
206 227 255
206 227 255
205 227 255
205 227 255
205 227 255
205 227 255
205 227 255
205 227 255
205 227 255
205 227 255
205 227 255
205 227 255
205 227 255
205 226 255
205 226 255
205 226 255
205 226 255
205 226 255
205 226 255
204 226 255
204 226 255
204 226 255
204 226 255
204 226 255
204 226 255
204 226 255
204 226 255
204 226 255
204 226 255
204 226 255
204 226 255
204 226 255
204 226 255
204 226 255
204 226 255
203 226 255
203 226 255
203 226 255
203 226 255
203 226 255
203 226 255
203 226 255
203 225 255
203 225 255
203 225 255
203 225 255
203 225 255
203 225 255
203 225 255
203 225 255
203 225 255
202 225 255
202 225 255
202 225 255
202 225 255
202 225 255
202 225 255
202 225 255
202 225 255
202 225 255
202 225 255
202 225 255
202 225 255
202 225 255
202 225 255
202 225 255
201 225 255
201 225 255
201 225 255
201 225 255
201 224 255
201 224 255
201 224 255
201 224 255
201 224 255
201 224 255
201 224 255
201 224 255
201 224 255
201 224 255
201 224 255
200 224 255
200 224 255
200 224 255
200 224 255
200 224 255
200 224 255
200 224 255
200 224 255
200 224 255
200 224 255
200 224 255
200 224 255
200 224 255
200 224 255
200 224 255
199 224 255
199 224 255
199 224 255
199 223 255
199 223 255
199 223 255
199 223 255
199 223 255
199 223 255
199 223 255
199 223 255
199 223 255
199 223 255
199 223 255
199 223 255
199 223 255
199 223 255
199 223 255
199 223 255
198 223 255
198 223 255
198 223 255
198 223 255
198 223 255
198 223 255
198 223 255
198 223 255
198 223 255
198 223 255
198 223 255
198 223 255
198 223 255
198 223 255
198 223 255
198 223 255
198 223 255
198 223 255
198 223 255
198 223 255
198 223 255
198 223 255
198 223 255
198 223 255
198 223 255
198 223 255
198 223 255
198 223 255
197 223 255
197 223 255
197 222 255
197 222 255
197 222 255
197 222 255
197 222 255
197 222 255
197 222 255
197 222 255
197 222 255
197 222 255
197 222 255
197 222 255
197 222 255
197 222 255
197 222 255
197 222 255
197 222 255
197 222 255
197 222 255
197 222 255
197 222 255
197 222 255
197 222 255
197 222 255
197 222 255
197 222 255
197 222 255
197 222 255
197 222 255
197 222 255
197 223 255
198 223 255
198 223 255
198 223 255
198 223 255
198 223 255
198 223 255
198 223 255
198 223 255
198 223 255
198 223 255
198 223 255
198 223 255
198 223 255
198 223 255
198 223 255
198 223 255
198 223 255
198 223 255
198 223 255
198 223 255
198 223 255
198 223 255
198 223 255
198 223 255
198 223 255
198 223 255
198 223 255
198 223 255
199 223 255
199 223 255
199 223 255
199 223 255
199 223 255
199 223 255
199 223 255
199 223 255
199 223 255
199 223 255
199 223 255
199 223 255
199 223 255
199 223 255
199 223 255
199 223 255
199 224 255
199 224 255
199 224 255
200 224 255
200 224 255
200 224 255
200 224 255
200 224 255
200 224 255
200 224 255
200 224 255
200 224 255
200 224 255
200 224 255
200 224 255
200 224 255
200 224 255
200 224 255
200 224 255
201 224 255
201 224 255
201 224 255
201 224 255
201 224 255
201 224 255
201 224 255
201 224 255
201 224 255
201 224 255
201 225 255
201 225 255
201 225 255
201 225 255
202 225 255
202 225 255
202 225 255
202 225 255
202 225 255
202 225 255
202 225 255
202 225 255
202 225 255
202 225 255
202 225 255
202 225 255
202 225 255
202 225 255
202 225 255
203 225 255
203 225 255
203 225 255
203 225 255
203 225 255
203 225 255
203 225 255
203 225 255
203 225 255
203 226 255
203 226 255
203 226 255
203 226 255
203 226 255
203 226 255
203 226 255
204 226 255
204 226 255
204 226 255
204 226 255
204 226 255
204 226 255
204 226 255
204 226 255
204 226 255
204 226 255
204 226 255
204 226 255
204 226 255
204 226 255
204 226 255
204 226 255
205 226 255
205 226 255
205 226 255
205 226 255
205 226 255
205 226 255
205 227 255
205 227 255
205 227 255
205 227 255
205 227 255
205 227 255
205 227 255
205 227 255
205 227 255
205 227 255
206 227 255
206 227 255
206 227 255
206 227 255
206 227 255
206 227 255
206 227 255
206 227 255
206 227 255
206 227 255
206 227 255
206 227 255
206 227 255
206 227 255
206 227 255
206 227 255
206 227 255
206 227 255
206 227 255
207 227 255
207 227 255
207 227 255
207 227 255
207 228 255
207 228 255
207 228 255
207 228 255
207 228 255
207 228 255
207 228 255
207 228 255
207 228 255
207 228 255
207 228 255
207 228 255
207 228 255
207 228 255
207 228 255
207 228 255
208 228 255
208 228 255
208 228 255
208 228 255
208 228 255
208 228 255
208 228 255
208 228 255
208 228 255
208 228 255
208 228 255
208 228 255
207 228 255
207 228 255
207 228 255
207 228 255
207 228 255
207 228 255
207 228 255
207 228 255
207 228 255
207 228 255
207 228 255
207 228 255
207 228 255
207 228 255
207 228 255
207 228 255
207 227 255
207 227 255
207 227 255
207 227 255
206 227 255
206 227 255
206 227 255
206 227 255
206 227 255
206 227 255
206 227 255
206 227 255
206 227 255
206 227 255
206 227 255
206 227 255
206 227 255
206 227 255
206 227 255
206 227 255
206 227 255
206 227 255
205 227 255
205 227 255
205 227 255
205 227 255
205 227 255
205 227 255
205 227 255
205 227 255
205 227 255
205 227 255
205 227 255
205 226 255
205 226 255
205 226 255
205 226 255
205 226 255
205 226 255
204 226 255
204 226 255
204 226 255
204 226 255
204 226 255
204 226 255
204 226 255
204 226 255
204 226 255
204 226 255
204 226 255
204 226 255
204 226 255
204 226 255
204 226 255
204 226 255
203 226 255
203 226 255
203 226 255
203 226 255
203 226 255
203 226 255
203 226 255
203 225 255
203 225 255
203 225 255
203 225 255
203 225 255
203 225 255
203 225 255
203 225 255
202 225 255
202 225 255
202 225 255
202 225 255
202 225 255
202 225 255
202 225 255
202 225 255
202 225 255
202 225 255
202 225 255
202 225 255
202 225 255
202 225 255
202 225 255
201 225 255
201 225 255
201 225 255
201 225 255
201 225 255
201 224 255
201 224 255
201 224 255
201 224 255
201 224 255
201 224 255
201 224 255
201 224 255
201 224 255
201 224 255
200 224 255
200 224 255
200 224 255
200 224 255
200 224 255
200 224 255
200 224 255
200 224 255
200 224 255
200 224 255
200 224 255
200 224 255
200 224 255
200 224 255
200 224 255
200 224 255
200 224 255
199 224 255
199 224 255
199 223 255
199 223 255
199 223 255
199 223 255
199 223 255
199 223 255
199 223 255
199 223 255
199 223 255
199 223 255
199 223 255
199 223 255
199 223 255
199 223 255
199 223 255
199 223 255
199 223 255
198 223 255
198 223 255
198 223 255
198 223 255
198 223 255
198 223 255
198 223 255
198 223 255
198 223 255
198 223 255
198 223 255
198 223 255
198 223 255
198 223 255
198 223 255
198 223 255
198 223 255
198 223 255
198 223 255
198 223 255
198 223 255
198 223 255
198 223 255
198 223 255
198 223 255
198 223 255
198 223 255
198 223 255
198 223 255
198 223 255
198 223 255
198 223 255
198 223 255
198 223 255
198 223 255
198 223 255
198 223 255
198 223 255
198 223 255
198 223 255
198 223 255
198 223 255
198 223 255
198 223 255
198 223 255
198 223 255
198 223 255
198 223 255
198 223 255
198 223 255
198 223 255
198 223 255
198 223 255
198 223 255
198 223 255
198 223 255
198 223 255
198 223 255
198 223 255
198 223 255
198 223 255
198 223 255
198 223 255
198 223 255
198 223 255
198 223 255
198 223 255
198 223 255
198 223 255
198 223 255
198 223 255
198 223 255
198 223 255
198 223 255
198 223 255
198 223 255
198 223 255
198 223 255
198 223 255
198 223 255
198 223 255
199 223 255
199 223 255
199 223 255
199 223 255
199 223 255
199 223 255
199 223 255
199 223 255
199 223 255
199 223 255
199 223 255
199 223 255
199 223 255
199 223 255
199 223 255
199 223 255
199 223 255
199 224 255
199 224 255
200 224 255
200 224 255
200 224 255
200 224 255
200 224 255
200 224 255
200 224 255
200 224 255
200 224 255
200 224 255
200 224 255
200 224 255
200 224 255
200 224 255
200 224 255
200 224 255
201 224 255
201 224 255
201 224 255
201 224 255
201 224 255
201 224 255
201 224 255
201 224 255
201 224 255
201 224 255
201 224 255
201 224 255
201 225 255
201 225 255
201 225 255
201 225 255
202 225 255
202 225 255
202 225 255
202 225 255
202 225 255
202 225 255
202 225 255
202 225 255
202 225 255
202 225 255
202 225 255
202 225 255
202 225 255
202 225 255
202 225 255
203 225 255
203 225 255
203 225 255
203 225 255
203 225 255
203 225 255
203 225 255
203 225 255
203 226 255
203 226 255
203 226 255
203 226 255
203 226 255
203 226 255
203 226 255
204 226 255
204 226 255
204 226 255
204 226 255
204 226 255
204 226 255
204 226 255
204 226 255
204 226 255
204 226 255
204 226 255
204 226 255
204 226 255
204 226 255
204 226 255
204 226 255
205 226 255
205 226 255
205 226 255
205 226 255
205 226 255
205 226 255
205 227 255
205 227 255
205 227 255
205 227 255
205 227 255
205 227 255
205 227 255
205 227 255
205 227 255
205 227 255
205 227 255
206 227 255
206 227 255
206 227 255
206 227 255
206 227 255
206 227 255
206 227 255
206 227 255
206 227 255
206 227 255
206 227 255
206 227 255
206 227 255
206 227 255
206 227 255
206 227 255
206 227 255
206 227 255
207 227 255
207 227 255
207 227 255
207 227 255
207 228 255
207 228 255
207 228 255
207 228 255
207 228 255
207 228 255
207 228 255
207 228 255
207 228 255
207 228 255
207 228 255
207 228 255
207 228 255
207 228 255
207 228 255
207 228 255
208 228 255
208 228 255
208 228 255
208 228 255
208 228 255
208 228 255
208 228 255
208 228 255
208 228 255
208 228 255
208 228 255
208 228 255
208 228 255
208 228 255
208 228 255
208 228 255
208 228 255
208 228 255
207 228 255
207 228 255
207 228 255
207 228 255
207 228 255
207 228 255
207 228 255
207 228 255
207 228 255
207 228 255
207 228 255
207 228 255
207 228 255
207 228 255
207 228 255
207 228 255
207 227 255
207 227 255
207 227 255
207 227 255
206 227 255
206 227 255
206 227 255
206 227 255
206 227 255
206 227 255
206 227 255
206 227 255
206 227 255
206 227 255
206 227 255
206 227 255
206 227 255
206 227 255
206 227 255
206 227 255
206 227 255
206 227 255
205 227 255
205 227 255
205 227 255
205 227 255
205 227 255
205 227 255
205 227 255
205 227 255
205 227 255
205 227 255
205 226 255
205 226 255
205 226 255
205 226 255
205 226 255
205 226 255
205 226 255
204 226 255
204 226 255
204 226 255
204 226 255
204 226 255
204 226 255
204 226 255
204 226 255
204 226 255
204 226 255
204 226 255
204 226 255
204 226 255
204 226 255
204 226 255
204 226 255
203 226 255
203 226 255
203 226 255
203 226 255
203 226 255
203 226 255
203 225 255
203 225 255
203 225 255
203 225 255
203 225 255
203 225 255
203 225 255
203 225 255
203 225 255
202 225 255
202 225 255
202 225 255
202 225 255
202 225 255
202 225 255
202 225 255
202 225 255
202 225 255
202 225 255
202 225 255
202 225 255
202 225 255
202 225 255
202 225 255
201 225 255
201 225 255
201 225 255
201 225 255
201 224 255
201 224 255
201 224 255
201 224 255
201 224 255
201 224 255
201 224 255
201 224 255
201 224 255
201 224 255
201 224 255
200 224 255
200 224 255
200 224 255
200 224 255
200 224 255
200 224 255
200 224 255
200 224 255
200 224 255
200 224 255
200 224 255
200 224 255
200 224 255
200 224 255
200 224 255
200 224 255
200 224 255
199 224 255
199 224 255
199 224 255
199 223 255
199 223 255
199 223 255
199 223 255
199 223 255
199 223 255
199 223 255
199 223 255
199 223 255
199 223 255
199 223 255
199 223 255
199 223 255
199 223 255
199 223 255
199 223 255
199 223 255
198 223 255
198 223 255
198 223 255
198 223 255
198 223 255
198 223 255
198 223 255
198 223 255
198 223 255
198 223 255
198 223 255
198 223 255
198 223 255
198 223 255
198 223 255
198 223 255
198 223 255
198 223 255
198 223 255
198 223 255
198 223 255
198 223 255
198 223 255
198 223 255
198 223 255
198 223 255
198 223 255
198 223 255
198 223 255
198 223 255
198 223 255
198 223 255
198 223 255
198 223 255
198 223 255
198 223 255
198 223 255
198 223 255
198 223 255
198 223 255
198 223 255
198 223 255
198 223 255
198 223 255
198 223 255
198 223 255
198 223 255
198 223 255
198 223 255
198 223 255
198 223 255
198 223 255
198 223 255
198 223 255
198 223 255
198 223 255
198 223 255
198 223 255
198 223 255
198 223 255
198 223 255
198 223 255
198 223 255
198 223 255
198 223 255
198 223 255
198 223 255
198 223 255
198 223 255
198 223 255
198 223 255
198 223 255
198 223 255
199 223 255
199 223 255
199 223 255
199 223 255
199 223 255
199 223 255
199 223 255
199 223 255
199 223 255
199 223 255
199 223 255
199 223 255
199 223 255
199 223 255
199 223 255
199 223 255
199 223 255
199 224 255
199 224 255
199 224 255
200 224 255
200 224 255
200 224 255
200 224 255
200 224 255
200 224 255
200 224 255
200 224 255
200 224 255
200 224 255
200 224 255
200 224 255
200 224 255
200 224 255
200 224 255
200 224 255
200 224 255
201 224 255
201 224 255
201 224 255
201 224 255
201 224 255
201 224 255
201 224 255
201 224 255
201 224 255
201 224 255
201 224 255
201 225 255
201 225 255
201 225 255
201 225 255
202 225 255
202 225 255
202 225 255
202 225 255
202 225 255
202 225 255
202 225 255
202 225 255
202 225 255
202 225 255
202 225 255
202 225 255
202 225 255
202 225 255
202 225 255
203 225 255
203 225 255
203 225 255
203 225 255
203 225 255
203 225 255
203 225 255
203 225 255
203 225 255
203 226 255
203 226 255
203 226 255
203 226 255
203 226 255
203 226 255
204 226 255
204 226 255
204 226 255
204 226 255
204 226 255
204 226 255
204 226 255
204 226 255
204 226 255
204 226 255
204 226 255
204 226 255
204 226 255
204 226 255
204 226 255
204 226 255
205 226 255
205 226 255
205 226 255
205 226 255
205 226 255
205 226 255
205 226 255
205 227 255
205 227 255
205 227 255
205 227 255
205 227 255
205 227 255
205 227 255
205 227 255
205 227 255
205 227 255
206 227 255
206 227 255
206 227 255
206 227 255
206 227 255
206 227 255
206 227 255
206 227 255
206 227 255
206 227 255
206 227 255
206 227 255
206 227 255
206 227 255
206 227 255
206 227 255
206 227 255
206 227 255
207 227 255
207 227 255
207 227 255
207 227 255
207 227 255
207 228 255
207 228 255
207 228 255
207 228 255
207 228 255
207 228 255
207 228 255
207 228 255
207 228 255
207 228 255
207 228 255
207 228 255
207 228 255
207 228 255
208 228 255
208 228 255
208 228 255
208 228 255
208 228 255
208 228 255
208 228 255
208 228 255
208 228 255
208 228 255
208 228 255
208 228 255
208 228 255
208 228 255
208 228 255
208 228 255
208 228 255
208 228 255
208 228 255
208 228 255
208 228 255
208 228 255
208 228 255
208 228 255
208 228 255
208 228 255
207 228 255
207 228 255
207 228 255
207 228 255
207 228 255
207 228 255
207 228 255
207 228 255
207 228 255
207 228 255
207 228 255
207 228 255
207 228 255
207 228 255
207 227 255
207 227 255
207 227 255
207 227 255
207 227 255
206 227 255
206 227 255
206 227 255
206 227 255
206 227 255
206 227 255
206 227 255
206 227 255
206 227 255
206 227 255
206 227 255
206 227 255
206 227 255
206 227 255
206 227 255
206 227 255
206 227 255
206 227 255
205 227 255
205 227 255
205 227 255
205 227 255
205 227 255
205 227 255
205 227 255
205 227 255
205 227 255
205 227 255
205 226 255
205 226 255
205 226 255
205 226 255
205 226 255
205 226 255
204 226 255
204 226 255
204 226 255
204 226 255
204 226 255
204 226 255
204 226 255
204 226 255
204 226 255
204 226 255
204 226 255
204 226 255
204 226 255
204 226 255
204 226 255
204 226 255
203 226 255
203 226 255
203 226 255
203 226 255
203 226 255
203 226 255
203 226 255
203 225 255
203 225 255
203 225 255
203 225 255
203 225 255
203 225 255
203 225 255
203 225 255
203 225 255
202 225 255
202 225 255
202 225 255
202 225 255
202 225 255
202 225 255
202 225 255
202 225 255
202 225 255
202 225 255
202 225 255
202 225 255
202 225 255
202 225 255
202 225 255
201 225 255
201 225 255
201 225 255
201 225 255
201 224 255
201 224 255
201 224 255
201 224 255
201 224 255
201 224 255
201 224 255
201 224 255
201 224 255
201 224 255
201 224 255
200 224 255
200 224 255
200 224 255
200 224 255
200 224 255
200 224 255
200 224 255
200 224 255
200 224 255
200 224 255
200 224 255
200 224 255
200 224 255
200 224 255
200 224 255
200 224 255
200 224 255
199 224 255
199 224 255
199 224 255
199 223 255
199 223 255
199 223 255
199 223 255
199 223 255
199 223 255
199 223 255
199 223 255
199 223 255
199 223 255
199 223 255
199 223 255
199 223 255
199 223 255
199 223 255
199 223 255
199 223 255
199 223 255
199 223 255
198 223 255
198 223 255
198 223 255
198 223 255
198 223 255
198 223 255
198 223 255
198 223 255
198 223 255
198 223 255
198 223 255
198 223 255
198 223 255
198 223 255
198 223 255
198 223 255
198 223 255
198 223 255
198 223 255
198 223 255
198 223 255
198 223 255
198 223 255
198 223 255
198 223 255
198 223 255
198 223 255
198 223 255
198 223 255
198 223 255
198 223 255
198 223 255
198 223 255
198 223 255
198 223 255
198 223 255
198 223 255
198 223 255
198 223 255
198 223 255
198 223 255
198 223 255
198 223 255
198 223 255
198 223 255
198 223 255
198 223 255
198 223 255
198 223 255
198 223 255
198 223 255
198 223 255
198 223 255
198 223 255
198 223 255
198 223 255
198 223 255
198 223 255
198 223 255
198 223 255
198 223 255
198 223 255
198 223 255
199 223 255
199 223 255
199 223 255
199 223 255
199 223 255
199 223 255
199 223 255
199 223 255
199 223 255
199 223 255
199 223 255
199 223 255
199 223 255
199 223 255
199 223 255
199 223 255
199 223 255
199 223 255
199 223 255
199 224 255
199 224 255
199 224 255
200 224 255
200 224 255
200 224 255
200 224 255
200 224 255
200 224 255
200 224 255
200 224 255
200 224 255
200 224 255
200 224 255
200 224 255
200 224 255
200 224 255
200 224 255
200 224 255
200 224 255
201 224 255
201 224 255
201 224 255
201 224 255
201 224 255
201 224 255
201 224 255
201 224 255
201 224 255
201 224 255
201 224 255
201 225 255
201 225 255
201 225 255
201 225 255
202 225 255
202 225 255
202 225 255
202 225 255
202 225 255
202 225 255
202 225 255
202 225 255
202 225 255
202 225 255
202 225 255
202 225 255
202 225 255
202 225 255
202 225 255
203 225 255
203 225 255
203 225 255
203 225 255
203 225 255
203 225 255
203 225 255
203 225 255
203 225 255
203 226 255
203 226 255
203 226 255
203 226 255
203 226 255
203 226 255
203 226 255
204 226 255
204 226 255
204 226 255
204 226 255
204 226 255
204 226 255
204 226 255
204 226 255
204 226 255
204 226 255
204 226 255
204 226 255
204 226 255
204 226 255
204 226 255
205 226 255
205 226 255
205 226 255
205 226 255
205 226 255
205 226 255
205 226 255
205 227 255
205 227 255
205 227 255
205 227 255
205 227 255
205 227 255
205 227 255
205 227 255
205 227 255
205 227 255
206 227 255
206 227 255
206 227 255
206 227 255
206 227 255
206 227 255
206 227 255
206 227 255
206 227 255
206 227 255
206 227 255
206 227 255
206 227 255
206 227 255
206 227 255
206 227 255
206 227 255
206 227 255
207 227 255
207 227 255
207 227 255
207 227 255
207 227 255
207 228 255
207 228 255
207 228 255
207 228 255
207 228 255
207 228 255
207 228 255
207 228 255
207 228 255
207 228 255
207 228 255
207 228 255
207 228 255
207 228 255
208 228 255
208 228 255
208 228 255
208 228 255
208 228 255
208 228 255
208 228 255
208 228 255
208 228 255
208 228 255
208 228 255
208 228 255
208 228 255
208 228 255
208 228 255
208 228 255
208 228 255
208 228 255
208 228 255
208 228 255
208 228 255
208 228 255
208 228 255
208 228 255
208 228 255
208 228 255
208 228 255
208 228 255
208 228 255
208 228 255
208 228 255
207 228 255
207 228 255
207 228 255
207 228 255
207 228 255
207 228 255
207 228 255
207 228 255
207 228 255
207 228 255
207 228 255
207 228 255
207 228 255
207 228 255
207 228 255
207 227 255
207 227 255
207 227 255
207 227 255
207 227 255
206 227 255
206 227 255
206 227 255
206 227 255
206 227 255
206 227 255
206 227 255
206 227 255
206 227 255
206 227 255
206 227 255
206 227 255
206 227 255
206 227 255
206 227 255
206 227 255
206 227 255
206 227 255
205 227 255
205 227 255
205 227 255
205 227 255
205 227 255
205 227 255
205 227 255
205 227 255
205 227 255
205 227 255
205 226 255
205 226 255
205 226 255
205 226 255
205 226 255
205 226 255
204 226 255
204 226 255
204 226 255
204 226 255
204 226 255
204 226 255
204 226 255
204 226 255
204 226 255
204 226 255
204 226 255
204 226 255
204 226 255
204 226 255
204 226 255
204 226 255
203 226 255
203 226 255
203 226 255
203 226 255
203 226 255
203 226 255
203 226 255
203 225 255
203 225 255
203 225 255
203 225 255
203 225 255
203 225 255
203 225 255
203 225 255
202 225 255
202 225 255
202 225 255
202 225 255
202 225 255
202 225 255
202 225 255
202 225 255
202 225 255
202 225 255
202 225 255
202 225 255
202 225 255
202 225 255
202 225 255
201 225 255
201 225 255
201 225 255
201 225 255
201 225 255
201 224 255
201 224 255
201 224 255
201 224 255
201 224 255
201 224 255
201 224 255
201 224 255
201 224 255
201 224 255
201 224 255
200 224 255
200 224 255
200 224 255
200 224 255
200 224 255
200 224 255
200 224 255
200 224 255
200 224 255
200 224 255
200 224 255
200 224 255
200 224 255
200 224 255
200 224 255
200 224 255
200 224 255
200 224 255
199 224 255
199 224 255
199 224 255
199 223 255
199 223 255
199 223 255
199 223 255
199 223 255
199 223 255
199 223 255
199 223 255
199 223 255
199 223 255
199 223 255
199 223 255
199 223 255
199 223 255
199 223 255
199 223 255
199 223 255
199 223 255
199 223 255
199 223 255
199 223 255
198 223 255
198 223 255
198 223 255
198 223 255
198 223 255
198 223 255
198 223 255
198 223 255
198 223 255
198 223 255
198 223 255
198 223 255
198 223 255
198 223 255
198 223 255
198 223 255
198 223 255
198 223 255
198 223 255
198 223 255
198 223 255
198 223 255
198 223 255
198 223 255
198 223 255
198 223 255
198 223 255
198 223 255
198 223 255
198 223 255
198 223 255
198 223 255
198 223 255
198 223 255
198 223 255
198 223 255
198 223 255
198 223 255
198 223 255
198 223 255
198 223 255
198 223 255
198 223 255
198 223 255
198 223 255
198 223 255
198 223 255
198 223 255
198 223 255
198 223 255
198 223 255
198 223 255
199 223 255
199 223 255
199 223 255
199 223 255
199 223 255
199 223 255
199 223 255
199 223 255
199 223 255
199 223 255
199 223 255
199 223 255
199 223 255
199 223 255
199 223 255
199 223 255
199 223 255
199 223 255
199 223 255
199 223 255
199 224 255
199 224 255
199 224 255
200 224 255
200 224 255
200 224 255
200 224 255
200 224 255
200 224 255
200 224 255
200 224 255
200 224 255
200 224 255
200 224 255
200 224 255
200 224 255
200 224 255
200 224 255
200 224 255
200 224 255
200 224 255
201 224 255
201 224 255
201 224 255
201 224 255
201 224 255
201 224 255
201 224 255
201 224 255
201 224 255
201 224 255
201 224 255
201 225 255
201 225 255
201 225 255
201 225 255
201 225 255
202 225 255
202 225 255
202 225 255
202 225 255
202 225 255
202 225 255
202 225 255
202 225 255
202 225 255
202 225 255
202 225 255
202 225 255
202 225 255
202 225 255
202 225 255
203 225 255
203 225 255
203 225 255
203 225 255
203 225 255
203 225 255
203 225 255
203 225 255
203 226 255
203 226 255
203 226 255
203 226 255
203 226 255
203 226 255
203 226 255
204 226 255
204 226 255
204 226 255
204 226 255
204 226 255
204 226 255
204 226 255
204 226 255
204 226 255
204 226 255
204 226 255
204 226 255
204 226 255
204 226 255
204 226 255
204 226 255
205 226 255
205 226 255
205 226 255
205 226 255
205 226 255
205 226 255
205 227 255
205 227 255
205 227 255
205 227 255
205 227 255
205 227 255
205 227 255
205 227 255
205 227 255
205 227 255
206 227 255
206 227 255
206 227 255
206 227 255
206 227 255
206 227 255
206 227 255
206 227 255
206 227 255
206 227 255
206 227 255
206 227 255
206 227 255
206 227 255
206 227 255
206 227 255
206 227 255
206 227 255
207 227 255
207 227 255
207 227 255
207 227 255
207 227 255
207 228 255
207 228 255
207 228 255
207 228 255
207 228 255
207 228 255
207 228 255
207 228 255
207 228 255
207 228 255
207 228 255
207 228 255
207 228 255
207 228 255
208 228 255
208 228 255
208 228 255
208 228 255
208 228 255
208 228 255
208 228 255
208 228 255
208 228 255
208 228 255
208 228 255
208 228 255
208 228 255
208 228 255
208 228 255
208 228 255
208 228 255
208 228 255
208 228 255
208 228 255
208 228 255
208 228 255
208 228 255
208 228 255
208 228 255
208 228 255
208 228 255
208 228 255
208 228 255
208 228 255
208 228 255
208 228 255
208 228 255
208 228 255
208 228 255
208 228 255
208 228 255
207 228 255
207 228 255
207 228 255
207 228 255
207 228 255
207 228 255
207 228 255
207 228 255
207 228 255
207 228 255
207 228 255
207 228 255
207 228 255
207 228 255
207 228 255
207 227 255
207 227 255
207 227 255
207 227 255
207 227 255
206 227 255
206 227 255
206 227 255
206 227 255
206 227 255
206 227 255
206 227 255
206 227 255
206 227 255
206 227 255
206 227 255
206 227 255
206 227 255
206 227 255
206 227 255
206 227 255
206 227 255
206 227 255
205 227 255
205 227 255
205 227 255
205 227 255
205 227 255
205 227 255
205 227 255
205 227 255
205 227 255
205 226 255
205 226 255
205 226 255
205 226 255
205 226 255
205 226 255
205 226 255
204 226 255
204 226 255
204 226 255
204 226 255
204 226 255
204 226 255
204 226 255
204 226 255
204 226 255
204 226 255
204 226 255
204 226 255
204 226 255
204 226 255
204 226 255
204 226 255
203 226 255
203 226 255
203 226 255
203 226 255
203 226 255
203 226 255
203 226 255
203 225 255
203 225 255
203 225 255
203 225 255
203 225 255
203 225 255
203 225 255
203 225 255
202 225 255
202 225 255
202 225 255
202 225 255
202 225 255
202 225 255
202 225 255
202 225 255
202 225 255
202 225 255
202 225 255
202 225 255
202 225 255
202 225 255
202 225 255
201 225 255
201 225 255
201 225 255
201 225 255
201 225 255
201 224 255
201 224 255
201 224 255
201 224 255
201 224 255
201 224 255
201 224 255
201 224 255
201 224 255
201 224 255
201 224 255
200 224 255
200 224 255
200 224 255
200 224 255
200 224 255
200 224 255
200 224 255
200 224 255
200 224 255
200 224 255
200 224 255
200 224 255
200 224 255
200 224 255
200 224 255
200 224 255
200 224 255
200 224 255
200 224 255
199 224 255
199 224 255
199 224 255
199 223 255
199 223 255
199 223 255
199 223 255
199 223 255
199 223 255
199 223 255
199 223 255
199 223 255
199 223 255
199 223 255
199 223 255
199 223 255
199 223 255
199 223 255
199 223 255
199 223 255
199 223 255
199 223 255
199 223 255
199 223 255
199 223 255
199 223 255
198 223 255
198 223 255
198 223 255
198 223 255
198 223 255
198 223 255
198 223 255
198 223 255
198 223 255
198 223 255
198 223 255
198 223 255
198 223 255
198 223 255
198 223 255
198 223 255
198 223 255
198 223 255
198 223 255
198 223 255
198 223 255
198 223 255
198 223 255
198 223 255
198 223 255
198 223 255
198 223 255
198 223 255
198 223 255
198 223 255
198 223 255
198 223 255
198 223 255
198 223 255
198 223 255
198 223 255
198 223 255
198 223 255
198 223 255
199 223 255
199 223 255
199 223 255
199 223 255
199 223 255
199 223 255
199 223 255
199 223 255
199 223 255
199 223 255
199 223 255
199 223 255
199 223 255
199 223 255
199 223 255
199 223 255
199 223 255
199 223 255
199 223 255
199 223 255
199 223 255
199 223 255
199 223 255
199 224 255
199 224 255
199 224 255
200 224 255
200 224 255
200 224 255
200 224 255
200 224 255
200 224 255
200 224 255
200 224 255
200 224 255
200 224 255
200 224 255
200 224 255
200 224 255
200 224 255
200 224 255
200 224 255
200 224 255
200 224 255
200 224 255
201 224 255
201 224 255
201 224 255
201 224 255
201 224 255
201 224 255
201 224 255
201 224 255
201 224 255
201 224 255
201 224 255
201 225 255
201 225 255
201 225 255
201 225 255
201 225 255
202 225 255
202 225 255
202 225 255
202 225 255
202 225 255
202 225 255
202 225 255
202 225 255
202 225 255
202 225 255
202 225 255
202 225 255
202 225 255
202 225 255
202 225 255
203 225 255
203 225 255
203 225 255
203 225 255
203 225 255
203 225 255
203 225 255
203 225 255
203 225 255
203 226 255
203 226 255
203 226 255
203 226 255
203 226 255
203 226 255
204 226 255
204 226 255
204 226 255
204 226 255
204 226 255
204 226 255
204 226 255
204 226 255
204 226 255
204 226 255
204 226 255
204 226 255
204 226 255
204 226 255
204 226 255
204 226 255
205 226 255
205 226 255
205 226 255
205 226 255
205 226 255
205 226 255
205 227 255
205 227 255
205 227 255
205 227 255
205 227 255
205 227 255
205 227 255
205 227 255
205 227 255
205 227 255
206 227 255
206 227 255
206 227 255
206 227 255
206 227 255
206 227 255
206 227 255
206 227 255
206 227 255
206 227 255
206 227 255
206 227 255
206 227 255
206 227 255
206 227 255
206 227 255
206 227 255
206 227 255
207 227 255
207 227 255
207 227 255
207 227 255
207 227 255
207 228 255
207 228 255
207 228 255
207 228 255
207 228 255
207 228 255
207 228 255
207 228 255
207 228 255
207 228 255
207 228 255
207 228 255
207 228 255
207 228 255
208 228 255
208 228 255
208 228 255
208 228 255
208 228 255
208 228 255
208 228 255
208 228 255
208 228 255
208 228 255
208 228 255
208 228 255
208 228 255
208 228 255
208 228 255
208 228 255
208 228 255
208 228 255
208 228 255
208 228 255
208 228 255
209 228 255
208 228 255
208 228 255
208 228 255
208 228 255
208 228 255
208 228 255
208 228 255
208 228 255
208 228 255
208 228 255
208 228 255
208 228 255
208 228 255
208 228 255
208 228 255
208 228 255
208 228 255
208 228 255
208 228 255
208 228 255
208 228 255
208 228 255
207 228 255
207 228 255
207 228 255
207 228 255
207 228 255
207 228 255
207 228 255
207 228 255
207 228 255
207 228 255
207 228 255
207 228 255
207 228 255
207 228 255
207 227 255
207 227 255
207 227 255
207 227 255
207 227 255
206 227 255
206 227 255
206 227 255
206 227 255
206 227 255
206 227 255
206 227 255
206 227 255
206 227 255
206 227 255
206 227 255
206 227 255
206 227 255
206 227 255
206 227 255
206 227 255
206 227 255
205 227 255
205 227 255
205 227 255
205 227 255
205 227 255
205 227 255
205 227 255
205 227 255
205 227 255
205 227 255
205 226 255
205 226 255
205 226 255
205 226 255
205 226 255
205 226 255
205 226 255
204 226 255
204 226 255
204 226 255
204 226 255
204 226 255
204 226 255
204 226 255
204 226 255
204 226 255
204 226 255
204 226 255
204 226 255
204 226 255
204 226 255
204 226 255
204 226 255
203 226 255
203 226 255
203 226 255
203 226 255
203 226 255
203 226 255
203 225 255
203 225 255
203 225 255
203 225 255
203 225 255
203 225 255
203 225 255
203 225 255
203 225 255
202 225 255
202 225 255
202 225 255
202 225 255
202 225 255
202 225 255
202 225 255
202 225 255
202 225 255
202 225 255
202 225 255
202 225 255
202 225 255
202 225 255
202 225 255
201 225 255
201 225 255
201 225 255
201 225 255
201 225 255
201 224 255
201 224 255
201 224 255
201 224 255
201 224 255
201 224 255
201 224 255
201 224 255
201 224 255
201 224 255
201 224 255
201 224 255
200 224 255
200 224 255
200 224 255
200 224 255
200 224 255
200 224 255
200 224 255
200 224 255
200 224 255
200 224 255
200 224 255
200 224 255
200 224 255
200 224 255
200 224 255
200 224 255
200 224 255
200 224 255
200 224 255
199 224 255
199 224 255
199 224 255
199 223 255
199 223 255
199 223 255
199 223 255
199 223 255
199 223 255
199 223 255
199 223 255
199 223 255
199 223 255
199 223 255
199 223 255
199 223 255
199 223 255
199 223 255
199 223 255
199 223 255
199 223 255
199 223 255
199 223 255
199 223 255
199 223 255
199 223 255
199 223 255
199 223 255
199 223 255
199 223 255
199 223 255
199 223 255
199 223 255
199 223 255
198 223 255
198 223 255
198 223 255
198 223 255
198 223 255
198 223 255
198 223 255
198 223 255
198 223 255
198 223 255
198 223 255
198 223 255
198 223 255
198 223 255
199 223 255
199 223 255
199 223 255
199 223 255
199 223 255
199 223 255
199 223 255
199 223 255
199 223 255
199 223 255
199 223 255
199 223 255
199 223 255
199 223 255
199 223 255
199 223 255
199 223 255
199 223 255
199 223 255
199 223 255
199 223 255
199 223 255
199 223 255
199 223 255
199 223 255
199 223 255
199 223 255
199 223 255
199 223 255
199 223 255
199 223 255
199 223 255
199 224 255
199 224 255
199 224 255
200 224 255
200 224 255
200 224 255
200 224 255
200 224 255
200 224 255
200 224 255
200 224 255
200 224 255
200 224 255
200 224 255
200 224 255
200 224 255
200 224 255
200 224 255
200 224 255
200 224 255
200 224 255
200 224 255
201 224 255
201 224 255
201 224 255
201 224 255
201 224 255
201 224 255
201 224 255
201 224 255
201 224 255
201 224 255
201 224 255
201 224 255
201 225 255
201 225 255
201 225 255
201 225 255
201 225 255
202 225 255
202 225 255
202 225 255
202 225 255
202 225 255
202 225 255
202 225 255
202 225 255
202 225 255
202 225 255
202 225 255
202 225 255
202 225 255
202 225 255
202 225 255
203 225 255
203 225 255
203 225 255
203 225 255
203 225 255
203 225 255
203 225 255
203 225 255
203 225 255
203 226 255
203 226 255
203 226 255
203 226 255
203 226 255
203 226 255
204 226 255
204 226 255
204 226 255
204 226 255
204 226 255
204 226 255
204 226 255
204 226 255
204 226 255
204 226 255
204 226 255
204 226 255
204 226 255
204 226 255
204 226 255
204 226 255
205 226 255
205 226 255
205 226 255
205 226 255
205 226 255
205 226 255
205 226 255
205 227 255
205 227 255
205 227 255
205 227 255
205 227 255
205 227 255
205 227 255
205 227 255
205 227 255
205 227 255
206 227 255
206 227 255
206 227 255
206 227 255
206 227 255
206 227 255
206 227 255
206 227 255
206 227 255
206 227 255
206 227 255
206 227 255
206 227 255
206 227 255
206 227 255
206 227 255
206 227 255
207 227 255
207 227 255
207 227 255
207 227 255
207 227 255
207 228 255
207 228 255
207 228 255
207 228 255
207 228 255
207 228 255
207 228 255
207 228 255
207 228 255
207 228 255
207 228 255
207 228 255
207 228 255
207 228 255
208 228 255
208 228 255
208 228 255
208 228 255
208 228 255
208 228 255
208 228 255
208 228 255
208 228 255
208 228 255
208 228 255
208 228 255
208 228 255
208 228 255
208 228 255
208 228 255
208 228 255
208 228 255
208 228 255
208 228 255
208 228 255
208 228 255
209 228 255
209 229 255
209 229 255
209 229 255
209 229 255
209 228 255
209 228 255
208 228 255
208 228 255
208 228 255
208 228 255
208 228 255
208 228 255
208 228 255
208 228 255
208 228 255
208 228 255
208 228 255
208 228 255
208 228 255
208 228 255
208 228 255
208 228 255
208 228 255
208 228 255
208 228 255
208 228 255
208 228 255
207 228 255
207 228 255
207 228 255
207 228 255
207 228 255
207 228 255
207 228 255
207 228 255
207 228 255
207 228 255
207 228 255
207 228 255
207 228 255
207 228 255
207 227 255
207 227 255
207 227 255
207 227 255
207 227 255
206 227 255
206 227 255
206 227 255
206 227 255
206 227 255
206 227 255
206 227 255
206 227 255
206 227 255
206 227 255
206 227 255
206 227 255
206 227 255
206 227 255
206 227 255
206 227 255
206 227 255
205 227 255
205 227 255
205 227 255
205 227 255
205 227 255
205 227 255
205 227 255
205 227 255
205 227 255
205 227 255
205 226 255
205 226 255
205 226 255
205 226 255
205 226 255
205 226 255
205 226 255
204 226 255
204 226 255
204 226 255
204 226 255
204 226 255
204 226 255
204 226 255
204 226 255
204 226 255
204 226 255
204 226 255
204 226 255
204 226 255
204 226 255
204 226 255
203 226 255
203 226 255
203 226 255
203 226 255
203 226 255
203 226 255
203 226 255
203 225 255
203 225 255
203 225 255
203 225 255
203 225 255
203 225 255
203 225 255
203 225 255
203 225 255
202 225 255
202 225 255
202 225 255
202 225 255
202 225 255
202 225 255
202 225 255
202 225 255
202 225 255
202 225 255
202 225 255
202 225 255
202 225 255
202 225 255
202 225 255
201 225 255
201 225 255
201 225 255
201 225 255
201 225 255
201 224 255
201 224 255
201 224 255
201 224 255
201 224 255
201 224 255
201 224 255
201 224 255
201 224 255
201 224 255
201 224 255
201 224 255
200 224 255
200 224 255
200 224 255
200 224 255
200 224 255
200 224 255
200 224 255
200 224 255
200 224 255
200 224 255
200 224 255
200 224 255
200 224 255
200 224 255
200 224 255
200 224 255
200 224 255
200 224 255
200 224 255
200 224 255
199 224 255
199 224 255
199 224 255
199 224 255
199 223 255
199 223 255
199 223 255
199 223 255
199 223 255
199 223 255
199 223 255
199 223 255
199 223 255
199 223 255
199 223 255
199 223 255
199 223 255
199 223 255
199 223 255
199 223 255
199 223 255
199 223 255
199 223 255
199 223 255
199 223 255
199 223 255
199 223 255
199 223 255
199 223 255
199 223 255
199 223 255
199 223 255
199 223 255
199 223 255
199 223 255
199 223 255
199 223 255
199 223 255
199 223 255
199 223 255
199 223 255
199 223 255
199 223 255
199 223 255
199 223 255
199 223 255
199 223 255
199 223 255
199 223 255
199 223 255
199 223 255
199 223 255
199 223 255
199 223 255
199 223 255
199 223 255
199 223 255
199 223 255
199 223 255
199 223 255
199 223 255
199 223 255
199 223 255
199 223 255
199 223 255
199 223 255
199 223 255
199 223 255
199 223 255
199 223 255
199 223 255
199 224 255
199 224 255
199 224 255
199 224 255
200 224 255
200 224 255
200 224 255
200 224 255
200 224 255
200 224 255
200 224 255
200 224 255
200 224 255
200 224 255
200 224 255
200 224 255
200 224 255
200 224 255
200 224 255
200 224 255
200 224 255
200 224 255
200 224 255
200 224 255
201 224 255
201 224 255
201 224 255
201 224 255
201 224 255
201 224 255
201 224 255
201 224 255
201 224 255
201 224 255
201 224 255
201 224 255
201 225 255
201 225 255
201 225 255
201 225 255
201 225 255
202 225 255
202 225 255
202 225 255
202 225 255
202 225 255
202 225 255
202 225 255
202 225 255
202 225 255
202 225 255
202 225 255
202 225 255
202 225 255
202 225 255
202 225 255
203 225 255
203 225 255
203 225 255
203 225 255
203 225 255
203 225 255
203 225 255
203 225 255
203 225 255
203 226 255
203 226 255
203 226 255
203 226 255
203 226 255
203 226 255
203 226 255
204 226 255
204 226 255
204 226 255
204 226 255
204 226 255
204 226 255
204 226 255
204 226 255
204 226 255
204 226 255
204 226 255
204 226 255
204 226 255
204 226 255
204 226 255
205 226 255
205 226 255
205 226 255
205 226 255
205 226 255
205 226 255
205 226 255
205 227 255
205 227 255
205 227 255
205 227 255
205 227 255
205 227 255
205 227 255
205 227 255
205 227 255
205 227 255
206 227 255
206 227 255
206 227 255
206 227 255
206 227 255
206 227 255
206 227 255
206 227 255
206 227 255
206 227 255
206 227 255
206 227 255
206 227 255
206 227 255
206 227 255
206 227 255
206 227 255
207 227 255
207 227 255
207 227 255
207 227 255
207 227 255
207 228 255
207 228 255
207 228 255
207 228 255
207 228 255
207 228 255
207 228 255
207 228 255
207 228 255
207 228 255
207 228 255
207 228 255
207 228 255
207 228 255
208 228 255
208 228 255
208 228 255
208 228 255
208 228 255
208 228 255
208 228 255
208 228 255
208 228 255
208 228 255
208 228 255
208 228 255
208 228 255
208 228 255
208 228 255
208 228 255
208 228 255
208 228 255
208 228 255
208 228 255
208 228 255
208 228 255
209 228 255
209 229 255
209 229 255
209 229 255
209 229 255
209 229 255
209 229 255
209 229 255
209 229 255
209 229 255
209 229 255
209 228 255
209 228 255
208 228 255
208 228 255
208 228 255
208 228 255
208 228 255
208 228 255
208 228 255
208 228 255
208 228 255
208 228 255
208 228 255
208 228 255
208 228 255
208 228 255
208 228 255
208 228 255
208 228 255
208 228 255
208 228 255
208 228 255
208 228 255
207 228 255
207 228 255
207 228 255
207 228 255
207 228 255
207 228 255
207 228 255
207 228 255
207 228 255
207 228 255
207 228 255
207 228 255
207 228 255
207 228 255
207 227 255
207 227 255
207 227 255
207 227 255
207 227 255
206 227 255
206 227 255
206 227 255
206 227 255
206 227 255
206 227 255
206 227 255
206 227 255
206 227 255
206 227 255
206 227 255
206 227 255
206 227 255
206 227 255
206 227 255
206 227 255
206 227 255
205 227 255
205 227 255
205 227 255
205 227 255
205 227 255
205 227 255
205 227 255
205 227 255
205 227 255
205 227 255
205 226 255
205 226 255
205 226 255
205 226 255
205 226 255
205 226 255
204 226 255
204 226 255
204 226 255
204 226 255
204 226 255
204 226 255
204 226 255
204 226 255
204 226 255
204 226 255
204 226 255
204 226 255
204 226 255
204 226 255
204 226 255
204 226 255
203 226 255
203 226 255
203 226 255
203 226 255
203 226 255
203 226 255
203 226 255
203 225 255
203 225 255
203 225 255
203 225 255
203 225 255
203 225 255
203 225 255
203 225 255
203 225 255
202 225 255
202 225 255
202 225 255
202 225 255
202 225 255
202 225 255
202 225 255
202 225 255
202 225 255
202 225 255
202 225 255
202 225 255
202 225 255
202 225 255
202 225 255
201 225 255
201 225 255
201 225 255
201 225 255
201 225 255
201 224 255
201 224 255
201 224 255
201 224 255
201 224 255
201 224 255
201 224 255
201 224 255
201 224 255
201 224 255
201 224 255
201 224 255
200 224 255
200 224 255
200 224 255
200 224 255
200 224 255
200 224 255
200 224 255
200 224 255
200 224 255
200 224 255
200 224 255
200 224 255
200 224 255
200 224 255
200 224 255
200 224 255
200 224 255
200 224 255
200 224 255
200 224 255
200 224 255
200 224 255
199 224 255
199 224 255
199 224 255
199 224 255
199 223 255
199 223 255
199 223 255
199 223 255
199 223 255
199 223 255
199 223 255
199 223 255
199 223 255
199 223 255
199 223 255
199 223 255
199 223 255
199 223 255
199 223 255
199 223 255
199 223 255
199 223 255
199 223 255
199 223 255
199 223 255
199 223 255
199 223 255
199 223 255
199 223 255
199 223 255
199 223 255
199 223 255
199 223 255
199 223 255
199 223 255
199 223 255
199 223 255
199 223 255
199 223 255
199 223 255
199 223 255
199 223 255
199 223 255
199 223 255
199 223 255
199 223 255
199 223 255
199 223 255
199 223 255
199 223 255
199 223 255
199 223 255
199 223 255
199 223 255
199 223 255
199 223 255
199 223 255
199 223 255
199 223 255
199 223 255
199 224 255
199 224 255
199 224 255
199 224 255
199 224 255
200 224 255
200 224 255
200 224 255
200 224 255
200 224 255
200 224 255
200 224 255
200 224 255
200 224 255
200 224 255
200 224 255
200 224 255
200 224 255
200 224 255
200 224 255
200 224 255
200 224 255
200 224 255
200 224 255
200 224 255
200 224 255
201 224 255
201 224 255
201 224 255
201 224 255
201 224 255
201 224 255
201 224 255
201 224 255
201 224 255
201 224 255
201 224 255
201 224 255
201 224 255
201 225 255
201 225 255
201 225 255
201 225 255
202 225 255
202 225 255
202 225 255
202 225 255
202 225 255
202 225 255
202 225 255
202 225 255
202 225 255
202 225 255
202 225 255
202 225 255
202 225 255
202 225 255
202 225 255
202 225 255
203 225 255
203 225 255
203 225 255
203 225 255
203 225 255
203 225 255
203 225 255
203 225 255
203 225 255
203 226 255
203 226 255
203 226 255
203 226 255
203 226 255
203 226 255
203 226 255
204 226 255
204 226 255
204 226 255
204 226 255
204 226 255
204 226 255
204 226 255
204 226 255
204 226 255
204 226 255
204 226 255
204 226 255
204 226 255
204 226 255
204 226 255
205 226 255
205 226 255
205 226 255
205 226 255
205 226 255
205 226 255
205 226 255
205 227 255
205 227 255
205 227 255
205 227 255
205 227 255
205 227 255
205 227 255
205 227 255
205 227 255
205 227 255
206 227 255
206 227 255
206 227 255
206 227 255
206 227 255
206 227 255
206 227 255
206 227 255
206 227 255
206 227 255
206 227 255
206 227 255
206 227 255
206 227 255
206 227 255
206 227 255
206 227 255
207 227 255
207 227 255
207 227 255
207 227 255
207 227 255
207 228 255
207 228 255
207 228 255
207 228 255
207 228 255
207 228 255
207 228 255
207 228 255
207 228 255
207 228 255
207 228 255
207 228 255
207 228 255
207 228 255
208 228 255
208 228 255
208 228 255
208 228 255
208 228 255
208 228 255
208 228 255
208 228 255
208 228 255
208 228 255
208 228 255
208 228 255
208 228 255
208 228 255
208 228 255
208 228 255
208 228 255
208 228 255
208 228 255
208 228 255
208 228 255
209 228 255
209 228 255
209 229 255
209 229 255
209 229 255
209 229 255
209 229 255
209 229 255
209 229 255
209 229 255
209 229 255
209 229 255
209 229 255
209 229 255
209 229 255
209 229 255
209 229 255
209 229 255
209 229 255
209 228 255
208 228 255
208 228 255
208 228 255
208 228 255
208 228 255
208 228 255
208 228 255
208 228 255
208 228 255
208 228 255
208 228 255
208 228 255
208 228 255
208 228 255
208 228 255
208 228 255
208 228 255
208 228 255
208 228 255
208 228 255
208 228 255
207 228 255
207 228 255
207 228 255
207 228 255
207 228 255
207 228 255
207 228 255
207 228 255
207 228 255
207 228 255
207 228 255
207 228 255
207 228 255
207 228 255
207 227 255
207 227 255
207 227 255
207 227 255
207 227 255
206 227 255
206 227 255
206 227 255
206 227 255
206 227 255
206 227 255
206 227 255
206 227 255
206 227 255
206 227 255
206 227 255
206 227 255
206 227 255
206 227 255
206 227 255
206 227 255
206 227 255
205 227 255
205 227 255
205 227 255
205 227 255
205 227 255
205 227 255
205 227 255
205 227 255
205 227 255
205 227 255
205 226 255
205 226 255
205 226 255
205 226 255
205 226 255
205 226 255
204 226 255
204 226 255
204 226 255
204 226 255
204 226 255
204 226 255
204 226 255
204 226 255
204 226 255
204 226 255
204 226 255
204 226 255
204 226 255
204 226 255
204 226 255
204 226 255
203 226 255
203 226 255
203 226 255
203 226 255
203 226 255
203 226 255
203 226 255
203 225 255
203 225 255
203 225 255
203 225 255
203 225 255
203 225 255
203 225 255
203 225 255
203 225 255
202 225 255
202 225 255
202 225 255
202 225 255
202 225 255
202 225 255
202 225 255
202 225 255
202 225 255
202 225 255
202 225 255
202 225 255
202 225 255
202 225 255
202 225 255
202 225 255
201 225 255
201 225 255
201 225 255
201 225 255
201 225 255
201 224 255
201 224 255
201 224 255
201 224 255
201 224 255
201 224 255
201 224 255
201 224 255
201 224 255
201 224 255
201 224 255
201 224 255
200 224 255
200 224 255
200 224 255
200 224 255
200 224 255
200 224 255
200 224 255
200 224 255
200 224 255
200 224 255
200 224 255
200 224 255
200 224 255
200 224 255
200 224 255
200 224 255
200 224 255
200 224 255
200 224 255
200 224 255
200 224 255
200 224 255
200 224 255
200 224 255
199 224 255
199 224 255
199 224 255
199 224 255
199 224 255
199 224 255
199 223 255
199 223 255
199 223 255
199 223 255
199 223 255
199 223 255
199 223 255
199 223 255
199 223 255
199 223 255
199 223 255
199 223 255
199 223 255
199 223 255
199 223 255
199 223 255
199 223 255
199 223 255
199 223 255
199 223 255
199 223 255
199 223 255
199 223 255
199 223 255
199 223 255
199 223 255
199 223 255
199 223 255
199 223 255
199 223 255
199 223 255
199 223 255
199 223 255
199 223 255
199 223 255
199 223 255
199 223 255
199 223 255
199 223 255
199 223 255
199 223 255
199 224 255
199 224 255
199 224 255
199 224 255
199 224 255
199 224 255
200 224 255
200 224 255
200 224 255
200 224 255
200 224 255
200 224 255
200 224 255
200 224 255
200 224 255
200 224 255
200 224 255
200 224 255
200 224 255
200 224 255
200 224 255
200 224 255
200 224 255
200 224 255
200 224 255
200 224 255
200 224 255
200 224 255
200 224 255
200 224 255
201 224 255
201 224 255
201 224 255
201 224 255
201 224 255
201 224 255
201 224 255
201 224 255
201 224 255
201 224 255
201 224 255
201 224 255
201 224 255
201 225 255
201 225 255
201 225 255
201 225 255
202 225 255
202 225 255
202 225 255
202 225 255
202 225 255
202 225 255
202 225 255
202 225 255
202 225 255
202 225 255
202 225 255
202 225 255
202 225 255
202 225 255
202 225 255
202 225 255
203 225 255
203 225 255
203 225 255
203 225 255
203 225 255
203 225 255
203 225 255
203 225 255
203 225 255
203 226 255
203 226 255
203 226 255
203 226 255
203 226 255
203 226 255
203 226 255
204 226 255
204 226 255
204 226 255
204 226 255
204 226 255
204 226 255
204 226 255
204 226 255
204 226 255
204 226 255
204 226 255
204 226 255
204 226 255
204 226 255
204 226 255
205 226 255
205 226 255
205 226 255
205 226 255
205 226 255
205 226 255
205 226 255
205 227 255
205 227 255
205 227 255
205 227 255
205 227 255
205 227 255
205 227 255
205 227 255
205 227 255
205 227 255
206 227 255
206 227 255
206 227 255
206 227 255
206 227 255
206 227 255
206 227 255
206 227 255
206 227 255
206 227 255
206 227 255
206 227 255
206 227 255
206 227 255
206 227 255
206 227 255
206 227 255
207 227 255
207 227 255
207 227 255
207 227 255
207 227 255
207 228 255
207 228 255
207 228 255
207 228 255
207 228 255
207 228 255
207 228 255
207 228 255
207 228 255
207 228 255
207 228 255
207 228 255
207 228 255
207 228 255
208 228 255
208 228 255
208 228 255
208 228 255
208 228 255
208 228 255
208 228 255
208 228 255
208 228 255
208 228 255
208 228 255
208 228 255
208 228 255
208 228 255
208 228 255
208 228 255
208 228 255
208 228 255
208 228 255
208 228 255
208 228 255
209 228 255
209 228 255
209 229 255
209 229 255
209 229 255
209 229 255
209 229 255
209 229 255
209 229 255
209 229 255
209 229 255
209 229 255
209 229 255
209 229 255
209 229 255
209 229 255
209 229 255
209 229 255
209 229 255
209 229 255
209 229 255
209 229 255
209 229 255
209 229 255
209 229 255
209 228 255
209 228 255
208 228 255
208 228 255
208 228 255
208 228 255
208 228 255
208 228 255
208 228 255
208 228 255
208 228 255
208 228 255
208 228 255
208 228 255
208 228 255
208 228 255
208 228 255
208 228 255
208 228 255
208 228 255
208 228 255
208 228 255
207 228 255
207 228 255
207 228 255
207 228 255
207 228 255
207 228 255
207 228 255
207 228 255
207 228 255
207 228 255
207 228 255
207 228 255
207 228 255
207 228 255
207 227 255
207 227 255
207 227 255
207 227 255
207 227 255
206 227 255
206 227 255
206 227 255
206 227 255
206 227 255
206 227 255
206 227 255
206 227 255
206 227 255
206 227 255
206 227 255
206 227 255
206 227 255
206 227 255
206 227 255
206 227 255
206 227 255
205 227 255
205 227 255
205 227 255
205 227 255
205 227 255
205 227 255
205 227 255
205 227 255
205 227 255
205 227 255
205 226 255
205 226 255
205 226 255
205 226 255
205 226 255
205 226 255
204 226 255
204 226 255
204 226 255
204 226 255
204 226 255
204 226 255
204 226 255
204 226 255
204 226 255
204 226 255
204 226 255
204 226 255
204 226 255
204 226 255
204 226 255
204 226 255
203 226 255
203 226 255
203 226 255
203 226 255
203 226 255
203 226 255
203 226 255
203 225 255
203 225 255
203 225 255
203 225 255
203 225 255
203 225 255
203 225 255
203 225 255
203 225 255
202 225 255
202 225 255
202 225 255
202 225 255
202 225 255
202 225 255
202 225 255
202 225 255
202 225 255
202 225 255
202 225 255
202 225 255
202 225 255
202 225 255
202 225 255
202 225 255
201 225 255
201 225 255
201 225 255
201 225 255
201 225 255
201 224 255
201 224 255
201 224 255
201 224 255
201 224 255
201 224 255
201 224 255
201 224 255
201 224 255
201 224 255
201 224 255
201 224 255
201 224 255
200 224 255
200 224 255
200 224 255
200 224 255
200 224 255
200 224 255
200 224 255
200 224 255
200 224 255
200 224 255
200 224 255
200 224 255
200 224 255
200 224 255
200 224 255
200 224 255
200 224 255
200 224 255
200 224 255
200 224 255
200 224 255
200 224 255
200 224 255
200 224 255
200 224 255
200 224 255
200 224 255
199 224 255
199 224 255
199 224 255
199 224 255
199 224 255
199 224 255
199 224 255
199 224 255
199 224 255
199 224 255
199 223 255
199 223 255
199 223 255
199 223 255
199 223 255
199 223 255
199 223 255
199 223 255
199 223 255
199 223 255
199 223 255
199 223 255
199 223 255
199 223 255
199 223 255
199 223 255
199 223 255
199 223 255
199 223 255
199 223 255
199 224 255
199 224 255
199 224 255
199 224 255
199 224 255
199 224 255
199 224 255
199 224 255
199 224 255
200 224 255
200 224 255
200 224 255
200 224 255
200 224 255
200 224 255
200 224 255
200 224 255
200 224 255
200 224 255
200 224 255
200 224 255
200 224 255
200 224 255
200 224 255
200 224 255
200 224 255
200 224 255
200 224 255
200 224 255
200 224 255
200 224 255
200 224 255
200 224 255
200 224 255
200 224 255
200 224 255
201 224 255
201 224 255
201 224 255
201 224 255
201 224 255
201 224 255
201 224 255
201 224 255
201 224 255
201 224 255
201 224 255
201 224 255
201 224 255
201 225 255
201 225 255
201 225 255
201 225 255
201 225 255
202 225 255
202 225 255
202 225 255
202 225 255
202 225 255
202 225 255
202 225 255
202 225 255
202 225 255
202 225 255
202 225 255
202 225 255
202 225 255
202 225 255
202 225 255
202 225 255
203 225 255
203 225 255
203 225 255
203 225 255
203 225 255
203 225 255
203 225 255
203 225 255
203 225 255
203 226 255
203 226 255
203 226 255
203 226 255
203 226 255
203 226 255
203 226 255
204 226 255
204 226 255
204 226 255
204 226 255
204 226 255
204 226 255
204 226 255
204 226 255
204 226 255
204 226 255
204 226 255
204 226 255
204 226 255
204 226 255
204 226 255
204 226 255
205 226 255
205 226 255
205 226 255
205 226 255
205 226 255
205 226 255
205 227 255
205 227 255
205 227 255
205 227 255
205 227 255
205 227 255
205 227 255
205 227 255
205 227 255
205 227 255
206 227 255
206 227 255
206 227 255
206 227 255
206 227 255
206 227 255
206 227 255
206 227 255
206 227 255
206 227 255
206 227 255
206 227 255
206 227 255
206 227 255
206 227 255
206 227 255
206 227 255
207 227 255
207 227 255
207 227 255
207 227 255
207 227 255
207 228 255
207 228 255
207 228 255
207 228 255
207 228 255
207 228 255
207 228 255
207 228 255
207 228 255
207 228 255
207 228 255
207 228 255
207 228 255
207 228 255
208 228 255
208 228 255
208 228 255
208 228 255
208 228 255
208 228 255
208 228 255
208 228 255
208 228 255
208 228 255
208 228 255
208 228 255
208 228 255
208 228 255
208 228 255
208 228 255
208 228 255
208 228 255
208 228 255
208 228 255
208 228 255
209 228 255
209 229 255
209 229 255
209 229 255
209 229 255
209 229 255
209 229 255
209 229 255
209 229 255
209 229 255
209 229 255
209 229 255
209 229 255
209 229 255
209 229 255
209 229 255
209 229 255
209 229 255
209 229 255
209 229 255
209 229 255
209 229 255
209 229 255
209 229 255
209 229 255
209 229 255
209 229 255
209 229 255
209 229 255
209 229 255
209 229 255
209 228 255
209 228 255
208 228 255
208 228 255
208 228 255
208 228 255
208 228 255
208 228 255
208 228 255
208 228 255
208 228 255
208 228 255
208 228 255
208 228 255
208 228 255
208 228 255
208 228 255
208 228 255
208 228 255
208 228 255
208 228 255
208 228 255
207 228 255
207 228 255
207 228 255
207 228 255
207 228 255
207 228 255
207 228 255
207 228 255
207 228 255
207 228 255
207 228 255
207 228 255
207 228 255
207 228 255
207 228 255
207 227 255
207 227 255
207 227 255
207 227 255
206 227 255
206 227 255
206 227 255
206 227 255
206 227 255
206 227 255
206 227 255
206 227 255
206 227 255
206 227 255
206 227 255
206 227 255
206 227 255
206 227 255
206 227 255
206 227 255
206 227 255
205 227 255
205 227 255
205 227 255
205 227 255
205 227 255
205 227 255
205 227 255
205 227 255
205 227 255
205 227 255
205 226 255
205 226 255
205 226 255
205 226 255
205 226 255
205 226 255
204 226 255
204 226 255
204 226 255
204 226 255
204 226 255
204 226 255
204 226 255
204 226 255
204 226 255
204 226 255
204 226 255
204 226 255
204 226 255
204 226 255
204 226 255
204 226 255
203 226 255
203 226 255
203 226 255
203 226 255
203 226 255
203 226 255
203 226 255
203 225 255
203 225 255
203 225 255
203 225 255
203 225 255
203 225 255
203 225 255
203 225 255
203 225 255
202 225 255
202 225 255
202 225 255
202 225 255
202 225 255
202 225 255
202 225 255
202 225 255
202 225 255
202 225 255
202 225 255
202 225 255
202 225 255
202 225 255
202 225 255
202 225 255
202 225 255
201 225 255
201 225 255
201 225 255
201 225 255
201 225 255
201 224 255
201 224 255
201 224 255
201 224 255
201 224 255
201 224 255
201 224 255
201 224 255
201 224 255
201 224 255
201 224 255
201 224 255
201 224 255
201 224 255
200 224 255
200 224 255
200 224 255
200 224 255
200 224 255
200 224 255
200 224 255
200 224 255
200 224 255
200 224 255
200 224 255
200 224 255
200 224 255
200 224 255
200 224 255
200 224 255
200 224 255
200 224 255
200 224 255
200 224 255
200 224 255
200 224 255
200 224 255
200 224 255
200 224 255
200 224 255
200 224 255
200 224 255
200 224 255
200 224 255
200 224 255
200 224 255
200 224 255
200 224 255
200 224 255
200 224 255
200 224 255
199 224 255
200 224 255
199 224 255
199 224 255
199 224 255
199 224 255
199 224 255
199 224 255
199 224 255
199 224 255
200 224 255
200 224 255
200 224 255
200 224 255
200 224 255
200 224 255
200 224 255
200 224 255
200 224 255
200 224 255
200 224 255
200 224 255
200 224 255
200 224 255
200 224 255
200 224 255
200 224 255
200 224 255
200 224 255
200 224 255
200 224 255
200 224 255
200 224 255
200 224 255
200 224 255
200 224 255
200 224 255
200 224 255
200 224 255
200 224 255
200 224 255
200 224 255
200 224 255
200 224 255
200 224 255
200 224 255
201 224 255
201 224 255
201 224 255
201 224 255
201 224 255
201 224 255
201 224 255
201 224 255
201 224 255
201 224 255
201 224 255
201 224 255
201 224 255
201 224 255
201 225 255
201 225 255
201 225 255
201 225 255
201 225 255
201 225 255
202 225 255
202 225 255
202 225 255
202 225 255
202 225 255
202 225 255
202 225 255
202 225 255
202 225 255
202 225 255
202 225 255
202 225 255
202 225 255
202 225 255
202 225 255
202 225 255
203 225 255
203 225 255
203 225 255
203 225 255
203 225 255
203 225 255
203 225 255
203 225 255
203 225 255
203 226 255
203 226 255
203 226 255
203 226 255
203 226 255
203 226 255
203 226 255
204 226 255
204 226 255
204 226 255
204 226 255
204 226 255
204 226 255
204 226 255
204 226 255
204 226 255
204 226 255
204 226 255
204 226 255
204 226 255
204 226 255
204 226 255
204 226 255
205 226 255
205 226 255
205 226 255
205 226 255
205 226 255
205 226 255
205 227 255
205 227 255
205 227 255
205 227 255
205 227 255
205 227 255
205 227 255
205 227 255
205 227 255
205 227 255
206 227 255
206 227 255
206 227 255
206 227 255
206 227 255
206 227 255
206 227 255
206 227 255
206 227 255
206 227 255
206 227 255
206 227 255
206 227 255
206 227 255
206 227 255
206 227 255
206 227 255
207 227 255
207 227 255
207 227 255
207 227 255
207 228 255
207 228 255
207 228 255
207 228 255
207 228 255
207 228 255
207 228 255
207 228 255
207 228 255
207 228 255
207 228 255
207 228 255
207 228 255
207 228 255
207 228 255
208 228 255
208 228 255
208 228 255
208 228 255
208 228 255
208 228 255
208 228 255
208 228 255
208 228 255
208 228 255
208 228 255
208 228 255
208 228 255
208 228 255
208 228 255
208 228 255
208 228 255
208 228 255
208 228 255
208 228 255
209 228 255
209 228 255
209 229 255
209 229 255
209 229 255
209 229 255
209 229 255
209 229 255
209 229 255
209 229 255
209 229 255
209 229 255
209 229 255
209 229 255
209 229 255
209 229 255
209 229 255
209 229 255
209 229 255
209 229 255
209 229 255
209 229 255
209 229 255
209 229 255
209 229 255
209 229 255
209 229 255
209 229 255
209 229 255
209 229 255
209 229 255
209 229 255
209 229 255
209 229 255
209 229 255
209 229 255
209 229 255
209 229 255
209 229 255
209 228 255
208 228 255
208 228 255
208 228 255
208 228 255
208 228 255
208 228 255
208 228 255
208 228 255
208 228 255
208 228 255
208 228 255
208 228 255
208 228 255
208 228 255
208 228 255
208 228 255
208 228 255
208 228 255
208 228 255
208 228 255
207 228 255
207 228 255
207 228 255
207 228 255
207 228 255
207 228 255
207 228 255
207 228 255
207 228 255
207 228 255
207 228 255
207 228 255
207 228 255
207 228 255
207 228 255
207 227 255
207 227 255
207 227 255
207 227 255
206 227 255
206 227 255
206 227 255
206 227 255
206 227 255
206 227 255
206 227 255
206 227 255
206 227 255
206 227 255
206 227 255
206 227 255
206 227 255
206 227 255
206 227 255
206 227 255
206 227 255
205 227 255
205 227 255
205 227 255
205 227 255
205 227 255
205 227 255
205 227 255
205 227 255
205 227 255
205 227 255
205 226 255
205 226 255
205 226 255
205 226 255
205 226 255
205 226 255
204 226 255
204 226 255
204 226 255
204 226 255
204 226 255
204 226 255
204 226 255
204 226 255
204 226 255
204 226 255
204 226 255
204 226 255
204 226 255
204 226 255
204 226 255
204 226 255
203 226 255
203 226 255
203 226 255
203 226 255
203 226 255
203 226 255
203 226 255
203 225 255
203 225 255
203 225 255
203 225 255
203 225 255
203 225 255
203 225 255
203 225 255
203 225 255
202 225 255
202 225 255
202 225 255
202 225 255
202 225 255
202 225 255
202 225 255
202 225 255
202 225 255
202 225 255
202 225 255
202 225 255
202 225 255
202 225 255
202 225 255
202 225 255
202 225 255
201 225 255
201 225 255
201 225 255
201 225 255
201 225 255
201 224 255
201 224 255
201 224 255
201 224 255
201 224 255
201 224 255
201 224 255
201 224 255
201 224 255
201 224 255
201 224 255
201 224 255
201 224 255
201 224 255
201 224 255
200 224 255
200 224 255
200 224 255
200 224 255
200 224 255
200 224 255
200 224 255
200 224 255
200 224 255
200 224 255
200 224 255
200 224 255
200 224 255
200 224 255
200 224 255
200 224 255
200 224 255
200 224 255
200 224 255
200 224 255
200 224 255
200 224 255
200 224 255
200 224 255
200 224 255
200 224 255
200 224 255
200 224 255
200 224 255
200 224 255
200 224 255
200 224 255
200 224 255
200 224 255
200 224 255
200 224 255
200 224 255
200 224 255
200 224 255
200 224 255
200 224 255
200 224 255
200 224 255
200 224 255
200 224 255
200 224 255
200 224 255
200 224 255
200 224 255
200 224 255
200 224 255
200 224 255
200 224 255
200 224 255
200 224 255
200 224 255
200 224 255
200 224 255
200 224 255
200 224 255
200 224 255
200 224 255
200 224 255
200 224 255
200 224 255
200 224 255
200 224 255
200 224 255
200 224 255
200 224 255
200 224 255
200 224 255
200 224 255
200 224 255
200 224 255
201 224 255
201 224 255
201 224 255
201 224 255
201 224 255
201 224 255
201 224 255
201 224 255
201 224 255
201 224 255
201 224 255
201 224 255
201 224 255
201 224 255
201 225 255
201 225 255
201 225 255
201 225 255
201 225 255
201 225 255
202 225 255
202 225 255
202 225 255
202 225 255
202 225 255
202 225 255
202 225 255
202 225 255
202 225 255
202 225 255
202 225 255
202 225 255
202 225 255
202 225 255
202 225 255
202 225 255
202 225 255
203 225 255
203 225 255
203 225 255
203 225 255
203 225 255
203 225 255
203 225 255
203 225 255
203 225 255
203 226 255
203 226 255
203 226 255
203 226 255
203 226 255
203 226 255
203 226 255
204 226 255
204 226 255
204 226 255
204 226 255
204 226 255
204 226 255
204 226 255
204 226 255
204 226 255
204 226 255
204 226 255
204 226 255
204 226 255
204 226 255
204 226 255
204 226 255
205 226 255
205 226 255
205 226 255
205 226 255
205 226 255
205 226 255
205 227 255
205 227 255
205 227 255
205 227 255
205 227 255
205 227 255
205 227 255
205 227 255
205 227 255
205 227 255
206 227 255
206 227 255
206 227 255
206 227 255
206 227 255
206 227 255
206 227 255
206 227 255
206 227 255
206 227 255
206 227 255
206 227 255
206 227 255
206 227 255
206 227 255
206 227 255
206 227 255
207 227 255
207 227 255
207 227 255
207 227 255
207 228 255
207 228 255
207 228 255
207 228 255
207 228 255
207 228 255
207 228 255
207 228 255
207 228 255
207 228 255
207 228 255
207 228 255
207 228 255
207 228 255
207 228 255
208 228 255
208 228 255
208 228 255
208 228 255
208 228 255
208 228 255
208 228 255
208 228 255
208 228 255
208 228 255
208 228 255
208 228 255
208 228 255
208 228 255
208 228 255
208 228 255
208 228 255
208 228 255
208 228 255
208 228 255
209 228 255
209 229 255
209 229 255
209 229 255
209 229 255
209 229 255
209 229 255
209 229 255
209 229 255
209 229 255
209 229 255
209 229 255
209 229 255
209 229 255
209 229 255
209 229 255
209 229 255
209 229 255
209 229 255
209 229 255
209 229 255
209 229 255
210 229 255
210 229 255
209 229 255
209 229 255
209 229 255
209 229 255
209 229 255
209 229 255
209 229 255
209 229 255
209 229 255
209 229 255
209 229 255
209 229 255
209 229 255
209 229 255
209 229 255
209 229 255
209 229 255
209 229 255
209 229 255
209 229 255
209 229 255
209 228 255
208 228 255
208 228 255
208 228 255
208 228 255
208 228 255
208 228 255
208 228 255
208 228 255
208 228 255
208 228 255
208 228 255
208 228 255
208 228 255
208 228 255
208 228 255
208 228 255
208 228 255
208 228 255
208 228 255
208 228 255
208 228 255
207 228 255
207 228 255
207 228 255
207 228 255
207 228 255
207 228 255
207 228 255
207 228 255
207 228 255
207 228 255
207 228 255
207 228 255
207 228 255
207 228 255
207 227 255
207 227 255
207 227 255
207 227 255
206 227 255
206 227 255
206 227 255
206 227 255
206 227 255
206 227 255
206 227 255
206 227 255
206 227 255
206 227 255
206 227 255
206 227 255
206 227 255
206 227 255
206 227 255
206 227 255
206 227 255
205 227 255
205 227 255
205 227 255
205 227 255
205 227 255
205 227 255
205 227 255
205 227 255
205 227 255
205 227 255
205 226 255
205 226 255
205 226 255
205 226 255
205 226 255
205 226 255
204 226 255
204 226 255
204 226 255
204 226 255
204 226 255
204 226 255
204 226 255
204 226 255
204 226 255
204 226 255
204 226 255
204 226 255
204 226 255
204 226 255
204 226 255
204 226 255
203 226 255
203 226 255
203 226 255
203 226 255
203 226 255
203 226 255
203 226 255
203 225 255
203 225 255
203 225 255
203 225 255
203 225 255
203 225 255
203 225 255
203 225 255
203 225 255
202 225 255
202 225 255
202 225 255
202 225 255
202 225 255
202 225 255
202 225 255
202 225 255
202 225 255
202 225 255
202 225 255
202 225 255
202 225 255
202 225 255
202 225 255
202 225 255
202 225 255
202 225 255
201 225 255
201 225 255
201 225 255
201 225 255
201 225 255
201 225 255
201 224 255
201 224 255
201 224 255
201 224 255
201 224 255
201 224 255
201 224 255
201 224 255
201 224 255
201 224 255
201 224 255
201 224 255
201 224 255
201 224 255
201 224 255
201 224 255
200 224 255
200 224 255
200 224 255
200 224 255
200 224 255
200 224 255
200 224 255
200 224 255
200 224 255
200 224 255
200 224 255
200 224 255
200 224 255
200 224 255
200 224 255
200 224 255
200 224 255
200 224 255
200 224 255
200 224 255
200 224 255
200 224 255
200 224 255
200 224 255
200 224 255
200 224 255
200 224 255
200 224 255
200 224 255
200 224 255
200 224 255
200 224 255
200 224 255
200 224 255
200 224 255
200 224 255
200 224 255
200 224 255
200 224 255
200 224 255
200 224 255
200 224 255
200 224 255
200 224 255
200 224 255
200 224 255
200 224 255
200 224 255
200 224 255
200 224 255
200 224 255
200 224 255
200 224 255
200 224 255
200 224 255
200 224 255
200 224 255
200 224 255
200 224 255
200 224 255
200 224 255
200 224 255
200 224 255
201 224 255
201 224 255
201 224 255
201 224 255
201 224 255
201 224 255
201 224 255
201 224 255
201 224 255
201 224 255
201 224 255
201 224 255
201 224 255
201 224 255
201 224 255
201 224 255
201 225 255
201 225 255
201 225 255
201 225 255
201 225 255
201 225 255
202 225 255
202 225 255
202 225 255
202 225 255
202 225 255
202 225 255
202 225 255
202 225 255
202 225 255
202 225 255
202 225 255
202 225 255
202 225 255
202 225 255
202 225 255
202 225 255
202 225 255
202 225 255
203 225 255
203 225 255
203 225 255
203 225 255
203 225 255
203 225 255
203 225 255
203 225 255
203 225 255
203 226 255
203 226 255
203 226 255
203 226 255
203 226 255
203 226 255
203 226 255
204 226 255
204 226 255
204 226 255
204 226 255
204 226 255
204 226 255
204 226 255
204 226 255
204 226 255
204 226 255
204 226 255
204 226 255
204 226 255
204 226 255
204 226 255
204 226 255
205 226 255
205 226 255
205 226 255
205 226 255
205 226 255
205 226 255
205 227 255
205 227 255
205 227 255
205 227 255
205 227 255
205 227 255
205 227 255
205 227 255
205 227 255
205 227 255
206 227 255
206 227 255
206 227 255
206 227 255
206 227 255
206 227 255
206 227 255
206 227 255
206 227 255
206 227 255
206 227 255
206 227 255
206 227 255
206 227 255
206 227 255
206 227 255
206 227 255
207 227 255
207 227 255
207 227 255
207 227 255
207 228 255
207 228 255
207 228 255
207 228 255
207 228 255
207 228 255
207 228 255
207 228 255
207 228 255
207 228 255
207 228 255
207 228 255
207 228 255
207 228 255
208 228 255
208 228 255
208 228 255
208 228 255
208 228 255
208 228 255
208 228 255
208 228 255
208 228 255
208 228 255
208 228 255
208 228 255
208 228 255
208 228 255
208 228 255
208 228 255
208 228 255
208 228 255
208 228 255
208 228 255
208 228 255
209 228 255
209 229 255
209 229 255
209 229 255
209 229 255
209 229 255
209 229 255
209 229 255
209 229 255
209 229 255
209 229 255
209 229 255
209 229 255
209 229 255
209 229 255
209 229 255
209 229 255
209 229 255
209 229 255
209 229 255
209 229 255
209 229 255
210 229 255
210 229 255
210 229 255
210 229 255
210 229 255
210 229 255
210 229 255
210 229 255
209 229 255
209 229 255
209 229 255
209 229 255
209 229 255
209 229 255
209 229 255
209 229 255
209 229 255
209 229 255
209 229 255
209 229 255
209 229 255
209 229 255
209 229 255
209 229 255
209 229 255
209 229 255
209 229 255
209 229 255
209 229 255
209 228 255
209 228 255
208 228 255
208 228 255
208 228 255
208 228 255
208 228 255
208 228 255
208 228 255
208 228 255
208 228 255
208 228 255
208 228 255
208 228 255
208 228 255
208 228 255
208 228 255
208 228 255
208 228 255
208 228 255
208 228 255
208 228 255
207 228 255
207 228 255
207 228 255
207 228 255
207 228 255
207 228 255
207 228 255
207 228 255
207 228 255
207 228 255
207 228 255
207 228 255
207 228 255
207 228 255
207 227 255
207 227 255
207 227 255
207 227 255
206 227 255
206 227 255
206 227 255
206 227 255
206 227 255
206 227 255
206 227 255
206 227 255
206 227 255
206 227 255
206 227 255
206 227 255
206 227 255
206 227 255
206 227 255
206 227 255
206 227 255
205 227 255
205 227 255
205 227 255
205 227 255
205 227 255
205 227 255
205 227 255
205 227 255
205 227 255
205 227 255
205 226 255
205 226 255
205 226 255
205 226 255
205 226 255
205 226 255
205 226 255
204 226 255
204 226 255
204 226 255
204 226 255
204 226 255
204 226 255
204 226 255
204 226 255
204 226 255
204 226 255
204 226 255
204 226 255
204 226 255
204 226 255
204 226 255
203 226 255
203 226 255
203 226 255
203 226 255
203 226 255
203 226 255
203 226 255
203 226 255
203 225 255
203 225 255
203 225 255
203 225 255
203 225 255
203 225 255
203 225 255
203 225 255
203 225 255
202 225 255
202 225 255
202 225 255
202 225 255
202 225 255
202 225 255
202 225 255
202 225 255
202 225 255
202 225 255
202 225 255
202 225 255
202 225 255
202 225 255
202 225 255
202 225 255
202 225 255
202 225 255
201 225 255
201 225 255
201 225 255
201 225 255
201 225 255
201 225 255
201 224 255
201 224 255
201 224 255
201 224 255
201 224 255
201 224 255
201 224 255
201 224 255
201 224 255
201 224 255
201 224 255
201 224 255
201 224 255
201 224 255
201 224 255
201 224 255
201 224 255
201 224 255
201 224 255
200 224 255
200 224 255
200 224 255
200 224 255
200 224 255
200 224 255
200 224 255
200 224 255
200 224 255
200 224 255
200 224 255
200 224 255
200 224 255
200 224 255
200 224 255
200 224 255
200 224 255
200 224 255
200 224 255
200 224 255
200 224 255
200 224 255
200 224 255
200 224 255
200 224 255
200 224 255
200 224 255
200 224 255
200 224 255
200 224 255
200 224 255
200 224 255
200 224 255
200 224 255
200 224 255
200 224 255
200 224 255
200 224 255
200 224 255
200 224 255
200 224 255
200 224 255
200 224 255
200 224 255
200 224 255
200 224 255
200 224 255
200 224 255
200 224 255
201 224 255
201 224 255
201 224 255
201 224 255
201 224 255
201 224 255
201 224 255
201 224 255
201 224 255
201 224 255
201 224 255
201 224 255
201 224 255
201 224 255
201 224 255
201 224 255
201 224 255
201 224 255
201 224 255
201 225 255
201 225 255
201 225 255
201 225 255
201 225 255
201 225 255
202 225 255
202 225 255
202 225 255
202 225 255
202 225 255
202 225 255
202 225 255
202 225 255
202 225 255
202 225 255
202 225 255
202 225 255
202 225 255
202 225 255
202 225 255
202 225 255
202 225 255
202 225 255
203 225 255
203 225 255
203 225 255
203 225 255
203 225 255
203 225 255
203 225 255
203 225 255
203 225 255
203 226 255
203 226 255
203 226 255
203 226 255
203 226 255
203 226 255
203 226 255
203 226 255
204 226 255
204 226 255
204 226 255
204 226 255
204 226 255
204 226 255
204 226 255
204 226 255
204 226 255
204 226 255
204 226 255
204 226 255
204 226 255
204 226 255
204 226 255
204 226 255
205 226 255
205 226 255
205 226 255
205 226 255
205 226 255
205 226 255
205 227 255
205 227 255
205 227 255
205 227 255
205 227 255
205 227 255
205 227 255
205 227 255
205 227 255
205 227 255
206 227 255
206 227 255
206 227 255
206 227 255
206 227 255
206 227 255
206 227 255
206 227 255
206 227 255
206 227 255
206 227 255
206 227 255
206 227 255
206 227 255
206 227 255
206 227 255
206 227 255
207 227 255
207 227 255
207 227 255
207 227 255
207 228 255
207 228 255
207 228 255
207 228 255
207 228 255
207 228 255
207 228 255
207 228 255
207 228 255
207 228 255
207 228 255
207 228 255
207 228 255
207 228 255
208 228 255
208 228 255
208 228 255
208 228 255
208 228 255
208 228 255
208 228 255
208 228 255
208 228 255
208 228 255
208 228 255
208 228 255
208 228 255
208 228 255
208 228 255
208 228 255
208 228 255
208 228 255
208 228 255
208 228 255
209 228 255
209 229 255
209 229 255
209 229 255
209 229 255
209 229 255
209 229 255
209 229 255
209 229 255
209 229 255
209 229 255
209 229 255
209 229 255
209 229 255
209 229 255
209 229 255
209 229 255
209 229 255
209 229 255
209 229 255
209 229 255
209 229 255
209 229 255
210 229 255
210 229 255
210 229 255
210 229 255
210 229 255
210 229 255
210 229 255
210 229 255
210 229 255
210 229 255
210 229 255
210 229 255
210 229 255
210 229 255
210 229 255
209 229 255
209 229 255
209 229 255
209 229 255
209 229 255
209 229 255
209 229 255
209 229 255
209 229 255
209 229 255
209 229 255
209 229 255
209 229 255
209 229 255
209 229 255
209 229 255
209 229 255
209 229 255
209 229 255
209 229 255
209 229 255
209 228 255
208 228 255
208 228 255
208 228 255
208 228 255
208 228 255
208 228 255
208 228 255
208 228 255
208 228 255
208 228 255
208 228 255
208 228 255
208 228 255
208 228 255
208 228 255
208 228 255
208 228 255
208 228 255
208 228 255
208 228 255
207 228 255
207 228 255
207 228 255
207 228 255
207 228 255
207 228 255
207 228 255
207 228 255
207 228 255
207 228 255
207 228 255
207 228 255
207 228 255
207 228 255
207 227 255
207 227 255
207 227 255
207 227 255
206 227 255
206 227 255
206 227 255
206 227 255
206 227 255
206 227 255
206 227 255
206 227 255
206 227 255
206 227 255
206 227 255
206 227 255
206 227 255
206 227 255
206 227 255
206 227 255
206 227 255
205 227 255
205 227 255
205 227 255
205 227 255
205 227 255
205 227 255
205 227 255
205 227 255
205 227 255
205 227 255
205 226 255
205 226 255
205 226 255
205 226 255
205 226 255
205 226 255
205 226 255
204 226 255
204 226 255
204 226 255
204 226 255
204 226 255
204 226 255
204 226 255
204 226 255
204 226 255
204 226 255
204 226 255
204 226 255
204 226 255
204 226 255
204 226 255
204 226 255
203 226 255
203 226 255
203 226 255
203 226 255
203 226 255
203 226 255
203 226 255
203 225 255
203 225 255
203 225 255
203 225 255
203 225 255
203 225 255
203 225 255
203 225 255
203 225 255
202 225 255
202 225 255
202 225 255
202 225 255
202 225 255
202 225 255
202 225 255
202 225 255
202 225 255
202 225 255
202 225 255
202 225 255
202 225 255
202 225 255
202 225 255
202 225 255
202 225 255
202 225 255
202 225 255
201 225 255
201 225 255
201 225 255
201 225 255
201 225 255
201 225 255
201 225 255
201 224 255
201 224 255
201 224 255
201 224 255
201 224 255
201 224 255
201 224 255
201 224 255
201 224 255
201 224 255
201 224 255
201 224 255
201 224 255
201 224 255
201 224 255
201 224 255
201 224 255
201 224 255
201 224 255
201 224 255
201 224 255
201 224 255
200 224 255
200 224 255
200 224 255
200 224 255
200 224 255
200 224 255
200 224 255
200 224 255
200 224 255
200 224 255
200 224 255
200 224 255
200 224 255
200 224 255
200 224 255
200 224 255
200 224 255
200 224 255
200 224 255
200 224 255
200 224 255
200 224 255
200 224 255
200 224 255
200 224 255
200 224 255
200 224 255
200 224 255
200 224 255
200 224 255
200 224 255
200 224 255
201 224 255
201 224 255
201 224 255
201 224 255
201 224 255
201 224 255
201 224 255
201 224 255
201 224 255
201 224 255
201 224 255
201 224 255
201 224 255
201 224 255
201 224 255
201 224 255
201 224 255
201 224 255
201 224 255
201 224 255
201 224 255
201 224 255
201 224 255
201 225 255
201 225 255
201 225 255
201 225 255
201 225 255
201 225 255
202 225 255
202 225 255
202 225 255
202 225 255
202 225 255
202 225 255
202 225 255
202 225 255
202 225 255
202 225 255
202 225 255
202 225 255
202 225 255
202 225 255
202 225 255
202 225 255
202 225 255
202 225 255
202 225 255
203 225 255
203 225 255
203 225 255
203 225 255
203 225 255
203 225 255
203 225 255
203 225 255
203 225 255
203 225 255
203 226 255
203 226 255
203 226 255
203 226 255
203 226 255
203 226 255
203 226 255
204 226 255
204 226 255
204 226 255
204 226 255
204 226 255
204 226 255
204 226 255
204 226 255
204 226 255
204 226 255
204 226 255
204 226 255
204 226 255
204 226 255
204 226 255
204 226 255
205 226 255
205 226 255
205 226 255
205 226 255
205 226 255
205 226 255
205 226 255
205 227 255
205 227 255
205 227 255
205 227 255
205 227 255
205 227 255
205 227 255
205 227 255
205 227 255
205 227 255
206 227 255
206 227 255
206 227 255
206 227 255
206 227 255
206 227 255
206 227 255
206 227 255
206 227 255
206 227 255
206 227 255
206 227 255
206 227 255
206 227 255
206 227 255
206 227 255
206 227 255
207 227 255
207 227 255
207 227 255
207 227 255
207 228 255
207 228 255
207 228 255
207 228 255
207 228 255
207 228 255
207 228 255
207 228 255
207 228 255
207 228 255
207 228 255
207 228 255
207 228 255
207 228 255
208 228 255
208 228 255
208 228 255
208 228 255
208 228 255
208 228 255
208 228 255
208 228 255
208 228 255
208 228 255
208 228 255
208 228 255
208 228 255
208 228 255
208 228 255
208 228 255
208 228 255
208 228 255
208 228 255
208 228 255
209 228 255
209 229 255
209 229 255
209 229 255
209 229 255
209 229 255
209 229 255
209 229 255
209 229 255
209 229 255
209 229 255
209 229 255
209 229 255
209 229 255
209 229 255
209 229 255
209 229 255
209 229 255
209 229 255
209 229 255
209 229 255
209 229 255
210 229 255
210 229 255
210 229 255
210 229 255
210 229 255
210 229 255
210 229 255
210 229 255
210 229 255
210 229 255
210 229 255
210 229 255
210 229 255
210 229 255
210 229 255
210 229 255
210 229 255
210 229 255
210 229 255
210 229 255
210 229 255
210 229 255
210 229 255
209 229 255
209 229 255
209 229 255
209 229 255
209 229 255
209 229 255
209 229 255
209 229 255
209 229 255
209 229 255
209 229 255
209 229 255
209 229 255
209 229 255
209 229 255
209 229 255
209 229 255
209 229 255
209 229 255
209 229 255
209 228 255
209 228 255
208 228 255
208 228 255
208 228 255
208 228 255
208 228 255
208 228 255
208 228 255
208 228 255
208 228 255
208 228 255
208 228 255
208 228 255
208 228 255
208 228 255
208 228 255
208 228 255
208 228 255
208 228 255
208 228 255
207 228 255
207 228 255
207 228 255
207 228 255
207 228 255
207 228 255
207 228 255
207 228 255
207 228 255
207 228 255
207 228 255
207 228 255
207 228 255
207 228 255
207 227 255
207 227 255
207 227 255
207 227 255
207 227 255
206 227 255
206 227 255
206 227 255
206 227 255
206 227 255
206 227 255
206 227 255
206 227 255
206 227 255
206 227 255
206 227 255
206 227 255
206 227 255
206 227 255
206 227 255
206 227 255
206 227 255
205 227 255
205 227 255
205 227 255
205 227 255
205 227 255
205 227 255
205 227 255
205 227 255
205 227 255
205 226 255
205 226 255
205 226 255
205 226 255
205 226 255
205 226 255
205 226 255
204 226 255
204 226 255
204 226 255
204 226 255
204 226 255
204 226 255
204 226 255
204 226 255
204 226 255
204 226 255
204 226 255
204 226 255
204 226 255
204 226 255
204 226 255
204 226 255
203 226 255
203 226 255
203 226 255
203 226 255
203 226 255
203 226 255
203 226 255
203 225 255
203 225 255
203 225 255
203 225 255
203 225 255
203 225 255
203 225 255
203 225 255
203 225 255
203 225 255
202 225 255
202 225 255
202 225 255
202 225 255
202 225 255
202 225 255
202 225 255
202 225 255
202 225 255
202 225 255
202 225 255
202 225 255
202 225 255
202 225 255
202 225 255
202 225 255
202 225 255
202 225 255
202 225 255
202 225 255
201 225 255
201 225 255
201 225 255
201 225 255
201 225 255
201 225 255
201 225 255
201 224 255
201 224 255
201 224 255
201 224 255
201 224 255
201 224 255
201 224 255
201 224 255
201 224 255
201 224 255
201 224 255
201 224 255
201 224 255
201 224 255
201 224 255
201 224 255
201 224 255
201 224 255
201 224 255
201 224 255
201 224 255
201 224 255
201 224 255
201 224 255
201 224 255
201 224 255
201 224 255
201 224 255
201 224 255
201 224 255
201 224 255
201 224 255
201 224 255
201 224 255
201 224 255
201 224 255
201 224 255
201 224 255
201 224 255
201 224 255
201 224 255
201 224 255
201 224 255
201 224 255
201 224 255
201 224 255
201 224 255
201 224 255
201 224 255
201 224 255
201 224 255
201 224 255
201 224 255
201 224 255
201 224 255
201 224 255
201 224 255
201 224 255
201 224 255
201 224 255
201 224 255
201 224 255
201 224 255
201 224 255
201 224 255
201 224 255
201 224 255
201 225 255
201 225 255
201 225 255
201 225 255
201 225 255
201 225 255
201 225 255
202 225 255
202 225 255
202 225 255
202 225 255
202 225 255
202 225 255
202 225 255
202 225 255
202 225 255
202 225 255
202 225 255
202 225 255
202 225 255
202 225 255
202 225 255
202 225 255
202 225 255
202 225 255
202 225 255
202 225 255
203 225 255
203 225 255
203 225 255
203 225 255
203 225 255
203 225 255
203 225 255
203 225 255
203 225 255
203 225 255
203 226 255
203 226 255
203 226 255
203 226 255
203 226 255
203 226 255
203 226 255
204 226 255
204 226 255
204 226 255
204 226 255
204 226 255
204 226 255
204 226 255
204 226 255
204 226 255
204 226 255
204 226 255
204 226 255
204 226 255
204 226 255
204 226 255
204 226 255
205 226 255
205 226 255
205 226 255
205 226 255
205 226 255
205 226 255
205 226 255
205 227 255
205 227 255
205 227 255
205 227 255
205 227 255
205 227 255
205 227 255
205 227 255
205 227 255
205 227 255
206 227 255
206 227 255
206 227 255
206 227 255
206 227 255
206 227 255
206 227 255
206 227 255
206 227 255
206 227 255
206 227 255
206 227 255
206 227 255
206 227 255
206 227 255
206 227 255
206 227 255
207 227 255
207 227 255
207 227 255
207 227 255
207 228 255
207 228 255
207 228 255
207 228 255
207 228 255
207 228 255
207 228 255
207 228 255
207 228 255
207 228 255
207 228 255
207 228 255
207 228 255
207 228 255
208 228 255
208 228 255
208 228 255
208 228 255
208 228 255
208 228 255
208 228 255
208 228 255
208 228 255
208 228 255
208 228 255
208 228 255
208 228 255
208 228 255
208 228 255
208 228 255
208 228 255
208 228 255
208 228 255
209 228 255
209 228 255
209 229 255
209 229 255
209 229 255
209 229 255
209 229 255
209 229 255
209 229 255
209 229 255
209 229 255
209 229 255
209 229 255
209 229 255
209 229 255
209 229 255
209 229 255
209 229 255
209 229 255
209 229 255
209 229 255
209 229 255
210 229 255
210 229 255
210 229 255
210 229 255
210 229 255
210 229 255
210 229 255
210 229 255
210 229 255
210 229 255
210 229 255
210 229 255
210 229 255
210 229 255
210 229 255
210 229 255
210 229 255
210 229 255
210 229 255
210 229 255
210 229 255
210 229 255
210 229 255
210 229 255
210 229 255
210 229 255
210 229 255
210 229 255
210 229 255
210 229 255
209 229 255
209 229 255
209 229 255
209 229 255
209 229 255
209 229 255
209 229 255
209 229 255
209 229 255
209 229 255
209 229 255
209 229 255
209 229 255
209 229 255
209 229 255
209 229 255
209 229 255
209 229 255
209 229 255
209 229 255
209 229 255
209 228 255
208 228 255
208 228 255
208 228 255
208 228 255
208 228 255
208 228 255
208 228 255
208 228 255
208 228 255
208 228 255
208 228 255
208 228 255
208 228 255
208 228 255
208 228 255
208 228 255
208 228 255
208 228 255
208 228 255
208 228 255
207 228 255
207 228 255
207 228 255
207 228 255
207 228 255
207 228 255
207 228 255
207 228 255
207 228 255
207 228 255
207 228 255
207 228 255
207 228 255
207 228 255
207 227 255
207 227 255
207 227 255
207 227 255
206 227 255
206 227 255
206 227 255
206 227 255
206 227 255
206 227 255
206 227 255
206 227 255
206 227 255
206 227 255
206 227 255
206 227 255
206 227 255
206 227 255
206 227 255
206 227 255
205 227 255
205 227 255
205 227 255
205 227 255
205 227 255
205 227 255
205 227 255
205 227 255
205 227 255
205 227 255
205 227 255
205 226 255
205 226 255
205 226 255
205 226 255
205 226 255
205 226 255
204 226 255
204 226 255
204 226 255
204 226 255
204 226 255
204 226 255
204 226 255
204 226 255
204 226 255
204 226 255
204 226 255
204 226 255
204 226 255
204 226 255
204 226 255
204 226 255
203 226 255
203 226 255
203 226 255
203 226 255
203 226 255
203 226 255
203 226 255
203 226 255
203 225 255
203 225 255
203 225 255
203 225 255
203 225 255
203 225 255
203 225 255
203 225 255
203 225 255
203 225 255
202 225 255
202 225 255
202 225 255
202 225 255
202 225 255
202 225 255
202 225 255
202 225 255
202 225 255
202 225 255
202 225 255
202 225 255
202 225 255
202 225 255
202 225 255
202 225 255
202 225 255
202 225 255
202 225 255
202 225 255
202 225 255
201 225 255
201 225 255
201 225 255
201 225 255
201 225 255
201 225 255
201 225 255
201 225 255
201 225 255
201 224 255
201 224 255
201 224 255
201 224 255
201 224 255
201 224 255
201 224 255
201 224 255
201 224 255
201 224 255
201 224 255
201 224 255
201 224 255
201 224 255
201 224 255
201 224 255
201 224 255
201 224 255
201 224 255
201 224 255
201 224 255
201 224 255
201 224 255
201 224 255
201 224 255
201 224 255
201 224 255
201 224 255
201 224 255
201 224 255
201 224 255
201 224 255
201 224 255
201 224 255
201 224 255
201 224 255
201 224 255
201 224 255
201 224 255
201 224 255
201 224 255
201 224 255
201 224 255
201 224 255
201 224 255
201 224 255
201 224 255
201 224 255
201 224 255
201 224 255
201 224 255
201 224 255
201 224 255
201 225 255
201 225 255
201 225 255
201 225 255
201 225 255
201 225 255
201 225 255
201 225 255
202 225 255
202 225 255
202 225 255
202 225 255
202 225 255
202 225 255
202 225 255
202 225 255
202 225 255
202 225 255
202 225 255
202 225 255
202 225 255
202 225 255
202 225 255
202 225 255
202 225 255
202 225 255
202 225 255
202 225 255
202 225 255
202 225 255
203 225 255
203 225 255
203 225 255
203 225 255
203 225 255
203 225 255
203 225 255
203 225 255
203 225 255
203 225 255
203 226 255
203 226 255
203 226 255
203 226 255
203 226 255
203 226 255
203 226 255
204 226 255
204 226 255
204 226 255
204 226 255
204 226 255
204 226 255
204 226 255
204 226 255
204 226 255
204 226 255
204 226 255
204 226 255
204 226 255
204 226 255
204 226 255
204 226 255
204 226 255
205 226 255
205 226 255
205 226 255
205 226 255
205 226 255
205 226 255
205 226 255
205 227 255
205 227 255
205 227 255
205 227 255
205 227 255
205 227 255
205 227 255
205 227 255
205 227 255
206 227 255
206 227 255
206 227 255
206 227 255
206 227 255
206 227 255
206 227 255
206 227 255
206 227 255
206 227 255
206 227 255
206 227 255
206 227 255
206 227 255
206 227 255
206 227 255
206 227 255
207 227 255
207 227 255
207 227 255
207 227 255
207 227 255
207 228 255
207 228 255
207 228 255
207 228 255
207 228 255
207 228 255
207 228 255
207 228 255
207 228 255
207 228 255
207 228 255
207 228 255
207 228 255
208 228 255
208 228 255
208 228 255
208 228 255
208 228 255
208 228 255
208 228 255
208 228 255
208 228 255
208 228 255
208 228 255
208 228 255
208 228 255
208 228 255
208 228 255
208 228 255
208 228 255
208 228 255
208 228 255
208 228 255
209 228 255
209 229 255
209 229 255
209 229 255
209 229 255
209 229 255
209 229 255
209 229 255
209 229 255
209 229 255
209 229 255
209 229 255
209 229 255
209 229 255
209 229 255
209 229 255
209 229 255
209 229 255
209 229 255
209 229 255
209 229 255
209 229 255
210 229 255
210 229 255
210 229 255
210 229 255
210 229 255
210 229 255
210 229 255
210 229 255
210 229 255
210 229 255
210 229 255
210 229 255
210 229 255
210 229 255
210 229 255
210 229 255
210 229 255
210 229 255
210 229 255
210 229 255
210 229 255
210 229 255
210 229 255
210 229 255
210 229 255
210 229 255
210 229 255
210 229 255
210 229 255
210 229 255
210 229 255
210 229 255
210 229 255
210 229 255
210 229 255
210 229 255
210 229 255
209 229 255
209 229 255
209 229 255
209 229 255
209 229 255
209 229 255
209 229 255
209 229 255
209 229 255
209 229 255
209 229 255
209 229 255
209 229 255
209 229 255
209 229 255
209 229 255
209 229 255
209 229 255
209 229 255
209 229 255
209 228 255
209 228 255
208 228 255
208 228 255
208 228 255
208 228 255
208 228 255
208 228 255
208 228 255
208 228 255
208 228 255
208 228 255
208 228 255
208 228 255
208 228 255
208 228 255
208 228 255
208 228 255
208 228 255
208 228 255
208 228 255
207 228 255
207 228 255
207 228 255
207 228 255
207 228 255
207 228 255
207 228 255
207 228 255
207 228 255
207 228 255
207 228 255
207 228 255
207 228 255
207 228 255
207 227 255
207 227 255
207 227 255
207 227 255
206 227 255
206 227 255
206 227 255
206 227 255
206 227 255
206 227 255
206 227 255
206 227 255
206 227 255
206 227 255
206 227 255
206 227 255
206 227 255
206 227 255
206 227 255
206 227 255
206 227 255
205 227 255
205 227 255
205 227 255
205 227 255
205 227 255
205 227 255
205 227 255
205 227 255
205 227 255
205 227 255
205 226 255
205 226 255
205 226 255
205 226 255
205 226 255
205 226 255
204 226 255
204 226 255
204 226 255
204 226 255
204 226 255
204 226 255
204 226 255
204 226 255
204 226 255
204 226 255
204 226 255
204 226 255
204 226 255
204 226 255
204 226 255
204 226 255
204 226 255
203 226 255
203 226 255
203 226 255
203 226 255
203 226 255
203 226 255
203 226 255
203 226 255
203 225 255
203 225 255
203 225 255
203 225 255
203 225 255
203 225 255
203 225 255
203 225 255
203 225 255
203 225 255
202 225 255
202 225 255
202 225 255
202 225 255
202 225 255
202 225 255
202 225 255
202 225 255
202 225 255
202 225 255
202 225 255
202 225 255
202 225 255
202 225 255
202 225 255
202 225 255
202 225 255
202 225 255
202 225 255
202 225 255
202 225 255
202 225 255
202 225 255
202 225 255
201 225 255
201 225 255
201 225 255
201 225 255
201 225 255
201 225 255
201 225 255
201 225 255
201 225 255
201 225 255
201 224 255
201 224 255
201 224 255
201 224 255
201 224 255
201 224 255
201 224 255
201 224 255
201 224 255
201 224 255
201 224 255
201 224 255
201 224 255
201 224 255
201 224 255
201 224 255
201 224 255
201 224 255
201 224 255
201 224 255
201 224 255
201 224 255
201 224 255
201 224 255
201 224 255
201 224 255
201 224 255
201 224 255
201 224 255
201 224 255
201 224 255
201 224 255
201 224 255
201 224 255
201 224 255
201 224 255
201 224 255
201 225 255
201 225 255
201 225 255
201 225 255
201 225 255
201 225 255
201 225 255
201 225 255
201 225 255
201 225 255
202 225 255
202 225 255
202 225 255
202 225 255
202 225 255
202 225 255
202 225 255
202 225 255
202 225 255
202 225 255
202 225 255
202 225 255
202 225 255
202 225 255
202 225 255
202 225 255
202 225 255
202 225 255
202 225 255
202 225 255
202 225 255
202 225 255
202 225 255
202 225 255
203 225 255
203 225 255
203 225 255
203 225 255
203 225 255
203 225 255
203 225 255
203 225 255
203 225 255
203 225 255
203 226 255
203 226 255
203 226 255
203 226 255
203 226 255
203 226 255
203 226 255
203 226 255
204 226 255
204 226 255
204 226 255
204 226 255
204 226 255
204 226 255
204 226 255
204 226 255
204 226 255
204 226 255
204 226 255
204 226 255
204 226 255
204 226 255
204 226 255
204 226 255
204 226 255
205 226 255
205 226 255
205 226 255
205 226 255
205 226 255
205 226 255
205 227 255
205 227 255
205 227 255
205 227 255
205 227 255
205 227 255
205 227 255
205 227 255
205 227 255
205 227 255
206 227 255
206 227 255
206 227 255
206 227 255
206 227 255
206 227 255
206 227 255
206 227 255
206 227 255
206 227 255
206 227 255
206 227 255
206 227 255
206 227 255
206 227 255
206 227 255
206 227 255
207 227 255
207 227 255
207 227 255
207 227 255
207 228 255
207 228 255
207 228 255
207 228 255
207 228 255
207 228 255
207 228 255
207 228 255
207 228 255
207 228 255
207 228 255
207 228 255
207 228 255
207 228 255
208 228 255
208 228 255
208 228 255
208 228 255
208 228 255
208 228 255
208 228 255
208 228 255
208 228 255
208 228 255
208 228 255
208 228 255
208 228 255
208 228 255
208 228 255
208 228 255
208 228 255
208 228 255
208 228 255
209 228 255
209 228 255
209 229 255
209 229 255
209 229 255
209 229 255
209 229 255
209 229 255
209 229 255
209 229 255
209 229 255
209 229 255
209 229 255
209 229 255
209 229 255
209 229 255
209 229 255
209 229 255
209 229 255
209 229 255
209 229 255
209 229 255
210 229 255
210 229 255
210 229 255
210 229 255
210 229 255
210 229 255
210 229 255
210 229 255
210 229 255
210 229 255
210 229 255
210 229 255
210 229 255
210 229 255
210 229 255
210 229 255
210 229 255
210 229 255
210 229 255
210 229 255
210 229 255
210 230 255
210 230 255
210 229 255
210 229 255
210 229 255
210 229 255
210 229 255
210 229 255
210 229 255
210 229 255
210 229 255
210 229 255
210 229 255
210 229 255
210 229 255
210 229 255
210 229 255
210 229 255
210 229 255
210 229 255
210 229 255
210 229 255
210 229 255
209 229 255
209 229 255
209 229 255
209 229 255
209 229 255
209 229 255
209 229 255
209 229 255
209 229 255
209 229 255
209 229 255
209 229 255
209 229 255
209 229 255
209 229 255
209 229 255
209 229 255
209 229 255
209 229 255
209 229 255
209 229 255
209 228 255
208 228 255
208 228 255
208 228 255
208 228 255
208 228 255
208 228 255
208 228 255
208 228 255
208 228 255
208 228 255
208 228 255
208 228 255
208 228 255
208 228 255
208 228 255
208 228 255
208 228 255
208 228 255
208 228 255
207 228 255
207 228 255
207 228 255
207 228 255
207 228 255
207 228 255
207 228 255
207 228 255
207 228 255
207 228 255
207 228 255
207 228 255
207 228 255
207 228 255
207 227 255
207 227 255
207 227 255
207 227 255
206 227 255
206 227 255
206 227 255
206 227 255
206 227 255
206 227 255
206 227 255
206 227 255
206 227 255
206 227 255
206 227 255
206 227 255
206 227 255
206 227 255
206 227 255
206 227 255
206 227 255
205 227 255
205 227 255
205 227 255
205 227 255
205 227 255
205 227 255
205 227 255
205 227 255
205 227 255
205 227 255
205 226 255
205 226 255
205 226 255
205 226 255
205 226 255
205 226 255
205 226 255
204 226 255
204 226 255
204 226 255
204 226 255
204 226 255
204 226 255
204 226 255
204 226 255
204 226 255
204 226 255
204 226 255
204 226 255
204 226 255
204 226 255
204 226 255
204 226 255
204 226 255
203 226 255
203 226 255
203 226 255
203 226 255
203 226 255
203 226 255
203 226 255
203 226 255
203 225 255
203 225 255
203 225 255
203 225 255
203 225 255
203 225 255
203 225 255
203 225 255
203 225 255
203 225 255
203 225 255
202 225 255
202 225 255
202 225 255
202 225 255
202 225 255
202 225 255
202 225 255
202 225 255
202 225 255
202 225 255
202 225 255
202 225 255
202 225 255
202 225 255
202 225 255
202 225 255
202 225 255
202 225 255
202 225 255
202 225 255
202 225 255
202 225 255
202 225 255
202 225 255
202 225 255
202 225 255
201 225 255
201 225 255
201 225 255
201 225 255
201 225 255
201 225 255
201 225 255
201 225 255
201 225 255
201 225 255
201 225 255
201 225 255
201 225 255
201 225 255
201 225 255
201 225 255
201 225 255
201 225 255
201 225 255
201 225 255
201 225 255
201 225 255
201 225 255
201 225 255
201 225 255
201 225 255
201 225 255
201 225 255
201 225 255
201 225 255
201 225 255
201 225 255
201 225 255
201 225 255
201 225 255
201 225 255
201 225 255
201 225 255
201 225 255
201 225 255
201 225 255
201 225 255
202 225 255
202 225 255
202 225 255
202 225 255
202 225 255
202 225 255
202 225 255
202 225 255
202 225 255
202 225 255
202 225 255
202 225 255
202 225 255
202 225 255
202 225 255
202 225 255
202 225 255
202 225 255
202 225 255
202 225 255
202 225 255
202 225 255
202 225 255
202 225 255
202 225 255
202 225 255
202 225 255
202 225 255
203 225 255
203 225 255
203 225 255
203 225 255
203 225 255
203 225 255
203 225 255
203 225 255
203 225 255
203 225 255
203 226 255
203 226 255
203 226 255
203 226 255
203 226 255
203 226 255
203 226 255
203 226 255
204 226 255
204 226 255
204 226 255
204 226 255
204 226 255
204 226 255
204 226 255
204 226 255
204 226 255
204 226 255
204 226 255
204 226 255
204 226 255
204 226 255
204 226 255
204 226 255
204 226 255
205 226 255
205 226 255
205 226 255
205 226 255
205 226 255
205 226 255
205 226 255
205 227 255
205 227 255
205 227 255
205 227 255
205 227 255
205 227 255
205 227 255
205 227 255
205 227 255
205 227 255
206 227 255
206 227 255
206 227 255
206 227 255
206 227 255
206 227 255
206 227 255
206 227 255
206 227 255
206 227 255
206 227 255
206 227 255
206 227 255
206 227 255
206 227 255
206 227 255
207 227 255
207 227 255
207 227 255
207 227 255
207 227 255
207 228 255
207 228 255
207 228 255
207 228 255
207 228 255
207 228 255
207 228 255
207 228 255
207 228 255
207 228 255
207 228 255
207 228 255
207 228 255
208 228 255
208 228 255
208 228 255
208 228 255
208 228 255
208 228 255
208 228 255
208 228 255
208 228 255
208 228 255
208 228 255
208 228 255
208 228 255
208 228 255
208 228 255
208 228 255
208 228 255
208 228 255
208 228 255
208 228 255
209 228 255
209 229 255
209 229 255
209 229 255
209 229 255
209 229 255
209 229 255
209 229 255
209 229 255
209 229 255
209 229 255
209 229 255
209 229 255
209 229 255
209 229 255
209 229 255
209 229 255
209 229 255
209 229 255
209 229 255
209 229 255
210 229 255
210 229 255
210 229 255
210 229 255
210 229 255
210 229 255
210 229 255
210 229 255
210 229 255
210 229 255
210 229 255
210 229 255
210 229 255
210 229 255
210 229 255
210 229 255
210 229 255
210 229 255
210 229 255
210 229 255
210 229 255
210 229 255
210 230 255
210 230 255
210 230 255
211 230 255
211 230 255
211 230 255
210 230 255
210 230 255
210 230 255
210 229 255
210 229 255
210 229 255
210 229 255
210 229 255
210 229 255
210 229 255
210 229 255
210 229 255
210 229 255
210 229 255
210 229 255
210 229 255
210 229 255
210 229 255
210 229 255
210 229 255
210 229 255
210 229 255
210 229 255
210 229 255
209 229 255
209 229 255
209 229 255
209 229 255
209 229 255
209 229 255
209 229 255
209 229 255
209 229 255
209 229 255
209 229 255
209 229 255
209 229 255
209 229 255
209 229 255
209 229 255
209 229 255
209 229 255
209 229 255
209 229 255
209 228 255
209 228 255
208 228 255
208 228 255
208 228 255
208 228 255
208 228 255
208 228 255
208 228 255
208 228 255
208 228 255
208 228 255
208 228 255
208 228 255
208 228 255
208 228 255
208 228 255
208 228 255
208 228 255
208 228 255
208 228 255
207 228 255
207 228 255
207 228 255
207 228 255
207 228 255
207 228 255
207 228 255
207 228 255
207 228 255
207 228 255
207 228 255
207 228 255
207 228 255
207 228 255
207 227 255
207 227 255
207 227 255
207 227 255
206 227 255
206 227 255
206 227 255
206 227 255
206 227 255
206 227 255
206 227 255
206 227 255
206 227 255
206 227 255
206 227 255
206 227 255
206 227 255
206 227 255
206 227 255
206 227 255
206 227 255
205 227 255
205 227 255
205 227 255
205 227 255
205 227 255
205 227 255
205 227 255
205 227 255
205 227 255
205 227 255
205 226 255
205 226 255
205 226 255
205 226 255
205 226 255
205 226 255
204 226 255
204 226 255
204 226 255
204 226 255
204 226 255
204 226 255
204 226 255
204 226 255
204 226 255
204 226 255
204 226 255
204 226 255
204 226 255
204 226 255
204 226 255
204 226 255
204 226 255
204 226 255
203 226 255
203 226 255
203 226 255
203 226 255
203 226 255
203 226 255
203 226 255
203 226 255
203 225 255
203 225 255
203 225 255
203 225 255
203 225 255
203 225 255
203 225 255
203 225 255
203 225 255
203 225 255
203 225 255
202 225 255
202 225 255
202 225 255
202 225 255
202 225 255
202 225 255
202 225 255
202 225 255
202 225 255
202 225 255
202 225 255
202 225 255
202 225 255
202 225 255
202 225 255
202 225 255
202 225 255
202 225 255
202 225 255
202 225 255
202 225 255
202 225 255
202 225 255
202 225 255
202 225 255
202 225 255
202 225 255
202 225 255
202 225 255
202 225 255
202 225 255
202 225 255
202 225 255
202 225 255
202 225 255
202 225 255
201 225 255
201 225 255
201 225 255
201 225 255
201 225 255
201 225 255
201 225 255
201 225 255
201 225 255
201 225 255
201 225 255
201 225 255
201 225 255
201 225 255
201 225 255
201 225 255
202 225 255
202 225 255
202 225 255
202 225 255
202 225 255
202 225 255
202 225 255
202 225 255
202 225 255
202 225 255
202 225 255
202 225 255
202 225 255
202 225 255
202 225 255
202 225 255
202 225 255
202 225 255
202 225 255
202 225 255
202 225 255
202 225 255
202 225 255
202 225 255
202 225 255
202 225 255
202 225 255
202 225 255
202 225 255
202 225 255
202 225 255
202 225 255
202 225 255
202 225 255
202 225 255
203 225 255
203 225 255
203 225 255
203 225 255
203 225 255
203 225 255
203 225 255
203 225 255
203 225 255
203 225 255
203 225 255
203 226 255
203 226 255
203 226 255
203 226 255
203 226 255
203 226 255
203 226 255
203 226 255
204 226 255
204 226 255
204 226 255
204 226 255
204 226 255
204 226 255
204 226 255
204 226 255
204 226 255
204 226 255
204 226 255
204 226 255
204 226 255
204 226 255
204 226 255
204 226 255
204 226 255
204 226 255
205 226 255
205 226 255
205 226 255
205 226 255
205 226 255
205 226 255
205 226 255
205 227 255
205 227 255
205 227 255
205 227 255
205 227 255
205 227 255
205 227 255
205 227 255
205 227 255
206 227 255
206 227 255
206 227 255
206 227 255
206 227 255
206 227 255
206 227 255
206 227 255
206 227 255
206 227 255
206 227 255
206 227 255
206 227 255
206 227 255
206 227 255
206 227 255
206 227 255
207 227 255
207 227 255
207 227 255
207 227 255
207 227 255
207 228 255
207 228 255
207 228 255
207 228 255
207 228 255
207 228 255
207 228 255
207 228 255
207 228 255
207 228 255
207 228 255
207 228 255
207 228 255
208 228 255
208 228 255
208 228 255
208 228 255
208 228 255
208 228 255
208 228 255
208 228 255
208 228 255
208 228 255
208 228 255
208 228 255
208 228 255
208 228 255
208 228 255
208 228 255
208 228 255
208 228 255
208 228 255
209 228 255
209 228 255
209 229 255
209 229 255
209 229 255
209 229 255
209 229 255
209 229 255
209 229 255
209 229 255
209 229 255
209 229 255
209 229 255
209 229 255
209 229 255
209 229 255
209 229 255
209 229 255
209 229 255
209 229 255
209 229 255
209 229 255
210 229 255
210 229 255
210 229 255
210 229 255
210 229 255
210 229 255
210 229 255
210 229 255
210 229 255
210 229 255
210 229 255
210 229 255
210 229 255
210 229 255
210 229 255
210 229 255
210 229 255
210 229 255
210 229 255
210 229 255
210 229 255
210 230 255
210 230 255
210 230 255
211 230 255
211 230 255
211 230 255
211 230 255
211 230 255
211 230 255
211 230 255
211 230 255
211 230 255
211 230 255
211 230 255
210 230 255
210 230 255
210 230 255
210 229 255
210 229 255
210 229 255
210 229 255
210 229 255
210 229 255
210 229 255
210 229 255
210 229 255
210 229 255
210 229 255
210 229 255
210 229 255
210 229 255
210 229 255
210 229 255
210 229 255
210 229 255
210 229 255
210 229 255
210 229 255
209 229 255
209 229 255
209 229 255
209 229 255
209 229 255
209 229 255
209 229 255
209 229 255
209 229 255
209 229 255
209 229 255
209 229 255
209 229 255
209 229 255
209 229 255
209 229 255
209 229 255
209 229 255
209 229 255
209 228 255
209 228 255
208 228 255
208 228 255
208 228 255
208 228 255
208 228 255
208 228 255
208 228 255
208 228 255
208 228 255
208 228 255
208 228 255
208 228 255
208 228 255
208 228 255
208 228 255
208 228 255
208 228 255
208 228 255
208 228 255
207 228 255
207 228 255
207 228 255
207 228 255
207 228 255
207 228 255
207 228 255
207 228 255
207 228 255
207 228 255
207 228 255
207 228 255
207 228 255
207 228 255
207 227 255
207 227 255
207 227 255
207 227 255
206 227 255
206 227 255
206 227 255
206 227 255
206 227 255
206 227 255
206 227 255
206 227 255
206 227 255
206 227 255
206 227 255
206 227 255
206 227 255
206 227 255
206 227 255
206 227 255
206 227 255
205 227 255
205 227 255
205 227 255
205 227 255
205 227 255
205 227 255
205 227 255
205 227 255
205 227 255
205 227 255
205 226 255
205 226 255
205 226 255
205 226 255
205 226 255
205 226 255
205 226 255
204 226 255
204 226 255
204 226 255
204 226 255
204 226 255
204 226 255
204 226 255
204 226 255
204 226 255
204 226 255
204 226 255
204 226 255
204 226 255
204 226 255
204 226 255
204 226 255
204 226 255
204 226 255
203 226 255
203 226 255
203 226 255
203 226 255
203 226 255
203 226 255
203 226 255
203 226 255
203 225 255
203 225 255
203 225 255
203 225 255
203 225 255
203 225 255
203 225 255
203 225 255
203 225 255
203 225 255
203 225 255
203 225 255
203 225 255
202 225 255
202 225 255
202 225 255
202 225 255
202 225 255
202 225 255
202 225 255
202 225 255
202 225 255
202 225 255
202 225 255
202 225 255
202 225 255
202 225 255
202 225 255
202 225 255
202 225 255
202 225 255
202 225 255
202 225 255
202 225 255
202 225 255
202 225 255
202 225 255
202 225 255
202 225 255
202 225 255
202 225 255
202 225 255
202 225 255
202 225 255
202 225 255
202 225 255
202 225 255
202 225 255
202 225 255
202 225 255
202 225 255
202 225 255
202 225 255
202 225 255
202 225 255
202 225 255
202 225 255
202 225 255
202 225 255
202 225 255
202 225 255
202 225 255
202 225 255
202 225 255
202 225 255
202 225 255
202 225 255
202 225 255
202 225 255
202 225 255
202 225 255
202 225 255
202 225 255
202 225 255
202 225 255
202 225 255
202 225 255
202 225 255
202 225 255
202 225 255
202 225 255
202 225 255
202 225 255
202 225 255
202 225 255
202 225 255
202 225 255
202 225 255
203 225 255
203 225 255
203 225 255
203 225 255
203 225 255
203 225 255
203 225 255
203 225 255
203 225 255
203 225 255
203 225 255
203 225 255
203 225 255
203 226 255
203 226 255
203 226 255
203 226 255
203 226 255
203 226 255
203 226 255
203 226 255
203 226 255
204 226 255
204 226 255
204 226 255
204 226 255
204 226 255
204 226 255
204 226 255
204 226 255
204 226 255
204 226 255
204 226 255
204 226 255
204 226 255
204 226 255
204 226 255
204 226 255
204 226 255
205 226 255
205 226 255
205 226 255
205 226 255
205 226 255
205 226 255
205 226 255
205 227 255
205 227 255
205 227 255
205 227 255
205 227 255
205 227 255
205 227 255
205 227 255
205 227 255
205 227 255
206 227 255
206 227 255
206 227 255
206 227 255
206 227 255
206 227 255
206 227 255
206 227 255
206 227 255
206 227 255
206 227 255
206 227 255
206 227 255
206 227 255
206 227 255
206 227 255
206 227 255
207 227 255
207 227 255
207 227 255
207 227 255
207 228 255
207 228 255
207 228 255
207 228 255
207 228 255
207 228 255
207 228 255
207 228 255
207 228 255
207 228 255
207 228 255
207 228 255
207 228 255
207 228 255
208 228 255
208 228 255
208 228 255
208 228 255
208 228 255
208 228 255
208 228 255
208 228 255
208 228 255
208 228 255
208 228 255
208 228 255
208 228 255
208 228 255
208 228 255
208 228 255
208 228 255
208 228 255
208 228 255
209 228 255
209 229 255
209 229 255
209 229 255
209 229 255
209 229 255
209 229 255
209 229 255
209 229 255
209 229 255
209 229 255
209 229 255
209 229 255
209 229 255
209 229 255
209 229 255
209 229 255
209 229 255
209 229 255
209 229 255
209 229 255
210 229 255
210 229 255
210 229 255
210 229 255
210 229 255
210 229 255
210 229 255
210 229 255
210 229 255
210 229 255
210 229 255
210 229 255
210 229 255
210 229 255
210 229 255
210 229 255
210 229 255
210 229 255
210 229 255
210 229 255
210 229 255
210 230 255
210 230 255
210 230 255
211 230 255
211 230 255
211 230 255
211 230 255
211 230 255
211 230 255
211 230 255
211 230 255
211 230 255
211 230 255
211 230 255
211 230 255
211 230 255
211 230 255
211 230 255
211 230 255
211 230 255
211 230 255
211 230 255
210 230 255
210 230 255
210 230 255
210 229 255
210 229 255
210 229 255
210 229 255
210 229 255
210 229 255
210 229 255
210 229 255
210 229 255
210 229 255
210 229 255
210 229 255
210 229 255
210 229 255
210 229 255
210 229 255
210 229 255
210 229 255
210 229 255
210 229 255
210 229 255
209 229 255
207 227 253
205 224 250
206 225 252
202 221 247
200 219 246
198 217 243
196 216 242
197 216 243
194 213 240
194 214 240
193 212 239
191 211 237
193 213 240
191 211 237
191 211 238
194 214 240
192 212 239
191 211 237
194 214 241
195 215 242
195 215 242
194 214 241
198 218 245
201 221 247
202 222 249
203 223 250
204 224 251
207 227 254
208 228 255
208 228 255
208 228 255
208 228 255
208 228 255
208 228 255
208 228 255
208 228 255
208 228 255
208 228 255
208 228 255
207 228 255
207 228 255
207 228 255
207 228 255
207 228 255
207 228 255
207 228 255
207 228 255
207 228 255
207 228 255
207 228 255
207 228 255
207 228 255
207 227 255
207 227 255
207 227 255
207 227 255
206 227 255
206 227 255
206 227 255
206 227 255
206 227 255
206 227 255
206 227 255
206 227 255
206 227 255
206 227 255
206 227 255
206 227 255
206 227 255
206 227 255
206 227 255
206 227 255
206 227 255
206 227 255
205 227 255
205 227 255
205 227 255
205 227 255
205 227 255
205 227 255
205 227 255
205 227 255
205 227 255
205 227 255
205 226 255
205 226 255
205 226 255
205 226 255
205 226 255
205 226 255
205 226 255
204 226 255
204 226 255
204 226 255
204 226 255
204 226 255
204 226 255
204 226 255
204 226 255
204 226 255
204 226 255
204 226 255
204 226 255
204 226 255
204 226 255
204 226 255
204 226 255
204 226 255
204 226 255
203 226 255
203 226 255
203 226 255
203 226 255
203 226 255
203 226 255
203 226 255
203 226 255
203 226 255
203 225 255
203 225 255
203 225 255
203 225 255
203 225 255
203 225 255
203 225 255
203 225 255
203 225 255
203 225 255
203 225 255
203 225 255
203 225 255
203 225 255
202 225 255
202 225 255
202 225 255
202 225 255
202 225 255
202 225 255
202 225 255
202 225 255
202 225 255
202 225 255
202 225 255
202 225 255
202 225 255
202 225 255
202 225 255
202 225 255
202 225 255
202 225 255
202 225 255
202 225 255
202 225 255
202 225 255
200 221 251
196 210 238
194 207 236
190 193 219
188 192 218
181 175 198
174 154 174
182 174 197
177 158 178
176 157 177
174 153 174
180 167 189
182 172 194
185 184 208
187 188 213
188 193 217
192 200 226
196 211 240
202 224 255
202 225 255
202 225 255
202 225 255
202 225 255
202 225 255
202 225 255
202 225 255
202 225 255
202 225 255
202 225 255
202 225 255
202 225 255
202 225 255
202 225 255
202 225 255
202 225 255
202 225 255
202 225 255
202 225 255
202 225 255
202 225 255
202 225 255
203 225 255
203 225 255
203 225 255
203 225 255
203 225 255
203 225 255
203 225 255
203 225 255
203 225 255
203 225 255
203 225 255
203 225 255
203 225 255
203 225 255
203 226 255
203 226 255
203 226 255
203 226 255
203 226 255
203 226 255
203 226 255
203 226 255
203 226 255
204 226 255
204 226 255
204 226 255
204 226 255
204 226 255
204 226 255
204 226 255
204 226 255
204 226 255
204 226 255
204 226 255
204 226 255
204 226 255
204 226 255
204 226 255
204 226 255
204 226 255
204 226 255
205 226 255
205 226 255
205 226 255
205 226 255
205 226 255
205 226 255
205 226 255
205 227 255
205 227 255
205 227 255
205 227 255
205 227 255
205 227 255
205 227 255
205 227 255
205 227 255
205 227 255
205 227 255
206 227 255
206 227 255
206 227 255
206 227 255
206 227 255
206 227 255
206 227 255
206 227 255
206 227 255
206 227 255
206 227 255
206 227 255
206 227 255
206 227 255
206 227 255
206 227 255
207 227 255
207 227 255
207 227 255
207 227 255
207 227 255
207 228 255
207 228 255
207 228 255
207 228 255
207 228 255
207 228 255
207 228 255
207 228 255
207 228 255
207 228 255
207 228 255
207 228 255
207 228 255
208 228 255
208 228 255
208 228 255
208 228 255
208 228 255
208 228 255
208 228 255
208 228 255
208 228 255
208 228 255
208 228 255
207 226 251
204 220 236
205 222 242
201 213 221
198 207 207
198 208 208
194 201 191
196 204 199
196 203 198
193 198 186
192 196 178
194 200 188
192 196 180
193 199 186
193 197 181
193 197 183
193 198 183
191 193 169
191 194 174
194 200 188
196 203 195
197 204 198
199 209 211
201 212 217
203 217 228
205 220 235
207 223 243
209 227 251
209 229 255
210 229 255
210 229 255
210 229 255
210 229 255
210 229 255
210 229 255
210 229 255
210 229 255
210 229 255
210 229 255
210 229 255
210 229 255
210 229 255
210 229 255
210 229 255
210 229 255
210 229 255
210 229 255
210 229 255
210 229 255
210 229 255
210 230 255
210 230 255
210 230 255
211 230 255
211 230 255
211 230 255
211 230 255
211 230 255
211 230 255
211 230 255
211 230 255
211 230 255
211 230 255
211 230 255
211 230 255
211 230 255
211 230 255
211 230 255
211 230 255
211 230 255
211 230 255
211 230 255
211 230 255
211 230 255
211 230 255
211 230 255
211 230 255
211 230 255
211 230 255
211 230 255
210 230 255
210 230 255
210 230 255
210 229 255
210 229 255
210 229 255
210 229 255
210 229 255
210 229 255
210 229 255
210 229 255
210 229 255
210 229 255
206 225 251
204 224 250
201 220 246
198 217 243
194 214 240
188 208 234
187 207 233
183 202 229
182 202 228
181 201 228
180 201 228
180 201 228
180 201 228
179 200 228
179 200 228
179 200 228
179 200 228
178 200 228
178 200 228
178 200 228
178 200 228
177 199 228
178 200 228
177 199 228
177 199 228
177 199 228
177 199 228
177 199 228
177 199 228
177 199 228
178 199 228
178 200 228
178 200 228
178 200 228
179 200 228
180 201 228
180 201 229
185 205 233
189 210 237
194 214 241
195 215 242
199 219 246
202 222 250
207 227 254
208 228 255
208 228 255
208 228 255
208 228 255
208 228 255
208 228 255
207 228 255
207 228 255
207 228 255
207 228 255
207 228 255
207 228 255
207 228 255
207 228 255
207 228 255
207 228 255
207 228 255
207 228 255
207 228 255
207 228 255
207 227 255
207 227 255
207 227 255
207 227 255
206 227 255
206 227 255
206 227 255
206 227 255
206 227 255
206 227 255
206 227 255
206 227 255
206 227 255
206 227 255
206 227 255
206 227 255
206 227 255
206 227 255
206 227 255
206 227 255
206 227 255
205 227 255
205 227 255
205 227 255
205 227 255
205 227 255
205 227 255
205 227 255
205 227 255
205 227 255
205 227 255
205 226 255
205 226 255
205 226 255
205 226 255
205 226 255
205 226 255
205 226 255
205 226 255
204 226 255
204 226 255
204 226 255
204 226 255
204 226 255
204 226 255
204 226 255
204 226 255
204 226 255
204 226 255
204 226 255
204 226 255
204 226 255
204 226 255
204 226 255
204 226 255
204 226 255
204 226 255
203 226 255
203 226 255
203 226 255
203 226 255
203 226 255
203 226 255
203 226 255
203 226 255
203 226 255
203 226 255
203 225 255
203 225 255
203 225 255
203 225 255
203 225 255
203 225 255
203 225 255
203 225 255
203 225 255
203 225 255
203 225 255
203 225 255
203 225 255
203 225 255
203 225 255
203 225 255
203 225 255
202 225 255
202 225 255
202 225 255
202 225 255
202 225 255
202 225 255
202 225 255
202 225 255
202 225 255
198 215 244
190 196 222
181 174 197
176 159 180
171 142 160
164 121 137
167 122 135
166 122 138
165 121 137
166 122 138
164 121 134
165 121 135
165 121 138
165 121 134
166 121 133
165 121 136
166 122 138
165 121 134
163 120 135
167 122 136
164 121 133
165 121 134
164 121 136
165 121 135
168 131 147
176 160 181
182 177 199
187 189 213
196 210 239
202 225 255
202 225 255
202 225 255
202 225 255
202 225 255
202 225 255
202 225 255
202 225 255
202 225 255
202 225 255
203 225 255
203 225 255
203 225 255
203 225 255
203 225 255
203 225 255
203 225 255
203 225 255
203 225 255
203 225 255
203 225 255
203 225 255
203 225 255
203 225 255
203 225 255
203 225 255
203 226 255
203 226 255
203 226 255
203 226 255
203 226 255
203 226 255
203 226 255
203 226 255
203 226 255
204 226 255
204 226 255
204 226 255
204 226 255
204 226 255
204 226 255
204 226 255
204 226 255
204 226 255
204 226 255
204 226 255
204 226 255
204 226 255
204 226 255
204 226 255
204 226 255
204 226 255
204 226 255
204 226 255
204 226 255
205 226 255
205 226 255
205 226 255
205 226 255
205 226 255
205 226 255
205 226 255
205 227 255
205 227 255
205 227 255
205 227 255
205 227 255
205 227 255
205 227 255
205 227 255
205 227 255
205 227 255
206 227 255
206 227 255
206 227 255
206 227 255
206 227 255
206 227 255
206 227 255
206 227 255
206 227 255
206 227 255
206 227 255
206 227 255
206 227 255
206 227 255
206 227 255
206 227 255
206 227 255
207 227 255
207 227 255
207 227 255
207 227 255
207 228 255
207 228 255
207 228 255
207 228 255
207 228 255
207 228 255
207 228 255
207 228 255
207 228 255
207 228 255
207 228 255
207 228 255
207 228 255
207 228 255
208 228 255
208 228 255
208 228 255
208 228 255
208 228 255
208 228 255
205 223 244
203 218 232
198 208 211
196 205 203
190 193 171
188 191 166
184 183 142
180 175 118
179 174 114
179 173 114
178 173 114
178 173 114
178 173 114
178 173 114
177 173 114
178 173 114
177 173 114
177 173 114
177 173 114
177 173 114
178 173 114
178 173 114
178 173 114
178 173 114
178 173 114
178 173 114
178 173 114
179 173 114
179 173 114
179 173 114
179 173 114
180 174 114
180 174 114
181 174 114
181 174 114
182 175 114
183 177 123
186 183 141
189 187 153
193 195 174
195 200 187
196 202 191
204 217 228
207 224 243
210 229 255
210 229 255
210 229 255
210 229 255
210 229 255
210 229 255
210 229 255
210 229 255
210 229 255
210 229 255
210 230 255
210 230 255
210 230 255
211 230 255
211 230 255
211 230 255
211 230 255
211 230 255
211 230 255
211 230 255
211 230 255
211 230 255
211 230 255
211 230 255
211 230 255
211 230 255
211 230 255
211 230 255
211 230 255
211 230 255
211 230 255
211 230 255
211 230 255
211 230 255
211 230 255
211 230 255
211 230 255
211 230 255
211 230 255
211 230 255
211 230 255
211 230 255
211 230 255
211 230 255
211 230 255
211 230 255
211 230 255
211 230 255
210 230 255
210 230 255
210 229 255
209 228 254
201 220 246
199 218 243
193 212 237
188 207 233
185 204 230
182 202 228
182 202 228
181 201 228
180 201 228
180 201 228
179 200 228
179 200 228
178 200 228
178 200 228
178 200 228
177 199 228
177 199 228
177 199 228
176 199 228
176 199 228
176 199 228
176 198 228
175 198 228
175 198 228
175 198 228
175 198 228
175 198 228
174 198 228
174 198 228
174 198 228
174 198 228
174 198 228
174 198 228
174 198 228
174 198 228
174 198 228
174 198 228
174 198 228
174 198 228
174 198 228
175 198 228
175 198 228
175 198 228
176 198 228
176 199 228
177 199 228
177 199 228
178 200 228
178 200 228
180 201 229
188 209 236
191 211 239
197 217 244
201 221 248
206 226 253
208 228 255
208 228 255
208 228 255
208 228 255
207 228 255
207 228 255
207 228 255
207 228 255
207 228 255
207 228 255
207 228 255
207 228 255
207 228 255
207 228 255
207 228 255
207 228 255
207 228 255
207 227 255
207 227 255
207 227 255
207 227 255
207 227 255
206 227 255
206 227 255
206 227 255
206 227 255
206 227 255
206 227 255
206 227 255
206 227 255
206 227 255
206 227 255
206 227 255
206 227 255
206 227 255
206 227 255
206 227 255
206 227 255
206 227 255
205 227 255
205 227 255
205 227 255
205 227 255
205 227 255
205 227 255
205 227 255
205 227 255
205 227 255
205 227 255
205 226 255
205 226 255
205 226 255
205 226 255
205 226 255
205 226 255
205 226 255
205 226 255
204 226 255
204 226 255
204 226 255
204 226 255
204 226 255
204 226 255
204 226 255
204 226 255
204 226 255
204 226 255
204 226 255
204 226 255
204 226 255
204 226 255
204 226 255
204 226 255
204 226 255
204 226 255
204 226 255
204 226 255
203 226 255
203 226 255
203 226 255
203 226 255
203 226 255
203 226 255
203 226 255
203 226 255
203 226 255
203 226 255
203 225 255
203 225 255
203 225 255
203 225 255
203 225 255
203 225 255
203 225 255
203 225 255
203 225 255
203 225 255
203 225 255
203 225 255
203 225 255
203 225 255
203 225 255
203 225 255
200 217 246
186 187 212
175 158 178
172 142 159
167 122 138
165 121 136
165 121 133
166 121 135
164 121 137
165 121 138
164 121 133
165 121 136
165 121 134
164 121 136
165 121 133
163 120 130
165 121 134
167 122 137
166 121 132
164 121 133
165 121 133
163 120 133
162 119 127
164 121 134
166 121 133
165 121 134
165 121 130
166 121 136
166 121 135
165 121 137
166 122 135
166 122 135
165 122 139
168 133 150
179 166 188
185 184 208
199 217 246
203 225 255
203 225 255
203 225 255
203 225 255
203 225 255
203 225 255
203 225 255
203 225 255
203 225 255
203 225 255
203 225 255
203 225 255
203 225 255
203 225 255
203 225 255
203 225 255
203 226 255
203 226 255
203 226 255
203 226 255
203 226 255
203 226 255
203 226 255
203 226 255
203 226 255
203 226 255
204 226 255
204 226 255
204 226 255
204 226 255
204 226 255
204 226 255
204 226 255
204 226 255
204 226 255
204 226 255
204 226 255
204 226 255
204 226 255
204 226 255
204 226 255
204 226 255
204 226 255
204 226 255
204 226 255
204 226 255
205 226 255
205 226 255
205 226 255
205 226 255
205 226 255
205 226 255
205 226 255
205 226 255
205 227 255
205 227 255
205 227 255
205 227 255
205 227 255
205 227 255
205 227 255
205 227 255
205 227 255
205 227 255
206 227 255
206 227 255
206 227 255
206 227 255
206 227 255
206 227 255
206 227 255
206 227 255
206 227 255
206 227 255
206 227 255
206 227 255
206 227 255
206 227 255
206 227 255
206 227 255
206 227 255
206 227 255
207 227 255
207 227 255
207 227 255
207 227 255
207 228 255
207 228 255
207 228 255
207 228 255
207 228 255
207 228 255
207 228 255
207 228 255
207 228 255
207 228 255
207 228 255
207 228 255
207 228 255
208 228 255
208 228 255
208 228 255
208 228 255
206 224 246
201 215 226
199 211 218
190 195 177
187 188 160
181 177 125
178 173 114
178 173 114
177 172 114
176 172 114
176 172 114
176 172 114
175 172 114
175 172 114
175 171 114
175 171 114
174 171 114
174 171 114
174 171 114
174 171 114
174 171 114
174 171 114
174 171 114
174 171 114
174 171 114
174 171 114
174 171 114
175 171 114
175 171 114
175 171 114
175 171 114
175 172 114
175 172 114
176 172 114
176 172 114
176 172 114
176 172 114
176 172 114
177 172 114
177 173 114
178 173 114
178 173 114
178 173 114
179 173 114
179 174 114
180 174 114
180 174 114
181 174 114
181 175 114
182 175 114
184 177 118
189 187 151
192 194 171
200 208 206
203 214 221
207 222 239
210 229 254
210 230 255
210 230 255
211 230 255
211 230 255
211 230 255
211 230 255
211 230 255
211 230 255
211 230 255
211 230 255
211 230 255
211 230 255
211 230 255
211 230 255
211 230 255
211 230 255
211 230 255
211 230 255
211 230 255
211 230 255
211 230 255
211 230 255
211 230 255
211 230 255
211 230 255
211 230 255
211 230 255
211 230 255
211 230 255
211 230 255
211 230 255
211 230 255
211 230 255
211 230 255
211 230 255
211 230 255
211 230 255
211 230 255
211 230 255
208 227 253
203 222 247
197 215 241
193 211 237
184 203 229
183 202 228
182 202 228
181 202 228
181 201 228
180 201 228
180 201 228
179 200 228
179 200 228
178 200 228
178 200 228
177 199 228
177 199 228
177 199 228
176 199 228
176 199 228
175 198 228
175 198 228
175 198 228
175 198 228
174 198 228
174 198 228
174 198 228
174 197 228
173 197 228
173 197 228
173 197 228
173 197 228
173 197 228
173 197 228
172 197 228
172 197 228
172 197 228
172 197 228
172 197 228
172 196 228
172 196 228
172 196 228
172 196 228
172 196 228
172 196 228
172 196 228
172 197 228
172 197 228
172 197 228
172 197 228
173 197 228
173 197 228
173 197 228
173 197 228
174 197 228
174 198 228
175 198 228
175 198 228
176 199 228
177 199 228
178 200 228
182 203 231
187 208 236
193 213 240
202 222 249
206 227 254
208 228 255
208 228 255
207 228 255
207 228 255
207 228 255
207 228 255
207 228 255
207 228 255
207 228 255
207 228 255
207 228 255
207 228 255
207 228 255
207 228 255
207 228 255
207 228 255
207 227 255
207 227 255
207 227 255
207 227 255
206 227 255
206 227 255
206 227 255
206 227 255
206 227 255
206 227 255
206 227 255
206 227 255
206 227 255
206 227 255
206 227 255
206 227 255
206 227 255
206 227 255
206 227 255
206 227 255
206 227 255
206 227 255
205 227 255
205 227 255
205 227 255
205 227 255
205 227 255
205 227 255
205 227 255
205 227 255
205 227 255
205 227 255
205 227 255
205 226 255
205 226 255
205 226 255
205 226 255
205 226 255
205 226 255
205 226 255
204 226 255
204 226 255
204 226 255
204 226 255
204 226 255
204 226 255
204 226 255
204 226 255
204 226 255
204 226 255
204 226 255
204 226 255
204 226 255
204 226 255
204 226 255
204 226 255
204 226 255
204 226 255
204 226 255
204 226 255
204 226 255
203 226 255
203 226 255
203 226 255
203 226 255
203 226 255
203 226 255
203 226 255
203 226 255
203 226 255
203 226 255
203 226 255
203 226 255
203 226 255
203 225 255
203 225 255
203 225 255
203 225 255
203 225 255
196 209 236
184 177 199
171 142 162
165 121 135
165 121 133
166 122 135
166 122 134
165 121 135
164 121 133
166 122 136
164 121 131
166 121 132
165 121 131
167 122 133
164 121 133
166 122 137
163 120 132
165 121 133
164 121 131
166 121 131
163 120 131
165 121 134
164 121 131
166 121 134
166 121 134
165 121 133
164 120 132
164 120 132
164 121 133
163 121 134
166 121 131
165 121 134
164 121 133
164 120 131
164 121 133
164 120 133
167 122 135
164 120 131
164 120 133
166 121 133
171 148 166
182 177 199
199 216 245
203 225 255
203 225 255
203 225 255
203 225 255
203 225 255
203 225 255
203 226 255
203 226 255
203 226 255
203 226 255
203 226 255
203 226 255
203 226 255
203 226 255
203 226 255
203 226 255
203 226 255
203 226 255
204 226 255
204 226 255
204 226 255
204 226 255
204 226 255
204 226 255
204 226 255
204 226 255
204 226 255
204 226 255
204 226 255
204 226 255
204 226 255
204 226 255
204 226 255
204 226 255
204 226 255
204 226 255
204 226 255
204 226 255
204 226 255
205 226 255
205 226 255
205 226 255
205 226 255
205 226 255
205 226 255
205 226 255
205 226 255
205 227 255
205 227 255
205 227 255
205 227 255
205 227 255
205 227 255
205 227 255
205 227 255
205 227 255
205 227 255
206 227 255
206 227 255
206 227 255
206 227 255
206 227 255
206 227 255
206 227 255
206 227 255
206 227 255
206 227 255
206 227 255
206 227 255
206 227 255
206 227 255
206 227 255
206 227 255
206 227 255
206 227 255
207 227 255
207 227 255
207 227 255
207 227 255
207 228 255
207 228 255
207 228 255
207 228 255
207 228 255
207 228 255
207 228 255
207 228 255
207 228 255
207 228 255
207 228 255
207 228 255
207 228 255
207 228 255
208 228 255
208 228 255
207 227 252
202 217 231
194 201 194
188 191 166
181 177 127
179 173 114
177 172 114
176 172 114
175 172 114
175 171 114
174 171 114
174 171 114
173 171 114
173 171 114
173 171 114
173 170 114
172 170 114
172 170 114
172 170 114
172 170 114
172 170 114
172 170 114
172 170 114
172 170 114
172 170 114
172 170 114
172 170 114
172 170 114
172 170 114
172 170 114
172 170 114
172 170 114
173 170 114
173 170 114
173 171 114
173 171 114
173 171 114
173 171 114
174 171 114
174 171 114
174 171 114
174 171 114
175 171 114
175 171 114
175 172 114
175 172 114
176 172 114
176 172 114
177 172 114
177 172 114
177 173 114
178 173 114
178 173 114
179 173 114
179 173 114
180 174 114
180 174 114
181 174 114
181 174 114
182 175 114
183 175 114
185 179 127
191 190 160
198 204 195
203 214 220
209 226 247
211 230 255
211 230 255
211 230 255
211 230 255
211 230 255
211 230 255
211 230 255
211 230 255
211 230 255
211 230 255
211 230 255
211 230 255
211 230 255
211 230 255
211 230 255
211 230 255
211 230 255
211 230 255
212 230 255
211 230 255
211 230 255
211 230 255
211 230 255
211 230 255
211 230 255
211 230 255
211 230 255
211 230 255
211 230 255
211 230 255
211 230 255
208 227 253
200 218 243
193 212 237
188 207 232
184 203 228
183 202 228
182 202 228
181 201 228
181 201 228
180 201 228
179 200 228
179 200 228
178 200 228
178 200 228
177 199 228
177 199 228
177 199 228
176 199 228
176 199 228
176 198 228
175 198 228
175 198 228
175 198 228
174 198 228
174 198 228
174 197 228
173 197 228
173 197 228
173 197 228
173 197 228
172 197 228
172 197 228
172 197 228
172 196 228
171 196 228
171 196 228
171 196 228
171 196 228
171 196 228
171 196 228
171 196 228
170 196 228
170 196 228
170 196 228
170 196 228
170 195 228
170 196 228
170 195 228
170 195 228
170 195 228
170 195 228
170 196 228
170 196 228
170 196 228
170 196 228
170 196 228
171 196 228
171 196 228
171 196 228
171 196 228
171 196 228
172 197 228
172 197 228
173 197 228
173 197 228
174 198 228
175 198 228
176 198 228
177 199 228
178 200 228
186 206 234
196 217 244
198 218 245
205 225 252
208 228 255
208 228 255
207 228 255
207 228 255
207 228 255
207 228 255
207 228 255
207 228 255
207 228 255
207 228 255
207 228 255
207 228 255
207 228 255
207 228 255
207 228 255
207 228 255
207 227 255
207 227 255
207 227 255
207 227 255
206 227 255
206 227 255
206 227 255
206 227 255
206 227 255
206 227 255
206 227 255
206 227 255
206 227 255
206 227 255
206 227 255
206 227 255
206 227 255
206 227 255
206 227 255
206 227 255
206 227 255
206 227 255
205 227 255
205 227 255
205 227 255
205 227 255
205 227 255
205 227 255
205 227 255
205 227 255
205 227 255
205 227 255
205 227 255
205 226 255
205 226 255
205 226 255
205 226 255
205 226 255
205 226 255
205 226 255
205 226 255
204 226 255
204 226 255
204 226 255
204 226 255
204 226 255
204 226 255
204 226 255
204 226 255
204 226 255
204 226 255
204 226 255
204 226 255
204 226 255
204 226 255
204 226 255
204 226 255
204 226 255
204 226 255
204 226 255
204 226 255
204 226 255
204 226 255
203 226 255
203 226 255
203 226 255
203 226 255
203 226 255
203 226 255
203 226 255
203 226 255
203 226 255
200 218 247
187 188 212
171 142 159
164 121 135
164 121 135
164 121 135
164 120 131
163 120 133
166 121 133
164 121 134
166 122 137
163 120 132
165 121 131
167 122 134
168 122 135
165 121 130
164 121 133
164 121 131
166 122 137
164 121 131
164 121 131
163 120 133
165 121 133
164 121 132
165 121 132
164 121 133
166 121 133
165 121 130
165 121 133
164 120 128
163 120 130
163 120 130
167 122 135
164 121 133
168 122 133
163 120 128
166 121 132
165 121 131
165 121 133
165 121 135
166 121 133
165 121 134
164 120 130
166 121 135
164 120 134
168 122 137
173 149 164
189 192 217
200 218 247
203 226 255
203 226 255
203 226 255
203 226 255
203 226 255
203 226 255
203 226 255
203 226 255
203 226 255
204 226 255
204 226 255
204 226 255
204 226 255
204 226 255
204 226 255
204 226 255
204 226 255
204 226 255
204 226 255
204 226 255
204 226 255
204 226 255
204 226 255
204 226 255
204 226 255
204 226 255
204 226 255
204 226 255
204 226 255
204 226 255
204 226 255
204 226 255
205 226 255
205 226 255
205 226 255
205 226 255
205 226 255
205 226 255
205 226 255
205 227 255
205 227 255
205 227 255
205 227 255
205 227 255
205 227 255
205 227 255
205 227 255
205 227 255
205 227 255
205 227 255
206 227 255
206 227 255
206 227 255
206 227 255
206 227 255
206 227 255
206 227 255
206 227 255
206 227 255
206 227 255
206 227 255
206 227 255
206 227 255
206 227 255
206 227 255
206 227 255
206 227 255
206 227 255
207 227 255
207 227 255
207 227 255
207 227 255
207 228 255
207 228 255
207 228 255
207 228 255
207 228 255
207 228 255
207 228 255
207 228 255
207 228 255
207 228 255
207 228 255
207 228 255
207 228 255
207 228 255
208 228 255
208 228 255
206 224 246
199 210 216
193 200 191
184 183 146
179 174 118
177 172 114
176 172 114
175 171 114
174 171 114
173 171 114
173 171 114
172 170 114
172 170 114
172 170 114
171 170 114
171 170 114
171 170 114
171 169 114
170 169 114
170 169 114
170 169 114
170 169 114
170 169 114
170 169 114
170 169 114
170 169 114
170 169 114
170 169 114
170 169 114
170 169 114
170 169 114
170 169 114
170 169 114
170 169 114
171 170 114
171 170 114
171 170 114
171 170 114
171 170 114
171 170 114
172 170 114
172 170 114
172 170 114
172 170 114
173 170 114
173 171 114
173 171 114
173 171 114
174 171 114
174 171 114
174 171 114
174 171 114
175 171 114
175 172 114
175 172 114
176 172 114
176 172 114
177 172 114
177 172 114
177 173 114
178 173 114
178 173 114
179 173 114
179 174 114
180 174 114
181 174 114
181 174 114
182 175 114
183 175 114
184 176 114
188 184 142
194 196 174
202 211 213
208 223 241
211 230 255
211 230 255
211 230 255
211 230 255
211 230 255
211 230 255
211 230 255
211 230 255
211 230 255
211 230 255
211 230 255
211 230 255
212 230 255
212 230 255
212 230 255
212 230 255
212 230 255
212 230 255
212 230 255
211 230 255
211 230 255
211 230 255
211 230 255
210 229 254
201 220 245
197 215 240
189 207 232
184 203 228
183 203 228
182 202 228
182 202 228
181 201 228
180 201 228
180 201 228
179 200 228
179 200 228
178 200 228
178 200 228
177 199 228
177 199 228
176 199 228
176 199 228
176 199 228
175 198 228
175 198 228
175 198 228
174 198 228
174 198 228
174 197 228
173 197 228
173 197 228
173 197 228
172 197 228
172 197 228
172 196 228
172 196 228
171 196 228
171 196 228
171 196 228
171 196 228
170 196 228
170 196 228
170 196 228
170 195 228
170 195 228
170 195 228
169 195 228
169 195 228
169 195 228
169 195 228
169 195 228
169 195 228
169 195 228
169 195 228
169 195 228
168 195 228
168 195 228
168 195 228
168 195 228
168 195 228
169 195 228
168 195 228
169 195 228
169 195 228
169 195 228
169 195 228
169 195 228
169 195 228
169 195 228
170 195 228
170 196 228
170 196 228
171 196 228
171 196 228
172 197 228
173 197 228
173 197 228
174 198 228
175 198 228
176 199 228
178 200 229
186 207 235
193 214 241
201 221 249
208 228 255
208 228 255
208 228 255
207 228 255
207 228 255
207 228 255
207 228 255
207 228 255
207 228 255
207 228 255
207 228 255
207 228 255
207 228 255
207 228 255
207 228 255
207 228 255
207 228 255
207 227 255
207 227 255
207 227 255
207 227 255
206 227 255
206 227 255
206 227 255
206 227 255
206 227 255
206 227 255
206 227 255
206 227 255
206 227 255
206 227 255
206 227 255
206 227 255
206 227 255
206 227 255
206 227 255
206 227 255
206 227 255
206 227 255
205 227 255
205 227 255
205 227 255
205 227 255
205 227 255
205 227 255
205 227 255
205 227 255
205 227 255
205 227 255
205 227 255
205 226 255
205 226 255
205 226 255
205 226 255
205 226 255
205 226 255
205 226 255
205 226 255
204 226 255
204 226 255
204 226 255
204 226 255
204 226 255
204 226 255
204 226 255
204 226 255
204 226 255
204 226 255
204 226 255
204 226 255
204 226 255
204 226 255
204 226 255
204 226 255
204 226 255
204 226 255
204 226 255
204 226 255
204 226 255
204 226 255
204 226 255
204 226 255
204 226 255
196 207 234
182 173 195
167 127 141
164 120 129
164 121 133
166 121 133
166 121 133
163 120 132
166 121 130
162 119 127
166 121 136
165 121 135
166 121 132
164 120 128
163 120 134
164 121 132
164 121 132
163 120 129
165 121 129
166 122 135
164 120 128
165 121 131
168 122 135
165 121 133
165 121 131
166 121 132
165 121 130
165 121 130
164 120 131
165 121 130
165 121 131
166 121 132
165 121 134
164 120 127
165 121 133
167 122 132
165 121 130
164 120 130
164 120 135
168 122 136
166 122 134
163 120 132
163 120 129
169 123 136
164 121 136
166 121 134
165 120 133
162 120 133
163 120 133
165 121 135
166 125 140
180 166 187
198 212 240
204 226 255
204 226 255
204 226 255
204 226 255
204 226 255
204 226 255
204 226 255
204 226 255
204 226 255
204 226 255
204 226 255
204 226 255
204 226 255
204 226 255
204 226 255
204 226 255
204 226 255
204 226 255
204 226 255
204 226 255
204 226 255
204 226 255
204 226 255
204 226 255
204 226 255
205 226 255
205 226 255
205 226 255
205 226 255
205 226 255
205 226 255
205 226 255
205 226 255
205 227 255
205 227 255
205 227 255
205 227 255
205 227 255
205 227 255
205 227 255
205 227 255
205 227 255
205 227 255
205 227 255
206 227 255
206 227 255
206 227 255
206 227 255
206 227 255
206 227 255
206 227 255
206 227 255
206 227 255
206 227 255
206 227 255
206 227 255
206 227 255
206 227 255
206 227 255
206 227 255
206 227 255
206 227 255
207 227 255
207 227 255
207 227 255
207 227 255
207 227 255
207 228 255
207 228 255
207 228 255
207 228 255
207 228 255
207 228 255
207 228 255
207 228 255
207 228 255
207 228 255
207 228 255
207 228 255
207 228 255
208 228 255
208 228 255
207 228 254
201 215 226
195 204 200
185 186 153
178 173 114
176 172 114
175 172 114
174 171 114
173 171 114
173 170 114
172 170 114
171 170 114
171 170 114
171 169 114
170 169 114
170 169 114
170 169 114
169 169 114
169 169 114
169 169 114
169 169 114
169 169 114
169 169 114
168 169 114
168 169 114
168 169 114
168 169 114
168 169 114
168 169 114
168 169 114
168 169 114
169 169 114
169 169 114
169 169 114
169 169 114
169 169 114
169 169 114
169 169 114
169 169 114
170 169 114
170 169 114
170 169 114
170 169 114
170 169 114
170 169 114
171 170 114
171 170 114
171 170 114
171 170 114
172 170 114
172 170 114
172 170 114
172 170 114
173 170 114
173 171 114
173 171 114
174 171 114
174 171 114
174 171 114
175 171 114
175 172 114
175 172 114
176 172 114
176 172 114
177 172 114
177 172 114
177 173 114
178 173 114
178 173 114
179 173 114
179 173 114
180 174 114
180 174 114
181 174 114
182 175 114
182 175 114
183 175 114
184 176 114
188 183 137
195 197 177
202 211 213
210 227 248
211 230 255
211 230 255
211 230 255
211 230 255
212 230 255
212 230 255
212 230 255
212 230 255
212 230 255
212 230 255
212 230 255
212 230 255
212 230 255
212 230 255
212 230 255
212 230 255
209 227 252
200 218 243
192 210 235
185 204 229
184 203 228
183 202 228
182 202 228
182 202 228
181 201 228
180 201 228
180 201 228
179 200 228
179 200 228
178 200 228
178 200 228
177 199 228
177 199 228
176 199 228
176 199 228
176 199 228
175 198 228
175 198 228
175 198 228
174 198 228
174 198 228
174 197 228
173 197 228
173 197 228
173 197 228
172 197 228
172 197 228
172 196 228
171 196 228
171 196 228
171 196 228
171 196 228
171 196 228
170 196 228
170 196 228
170 195 228
170 195 228
169 195 228
169 195 228
169 195 228
169 195 228
169 195 228
168 195 228
168 195 228
168 195 228
168 194 228
168 194 228
168 194 228
168 194 228
167 194 228
167 194 228
167 194 228
167 194 228
167 194 228
167 194 228
167 194 228
167 194 228
167 194 228
167 194 228
167 194 228
167 194 228
167 194 228
167 194 228
168 194 228
168 194 228
168 194 228
168 195 228
168 195 228
169 195 228
169 195 228
169 195 228
170 195 228
170 196 228
171 196 228
171 196 228
172 197 228
173 197 228
174 198 228
175 198 228
177 199 228
180 201 230
191 211 239
202 222 249
206 226 253
208 228 255
208 228 255
207 228 255
207 228 255
207 228 255
207 228 255
207 228 255
207 228 255
207 228 255
207 228 255
207 228 255
207 228 255
207 228 255
207 228 255
207 228 255
207 228 255
207 227 255
207 227 255
207 227 255
207 227 255
207 227 255
206 227 255
206 227 255
206 227 255
206 227 255
206 227 255
206 227 255
206 227 255
206 227 255
206 227 255
206 227 255
206 227 255
206 227 255
206 227 255
206 227 255
206 227 255
206 227 255
206 227 255
206 227 255
205 227 255
205 227 255
205 227 255
205 227 255
205 227 255
205 227 255
205 227 255
205 227 255
205 227 255
205 227 255
205 227 255
205 227 255
205 226 255
205 226 255
205 226 255
205 226 255
205 226 255
205 226 255
205 226 255
205 226 255
205 226 255
204 226 255
204 226 255
204 226 255
204 226 255
204 226 255
204 226 255
204 226 255
204 226 255
204 226 255
204 226 255
204 226 255
204 226 255
204 226 255
204 226 255
204 226 255
204 226 255
204 226 255
192 198 223
176 157 173
167 122 134
164 120 132
164 120 132
166 122 135
165 121 129
164 120 130
167 122 133
167 122 135
164 120 132
164 120 129
167 122 133
168 122 135
165 121 131
166 121 128
163 120 130
165 121 134
166 121 130
165 121 133
166 121 132
165 121 130
165 120 128
166 122 135
164 120 130
164 120 128
166 121 132
165 120 130
165 121 133
165 121 130
164 121 130
167 122 134
163 120 127
166 121 127
165 121 133
165 121 131
165 121 134
164 121 134
164 121 131
164 120 128
164 120 130
166 122 134
167 122 133
164 121 134
163 120 129
167 121 132
166 121 133
166 121 135
163 119 123
165 120 131
165 121 128
166 121 134
165 121 133
165 121 130
167 122 133
172 147 163
195 205 232
203 225 255
204 226 255
204 226 255
204 226 255
204 226 255
204 226 255
204 226 255
204 226 255
204 226 255
204 226 255
204 226 255
204 226 255
204 226 255
204 226 255
204 226 255
204 226 255
204 226 255
204 226 255
205 226 255
205 226 255
205 226 255
205 226 255
205 226 255
205 226 255
205 226 255
205 226 255
205 227 255
205 227 255
205 227 255
205 227 255
205 227 255
205 227 255
205 227 255
205 227 255
205 227 255
205 227 255
205 227 255
205 227 255
206 227 255
206 227 255
206 227 255
206 227 255
206 227 255
206 227 255
206 227 255
206 227 255
206 227 255
206 227 255
206 227 255
206 227 255
206 227 255
206 227 255
206 227 255
206 227 255
206 227 255
206 227 255
207 227 255
207 227 255
207 227 255
207 227 255
207 227 255
207 228 255
207 228 255
207 228 255
207 228 255
207 228 255
207 228 255
207 228 255
207 228 255
207 228 255
207 228 255
207 228 255
207 228 255
207 228 255
208 228 255
208 228 255
208 228 255
204 220 239
199 210 216
188 191 168
179 175 121
177 172 114
175 172 114
174 171 114
173 171 114
172 170 114
171 170 114
171 169 114
170 169 114
170 169 114
169 169 114
169 169 114
169 169 114
168 168 114
168 168 114
168 168 114
168 168 114
168 168 114
167 168 114
167 168 114
167 168 114
167 168 114
167 168 114
167 168 114
167 168 114
167 168 114
167 168 114
167 168 114
167 168 114
167 168 114
167 168 114
168 168 114
168 168 114
168 168 114
168 168 114
168 168 114
168 168 114
168 168 114
168 169 114
169 169 114
169 169 114
169 169 114
169 169 114
169 169 114
170 169 114
170 169 114
170 169 114
170 169 114
170 169 114
171 170 114
171 170 114
171 170 114
172 170 114
172 170 114
172 170 114
172 170 114
173 170 114
173 171 114
173 171 114
174 171 114
174 171 114
174 171 114
175 171 114
175 171 114
175 172 114
176 172 114
176 172 114
176 172 114
177 172 114
177 173 114
178 173 114
178 173 114
179 173 114
179 173 114
180 174 114
180 174 114
181 174 114
181 175 114
182 175 114
183 175 114
184 176 114
185 177 116
195 196 174
201 209 207
208 222 236
212 230 255
212 230 255
212 230 255
212 230 255
212 230 255
212 230 255
212 230 255
212 230 255
212 230 255
212 230 255
209 228 253
200 218 243
193 211 236
185 204 228
184 203 228
183 202 228
182 202 228
182 202 228
181 201 228
181 201 228
180 201 228
179 200 228
179 200 228
178 200 228
178 200 228
178 199 228
177 199 228
177 199 228
176 199 228
176 199 228
176 198 228
175 198 228
175 198 228
174 198 228
174 198 228
174 197 228
173 197 228
173 197 228
173 197 228
172 197 228
172 197 228
172 196 228
172 196 228
171 196 228
171 196 228
171 196 228
171 196 228
170 196 228
170 195 228
170 195 228
169 195 228
169 195 228
169 195 228
169 195 228
169 195 228
168 195 228
168 195 228
168 194 228
168 194 228
168 194 228
167 194 228
167 194 228
167 194 228
167 194 228
167 194 228
167 194 228
167 194 228
166 194 228
166 194 228
166 194 228
166 194 228
166 193 228
166 193 228
166 193 228
166 193 228
166 193 228
166 193 228
166 193 228
166 193 228
166 193 228
166 194 228
166 194 228
166 194 228
167 194 228
167 194 228
167 194 228
167 194 228
167 194 228
168 194 228
168 194 228
169 195 228
169 195 228
169 195 228
170 196 228
171 196 228
171 196 228
172 197 228
173 197 228
174 198 228
176 199 228
178 200 229
189 210 238
200 220 247
205 225 252
208 228 255
208 228 255
208 228 255
207 228 255
207 228 255
207 228 255
207 228 255
207 228 255
207 228 255
207 228 255
207 228 255
207 228 255
207 228 255
207 228 255
207 228 255
207 228 255
207 228 255
207 227 255
207 227 255
207 227 255
207 227 255
207 227 255
206 227 255
206 227 255
206 227 255
206 227 255
206 227 255
206 227 255
206 227 255
206 227 255
206 227 255
206 227 255
206 227 255
206 227 255
206 227 255
206 227 255
206 227 255
206 227 255
206 227 255
206 227 255
206 227 255
205 227 255
205 227 255
205 227 255
205 227 255
205 227 255
205 227 255
205 227 255
205 227 255
205 227 255
205 227 255
205 227 255
205 227 255
205 226 255
205 226 255
205 226 255
205 226 255
205 226 255
205 226 255
205 226 255
205 226 255
205 226 255
204 226 255
204 226 255
204 226 255
204 226 255
204 226 255
204 226 255
204 226 255
204 226 255
204 226 255
204 226 255
195 204 231
171 144 159
165 120 131
166 121 134
164 120 132
166 120 128
164 120 131
163 120 128
162 119 127
165 121 132
168 122 134
165 121 133
164 120 130
165 121 134
164 121 132
164 120 131
164 121 131
167 122 134
167 122 133
166 121 133
164 121 135
167 122 135
164 120 131
166 121 133
163 120 130
164 120 128
166 121 134
164 121 132
162 119 124
166 121 130
164 120 129
166 121 134
166 121 130
165 120 124
166 121 127
166 121 131
162 120 134
165 121 130
166 121 128
164 120 128
164 120 132
166 121 132
166 121 128
165 121 133
165 121 128
163 120 131
166 121 133
166 121 130
164 120 130
163 120 133
165 121 133
167 121 133
164 120 133
163 120 131
165 121 135
166 121 130
165 121 132
166 121 135
164 120 132
172 144 159
191 198 223
204 226 255
204 226 255
204 226 255
204 226 255
204 226 255
204 226 255
204 226 255
204 226 255
204 226 255
204 226 255
205 226 255
205 226 255
205 226 255
205 226 255
205 226 255
205 226 255
205 226 255
205 226 255
205 226 255
205 227 255
205 227 255
205 227 255
205 227 255
205 227 255
205 227 255
205 227 255
205 227 255
205 227 255
205 227 255
205 227 255
205 227 255
206 227 255
206 227 255
206 227 255
206 227 255
206 227 255
206 227 255
206 227 255
206 227 255
206 227 255
206 227 255
206 227 255
206 227 255
206 227 255
206 227 255
206 227 255
206 227 255
206 227 255
206 227 255
206 227 255
207 227 255
207 227 255
207 227 255
207 227 255
207 227 255
207 228 255
207 228 255
207 228 255
207 228 255
207 228 255
207 228 255
207 228 255
207 228 255
207 228 255
207 228 255
207 228 255
207 228 255
207 228 255
208 228 255
208 228 255
208 228 255
208 228 255
207 226 250
194 202 195
189 192 169
181 179 133
176 172 114
175 171 114
173 171 114
172 170 114
171 170 114
171 170 114
170 169 114
169 169 114
169 169 114
169 169 114
168 168 114
168 168 114
167 168 114
167 168 114
167 168 114
167 168 114
167 168 114
166 168 114
166 168 114
166 168 114
166 167 114
166 167 114
166 167 114
166 167 114
166 167 114
166 167 114
166 167 114
166 167 114
166 168 114
166 168 114
166 168 114
166 168 114
166 168 114
167 168 114
167 168 114
167 168 114
167 168 114
167 168 114
167 168 114
167 168 114
168 168 114
168 168 114
168 168 114
168 168 114
168 169 114
169 169 114
169 169 114
169 169 114
169 169 114
170 169 114
170 169 114
170 169 114
170 169 114
170 169 114
171 170 114
171 170 114
171 170 114
172 170 114
172 170 114
172 170 114
172 170 114
173 170 114
173 171 114
173 171 114
174 171 114
174 171 114
174 171 114
175 171 114
175 172 114
176 172 114
176 172 114
176 172 114
177 172 114
177 172 114
178 173 114
178 173 114
178 173 114
179 173 114
179 174 114
180 174 114
181 174 114
181 174 114
182 175 114
183 175 114
183 175 114
184 176 114
185 176 114
193 192 163
199 203 192
209 225 244
212 230 255
212 230 255
212 230 255
212 230 255
210 228 253
202 220 245
193 211 236
186 204 228
185 203 228
183 203 228
183 202 228
182 202 228
181 202 228
181 201 228
180 201 228
180 201 228
179 200 228
179 200 228
178 200 228
178 200 228
178 199 228
177 199 228
177 199 228
176 199 228
176 199 228
175 198 228
175 198 228
175 198 228
174 198 228
174 198 228
174 197 228
173 197 228
173 197 228
173 197 228
172 197 228
172 197 228
172 196 228
172 196 228
171 196 228
171 196 228
171 196 228
170 196 228
170 196 228
170 195 228
170 195 228
169 195 228
169 195 228
169 195 228
169 195 228
168 195 228
168 195 228
168 194 228
168 194 228
168 194 228
167 194 228
167 194 228
167 194 228
167 194 228
167 194 228
166 194 228
166 194 228
166 193 228
166 193 228
166 193 228
166 193 228
166 193 228
166 193 228
165 193 228
165 193 228
165 193 228
165 193 228
165 193 228
165 193 228
165 193 228
165 193 228
165 193 228
165 193 228
165 193 228
165 193 228
165 193 228
165 193 228
165 193 228
166 193 228
166 193 228
166 193 228
166 194 228
166 194 228
167 194 228
167 194 228
167 194 228
168 194 228
168 195 228
169 195 228
169 195 228
170 196 228
171 196 228
172 196 228
173 197 228
174 198 228
176 199 228
179 200 229
189 209 237
200 221 248
207 227 255
208 228 255
208 228 255
208 228 255
208 228 255
207 228 255
207 228 255
207 228 255
207 228 255
207 228 255
207 228 255
207 228 255
207 228 255
207 228 255
207 228 255
207 228 255
207 228 255
207 228 255
207 228 255
207 227 255
207 227 255
207 227 255
207 227 255
207 227 255
206 227 255
206 227 255
206 227 255
206 227 255
206 227 255
206 227 255
206 227 255
206 227 255
206 227 255
206 227 255
206 227 255
206 227 255
206 227 255
206 227 255
206 227 255
206 227 255
206 227 255
206 227 255
206 227 255
205 227 255
205 227 255
205 227 255
205 227 255
205 227 255
205 227 255
205 227 255
205 227 255
205 227 255
205 227 255
205 227 255
205 227 255
205 227 255
205 226 255
205 226 255
205 226 255
205 226 255
205 226 255
205 226 255
205 226 255
205 226 255
205 226 255
205 226 255
205 226 255
204 226 255
197 207 234
174 150 167
163 120 131
165 120 130
166 121 132
163 120 130
168 122 133
166 121 132
164 121 133
165 121 128
165 121 133
165 121 132
165 121 130
162 120 129
163 120 127
165 121 130
167 122 133
165 121 133
165 120 129
166 121 134
166 121 130
165 121 130
165 120 129
167 122 131
167 121 130
165 120 129
166 121 125
164 120 130
167 122 133
165 121 133
166 121 131
164 121 131
166 121 129
167 121 130
164 120 130
165 120 129
166 121 130
164 120 130
166 121 133
165 121 133
164 120 129
164 121 133
167 122 133
166 121 133
166 121 130
163 119 125
165 121 135
166 121 128
167 122 135
166 121 130
166 121 130
166 121 130
164 120 129
163 120 130
163 120 129
166 121 134
166 120 130
166 121 130
166 120 130
163 120 126
168 122 133
165 121 132
163 120 133
178 157 176
197 207 234
204 226 255
205 226 255
205 226 255
205 226 255
205 226 255
205 226 255
205 226 255
205 226 255
205 226 255
205 226 255
205 226 255
205 227 255
205 227 255
205 227 255
205 227 255
205 227 255
205 227 255
205 227 255
205 227 255
205 227 255
205 227 255
205 227 255
205 227 255
205 227 255
205 227 255
206 227 255
206 227 255
206 227 255
206 227 255
206 227 255
206 227 255
206 227 255
206 227 255
206 227 255
206 227 255
206 227 255
206 227 255
206 227 255
206 227 255
206 227 255
206 227 255
206 227 255
206 227 255
206 227 255
207 227 255
207 227 255
207 227 255
207 227 255
207 228 255
207 228 255
207 228 255
207 228 255
207 228 255
207 228 255
207 228 255
207 228 255
207 228 255
207 228 255
207 228 255
207 228 255
207 228 255
207 228 255
207 228 255
208 228 255
208 228 255
208 228 255
208 228 255
207 227 253
198 209 212
191 196 180
179 175 118
176 172 114
174 171 114
173 171 114
172 170 114
171 170 114
170 169 114
170 169 114
169 169 114
168 169 114
168 168 114
167 168 114
167 168 114
167 168 114
166 168 114
166 168 114
166 167 114
166 167 114
166 167 114
165 167 114
165 167 114
165 167 114
165 167 114
165 167 114
165 167 114
165 167 114
165 167 114
165 167 114
165 167 114
165 167 114
165 167 114
165 167 114
165 167 114
165 167 114
166 167 114
166 167 114
166 167 114
166 167 114
166 167 114
166 168 114
166 168 114
166 168 114
167 168 114
167 168 114
167 168 114
167 168 114
167 168 114
168 168 114
168 168 114
168 168 114
168 168 114
168 169 114
169 169 114
169 169 114
169 169 114
169 169 114
170 169 114
170 169 114
170 169 114
170 169 114
171 170 114
171 170 114
171 170 114
172 170 114
172 170 114
172 170 114
172 170 114
173 170 114
173 171 114
173 171 114
174 171 114
174 171 114
174 171 114
175 171 114
175 172 114
175 172 114
176 172 114
176 172 114
177 172 114
177 172 114
177 173 114
178 173 114
178 173 114
179 173 114
179 173 114
180 174 114
180 174 114
181 174 114
181 174 114
182 175 114
183 175 114
183 175 114
184 176 114
186 176 114
194 193 166
201 208 204
211 228 250
212 230 255
187 205 229
185 204 228
184 203 228
183 203 228
183 202 228
182 202 228
181 202 228
181 201 228
180 201 228
180 201 228
179 200 228
179 200 228
178 200 228
178 200 228
177 199 228
177 199 228
177 199 228
176 199 228
176 199 228
176 198 228
175 198 228
175 198 228
174 198 228
174 198 228
174 198 228
174 197 228
173 197 228
173 197 228
173 197 228
172 197 228
172 197 228
172 196 228
171 196 228
171 196 228
171 196 228
170 196 228
170 196 228
170 195 228
170 195 228
169 195 228
169 195 228
169 195 228
169 195 228
168 195 228
168 195 228
168 194 228
168 194 228
168 194 228
167 194 228
167 194 228
167 194 228
167 194 228
167 194 228
166 194 228
166 193 228
166 193 228
166 193 228
166 193 228
165 193 228
165 193 228
165 193 228
165 193 228
165 193 228
165 193 228
165 193 228
165 193 228
165 193 228
164 193 228
164 193 228
164 193 228
164 193 228
164 193 228
164 193 228
164 193 228
164 193 228
164 193 228
164 193 228
164 193 228
165 193 228
165 193 228
165 193 228
165 193 228
165 193 228
165 193 228
166 193 228
166 193 228
166 194 228
167 194 228
167 194 228
168 194 228
168 194 228
169 195 228
169 195 228
170 195 228
171 196 228
172 196 228
173 197 228
174 198 228
176 199 228
180 201 230
193 214 241
206 226 253
208 228 255
208 228 255
208 228 255
208 228 255
208 228 255
208 228 255
208 228 255
207 228 255
207 228 255
207 228 255
207 228 255
207 228 255
207 228 255
207 228 255
207 228 255
207 228 255
207 228 255
207 228 255
207 228 255
207 228 255
207 228 255
207 227 255
207 227 255
207 227 255
207 227 255
206 227 255
206 227 255
206 227 255
206 227 255
206 227 255
206 227 255
206 227 255
206 227 255
206 227 255
206 227 255
206 227 255
206 227 255
206 227 255
206 227 255
206 227 255
206 227 255
206 227 255
206 227 255
206 227 255
206 227 255
206 227 255
205 227 255
205 227 255
205 227 255
205 227 255
205 227 255
205 227 255
205 227 255
205 227 255
205 227 255
205 227 255
205 227 255
205 227 255
205 227 255
205 227 255
205 226 255
205 226 255
205 226 255
201 219 246
178 161 181
163 120 132
163 120 127
166 121 135
163 120 131
167 122 133
166 121 131
163 120 127
166 121 132
164 120 131
164 120 128
166 121 134
164 120 132
161 119 125
165 120 129
165 121 129
167 121 131
165 120 129
165 121 133
166 121 131
165 120 127
166 121 130
164 120 126
165 120 127
166 121 132
164 120 126
165 120 126
167 122 132
163 120 125
166 121 127
165 120 130
163 120 128
164 120 126
165 121 132
163 120 132
167 121 129
164 120 126
166 121 130
165 121 130
165 121 133
165 120 127
165 121 129
163 120 127
164 120 126
165 121 128
165 121 127
166 121 131
165 121 133
165 120 127
165 121 132
165 121 129
165 120 126
164 120 125
165 120 127
164 120 131
166 121 127
165 121 131
163 120 132
167 121 130
165 120 128
165 121 132
166 121 130
165 120 131
165 121 133
165 120 130
164 119 126
181 170 190
200 216 243
205 226 255
205 226 255
205 226 255
205 227 255
205 227 255
205 227 255
205 227 255
205 227 255
205 227 255
205 227 255
205 227 255
205 227 255
205 227 255
205 227 255
205 227 255
205 227 255
205 227 255
205 227 255
206 227 255
206 227 255
206 227 255
206 227 255
206 227 255
206 227 255
206 227 255
206 227 255
206 227 255
206 227 255
206 227 255
206 227 255
206 227 255
206 227 255
206 227 255
206 227 255
206 227 255
206 227 255
206 227 255
206 227 255
207 227 255
207 227 255
207 227 255
207 227 255
207 228 255
207 228 255
207 228 255
207 228 255
207 228 255
207 228 255
207 228 255
207 228 255
207 228 255
207 228 255
207 228 255
207 228 255
207 228 255
207 228 255
208 228 255
208 228 255
208 228 255
208 228 255
208 228 255
208 228 255
208 228 255
204 221 241
193 200 191
181 178 131
177 172 114
174 171 114
173 171 114
172 170 114
171 170 114
170 169 114
169 169 114
169 169 114
168 168 114
167 168 114
167 168 114
167 168 114
166 168 114
166 167 114
166 167 114
165 167 114
165 167 114
165 167 114
165 167 114
165 167 114
165 167 114
164 167 114
164 167 114
164 167 114
164 167 114
164 167 114
164 167 114
164 167 114
164 167 114
164 167 114
164 167 114
164 167 114
165 167 114
165 167 114
165 167 114
165 167 114
165 167 114
165 167 114
165 167 114
165 167 114
165 167 114
166 167 114
166 167 114
166 167 114
166 168 114
166 168 114
167 168 114
167 168 114
167 168 114
167 168 114
167 168 114
168 168 114
168 168 114
168 168 114
168 168 114
168 169 114
169 169 114
169 169 114
169 169 114
169 169 114
170 169 114
170 169 114
170 169 114
170 169 114
171 170 114
171 170 114
171 170 114
172 170 114
172 170 114
172 170 114
172 170 114
173 171 114
173 171 114
173 171 114
174 171 114
174 171 114
174 171 114
175 171 114
175 172 114
176 172 114
176 172 114
176 172 114
177 172 114
177 172 114
177 173 114
178 173 114
178 173 114
179 173 114
179 173 114
180 174 114
180 174 114
181 174 114
181 174 114
182 175 114
183 175 114
183 175 114
184 176 114
185 176 114
187 179 123
196 197 175
184 203 228
183 203 228
183 202 228
182 202 228
181 202 228
181 201 228
180 201 228
180 201 228
179 200 228
179 200 228
178 200 228
178 200 228
178 200 228
177 199 228
177 199 228
176 199 228
176 199 228
176 199 228
175 198 228
175 198 228
175 198 228
174 198 228
174 198 228
174 197 228
173 197 228
173 197 228
173 197 228
172 197 228
172 197 228
172 196 228
172 196 228
171 196 228
171 196 228
171 196 228
170 196 228
170 196 228
170 195 228
170 195 228
169 195 228
169 195 228
169 195 228
169 195 228
168 195 228
168 195 228
168 194 228
168 194 228
167 194 228
167 194 228
167 194 228
167 194 228
167 194 228
166 194 228
166 193 228
166 193 228
166 193 228
166 193 228
165 193 228
165 193 228
165 193 228
165 193 228
165 193 228
165 193 228
164 193 228
164 193 228
164 193 228
164 192 228
164 192 228
164 192 228
164 192 228
164 192 228
164 192 228
164 192 228
164 192 228
164 192 228
164 192 228
164 192 228
164 192 228
164 192 228
164 192 228
164 192 228
164 192 228
164 192 228
164 192 228
164 193 228
165 193 228
165 193 228
165 193 228
165 193 228
166 193 228
166 193 228
166 194 228
167 194 228
167 194 228
168 194 228
169 195 228
169 195 228
170 196 228
171 196 228
172 197 228
173 197 228
175 198 228
177 199 228
189 210 237
199 219 246
208 228 255
208 228 255
208 228 255
208 228 255
208 228 255
208 228 255
208 228 255
208 228 255
208 228 255
207 228 255
207 228 255
207 228 255
207 228 255
207 228 255
207 228 255
207 228 255
207 228 255
207 228 255
207 228 255
207 228 255
207 228 255
207 228 255
207 228 255
207 227 255
207 227 255
207 227 255
207 227 255
207 227 255
206 227 255
206 227 255
206 227 255
206 227 255
206 227 255
206 227 255
206 227 255
206 227 255
206 227 255
206 227 255
206 227 255
206 227 255
206 227 255
206 227 255
206 227 255
206 227 255
206 227 255
206 227 255
206 227 255
206 227 255
206 227 255
205 227 255
205 227 255
205 227 255
205 227 255
205 227 255
205 227 255
205 227 255
205 227 255
205 227 255
205 227 255
205 226 255
191 195 219
168 127 141
165 121 132
165 121 131
165 121 132
162 119 129
165 120 128
164 120 129
165 121 133
166 121 135
162 119 126
166 121 132
166 121 132
162 119 126
165 121 130
162 120 128
165 121 127
166 121 130
162 119 124
165 120 130
162 119 126
166 121 133
163 119 125
163 120 129
165 120 124
163 119 124
163 119 126
164 120 126
165 121 130
166 121 133
163 119 121
163 120 126
165 120 129
165 121 128
165 120 125
165 120 127
166 121 130
165 121 130
165 120 126
167 122 131
164 120 127
164 120 129
167 122 134
163 120 129
165 120 126
166 121 132
165 120 126
163 119 124
164 120 126
164 120 128
162 119 126
163 120 128
164 120 125
163 119 127
163 119 126
166 121 132
163 119 128
162 119 123
165 121 128
165 121 132
163 119 133
165 120 131
164 120 130
164 120 130
166 121 131
164 120 129
166 121 133
164 121 130
164 120 131
168 130 143
188 187 210
205 227 255
205 227 255
205 227 255
205 227 255
205 227 255
205 227 255
205 227 255
205 227 255
205 227 255
205 227 255
205 227 255
206 227 255
206 227 255
206 227 255
206 227 255
206 227 255
206 227 255
206 227 255
206 227 255
206 227 255
206 227 255
206 227 255
206 227 255
206 227 255
206 227 255
206 227 255
206 227 255
206 227 255
206 227 255
206 227 255
206 227 255
206 227 255
207 227 255
207 227 255
207 227 255
207 227 255
207 227 255
207 228 255
207 228 255
207 228 255
207 228 255
207 228 255
207 228 255
207 228 255
207 228 255
207 228 255
207 228 255
207 228 255
207 228 255
207 228 255
207 228 255
208 228 255
208 228 255
208 228 255
208 228 255
208 228 255
208 228 255
208 228 255
208 228 255
207 227 253
197 208 209
187 188 158
177 173 114
175 172 114
173 171 114
172 170 114
171 170 114
170 169 114
169 169 114
168 168 114
168 168 114
167 168 114
167 168 114
166 168 114
166 167 114
165 167 114
165 167 114
165 167 114
165 167 114
164 167 114
164 167 114
164 167 114
164 167 114
164 166 114
164 166 114
164 166 114
164 166 114
164 166 114
164 166 114
164 166 114
164 166 114
164 166 114
164 166 114
164 166 114
164 166 114
164 166 114
164 167 114
164 167 114
164 167 114
164 167 114
164 167 114
164 167 114
165 167 114
165 167 114
165 167 114
165 167 114
165 167 114
165 167 114
166 167 114
166 167 114
166 167 114
166 168 114
166 168 114
167 168 114
167 168 114
167 168 114
167 168 114
167 168 114
168 168 114
168 168 114
168 168 114
168 168 114
169 169 114
169 169 114
169 169 114
169 169 114
170 169 114
170 169 114
170 169 114
170 169 114
171 170 114
171 170 114
171 170 114
172 170 114
172 170 114
172 170 114
172 170 114
173 170 114
173 171 114
173 171 114
174 171 114
174 171 114
174 171 114
175 171 114
175 172 114
175 172 114
176 172 114
176 172 114
176 172 114
177 172 114
177 173 114
178 173 114
178 173 114
178 173 114
179 173 114
179 174 114
180 174 114
180 174 114
181 174 114
181 174 114
182 175 114
183 175 114
183 175 114
184 176 114
185 176 114
183 202 228
182 202 228
181 202 228
181 201 228
181 201 228
180 201 228
180 201 228
179 200 228
179 200 228
178 200 228
178 200 228
177 199 228
177 199 228
177 199 228
176 199 228
176 199 228
176 198 228
175 198 228
175 198 228
175 198 228
174 198 228
174 198 228
174 197 228
173 197 228
173 197 228
173 197 228
172 197 228
172 197 228
172 196 228
172 196 228
171 196 228
171 196 228
171 196 228
170 196 228
170 196 228
170 195 228
170 195 228
169 195 228
169 195 228
169 195 228
169 195 228
168 195 228
168 194 228
168 194 228
168 194 228
167 194 228
167 194 228
167 194 228
167 194 228
167 194 228
166 194 228
166 193 228
166 193 228
166 193 228
165 193 228
165 193 228
165 193 228
165 193 228
165 193 228
165 193 228
164 193 228
164 193 228
164 192 228
164 192 228
164 192 228
164 192 228
164 192 228
164 192 228
163 192 228
163 192 228
163 192 228
163 192 228
163 192 228
163 192 228
163 192 228
163 192 228
163 192 228
163 192 228
163 192 228
163 192 228
163 192 228
163 192 228
163 192 228
163 192 228
164 192 228
164 192 228
164 192 228
164 192 228
164 193 228
165 193 228
165 193 228
165 193 228
166 193 228
166 194 228
167 194 228
167 194 228
168 194 228
169 195 228
169 195 228
171 196 228
171 196 228
173 197 228
174 198 228
177 199 228
182 203 231
198 218 245
207 227 254
208 228 255
208 228 255
208 228 255
208 228 255
208 228 255
208 228 255
208 228 255
208 228 255
208 228 255
208 228 255
207 228 255
207 228 255
207 228 255
207 228 255
207 228 255
207 228 255
207 228 255
207 228 255
207 228 255
207 228 255
207 228 255
207 228 255
207 228 255
207 228 255
207 228 255
207 227 255
207 227 255
207 227 255
207 227 255
207 227 255
206 227 255
206 227 255
206 227 255
206 227 255
206 227 255
206 227 255
206 227 255
206 227 255
206 227 255
206 227 255
206 227 255
206 227 255
206 227 255
206 227 255
206 227 255
206 227 255
206 227 255
206 227 255
206 227 255
206 227 255
206 227 255
206 227 255
205 227 255
205 227 255
205 227 255
201 216 243
175 154 174
163 120 134
165 121 129
165 121 130
165 121 133
164 120 124
165 120 127
163 120 130
165 121 134
166 122 135
164 120 129
165 121 133
164 120 129
163 119 126
165 120 129
162 118 121
162 119 126
166 121 130
163 120 126
165 120 127
164 120 127
162 119 122
166 121 125
165 120 127
166 121 131
166 121 130
163 120 125
164 120 130
163 120 125
164 120 126
166 121 131
164 120 124
166 121 128
165 121 130
166 121 128
166 121 134
165 120 127
162 119 121
165 120 129
165 120 127
163 120 126
165 120 122
165 121 130
164 120 126
164 120 129
164 120 124
165 120 126
167 122 130
164 120 129
162 119 124
164 120 128
165 121 130
166 122 135
165 121 129
166 121 131
164 121 130
164 120 128
167 122 132
163 120 129
166 121 130
168 122 130
165 121 130
165 121 132
165 120 130
166 121 130
163 120 130
166 121 131
166 121 128
165 121 132
162 119 128
163 119 131
164 120 131
175 155 171
201 218 246
205 227 255
205 227 255
205 227 255
206 227 255
206 227 255
206 227 255
206 227 255
206 227 255
206 227 255
206 227 255
206 227 255
206 227 255
206 227 255
206 227 255
206 227 255
206 227 255
206 227 255
206 227 255
206 227 255
206 227 255
206 227 255
206 227 255
206 227 255
206 227 255
206 227 255
207 227 255
207 227 255
207 227 255
207 227 255
207 227 255
207 228 255
207 228 255
207 228 255
207 228 255
207 228 255
207 228 255
207 228 255
207 228 255
207 228 255
207 228 255
207 228 255
207 228 255
207 228 255
207 228 255
207 228 255
208 228 255
208 228 255
208 228 255
208 228 255
208 228 255
208 228 255
208 228 255
208 228 255
208 228 255
208 228 255
204 221 239
193 199 188
183 182 142
176 172 114
174 171 114
173 171 114
172 170 114
170 169 114
170 169 114
169 169 114
168 168 114
167 168 114
167 168 114
166 168 114
166 167 114
165 167 114
165 167 114
165 167 114
164 167 114
164 167 114
164 167 114
164 166 114
164 166 114
163 166 114
163 166 114
163 166 114
163 166 114
163 166 114
163 166 114
163 166 114
163 166 114
163 166 114
163 166 114
163 166 114
163 166 114
163 166 114
163 166 114
163 166 114
163 166 114
164 166 114
164 166 114
164 166 114
164 166 114
164 167 114
164 167 114
164 167 114
164 167 114
165 167 114
165 167 114
165 167 114
165 167 114
165 167 114
165 167 114
166 167 114
166 167 114
166 167 114
166 168 114
166 168 114
167 168 114
167 168 114
167 168 114
167 168 114
168 168 114
168 168 114
168 168 114
168 168 114
169 169 114
169 169 114
169 169 114
169 169 114
170 169 114
170 169 114
170 169 114
170 169 114
171 170 114
171 170 114
171 170 114
172 170 114
172 170 114
172 170 114
172 170 114
173 170 114
173 171 114
173 171 114
174 171 114
174 171 114
174 171 114
175 171 114
175 171 114
175 172 114
176 172 114
176 172 114
176 172 114
177 172 114
177 172 114
177 173 114
178 173 114
178 173 114
179 173 114
179 173 114
180 174 114
180 174 114
180 174 114
181 174 114
182 175 114
182 175 114
183 175 114
183 175 114
182 202 228
181 201 228
181 201 228
180 201 228
180 201 228
179 200 228
179 200 228
179 200 228
178 200 228
178 200 228
177 199 228
177 199 228
177 199 228
176 199 228
176 199 228
176 198 228
175 198 228
175 198 228
175 198 228
174 198 228
174 198 228
174 197 228
173 197 228
173 197 228
173 197 228
172 197 228
172 197 228
172 196 228
172 196 228
171 196 228
171 196 228
171 196 228
170 196 228
170 196 228
170 195 228
170 195 228
169 195 228
169 195 228
169 195 228
169 195 228
168 195 228
168 195 228
168 194 228
168 194 228
167 194 228
167 194 228
167 194 228
167 194 228
167 194 228
166 194 228
166 193 228
166 193 228
166 193 228
165 193 228
165 193 228
165 193 228
165 193 228
165 193 228
165 193 228
164 193 228
164 193 228
164 192 228
164 192 228
164 192 228
164 192 228
163 192 228
163 192 228
163 192 228
163 192 228
163 192 228
163 192 228
163 192 228
163 192 228
163 192 228
163 192 228
163 192 228
163 192 228
163 192 228
163 192 228
163 192 228
163 192 228
163 192 228
163 192 228
163 192 228
163 192 228
163 192 228
163 192 228
163 192 228
163 192 228
164 192 228
164 192 228
164 193 228
165 193 228
165 193 228
165 193 228
166 193 228
166 194 228
167 194 228
168 194 228
168 195 228
169 195 228
170 195 228
171 196 228
172 197 228
174 198 228
176 199 228
181 202 230
193 213 240
206 226 253
208 228 255
208 228 255
208 228 255
208 228 255
208 228 255
208 228 255
208 228 255
208 228 255
208 228 255
208 228 255
208 228 255
208 228 255
207 228 255
207 228 255
207 228 255
207 228 255
207 228 255
207 228 255
207 228 255
207 228 255
207 228 255
207 228 255
207 228 255
207 228 255
207 228 255
207 228 255
207 228 255
207 228 255
207 227 255
207 227 255
207 227 255
207 227 255
207 227 255
206 227 255
206 227 255
206 227 255
206 227 255
206 227 255
206 227 255
206 227 255
206 227 255
206 227 255
206 227 255
206 227 255
206 227 255
206 227 255
206 227 255
206 227 255
206 227 255
206 227 255
206 227 255
206 227 255
193 199 224
166 129 142
165 121 129
163 120 129
165 120 126
164 120 129
164 120 130
165 121 130
161 119 129
165 121 131
165 120 129
167 121 129
164 120 126
165 120 125
165 120 126
164 120 127
165 120 129
166 121 130
165 121 130
164 120 127
165 120 126
164 120 130
163 120 126
164 120 123
165 121 131
165 120 129
164 120 125
164 120 130
165 121 130
167 122 131
165 120 127
165 120 128
164 120 130
166 121 127
167 122 133
162 119 124
165 120 123
165 120 129
165 121 130
166 121 130
167 121 131
166 120 126
165 120 126
165 120 128
165 120 130
166 121 132
165 121 127
168 122 133
165 120 129
163 120 129
166 121 130
166 121 130
166 121 131
165 121 133
165 120 126
166 121 131
164 120 130
165 121 130
167 121 130
163 120 127
164 120 128
165 120 125
166 121 130
164 120 124
166 121 130
166 121 127
166 121 130
165 121 133
161 118 123
163 120 129
166 121 132
167 121 131
163 119 130
163 119 129
162 118 124
165 124 134
190 193 216
206 227 255
206 227 255
206 227 255
206 227 255
206 227 255
206 227 255
206 227 255
206 227 255
206 227 255
206 227 255
206 227 255
206 227 255
206 227 255
206 227 255
206 227 255
206 227 255
206 227 255
206 227 255
206 227 255
207 227 255
207 227 255
207 227 255
207 227 255
207 227 255
207 228 255
207 228 255
207 228 255
207 228 255
207 228 255
207 228 255
207 228 255
207 228 255
207 228 255
207 228 255
207 228 255
207 228 255
207 228 255
207 228 255
207 228 255
208 228 255
208 228 255
208 228 255
208 228 255
208 228 255
208 228 255
208 228 255
208 228 255
208 228 255
208 228 255
208 228 255
208 228 255
208 228 255
205 223 243
192 196 181
181 178 129
176 172 114
174 171 114
172 170 114
171 170 114
170 169 114
169 169 114
168 168 114
168 168 114
167 168 114
166 168 114
166 167 114
165 167 114
165 167 114
165 167 114
164 167 114
164 167 114
164 166 114
163 166 114
163 166 114
163 166 114
163 166 114
163 166 114
163 166 114
163 166 114
163 166 114
163 166 114
163 166 114
163 166 114
163 166 114
163 166 114
163 166 114
163 166 114
163 166 114
163 166 114
163 166 114
163 166 114
163 166 114
163 166 114
163 166 114
163 166 114
163 166 114
164 166 114
164 166 114
164 167 114
164 167 114
164 167 114
164 167 114
165 167 114
165 167 114
165 167 114
165 167 114
165 167 114
166 167 114
166 167 114
166 167 114
166 167 114
166 168 114
167 168 114
167 168 114
167 168 114
167 168 114
167 168 114
168 168 114
168 168 114
168 168 114
168 169 114
169 169 114
169 169 114
169 169 114
169 169 114
170 169 114
170 169 114
170 169 114
170 169 114
171 170 114
171 170 114
171 170 114
172 170 114
172 170 114
172 170 114
172 170 114
173 170 114
173 171 114
173 171 114
174 171 114
174 171 114
174 171 114
175 171 114
175 171 114
175 172 114
176 172 114
176 172 114
176 172 114
177 172 114
177 172 114
177 173 114
178 173 114
178 173 114
179 173 114
179 173 114
179 174 114
180 174 114
180 174 114
181 174 114
181 174 114
182 175 114
182 175 114
181 201 228
181 201 228
180 201 228
180 201 228
179 200 228
179 200 228
179 200 228
178 200 228
178 200 228
177 199 228
177 199 228
177 199 228
176 199 228
176 199 228
176 198 228
175 198 228
175 198 228
175 198 228
174 198 228
174 198 228
174 197 228
173 197 228
173 197 228
173 197 228
173 197 228
172 197 228
172 197 228
172 196 228
171 196 228
171 196 228
171 196 228
171 196 228
170 196 228
170 196 228
170 195 228
170 195 228
169 195 228
169 195 228
169 195 228
169 195 228
168 195 228
168 194 228
168 194 228
168 194 228
167 194 228
167 194 228
167 194 228
167 194 228
166 194 228
166 194 228
166 193 228
166 193 228
166 193 228
165 193 228
165 193 228
165 193 228
165 193 228
165 193 228
164 193 228
164 193 228
164 192 228
164 192 228
164 192 228
164 192 228
163 192 228
163 192 228
163 192 228
163 192 228
163 192 228
163 192 228
163 192 228
163 192 228
163 192 228
162 192 228
162 192 228
162 192 228
162 192 228
162 191 228
162 191 228
162 191 228
162 191 228
162 191 228
162 191 228
162 192 228
162 192 228
162 192 228
162 192 228
163 192 228
163 192 228
163 192 228
163 192 228
163 192 228
164 192 228
164 192 228
164 193 228
165 193 228
165 193 228
165 193 228
166 193 228
167 194 228
167 194 228
168 194 228
169 195 228
170 195 228
171 196 228
172 197 228
174 197 228
176 199 228
179 201 229
192 213 240
204 224 251
208 228 255
208 228 255
208 228 255
208 228 255
208 228 255
208 228 255
208 228 255
208 228 255
208 228 255
208 228 255
208 228 255
208 228 255
208 228 255
208 228 255
208 228 255
207 228 255
207 228 255
207 228 255
207 228 255
207 228 255
207 228 255
207 228 255
207 228 255
207 228 255
207 228 255
207 228 255
207 228 255
207 228 255
207 228 255
207 228 255
207 228 255
207 227 255
207 227 255
207 227 255
207 227 255
207 227 255
206 227 255
206 227 255
206 227 255
206 227 255
206 227 255
206 227 255
206 227 255
206 227 255
206 227 255
206 227 255
206 227 255
206 227 255
205 224 252
179 161 181
166 121 133
164 120 132
166 121 130
164 119 127
162 119 127
167 122 133
166 121 133
166 121 132
164 120 130
164 120 125
165 121 129
164 120 128
165 120 126
164 120 128
166 121 126
165 120 129
165 120 129
165 120 126
163 120 126
164 120 127
165 120 126
163 120 125
163 120 126
165 121 130
166 121 127
166 121 126
164 120 124
164 120 129
163 119 123
165 120 126
164 120 122
164 119 123
163 120 125
166 121 128
166 121 130
165 120 130
163 120 125
164 120 128
164 120 128
166 120 126
163 119 126
167 121 130
167 121 131
165 120 126
163 120 124
166 121 130
163 119 120
167 121 124
164 120 131
163 120 123
164 120 130
165 120 127
164 120 128
163 120 126
166 121 129
166 121 128
166 121 131
164 119 123
164 120 127
164 120 127
165 120 130
163 120 127
164 120 127
164 119 120
166 121 130
163 119 126
165 120 129
164 120 128
166 121 130
164 120 127
163 120 129
164 120 127
166 121 131
161 119 128
164 119 127
161 118 123
164 120 128
179 165 184
205 225 253
206 227 255
206 227 255
206 227 255
206 227 255
206 227 255
206 227 255
206 227 255
206 227 255
206 227 255
206 227 255
206 227 255
206 227 255
207 227 255
207 227 255
207 227 255
207 227 255
207 227 255
207 228 255
207 228 255
207 228 255
207 228 255
207 228 255
207 228 255
207 228 255
207 228 255
207 228 255
207 228 255
207 228 255
207 228 255
207 228 255
207 228 255
207 228 255
207 228 255
208 228 255
208 228 255
208 228 255
208 228 255
208 228 255
208 228 255
208 228 255
208 228 255
208 228 255
208 228 255
208 228 255
208 228 255
208 228 255
208 228 255
208 228 255
205 223 243
191 196 180
179 175 121
176 172 114
173 171 114
172 170 114
171 170 114
170 169 114
169 169 114
168 168 114
167 168 114
167 168 114
166 167 114
165 167 114
165 167 114
165 167 114
164 167 114
164 166 114
164 166 114
163 166 114
163 166 114
163 166 114
163 166 114
163 166 114
163 166 114
162 166 114
162 166 114
162 166 114
162 166 114
162 166 114
162 166 114
162 166 114
162 166 114
162 166 114
162 166 114
162 166 114
162 166 114
162 166 114
163 166 114
163 166 114
163 166 114
163 166 114
163 166 114
163 166 114
163 166 114
163 166 114
163 166 114
164 166 114
164 166 114
164 167 114
164 167 114
164 167 114
164 167 114
165 167 114
165 167 114
165 167 114
165 167 114
165 167 114
166 167 114
166 167 114
166 167 114
166 168 114
166 168 114
167 168 114
167 168 114
167 168 114
167 168 114
168 168 114
168 168 114
168 168 114
168 168 114
169 169 114
169 169 114
169 169 114
169 169 114
170 169 114
170 169 114
170 169 114
170 169 114
171 170 114
171 170 114
171 170 114
171 170 114
172 170 114
172 170 114
172 170 114
173 170 114
173 171 114
173 171 114
173 171 114
174 171 114
174 171 114
174 171 114
175 171 114
175 172 114
175 172 114
176 172 114
176 172 114
176 172 114
177 172 114
177 172 114
177 173 114
178 173 114
178 173 114
178 173 114
179 173 114
179 174 114
180 174 114
180 174 114
181 174 114
181 174 114
182 175 114
181 201 228
180 201 228
180 201 228
179 200 228
179 200 228
179 200 228
178 200 228
178 200 228
177 199 228
177 199 228
177 199 228
176 199 228
176 199 228
176 199 228
175 198 228
175 198 228
175 198 228
175 198 228
174 198 228
174 198 228
174 197 228
173 197 228
173 197 228
173 197 228
172 197 228
172 197 228
172 196 228
172 196 228
171 196 228
171 196 228
171 196 228
171 196 228
170 196 228
170 196 228
170 195 228
170 195 228
169 195 228
169 195 228
169 195 228
169 195 228
168 195 228
168 194 228
168 194 228
168 194 228
167 194 228
167 194 228
167 194 228
167 194 228
166 194 228
166 194 228
166 193 228
166 193 228
166 193 228
165 193 228
165 193 228
165 193 228
165 193 228
165 193 228
164 193 228
164 193 228
164 192 228
164 192 228
164 192 228
164 192 228
163 192 228
163 192 228
163 192 228
163 192 228
163 192 228
163 192 228
163 192 228
162 192 228
162 192 228
162 192 228
162 191 228
162 191 228
162 191 228
162 191 228
162 191 228
162 191 228
162 191 228
162 191 228
162 191 228
162 191 228
162 191 228
162 191 228
162 191 228
162 191 228
162 192 228
162 192 228
163 192 228
163 192 228
163 192 228
163 192 228
163 192 228
164 192 228
164 192 228
164 193 228
165 193 228
165 193 228
166 193 228
166 194 228
167 194 228
168 194 228
169 195 228
170 195 228
171 196 228
172 197 228
174 197 228
176 198 228
179 201 229
192 212 239
206 226 253
208 228 255
208 228 255
208 228 255
208 228 255
208 228 255
208 228 255
208 228 255
208 228 255
208 228 255
208 228 255
208 228 255
208 228 255
208 228 255
208 228 255
208 228 255
208 228 255
208 228 255
208 228 255
207 228 255
207 228 255
207 228 255
207 228 255
207 228 255
207 228 255
207 228 255
207 228 255
207 228 255
207 228 255
207 228 255
207 228 255
207 228 255
207 228 255
207 228 255
207 228 255
207 227 255
207 227 255
207 227 255
207 227 255
207 227 255
207 227 255
206 227 255
206 227 255
206 227 255
206 227 255
206 227 255
200 214 240
171 142 155
165 121 132
167 122 135
162 120 128
165 121 132
165 120 126
163 120 126
164 120 129
165 121 130
162 119 122
167 121 129
166 121 130
163 119 125
164 120 127
166 121 126
162 119 124
165 120 126
162 119 123
164 120 126
166 121 133
165 120 126
165 121 130
166 121 129
166 121 131
163 120 127
164 120 122
164 120 127
162 119 118
165 120 126
165 121 129
164 119 123
162 119 123
164 120 126
166 121 129
164 120 130
163 120 126
164 120 129
165 120 127
164 120 126
166 121 129
165 120 126
164 120 126
166 121 128
164 120 129
165 121 128
165 120 128
165 120 125
165 121 128
163 119 123
162 118 119
166 121 127
163 119 123
163 119 125
164 120 124
165 121 130
166 121 130
164 120 124
165 121 127
163 120 128
165 121 130
164 119 122
163 119 123
166 121 133
165 120 127
162 119 122
162 119 118
164 120 123
166 120 126
164 120 125
163 120 125
164 119 124
165 120 128
165 120 130
164 120 130
163 119 128
166 121 130
166 121 133
164 120 130
165 120 128
163 119 130
175 150 165
202 217 243
206 227 255
206 227 255
206 227 255
206 227 255
206 227 255
207 227 255
207 227 255
207 227 255
207 227 255
207 227 255
207 228 255
207 228 255
207 228 255
207 228 255
207 228 255
207 228 255
207 228 255
207 228 255
207 228 255
207 228 255
207 228 255
207 228 255
207 228 255
207 228 255
207 228 255
207 228 255
207 228 255
208 228 255
208 228 255
208 228 255
208 228 255
208 228 255
208 228 255
208 228 255
208 228 255
208 228 255
208 228 255
208 228 255
208 228 255
208 228 255
208 228 255
208 228 255
208 228 255
208 228 255
208 228 255
205 222 241
192 198 184
179 174 116
176 172 114
173 171 114
172 170 114
171 170 114
170 169 114
169 169 114
168 168 114
167 168 114
166 168 114
166 167 114
165 167 114
165 167 114
164 167 114
164 167 114
164 166 114
163 166 114
163 166 114
163 166 114
163 166 114
163 166 114
162 166 114
162 166 114
162 166 114
162 166 114
162 166 114
162 166 114
162 166 114
162 166 114
162 166 114
162 166 114
162 166 114
162 166 114
162 166 114
162 166 114
162 166 114
162 166 114
162 166 114
162 166 114
162 166 114
163 166 114
163 166 114
163 166 114
163 166 114
163 166 114
163 166 114
163 166 114
164 166 114
164 166 114
164 166 114
164 167 114
164 167 114
164 167 114
165 167 114
165 167 114
165 167 114
165 167 114
165 167 114
166 167 114
166 167 114
166 167 114
166 168 114
166 168 114
167 168 114
167 168 114
167 168 114
167 168 114
168 168 114
168 168 114
168 168 114
168 168 114
169 169 114
169 169 114
169 169 114
169 169 114
170 169 114
170 169 114
170 169 114
170 169 114
171 169 114
171 170 114
171 170 114
171 170 114
172 170 114
172 170 114
172 170 114
172 170 114
173 170 114
173 171 114
173 171 114
174 171 114
174 171 114
174 171 114
175 171 114
175 171 114
175 172 114
175 172 114
176 172 114
176 172 114
176 172 114
177 172 114
177 172 114
177 173 114
178 173 114
178 173 114
179 173 114
179 173 114
179 173 114
180 174 114
180 174 114
181 174 114
181 174 114
180 201 228
180 201 228
179 200 228
179 200 228
179 200 228
178 200 228
178 200 228
178 200 228
177 199 228
177 199 228
177 199 228
176 199 228
176 199 228
176 198 228
175 198 228
175 198 228
175 198 228
174 198 228
174 198 228
174 198 228
174 197 228
173 197 228
173 197 228
173 197 228
172 197 228
172 197 228
172 196 228
172 196 228
171 196 228
171 196 228
171 196 228
171 196 228
170 196 228
170 196 228
170 195 228
170 195 228
169 195 228
169 195 228
169 195 228
169 195 228
168 195 228
168 194 228
168 194 228
168 194 228
167 194 228
167 194 228
167 194 228
167 194 228
166 194 228
166 194 228
166 193 228
166 193 228
166 193 228
165 193 228
165 193 228
165 193 228
165 193 228
165 193 228
164 193 228
164 193 228
164 192 228
164 192 228
164 192 228
164 192 228
163 192 228
163 192 228
163 192 228
163 192 228
163 192 228
163 192 228
163 192 228
162 192 228
162 192 228
162 191 228
162 191 228
162 191 228
162 191 228
162 191 228
162 191 228
162 191 228
162 191 228
162 191 228
162 191 228
162 191 228
162 191 228
162 191 228
162 191 228
162 191 228
162 191 228
162 191 228
162 191 228
162 191 228
162 192 228
163 192 228
163 192 228
163 192 228
163 192 228
164 192 228
164 192 228
164 193 228
165 193 228
165 193 228
166 193 228
166 194 228
167 194 228
168 194 228
169 195 228
170 195 228
171 196 228
172 197 228
174 198 228
176 199 228
180 202 230
194 214 241
207 227 254
209 228 255
208 228 255
208 228 255
208 228 255
208 228 255
208 228 255
208 228 255
208 228 255
208 228 255
208 228 255
208 228 255
208 228 255
208 228 255
208 228 255
208 228 255
208 228 255
208 228 255
208 228 255
208 228 255
208 228 255
208 228 255
207 228 255
207 228 255
207 228 255
207 228 255
207 228 255
207 228 255
207 228 255
207 228 255
207 228 255
207 228 255
207 228 255
207 228 255
207 228 255
207 228 255
207 228 255
207 228 255
207 228 255
207 227 255
207 227 255
207 227 255
207 227 255
192 196 219
166 128 140
164 120 129
166 121 129
164 120 129
164 120 130
162 119 123
164 120 126
165 121 131
164 120 130
162 119 127
166 120 125
165 120 123
165 120 127
166 120 126
163 120 126
165 120 126
165 120 128
166 120 127
167 121 128
163 120 128
163 120 126
166 120 126
166 121 132
167 121 128
164 120 125
165 121 129
165 120 127
166 121 129
163 119 124
164 120 126
165 120 127
164 119 121
166 121 128
165 120 127
164 119 125
165 120 126
166 121 126
162 119 124
164 120 126
166 121 127
164 120 124
161 119 119
166 121 125
166 121 129
164 120 123
168 121 130
162 120 128
163 119 124
165 121 128
163 120 125
164 120 124
166 121 130
163 120 126
165 120 129
166 121 131
167 121 129
165 120 124
162 119 122
165 120 126
164 120 127
164 120 123
164 120 125
164 120 126
166 121 129
167 121 132
163 119 127
164 120 130
164 120 130
164 120 125
164 119 126
165 120 125
163 119 123
165 120 126
166 121 129
163 120 127
164 120 130
164 120 125
165 120 125
167 121 128
167 121 128
164 119 128
163 119 126
170 134 145
196 205 230
207 227 255
207 227 255
207 227 255
207 228 255
207 228 255
207 228 255
207 228 255
207 228 255
207 228 255
207 228 255
207 228 255
207 228 255
207 228 255
207 228 255
207 228 255
207 228 255
207 228 255
207 228 255
207 228 255
207 228 255
207 228 255
208 228 255
208 228 255
208 228 255
208 228 255
208 228 255
208 228 255
208 228 255
208 228 255
208 228 255
208 228 255
208 228 255
208 228 255
208 228 255
208 228 255
208 228 255
208 228 255
208 228 255
208 228 255
208 228 255
208 228 255
209 228 255
207 226 250
194 201 191
179 175 121
176 172 114
174 171 114
172 170 114
171 170 114
170 169 114
169 169 114
168 168 114
167 168 114
166 168 114
166 167 114
165 167 114
165 167 114
164 167 114
164 167 114
164 166 114
163 166 114
163 166 114
163 166 114
163 166 114
162 166 114
162 166 114
162 166 114
162 166 114
162 166 114
162 166 114
162 166 114
162 166 114
162 166 114
162 166 114
162 166 114
162 166 114
162 166 114
162 166 114
162 166 114
162 166 114
162 166 114
162 166 114
162 166 114
162 166 114
162 166 114
162 166 114
163 166 114
163 166 114
163 166 114
163 166 114
163 166 114
163 166 114
163 166 114
164 166 114
164 166 114
164 166 114
164 167 114
164 167 114
164 167 114
165 167 114
165 167 114
165 167 114
165 167 114
165 167 114
166 167 114
166 167 114
166 167 114
166 168 114
166 168 114
167 168 114
167 168 114
167 168 114
167 168 114
168 168 114
168 168 114
168 168 114
168 168 114
169 169 114
169 169 114
169 169 114
169 169 114
170 169 114
170 169 114
170 169 114
170 169 114
171 169 114
171 170 114
171 170 114
171 170 114
172 170 114
172 170 114
172 170 114
172 170 114
173 170 114
173 171 114
173 171 114
174 171 114
174 171 114
174 171 114
174 171 114
175 171 114
175 172 114
175 172 114
176 172 114
176 172 114
176 172 114
177 172 114
177 172 114
177 173 114
178 173 114
178 173 114
178 173 114
179 173 114
179 173 114
179 174 114
180 174 114
180 174 114
181 174 114
180 201 228
179 201 228
179 200 228
179 200 228
178 200 228
178 200 228
178 200 228
177 199 228
177 199 228
177 199 228
176 199 228
176 199 228
176 199 228
176 198 228
175 198 228
175 198 228
175 198 228
174 198 228
174 198 228
174 198 228
174 197 228
173 197 228
173 197 228
173 197 228
172 197 228
172 197 228
172 196 228
172 196 228
171 196 228
171 196 228
171 196 228
171 196 228
170 196 228
170 196 228
170 195 228
170 195 228
169 195 228
169 195 228
169 195 228
169 195 228
168 195 228
168 195 228
168 194 228
168 194 228
167 194 228
167 194 228
167 194 228
167 194 228
167 194 228
166 194 228
166 193 228
166 193 228
166 193 228
166 193 228
165 193 228
165 193 228
165 193 228
165 193 228
165 193 228
164 193 228
164 192 228
164 192 228
164 192 228
164 192 228
163 192 228
163 192 228
163 192 228
163 192 228
163 192 228
163 192 228
163 192 228
162 192 228
162 192 228
162 191 228
162 191 228
162 191 228
162 191 228
162 191 228
162 191 228
162 191 228
162 191 228
162 191 228
162 191 228
162 191 228
162 191 228
162 191 228
162 191 228
162 191 228
162 191 228
162 191 228
162 191 228
162 191 228
162 191 228
162 191 228
162 192 228
162 192 228
163 192 228
163 192 228
163 192 228
164 192 228
164 192 228
164 193 228
165 193 228
165 193 228
166 193 228
166 194 228
167 194 228
168 195 228
169 195 228
170 195 228
171 196 228
173 197 228
174 198 228
177 199 228
183 203 231
199 219 245
209 229 255
209 229 255
209 229 255
209 228 255
209 228 255
208 228 255
208 228 255
208 228 255
208 228 255
208 228 255
208 228 255
208 228 255
208 228 255
208 228 255
208 228 255
208 228 255
208 228 255
208 228 255
208 228 255
208 228 255
208 228 255
208 228 255
208 228 255
208 228 255
208 228 255
208 228 255
207 228 255
207 228 255
207 228 255
207 228 255
207 228 255
207 228 255
207 228 255
207 228 255
207 228 255
207 228 255
207 228 255
207 228 255
207 228 255
207 228 255
191 193 216
163 122 132
163 119 127
164 119 128
164 120 126
161 119 123
164 120 129
163 120 128
164 120 126
165 120 124
165 121 130
164 120 127
162 119 122
163 120 127
166 121 129
164 120 126
164 120 128
165 121 127
163 119 125
161 118 122
164 119 125
162 119 125
163 120 124
165 120 130
164 120 126
166 120 124
165 120 120
164 120 127
166 121 129
165 120 124
165 120 123
164 120 128
164 119 118
165 120 124
167 121 128
162 118 121
164 120 124
164 120 127
166 121 126
165 120 126
164 119 123
162 119 127
164 119 123
165 120 124
167 121 130
164 120 124
167 121 129
164 120 123
167 121 128
166 121 126
162 119 123
166 121 128
164 119 124
165 120 122
164 119 121
165 120 125
167 121 131
165 120 126
164 120 126
166 120 126
166 120 124
166 121 127
164 119 124
164 119 123
166 121 127
164 120 130
163 119 125
164 120 129
165 121 130
166 121 126
164 119 127
163 119 128
163 119 121
162 118 122
166 120 130
164 119 123
162 119 125
163 119 125
163 119 124
164 120 126
163 119 125
164 120 129
168 121 130
164 119 123
163 118 125
163 122 130
193 196 219
207 228 255
207 228 255
207 228 255
207 228 255
207 228 255
207 228 255
207 228 255
207 228 255
207 228 255
207 228 255
207 228 255
207 228 255
207 228 255
207 228 255
208 228 255
208 228 255
208 228 255
208 228 255
208 228 255
208 228 255
208 228 255
208 228 255
208 228 255
208 228 255
208 228 255
208 228 255
208 228 255
208 228 255
208 228 255
208 228 255
208 228 255
208 228 255
208 228 255
208 228 255
208 228 255
208 228 255
209 228 255
209 229 255
209 229 255
209 229 255
198 209 211
180 175 118
177 172 114
174 171 114
172 170 114
171 170 114
170 169 114
169 169 114
168 168 114
167 168 114
166 168 114
166 167 114
165 167 114
165 167 114
164 167 114
164 167 114
164 166 114
163 166 114
163 166 114
163 166 114
163 166 114
162 166 114
162 166 114
162 166 114
162 166 114
162 166 114
162 166 114
162 165 114
162 165 114
162 165 114
162 165 114
162 165 114
162 165 114
162 165 114
162 165 114
162 165 114
162 166 114
162 166 114
162 166 114
162 166 114
162 166 114
162 166 114
162 166 114
162 166 114
162 166 114
163 166 114
163 166 114
163 166 114
163 166 114
163 166 114
163 166 114
163 166 114
164 166 114
164 166 114
164 167 114
164 167 114
164 167 114
165 167 114
165 167 114
165 167 114
165 167 114
165 167 114
166 167 114
166 167 114
166 167 114
166 168 114
166 168 114
167 168 114
167 168 114
167 168 114
167 168 114
167 168 114
168 168 114
168 168 114
168 168 114
168 169 114
169 169 114
169 169 114
169 169 114
169 169 114
170 169 114
170 169 114
170 169 114
170 169 114
171 170 114
171 170 114
171 170 114
171 170 114
172 170 114
172 170 114
172 170 114
172 170 114
173 170 114
173 171 114
173 171 114
174 171 114
174 171 114
174 171 114
174 171 114
175 171 114
175 171 114
175 172 114
176 172 114
176 172 114
176 172 114
176 172 114
177 172 114
177 172 114
177 173 114
178 173 114
178 173 114
178 173 114
179 173 114
179 173 114
179 174 114
180 174 114
180 174 114
180 201 228
179 200 228
179 200 228
179 200 228
178 200 228
178 200 228
178 200 228
177 199 228
177 199 228
177 199 228
176 199 228
176 199 228
176 199 228
176 198 228
175 198 228
175 198 228
175 198 228
174 198 228
174 198 228
174 198 228
174 197 228
173 197 228
173 197 228
173 197 228
173 197 228
172 197 228
172 197 228
172 196 228
171 196 228
171 196 228
171 196 228
171 196 228
170 196 228
170 196 228
170 195 228
170 195 228
169 195 228
169 195 228
169 195 228
169 195 228
169 195 228
168 195 228
168 194 228
168 194 228
168 194 228
167 194 228
167 194 228
167 194 228
167 194 228
167 194 228
166 194 228
166 193 228
166 193 228
166 193 228
165 193 228
165 193 228
165 193 228
165 193 228
165 193 228
164 193 228
164 193 228
164 192 228
164 192 228
164 192 228
164 192 228
163 192 228
163 192 228
163 192 228
163 192 228
163 192 228
163 192 228
163 192 228
162 192 228
162 192 228
162 191 228
162 191 228
162 191 228
162 191 228
162 191 228
162 191 228
162 191 228
162 191 228
162 191 228
161 191 228
161 191 228
161 191 228
161 191 228
161 191 228
161 191 228
162 191 228
162 191 228
162 191 228
162 191 228
162 191 228
162 191 228
162 191 228
162 192 228
163 192 228
163 192 228
163 192 228
163 192 228
164 192 228
164 192 228
164 193 228
165 193 228
165 193 228
166 193 228
167 194 228
167 194 228
168 195 228
169 195 228
170 196 228
171 196 228
173 197 228
175 198 228
178 199 228
184 205 232
204 224 251
209 229 255
209 229 255
209 229 255
209 229 255
209 229 255
209 229 255
209 228 255
209 228 255
208 228 255
208 228 255
208 228 255
208 228 255
208 228 255
208 228 255
208 228 255
208 228 255
208 228 255
208 228 255
208 228 255
208 228 255
208 228 255
208 228 255
208 228 255
208 228 255
208 228 255
208 228 255
208 228 255
208 228 255
208 228 255
207 228 255
207 228 255
207 228 255
207 228 255
207 228 255
207 228 255
207 228 255
207 228 255
183 175 192
164 120 131
164 120 132
166 121 130
161 118 124
166 121 134
164 120 128
164 120 130
162 119 126
163 119 123
162 118 122
164 120 126
166 121 128
163 119 126
166 120 125
163 120 127
166 120 126
163 120 126
164 120 125
165 120 129
165 121 129
162 119 126
165 120 129
166 121 132
168 122 131
166 120 126
165 120 124
164 119 124
163 119 125
164 120 123
166 120 129
163 119 124
166 120 123
166 121 130
165 120 123
163 119 126
163 119 122
163 119 123
165 121 131
165 120 125
165 120 124
162 118 118
165 120 126
165 120 123
165 121 130
164 120 125
166 121 126
164 120 125
165 120 126
165 120 126
163 120 126
166 121 127
164 120 123
161 117 118
164 120 122
164 119 118
164 120 127
162 119 120
165 120 128
164 119 121
164 120 124
166 121 129
166 121 129
162 119 121
165 120 127
167 121 128
163 119 124
167 121 126
165 120 126
165 120 127
163 120 125
165 120 127
166 121 130
164 120 124
166 121 127
166 121 131
164 120 126
164 120 127
163 119 124
165 120 128
164 119 128
165 120 127
165 119 126
164 120 127
163 119 122
163 119 126
163 119 127
164 119 127
191 192 214
207 228 255
207 228 255
207 228 255
207 228 255
207 228 255
207 228 255
207 228 255
208 228 255
208 228 255
208 228 255
208 228 255
208 228 255
208 228 255
208 228 255
208 228 255
208 228 255
208 228 255
208 228 255
208 228 255
208 228 255
208 228 255
208 228 255
208 228 255
208 228 255
208 228 255
208 228 255
208 228 255
208 228 255
208 228 255
209 228 255
209 228 255
209 229 255
209 229 255
209 229 255
209 229 255
209 229 255
209 229 255
203 217 228
188 188 158
177 173 114
175 172 114
173 171 114
172 170 114
170 169 114
169 169 114
168 168 114
167 168 114
167 168 114
166 167 114
165 167 114
165 167 114
164 167 114
164 167 114
164 166 114
163 166 114
163 166 114
163 166 114
163 166 114
162 166 114
162 166 114
162 166 114
162 166 114
162 166 114
162 166 114
162 165 114
162 165 114
161 165 114
161 165 114
161 165 114
161 165 114
161 165 114
161 165 114
162 165 114
162 165 114
162 166 114
162 166 114
162 166 114
162 166 114
162 166 114
162 166 114
162 166 114
162 166 114
162 166 114
163 166 114
163 166 114
163 166 114
163 166 114
163 166 114
163 166 114
163 166 114
164 166 114
164 166 114
164 167 114
164 167 114
164 167 114
165 167 114
165 167 114
165 167 114
165 167 114
165 167 114
165 167 114
166 167 114
166 167 114
166 167 114
166 168 114
167 168 114
167 168 114
167 168 114
167 168 114
167 168 114
168 168 114
168 168 114
168 168 114
168 168 114
169 169 114
169 169 114
169 169 114
169 169 114
169 169 114
170 169 114
170 169 114
170 169 114
170 169 114
171 170 114
171 170 114
171 170 114
171 170 114
172 170 114
172 170 114
172 170 114
173 170 114
173 170 114
173 171 114
173 171 114
174 171 114
174 171 114
174 171 114
174 171 114
175 171 114
175 171 114
175 172 114
176 172 114
176 172 114
176 172 114
176 172 114
177 172 114
177 172 114
177 173 114
178 173 114
178 173 114
178 173 114
179 173 114
179 173 114
179 173 114
180 174 114
180 174 114
179 201 228
179 200 228
179 200 228
179 200 228
178 200 228
178 200 228
178 200 228
177 199 228
177 199 228
177 199 228
176 199 228
176 199 228
176 199 228
176 198 228
175 198 228
175 198 228
175 198 228
174 198 228
174 198 228
174 198 228
174 197 228
173 197 228
173 197 228
173 197 228
173 197 228
172 197 228
172 197 228
172 196 228
172 196 228
171 196 228
171 196 228
171 196 228
171 196 228
170 196 228
170 196 228
170 195 228
170 195 228
169 195 228
169 195 228
169 195 228
169 195 228
168 195 228
168 195 228
168 194 228
168 194 228
168 194 228
167 194 228
167 194 228
167 194 228
167 194 228
167 194 228
166 194 228
166 193 228
166 193 228
166 193 228
165 193 228
165 193 228
165 193 228
165 193 228
165 193 228
164 193 228
164 193 228
164 192 228
164 192 228
164 192 228
164 192 228
163 192 228
163 192 228
163 192 228
163 192 228
163 192 228
163 192 228
163 192 228
162 192 228
162 192 228
162 191 228
162 191 228
162 191 228
162 191 228
162 191 228
162 191 228
162 191 228
162 191 228
162 191 228
161 191 228
161 191 228
161 191 228
161 191 228
161 191 228
161 191 228
161 191 228
162 191 228
162 191 228
162 191 228
162 191 228
162 191 228
162 191 228
162 191 228
162 192 228
163 192 228
163 192 228
163 192 228
163 192 228
164 192 228
164 192 228
165 193 228
165 193 228
166 193 228
166 194 228
167 194 228
168 194 228
169 195 228
170 195 228
171 196 228
172 197 228
174 198 228
176 199 228
179 201 229
194 214 241
206 226 253
209 229 255
209 229 255
209 229 255
209 229 255
209 229 255
209 229 255
209 229 255
209 229 255
209 229 255
209 228 255
209 228 255
208 228 255
208 228 255
208 228 255
208 228 255
208 228 255
208 228 255
208 228 255
208 228 255
208 228 255
208 228 255
208 228 255
208 228 255
208 228 255
208 228 255
208 228 255
208 228 255
208 228 255
208 228 255
208 228 255
208 228 255
208 228 255
208 228 255
208 228 255
186 178 198
164 120 129
166 120 127
164 120 127
164 120 127
166 121 131
161 119 130
161 119 126
161 119 128
163 119 125
165 120 125
162 119 126
164 120 127
163 120 125
165 120 123
166 121 129
167 121 130
163 120 125
163 119 125
166 121 126
165 120 123
164 120 127
164 120 126
164 120 128
166 120 124
164 119 125
165 120 126
164 120 124
167 121 126
166 121 132
163 120 127
164 120 125
164 119 123
163 120 124
164 120 123
163 119 118
163 119 120
164 120 127
165 120 126
164 120 124
165 120 125
164 120 122
164 120 121
167 121 125
165 121 129
166 121 127
163 119 124
164 120 125
164 120 123
164 120 126
165 121 126
164 119 123
164 119 120
164 119 121
165 120 126
165 121 129
163 119 125
165 121 128
167 121 130
163 119 122
166 120 124
163 119 125
164 120 124
164 119 121
165 120 126
167 121 126
166 121 123
165 120 126
165 120 128
163 119 122
164 120 126
164 120 126
164 120 121
165 120 126
161 118 117
164 120 128
165 121 126
164 119 127
166 120 127
162 118 121
164 120 128
163 119 124
163 119 124
163 119 121
163 119 126
162 118 119
163 119 126
166 121 130
163 118 124
164 120 128
184 176 195
208 228 255
208 228 255
208 228 255
208 228 255
208 228 255
208 228 255
208 228 255
208 228 255
208 228 255
208 228 255
208 228 255
208 228 255
208 228 255
208 228 255
208 228 255
208 228 255
208 228 255
208 228 255
208 228 255
208 228 255
208 228 255
208 228 255
208 228 255
209 228 255
209 228 255
209 229 255
209 229 255
209 229 255
209 229 255
209 229 255
209 229 255
209 229 255
209 229 255
209 229 255
208 227 252
192 196 178
179 173 114
176 172 114
174 171 114
172 170 114
171 170 114
170 169 114
169 169 114
168 168 114
167 168 114
166 168 114
166 167 114
165 167 114
165 167 114
164 167 114
164 166 114
163 166 114
163 166 114
163 166 114
163 166 114
162 166 114
162 166 114
162 166 114
162 166 114
162 166 114
162 166 114
162 165 114
162 165 114
161 165 114
161 165 114
161 165 114
161 165 114
161 165 114
161 165 114
161 165 114
162 165 114
162 165 114
162 166 114
162 166 114
162 166 114
162 166 114
162 166 114
162 166 114
162 166 114
162 166 114
162 166 114
163 166 114
163 166 114
163 166 114
163 166 114
163 166 114
163 166 114
163 166 114
164 166 114
164 166 114
164 167 114
164 167 114
164 167 114
165 167 114
165 167 114
165 167 114
165 167 114
165 167 114
165 167 114
166 167 114
166 167 114
166 167 114
166 168 114
167 168 114
167 168 114
167 168 114
167 168 114
167 168 114
168 168 114
168 168 114
168 168 114
168 168 114
169 169 114
169 169 114
169 169 114
169 169 114
169 169 114
170 169 114
170 169 114
170 169 114
170 169 114
171 170 114
171 170 114
171 170 114
171 170 114
172 170 114
172 170 114
172 170 114
172 170 114
173 170 114
173 171 114
173 171 114
173 171 114
174 171 114
174 171 114
174 171 114
174 171 114
175 171 114
175 172 114
175 172 114
176 172 114
176 172 114
176 172 114
176 172 114
177 172 114
177 172 114
177 173 114
178 173 114
178 173 114
178 173 114
179 173 114
179 173 114
179 173 114
179 174 114
180 174 114
179 200 228
179 200 228
179 200 228
178 200 228
178 200 228
178 200 228
178 200 228
177 199 228
177 199 228
177 199 228
176 199 228
176 199 228
176 199 228
176 198 228
175 198 228
175 198 228
175 198 228
175 198 228
174 198 228
174 198 228
174 197 228
174 197 228
173 197 228
173 197 228
173 197 228
173 197 228
172 197 228
172 197 228
172 196 228
172 196 228
171 196 228
171 196 228
171 196 228
171 196 228
170 196 228
170 196 228
170 195 228
170 195 228
169 195 228
169 195 228
169 195 228
169 195 228
169 195 228
168 195 228
168 194 228
168 194 228
168 194 228
167 194 228
167 194 228
167 194 228
167 194 228
167 194 228
166 194 228
166 193 228
166 193 228
166 193 228
166 193 228
165 193 228
165 193 228
165 193 228
165 193 228
165 193 228
164 193 228
164 193 228
164 192 228
164 192 228
164 192 228
164 192 228
163 192 228
163 192 228
163 192 228
163 192 228
163 192 228
163 192 228
163 192 228
162 192 228
162 192 228
162 191 228
162 191 228
162 191 228
162 191 228
162 191 228
162 191 228
162 191 228
162 191 228
162 191 228
162 191 228
161 191 228
161 191 228
161 191 228
161 191 228
162 191 228
162 191 228
162 191 228
162 191 228
162 191 228
162 191 228
162 191 228
162 191 228
162 192 228
163 192 228
163 192 228
163 192 228
163 192 228
164 192 228
164 192 228
164 193 228
165 193 228
165 193 228
166 193 228
167 194 228
167 194 228
168 195 228
169 195 228
170 196 228
171 196 228
173 197 228
175 198 228
177 199 228
185 206 233
205 225 251
209 229 255
209 229 255
209 229 255
209 229 255
209 229 255
209 229 255
209 229 255
209 229 255
209 229 255
209 229 255
209 229 255
209 229 255
209 229 255
209 229 255
209 228 255
209 228 255
208 228 255
208 228 255
208 228 255
208 228 255
208 228 255
208 228 255
208 228 255
208 228 255
208 228 255
208 228 255
208 228 255
208 228 255
208 228 255
208 228 255
208 228 255
208 228 255
187 183 204
164 120 129
164 119 129
165 120 130
162 119 121
163 120 128
165 120 127
164 119 125
165 120 126
164 120 125
166 121 129
166 121 127
165 121 128
161 118 120
164 119 121
161 118 117
160 118 117
162 119 126
164 120 125
163 119 125
163 119 118
163 119 119
166 121 126
168 121 126
164 119 123
162 119 119
163 120 129
164 120 123
164 120 123
162 119 124
164 120 126
163 119 118
164 120 128
163 119 123
165 120 126
163 118 117
164 119 119
164 120 126
166 121 124
163 119 122
163 119 122
165 120 122
163 119 123
167 121 124
165 120 120
165 120 129
163 119 122
165 120 123
162 119 119
167 121 130
162 119 122
165 120 129
163 119 123
164 120 122
164 120 126
164 119 119
166 120 122
165 120 123
164 120 123
166 121 126
163 119 121
165 120 125
165 120 120
166 121 127
165 120 128
166 120 124
165 120 126
164 120 123
166 121 129
165 120 128
163 119 120
166 120 127
162 119 120
163 119 124
164 119 123
164 119 119
161 118 117
163 119 125
167 121 131
163 118 120
165 120 124
163 119 123
165 120 128
162 119 125
164 120 124
165 120 123
163 119 126
164 119 124
163 119 123
163 118 121
162 118 126
165 120 129
188 182 200
207 227 254
208 228 255
208 228 255
208 228 255
208 228 255
208 228 255
208 228 255
208 228 255
208 228 255
208 228 255
208 228 255
208 228 255
208 228 255
208 228 255
208 228 255
208 228 255
208 228 255
209 228 255
209 229 255
209 229 255
209 229 255
209 229 255
209 229 255
209 229 255
209 229 255
209 229 255
209 229 255
209 229 255
209 229 255
209 229 255
209 229 255
209 229 255
200 211 216
187 187 155
177 173 114
175 171 114
173 171 114
171 170 114
170 169 114
169 169 114
168 168 114
167 168 114
167 168 114
166 167 114
165 167 114
165 167 114
164 167 114
164 167 114
164 166 114
163 166 114
163 166 114
163 166 114
163 166 114
162 166 114
162 166 114
162 166 114
162 166 114
162 166 114
162 166 114
162 165 114
162 165 114
162 165 114
161 165 114
161 165 114
161 165 114
161 165 114
161 165 114
162 165 114
162 165 114
162 166 114
162 166 114
162 166 114
162 166 114
162 166 114
162 166 114
162 166 114
162 166 114
162 166 114
163 166 114
163 166 114
163 166 114
163 166 114
163 166 114
163 166 114
163 166 114
164 166 114
164 166 114
164 166 114
164 167 114
164 167 114
164 167 114
165 167 114
165 167 114
165 167 114
165 167 114
165 167 114
166 167 114
166 167 114
166 167 114
166 168 114
166 168 114
167 168 114
167 168 114
167 168 114
167 168 114
167 168 114
168 168 114
168 168 114
168 168 114
168 168 114
168 169 114
169 169 114
169 169 114
169 169 114
169 169 114
170 169 114
170 169 114
170 169 114
170 169 114
171 169 114
171 170 114
171 170 114
171 170 114
172 170 114
172 170 114
172 170 114
172 170 114
173 170 114
173 170 114
173 171 114
173 171 114
174 171 114
174 171 114
174 171 114
174 171 114
175 171 114
175 171 114
175 172 114
175 172 114
176 172 114
176 172 114
176 172 114
176 172 114
177 172 114
177 172 114
177 173 114
178 173 114
178 173 114
178 173 114
178 173 114
179 173 114
179 173 114
179 174 114
180 174 114
179 200 228
179 200 228
179 200 228
179 200 228
178 200 228
178 200 228
178 200 228
177 199 228
177 199 228
177 199 228
177 199 228
176 199 228
176 199 228
176 199 228
176 198 228
175 198 228
175 198 228
175 198 228
174 198 228
174 198 228
174 198 228
174 197 228
173 197 228
173 197 228
173 197 228
173 197 228
172 197 228
172 197 228
172 197 228
172 196 228
172 196 228
171 196 228
171 196 228
171 196 228
171 196 228
170 196 228
170 196 228
170 195 228
170 195 228
169 195 228
169 195 228
169 195 228
169 195 228
169 195 228
168 195 228
168 195 228
168 194 228
168 194 228
167 194 228
167 194 228
167 194 228
167 194 228
167 194 228
166 194 228
166 194 228
166 193 228
166 193 228
166 193 228
165 193 228
165 193 228
165 193 228
165 193 228
165 193 228
164 193 228
164 193 228
164 192 228
164 192 228
164 192 228
164 192 228
164 192 228
163 192 228
163 192 228
163 192 228
163 192 228
163 192 228
163 192 228
163 192 228
162 192 228
162 192 228
162 191 228
162 191 228
162 191 228
162 191 228
162 191 228
162 191 228
162 191 228
162 191 228
162 191 228
162 191 228
162 191 228
162 191 228
162 191 228
162 191 228
162 191 228
162 191 228
162 191 228
162 191 228
162 191 228
162 191 228
162 191 228
162 192 228
163 192 228
163 192 228
163 192 228
163 192 228
164 192 228
164 192 228
164 193 228
165 193 228
165 193 228
166 193 228
166 194 228
167 194 228
168 194 228
169 195 228
170 195 228
171 196 228
172 197 228
174 198 228
176 199 228
179 200 228
191 210 237
209 228 255
209 229 255
209 229 255
209 229 255
209 229 255
209 229 255
209 229 255
209 229 255
209 229 255
209 229 255
209 229 255
209 229 255
209 229 255
209 229 255
209 229 255
209 229 255
209 229 255
209 229 255
209 229 255
209 228 255
209 228 255
208 228 255
208 228 255
208 228 255
208 228 255
208 228 255
208 228 255
208 228 255
208 228 255
208 228 255
188 186 207
162 119 127
163 120 130
162 119 128
162 119 125
163 119 129
163 119 123
163 119 123
164 120 122
165 120 125
164 120 123
165 120 128
166 121 128
163 120 128
165 120 126
166 121 126
165 121 128
165 120 128
162 119 120
167 121 130
165 120 124
167 121 126
163 119 123
165 120 126
162 119 123
164 120 123
163 119 118
163 119 123
165 120 125
164 119 118
166 120 126
163 119 123
164 119 121
166 121 127
165 120 123
168 121 128
167 121 126
167 121 128
162 119 115
166 120 123
165 120 123
163 119 123
163 119 121
165 120 128
164 119 121
163 119 120
166 120 123
167 121 123
165 120 126
166 120 126
166 121 128
165 120 127
165 120 124
165 120 123
165 120 123
166 121 127
165 120 125
161 118 115
161 118 118
165 120 123
163 119 122
164 120 125
164 119 124
164 119 125
163 119 121
162 119 123
165 120 123
166 120 127
165 120 127
165 120 130
164 119 121
167 121 126
162 118 119
163 119 119
167 120 128
166 120 127
165 120 124
165 120 126
164 119 123
165 120 127
164 119 124
165 120 124
163 118 121
164 120 126
165 120 128
164 118 118
166 120 130
163 119 124
164 118 118
167 121 129
162 119 123
163 119 122
163 119 126
162 118 124
188 184 204
208 228 255
208 228 255
208 228 255
208 228 255
208 228 255
208 228 255
208 228 255
208 228 255
208 228 255
209 228 255
209 228 255
209 229 255
209 229 255
209 229 255
209 229 255
209 229 255
209 229 255
209 229 255
209 229 255
209 229 255
209 229 255
209 229 255
209 229 255
209 229 255
209 229 255
209 229 255
209 229 255
209 229 255
209 229 255
208 227 250
193 197 180
179 174 114
176 172 114
174 171 114
172 170 114
171 170 114
170 169 114
169 169 114
168 168 114
167 168 114
166 168 114
166 167 114
165 167 114
165 167 114
164 167 114
164 167 114
164 166 114
163 166 114
163 166 114
163 166 114
163 166 114
162 166 114
162 166 114
162 166 114
162 166 114
162 166 114
162 166 114
162 166 114
162 166 114
162 165 114
162 165 114
162 165 114
162 165 114
162 165 114
162 165 114
162 166 114
162 166 114
162 166 114
162 166 114
162 166 114
162 166 114
162 166 114
162 166 114
162 166 114
162 166 114
163 166 114
163 166 114
163 166 114
163 166 114
163 166 114
163 166 114
163 166 114
164 166 114
164 166 114
164 166 114
164 167 114
164 167 114
164 167 114
164 167 114
165 167 114
165 167 114
165 167 114
165 167 114
165 167 114
166 167 114
166 167 114
166 167 114
166 168 114
166 168 114
167 168 114
167 168 114
167 168 114
167 168 114
167 168 114
168 168 114
168 168 114
168 168 114
168 168 114
169 169 114
169 169 114
169 169 114
169 169 114
169 169 114
170 169 114
170 169 114
170 169 114
170 169 114
171 170 114
171 170 114
171 170 114
171 170 114
172 170 114
172 170 114
172 170 114
172 170 114
172 170 114
173 170 114
173 171 114
173 171 114
173 171 114
174 171 114
174 171 114
174 171 114
174 171 114
175 171 114
175 172 114
175 172 114
175 172 114
176 172 114
176 172 114
176 172 114
177 172 114
177 172 114
177 172 114
177 173 114
178 173 114
178 173 114
178 173 114
178 173 114
179 173 114
179 173 114
179 174 114
180 174 114
179 200 228
179 200 228
179 200 228
179 200 228
178 200 228
178 200 228
178 200 228
177 199 228
177 199 228
177 199 228
177 199 228
176 199 228
176 199 228
176 199 228
176 198 228
175 198 228
175 198 228
175 198 228
175 198 228
174 198 228
174 198 228
174 198 228
174 197 228
173 197 228
173 197 228
173 197 228
173 197 228
172 197 228
172 197 228
172 197 228
172 196 228
172 196 228
171 196 228
171 196 228
171 196 228
171 196 228
170 196 228
170 196 228
170 195 228
170 195 228
170 195 228
169 195 228
169 195 228
169 195 228
169 195 228
168 195 228
168 195 228
168 194 228
168 194 228
168 194 228
167 194 228
167 194 228
167 194 228
167 194 228
167 194 228
166 194 228
166 194 228
166 193 228
166 193 228
166 193 228
165 193 228
165 193 228
165 193 228
165 193 228
165 193 228
165 193 228
164 193 228
164 192 228
164 192 228
164 192 228
164 192 228
164 192 228
163 192 228
163 192 228
163 192 228
163 192 228
163 192 228
163 192 228
163 192 228
162 192 228
162 192 228
162 192 228
162 191 228
162 191 228
162 191 228
162 191 228
162 191 228
162 191 228
162 191 228
162 191 228
162 191 228
162 191 228
162 191 228
162 191 228
162 191 228
162 191 228
162 191 228
162 191 228
162 191 228
162 191 228
162 192 228
162 192 228
163 192 228
163 192 228
163 192 228
163 192 228
164 192 228
164 192 228
164 193 228
165 193 228
165 193 228
166 193 228
166 194 228
167 194 228
168 194 228
169 195 228
169 195 228
171 196 228
172 197 228
173 197 228
175 198 228
178 200 228
186 206 233
204 224 250
210 229 255
209 229 255
209 229 255
209 229 255
209 229 255
209 229 255
209 229 255
209 229 255
209 229 255
209 229 255
209 229 255
209 229 255
209 229 255
209 229 255
209 229 255
209 229 255
209 229 255
209 229 255
209 229 255
209 229 255
209 229 255
209 229 255
209 229 255
209 228 255
209 228 255
208 228 255
208 228 255
192 192 214
163 119 128
164 120 133
162 119 126
165 120 126
165 120 124
164 120 127
164 119 126
164 119 122
163 119 126
164 120 126
165 120 127
165 120 127
161 118 117
166 121 125
165 120 126
164 119 124
164 120 128
164 120 126
166 121 126
164 120 123
163 119 121
166 121 126
165 120 123
163 120 123
165 120 125
165 120 125
162 119 125
162 119 125
164 120 125
163 119 121
162 118 117
162 119 126
164 120 123
163 119 126
164 120 123
164 119 120
164 119 123
162 118 113
164 120 122
164 120 123
165 121 127
164 120 123
166 120 127
166 120 125
165 120 124
163 119 121
167 121 126
165 120 123
160 117 116
162 118 117
164 119 123
164 120 122
165 120 124
164 120 123
165 120 126
163 120 125
161 118 116
165 120 129
166 120 124
164 119 124
166 121 129
163 119 123
165 120 121
165 121 128
166 121 126
164 120 126
163 119 123
165 120 124
166 120 125
166 121 125
164 120 123
165 120 123
162 119 119
164 120 123
167 121 123
165 121 127
162 118 122
161 118 120
163 119 122
161 118 118
166 121 128
166 120 125
163 119 120
163 119 126
164 119 128
167 121 130
165 120 125
162 119 126
163 118 121
164 120 125
164 119 124
163 119 122
163 119 125
164 119 125
163 118 124
191 190 209
208 228 255
208 228 255
209 228 255
209 228 255
209 229 255
209 229 255
209 229 255
209 229 255
209 229 255
209 229 255
209 229 255
209 229 255
209 229 255
209 229 255
209 229 255
209 229 255
209 229 255
209 229 255
209 229 255
209 229 255
209 229 255
209 229 255
209 229 255
209 229 255
209 229 255
209 229 255
210 229 255
203 216 227
184 181 135
178 173 114
175 172 114
173 171 114
172 170 114
171 170 114
170 169 114
169 169 114
168 168 114
167 168 114
166 168 114
166 167 114
165 167 114
165 167 114
164 167 114
164 167 114
164 166 114
163 166 114
163 166 114
163 166 114
163 166 114
162 166 114
162 166 114
162 166 114
162 166 114
162 166 114
162 166 114
162 166 114
162 166 114
162 166 114
162 166 114
162 166 114
162 166 114
162 166 114
162 166 114
162 166 114
162 166 114
162 166 114
162 166 114
162 166 114
162 166 114
162 166 114
162 166 114
162 166 114
163 166 114
163 166 114
163 166 114
163 166 114
163 166 114
163 166 114
163 166 114
163 166 114
164 166 114
164 166 114
164 167 114
164 167 114
164 167 114
164 167 114
165 167 114
165 167 114
165 167 114
165 167 114
165 167 114
166 167 114
166 167 114
166 167 114
166 168 114
166 168 114
167 168 114
167 168 114
167 168 114
167 168 114
167 168 114
168 168 114
168 168 114
168 168 114
168 168 114
168 169 114
169 169 114
169 169 114
169 169 114
169 169 114
170 169 114
170 169 114
170 169 114
170 169 114
170 169 114
171 170 114
171 170 114
171 170 114
171 170 114
172 170 114
172 170 114
172 170 114
172 170 114
172 170 114
173 170 114
173 171 114
173 171 114
173 171 114
174 171 114
174 171 114
174 171 114
174 171 114
175 171 114
175 171 114
175 172 114
175 172 114
176 172 114
176 172 114
176 172 114
176 172 114
177 172 114
177 172 114
177 173 114
177 173 114
178 173 114
178 173 114
178 173 114
179 173 114
179 173 114
179 173 114
179 174 114
180 174 114
179 201 228
179 200 228
179 200 228
179 200 228
178 200 228
178 200 228
178 200 228
178 200 228
177 199 228
177 199 228
177 199 228
177 199 228
176 199 228
176 199 228
176 199 228
176 198 228
175 198 228
175 198 228
175 198 228
175 198 228
174 198 228
174 198 228
174 198 228
174 197 228
173 197 228
173 197 228
173 197 228
173 197 228
173 197 228
172 197 228
172 197 228
172 196 228
172 196 228
171 196 228
171 196 228
171 196 228
171 196 228
171 196 228
170 196 228
170 196 228
170 195 228
170 195 228
169 195 228
169 195 228
169 195 228
169 195 228
169 195 228
168 195 228
168 195 228
168 194 228
168 194 228
168 194 228
167 194 228
167 194 228
167 194 228
167 194 228
167 194 228
166 194 228
166 194 228
166 193 228
166 193 228
166 193 228
165 193 228
165 193 228
165 193 228
165 193 228
165 193 228
165 193 228
164 193 228
164 193 228
164 192 228
164 192 228
164 192 228
164 192 228
163 192 228
163 192 228
163 192 228
163 192 228
163 192 228
163 192 228
163 192 228
163 192 228
162 192 228
162 192 228
162 192 228
162 191 228
162 191 228
162 191 228
162 191 228
162 191 228
162 191 228
162 191 228
162 191 228
162 191 228
162 191 228
162 191 228
162 191 228
162 191 228
162 191 228
162 192 228
162 192 228
162 192 228
163 192 228
163 192 228
163 192 228
163 192 228
164 192 228
164 192 228
164 192 228
164 193 228
165 193 228
165 193 228
166 193 228
166 194 228
167 194 228
168 194 228
169 195 228
169 195 228
171 196 228
172 196 228
173 197 228
175 198 228
177 199 228
181 201 229
197 216 243
210 229 255
210 229 255
210 229 255
210 229 255
210 229 255
210 229 255
209 229 255
209 229 255
209 229 255
209 229 255
209 229 255
209 229 255
209 229 255
209 229 255
209 229 255
209 229 255
209 229 255
209 229 255
209 229 255
209 229 255
209 229 255
209 229 255
209 229 255
209 229 255
209 229 255
194 197 220
162 120 130
162 119 125
164 120 129
165 120 128
164 120 124
163 119 124
162 119 123
163 119 126
162 119 126
166 121 129
161 117 115
163 119 120
164 119 123
164 120 126
164 120 124
164 119 118
165 120 123
165 119 122
163 119 125
164 119 122
165 120 122
162 118 123
163 120 123
163 119 121
164 119 122
163 119 120
166 120 122
164 120 123
165 120 126
163 119 123
165 120 126
164 119 124
166 121 125
162 118 114
167 121 129
164 119 123
162 118 121
164 120 126
161 118 122
164 119 119
164 120 124
164 119 119
164 120 123
162 118 116
163 119 120
165 120 124
163 119 123
164 120 123
163 119 118
163 119 120
164 120 124
164 119 119
164 119 119
168 122 128
163 119 123
163 119 117
163 119 121
166 120 123
165 120 124
162 119 124
165 120 123
164 120 124
163 119 118
164 120 129
165 120 130
168 122 130
164 119 121
165 119 122
163 119 123
163 119 120
165 120 127
165 120 124
164 119 121
161 118 119
165 120 125
166 120 124
164 119 121
165 120 121
166 120 126
164 119 118
162 118 120
164 120 127
164 120 124
166 120 125
164 119 119
165 120 126
165 119 122
163 119 121
164 120 122
164 120 126
162 118 124
163 118 119
163 119 125
160 116 116
162 118 123
163 119 125
165 119 127
195 199 222
209 229 255
209 229 255
209 229 255
209 229 255
209 229 255
209 229 255
209 229 255
209 229 255
209 229 255
209 229 255
209 229 255
209 229 255
209 229 255
209 229 255
209 229 255
209 229 255
209 229 255
209 229 255
209 229 255
210 229 255
210 229 255
210 229 255
210 229 255
210 229 255
210 229 254
197 204 198
180 174 116
177 172 114
175 171 114
173 171 114
172 170 114
170 169 114
169 169 114
169 169 114
168 168 114
167 168 114
166 168 114
166 167 114
165 167 114
165 167 114
164 167 114
164 167 114
164 166 114
163 166 114
163 166 114
163 166 114
163 166 114
163 166 114
162 166 114
162 166 114
162 166 114
162 166 114
162 166 114
162 166 114
162 166 114
162 166 114
162 166 114
162 166 114
162 166 114
162 166 114
162 166 114
162 166 114
162 166 114
162 166 114
162 166 114
162 166 114
162 166 114
162 166 114
163 166 114
163 166 114
163 166 114
163 166 114
163 166 114
163 166 114
163 166 114
163 166 114
164 166 114
164 166 114
164 167 114
164 167 114
164 167 114
164 167 114
165 167 114
165 167 114
165 167 114
165 167 114
165 167 114
165 167 114
166 167 114
166 167 114
166 167 114
166 168 114
166 168 114
167 168 114
167 168 114
167 168 114
167 168 114
167 168 114
168 168 114
168 168 114
168 168 114
168 168 114
168 169 114
169 169 114
169 169 114
169 169 114
169 169 114
169 169 114
170 169 114
170 169 114
170 169 114
170 169 114
170 169 114
171 170 114
171 170 114
171 170 114
171 170 114
172 170 114
172 170 114
172 170 114
172 170 114
173 170 114
173 170 114
173 171 114
173 171 114
173 171 114
174 171 114
174 171 114
174 171 114
174 171 114
175 171 114
175 171 114
175 172 114
175 172 114
176 172 114
176 172 114
176 172 114
176 172 114
177 172 114
177 172 114
177 172 114
177 173 114
178 173 114
178 173 114
178 173 114
178 173 114
179 173 114
179 173 114
179 173 114
179 174 114
180 174 114
180 201 228
179 200 228
179 200 228
179 200 228
179 200 228
178 200 228
178 200 228
178 200 228
178 199 228
177 199 228
177 199 228
177 199 228
177 199 228
176 199 228
176 199 228
176 199 228
176 198 228
175 198 228
175 198 228
175 198 228
175 198 228
174 198 228
174 198 228
174 198 228
174 197 228
174 197 228
173 197 228
173 197 228
173 197 228
173 197 228
172 197 228
172 197 228
172 197 228
172 196 228
172 196 228
171 196 228
171 196 228
171 196 228
171 196 228
170 196 228
170 196 228
170 195 228
170 195 228
170 195 228
169 195 228
169 195 228
169 195 228
169 195 228
169 195 228
168 195 228
168 195 228
168 194 228
168 194 228
168 194 228
167 194 228
167 194 228
167 194 228
167 194 228
167 194 228
166 194 228
166 194 228
166 193 228
166 193 228
166 193 228
166 193 228
165 193 228
165 193 228
165 193 228
165 193 228
165 193 228
164 193 228
164 193 228
164 192 228
164 192 228
164 192 228
164 192 228
164 192 228
163 192 228
163 192 228
163 192 228
163 192 228
163 192 228
163 192 228
163 192 228
163 192 228
163 192 228
163 192 228
162 192 228
162 192 228
162 192 228
162 192 228
162 192 228
162 191 228
162 191 228
162 191 228
162 191 228
162 192 228
162 192 228
162 192 228
162 192 228
162 192 228
163 192 228
163 192 228
163 192 228
163 192 228
163 192 228
163 192 228
164 192 228
164 192 228
164 193 228
165 193 228
165 193 228
165 193 228
166 193 228
166 194 228
167 194 228
168 194 228
169 195 228
169 195 228
170 196 228
172 196 228
173 197 228
174 198 228
176 199 228
179 200 228
190 210 236
208 227 253
210 229 255
210 229 255
210 229 255
210 229 255
210 229 255
210 229 255
210 229 255
210 229 255
210 229 255
210 229 255
209 229 255
209 229 255
209 229 255
209 229 255
209 229 255
209 229 255
209 229 255
209 229 255
209 229 255
209 229 255
209 229 255
209 229 255
198 206 230
162 122 133
162 119 126
163 120 128
162 119 123
163 120 127
164 119 122
164 119 123
163 119 124
163 119 128
163 119 121
165 120 125
166 121 128
166 120 124
165 121 130
162 119 120
164 119 121
165 120 126
164 120 126
165 120 127
162 118 117
164 119 122
164 120 122
165 120 124
164 119 120
163 119 117
165 120 125
161 118 117
162 118 118
162 118 119
162 119 119
165 120 126
164 119 119
165 120 123
164 120 124
163 120 127
165 120 120
163 119 124
162 119 119
165 120 121
165 119 121
164 120 123
165 120 120
164 119 121
163 119 122
164 120 121
165 120 124
160 117 118
163 120 123
166 121 128
165 120 124
166 120 123
162 118 114
164 119 123
167 121 128
161 118 122
165 120 121
166 121 125
164 120 123
163 119 121
165 120 125
165 120 122
167 121 127
163 119 120
165 119 122
163 119 123
165 119 121
163 119 116
164 120 124
164 119 118
164 119 118
166 121 124
166 120 124
161 117 116
167 121 128
168 122 129
165 120 123
163 119 123
164 119 120
163 119 125
163 119 122
163 119 119
163 119 123
161 118 119
162 118 118
163 118 120
164 119 123
164 119 124
165 120 119
161 118 115
167 120 125
166 120 122
163 119 119
164 120 126
166 120 126
163 119 124
161 118 118
163 118 125
163 118 123
164 122 127
200 209 233
209 229 255
209 229 255
209 229 255
209 229 255
209 229 255
209 229 255
209 229 255
209 229 255
209 229 255
209 229 255
209 229 255
209 229 255
210 229 255
210 229 255
210 229 255
210 229 255
210 229 255
210 229 255
210 229 255
210 229 255
210 229 255
210 229 255
209 227 250
189 189 158
179 173 114
176 172 114
174 171 114
173 171 114
171 170 114
170 169 114
169 169 114
168 169 114
168 168 114
167 168 114
166 168 114
166 167 114
165 167 114
165 167 114
165 167 114
164 167 114
164 167 114
164 166 114
163 166 114
163 166 114
163 166 114
163 166 114
163 166 114
163 166 114
162 166 114
162 166 114
162 166 114
162 166 114
162 166 114
162 166 114
162 166 114
162 166 114
162 166 114
162 166 114
162 166 114
162 166 114
162 166 114
162 166 114
163 166 114
163 166 114
163 166 114
163 166 114
163 166 114
163 166 114
163 166 114
163 166 114
163 166 114
163 166 114
164 166 114
164 166 114
164 166 114
164 167 114
164 167 114
164 167 114
164 167 114
165 167 114
165 167 114
165 167 114
165 167 114
165 167 114
165 167 114
166 167 114
166 167 114
166 167 114
166 168 114
166 168 114
167 168 114
167 168 114
167 168 114
167 168 114
167 168 114
168 168 114
168 168 114
168 168 114
168 168 114
168 168 114
169 169 114
169 169 114
169 169 114
169 169 114
169 169 114
170 169 114
170 169 114
170 169 114
170 169 114
170 169 114
171 170 114
171 170 114
171 170 114
171 170 114
172 170 114
172 170 114
172 170 114
172 170 114
172 170 114
173 170 114
173 171 114
173 171 114
173 171 114
174 171 114
174 171 114
174 171 114
174 171 114
174 171 114
175 171 114
175 171 114
175 172 114
175 172 114
176 172 114
176 172 114
176 172 114
176 172 114
177 172 114
177 172 114
177 172 114
177 173 114
178 173 114
178 173 114
178 173 114
178 173 114
179 173 114
179 173 114
179 173 114
179 174 114
180 174 114
180 174 114
180 201 228
179 201 228
179 200 228
179 200 228
179 200 228
178 200 228
178 200 228
178 200 228
178 200 228
178 199 228
177 199 228
177 199 228
177 199 228
177 199 228
176 199 228
176 199 228
176 199 228
176 198 228
175 198 228
175 198 228
175 198 228
175 198 228
175 198 228
174 198 228
174 198 228
174 198 228
174 197 228
173 197 228
173 197 228
173 197 228
173 197 228
173 197 228
172 197 228
172 197 228
172 196 228
172 196 228
171 196 228
171 196 228
171 196 228
171 196 228
171 196 228
170 196 228
170 196 228
170 196 228
170 195 228
170 195 228
169 195 228
169 195 228
169 195 228
169 195 228
169 195 228
168 195 228
168 195 228
168 194 228
168 194 228
168 194 228
167 194 228
167 194 228
167 194 228
167 194 228
167 194 228
166 194 228
166 194 228
166 193 228
166 193 228
166 193 228
166 193 228
165 193 228
165 193 228
165 193 228
165 193 228
165 193 228
165 193 228
164 193 228
164 193 228
164 192 228
164 192 228
164 192 228
164 192 228
164 192 228
164 192 228
163 192 228
163 192 228
163 192 228
163 192 228
163 192 228
163 192 228
163 192 228
163 192 228
163 192 228
163 192 228
163 192 228
163 192 228
163 192 228
163 192 228
163 192 228
163 192 228
163 192 228
163 192 228
163 192 228
163 192 228
163 192 228
163 192 228
163 192 228
163 192 228
163 192 228
163 192 228
164 192 228
164 192 228
164 192 228
165 193 228
165 193 228
165 193 228
166 193 228
166 193 228
167 194 228
167 194 228
168 194 228
169 195 228
169 195 228
170 196 228
171 196 228
173 197 228
174 198 228
176 199 228
178 200 228
187 206 233
205 224 250
210 229 255
210 229 255
210 229 255
210 229 255
210 229 255
210 229 255
210 229 255
210 229 255
210 229 255
210 229 255
210 229 255
210 229 255
210 229 255
210 229 255
210 229 255
210 229 255
209 229 255
209 229 255
209 229 255
209 229 255
207 224 250
171 140 154
159 117 118
165 120 131
167 121 128
163 119 121
160 118 119
164 119 125
163 119 122
164 120 126
160 118 121
164 119 123
165 120 122
166 120 125
163 119 121
163 120 128
163 119 122
162 119 123
163 119 123
164 120 122
164 119 121
162 118 119
163 119 123
164 120 124
164 120 128
164 119 116
165 120 123
165 120 122
164 119 122
163 119 118
163 119 122
165 121 126
165 120 123
164 120 125
163 119 115
163 119 123
163 119 121
166 121 126
165 120 120
165 120 123
165 120 124
162 118 114
165 120 122
166 120 127
166 120 123
163 119 121
165 120 118
164 120 123
161 118 117
162 118 116
166 120 123
165 120 128
164 119 120
161 117 113
164 120 123
166 121 126
163 119 119
164 119 125
164 119 122
161 118 118
161 118 118
164 119 120
163 120 124
165 119 120
163 119 123
166 120 123
164 119 126
164 119 122
163 119 117
164 119 120
163 119 119
166 121 127
163 119 119
163 119 120
166 120 125
163 119 118
165 120 119
166 120 122
161 118 115
162 117 114
163 119 117
159 116 112
165 120 123
163 119 123
162 118 118
165 119 123
164 119 117
164 119 121
164 119 125
161 117 116
163 119 122
163 118 118
163 119 122
165 119 125
162 117 123
163 118 120
165 120 127
164 119 126
164 119 123
166 120 122
165 119 127
168 133 141
208 226 252
209 229 255
209 229 255
209 229 255
209 229 255
210 229 255
210 229 255
210 229 255
210 229 255
210 229 255
210 229 255
210 229 255
210 229 255
210 229 255
210 229 255
210 229 255
210 229 255
210 229 255
210 229 255
210 229 255
210 229 255
207 223 241
184 180 131
178 173 114
176 172 114
174 171 114
173 170 114
171 170 114
170 169 114
169 169 114
169 169 114
168 168 114
167 168 114
167 168 114
166 167 114
166 167 114
165 167 114
165 167 114
165 167 114
164 167 114
164 167 114
164 166 114
163 166 114
163 166 114
163 166 114
163 166 114
163 166 114
163 166 114
163 166 114
163 166 114
163 166 114
163 166 114
163 166 114
163 166 114
163 166 114
163 166 114
163 166 114
163 166 114
163 166 114
163 166 114
163 166 114
163 166 114
163 166 114
163 166 114
163 166 114
163 166 114
163 166 114
163 166 114
164 166 114
164 166 114
164 166 114
164 167 114
164 167 114
164 167 114
164 167 114
164 167 114
165 167 114
165 167 114
165 167 114
165 167 114
165 167 114
165 167 114
166 167 114
166 167 114
166 167 114
166 167 114
166 168 114
166 168 114
167 168 114
167 168 114
167 168 114
167 168 114
167 168 114
168 168 114
168 168 114
168 168 114
168 168 114
168 169 114
169 169 114
169 169 114
169 169 114
169 169 114
169 169 114
170 169 114
170 169 114
170 169 114
170 169 114
170 169 114
171 170 114
171 170 114
171 170 114
171 170 114
171 170 114
172 170 114
172 170 114
172 170 114
172 170 114
173 170 114
173 170 114
173 171 114
173 171 114
173 171 114
174 171 114
174 171 114
174 171 114
174 171 114
175 171 114
175 171 114
175 171 114
175 172 114
175 172 114
176 172 114
176 172 114
176 172 114
176 172 114
177 172 114
177 172 114
177 172 114
177 173 114
178 173 114
178 173 114
178 173 114
178 173 114
178 173 114
179 173 114
179 173 114
179 173 114
179 174 114
180 174 114
180 174 114
180 201 228
180 201 228
179 200 228
179 200 228
179 200 228
179 200 228
178 200 228
178 200 228
178 200 228
178 200 228
178 199 228
177 199 228
177 199 228
177 199 228
177 199 228
176 199 228
176 199 228
176 199 228
176 199 228
175 198 228
175 198 228
175 198 228
175 198 228
175 198 228
174 198 228
174 198 228
174 198 228
174 197 228
174 197 228
173 197 228
173 197 228
173 197 228
173 197 228
173 197 228
172 197 228
172 197 228
172 196 228
172 196 228
171 196 228
171 196 228
171 196 228
171 196 228
171 196 228
170 196 228
170 196 228
170 196 228
170 195 228
170 195 228
169 195 228
169 195 228
169 195 228
169 195 228
169 195 228
168 195 228
168 195 228
168 194 228
168 194 228
168 194 228
168 194 228
167 194 228
167 194 228
167 194 228
167 194 228
167 194 228
166 194 228
166 194 228
166 193 228
166 193 228
166 193 228
166 193 228
165 193 228
165 193 228
165 193 228
165 193 228
165 193 228
165 193 228
165 193 228
164 193 228
164 193 228
164 192 228
164 192 228
164 192 228
164 192 228
164 192 228
164 192 228
163 192 228
163 192 228
163 192 228
163 192 228
163 192 228
163 192 228
163 192 228
163 192 228
163 192 228
163 192 228
163 192 228
163 192 228
163 192 228
163 192 228
163 192 228
163 192 228
163 192 228
163 192 228
163 192 228
163 192 228
163 192 228
164 192 228
164 192 228
164 192 228
164 193 228
165 193 228
165 193 228
165 193 228
165 193 228
166 193 228
166 194 228
167 194 228
167 194 228
168 195 228
169 195 228
170 195 228
170 196 228
172 196 228
173 197 228
174 198 228
176 199 228
179 200 228
184 204 230
201 220 246
210 229 255
210 229 255
210 229 255
210 229 255
210 229 255
210 229 255
210 229 255
210 229 255
210 229 255
210 229 255
210 229 255
210 229 255
210 229 255
210 229 255
210 229 255
210 229 255
210 229 255
210 229 255
210 229 255
175 155 169
162 118 124
160 117 123
164 120 126
162 119 126
163 119 126
164 120 122
162 118 121
165 120 127
165 120 122
161 118 120
165 120 128
162 119 124
167 120 124
163 119 118
163 120 125
165 120 124
164 119 121
165 120 126
163 119 120
166 120 125
164 119 121
165 120 125
162 119 120
164 119 124
163 119 118
164 120 124
165 120 125
164 120 119
164 119 121
163 119 121
164 119 119
166 121 124
163 119 118
161 118 114
161 118 116
163 119 120
164 119 120
163 119 120
164 119 118
163 119 119
162 118 115
164 120 123
164 119 115
164 119 123
166 121 127
165 120 124
164 119 121
164 119 121
164 120 122
164 119 124
163 119 123
165 120 124
165 120 126
163 119 118
165 120 125
166 121 123
165 120 123
164 120 122
164 119 121
165 120 122
164 120 123
160 117 118
166 120 122
166 121 126
164 119 123
166 121 126
165 120 121
165 120 123
164 120 123
163 119 121
167 121 128
165 120 121
165 120 123
162 118 113
164 119 117
165 120 123
164 120 124
163 119 124
162 118 114
162 118 114
166 120 121
166 120 125
162 118 118
164 119 121
164 120 123
161 118 119
162 119 117
163 119 122
165 119 117
165 120 124
163 119 121
161 117 118
164 118 117
162 118 123
163 119 125
164 118 118
162 118 118
165 120 123
163 118 120
164 119 123
162 117 123
177 155 170
209 227 253
210 229 255
210 229 255
210 229 255
210 229 255
210 229 255
210 229 255
210 229 255
210 229 255
210 229 255
210 229 255
210 229 255
210 229 255
210 229 255
210 229 255
210 229 255
210 229 255
210 229 255
210 229 255
204 218 230
182 176 121
178 173 114
176 172 114
174 171 114
173 170 114
172 170 114
170 169 114
170 169 114
169 169 114
168 168 114
167 168 114
167 168 114
166 168 114
166 167 114
165 167 114
165 167 114
165 167 114
165 167 114
164 167 114
164 167 114
164 166 114
164 166 114
163 166 114
163 166 114
163 166 114
163 166 114
163 166 114
163 166 114
163 166 114
163 166 114
163 166 114
163 166 114
163 166 114
163 166 114
163 166 114
163 166 114
163 166 114
163 166 114
163 166 114
163 166 114
163 166 114
163 166 114
163 166 114
164 166 114
164 166 114
164 166 114
164 166 114
164 167 114
164 167 114
164 167 114
164 167 114
165 167 114
165 167 114
165 167 114
165 167 114
165 167 114
165 167 114
165 167 114
166 167 114
166 167 114
166 167 114
166 167 114
166 168 114
166 168 114
167 168 114
167 168 114
167 168 114
167 168 114
167 168 114
168 168 114
168 168 114
168 168 114
168 168 114
168 168 114
168 169 114
169 169 114
169 169 114
169 169 114
169 169 114
169 169 114
170 169 114
170 169 114
170 169 114
170 169 114
170 169 114
171 170 114
171 170 114
171 170 114
171 170 114
171 170 114
172 170 114
172 170 114
172 170 114
172 170 114
173 170 114
173 170 114
173 171 114
173 171 114
173 171 114
174 171 114
174 171 114
174 171 114
174 171 114
174 171 114
175 171 114
175 171 114
175 172 114
175 172 114
176 172 114
176 172 114
176 172 114
176 172 114
176 172 114
177 172 114
177 172 114
177 172 114
177 173 114
178 173 114
178 173 114
178 173 114
178 173 114
178 173 114
179 173 114
179 173 114
179 173 114
179 174 114
180 174 114
180 174 114
180 174 114
180 201 228
180 201 228
180 201 228
179 200 228
179 200 228
179 200 228
179 200 228
178 200 228
178 200 228
178 200 228
178 200 228
178 200 228
177 199 228
177 199 228
177 199 228
177 199 228
177 199 228
176 199 228
176 199 228
176 199 228
176 198 228
175 198 228
175 198 228
175 198 228
175 198 228
175 198 228
174 198 228
174 198 228
174 198 228
174 197 228
174 197 228
173 197 228
173 197 228
173 197 228
173 197 228
173 197 228
172 197 228
172 197 228
172 196 228
172 196 228
172 196 228
171 196 228
171 196 228
171 196 228
171 196 228
171 196 228
170 196 228
170 196 228
170 195 228
170 195 228
170 195 228
169 195 228
169 195 228
169 195 228
169 195 228
169 195 228
168 195 228
168 195 228
168 194 228
168 194 228
168 194 228
168 194 228
167 194 228
167 194 228
167 194 228
167 194 228
167 194 228
166 194 228
166 194 228
166 193 228
166 193 228
166 193 228
166 193 228
166 193 228
165 193 228
165 193 228
165 193 228
165 193 228
165 193 228
165 193 228
165 193 228
164 193 228
164 193 228
164 192 228
164 192 228
164 192 228
164 192 228
164 192 228
164 192 228
164 192 228
164 192 228
163 192 228
163 192 228
163 192 228
163 192 228
163 192 228
163 192 228
163 192 228
163 192 228
163 192 228
163 192 228
163 192 228
163 192 228
164 192 228
164 192 228
164 192 228
164 192 228
164 192 228
164 192 228
164 193 228
165 193 228
165 193 228
165 193 228
165 193 228
166 193 228
166 194 228
167 194 228
167 194 228
168 194 228
168 195 228
169 195 228
170 195 228
171 196 228
172 196 228
173 197 228
174 198 228
176 199 228
178 200 228
182 202 229
199 218 243
211 230 255
211 230 255
210 230 255
210 230 255
210 230 255
210 229 255
210 229 255
210 229 255
210 229 255
210 229 255
210 229 255
210 229 255
210 229 255
210 229 255
210 229 255
210 229 255
210 229 255
183 172 190
164 119 126
162 119 124
164 119 126
162 119 124
162 119 124
162 118 123
162 118 123
166 121 126
163 118 119
161 118 124
162 118 120
165 120 128
164 119 123
163 119 123
163 119 123
165 120 127
164 119 120
165 119 121
163 119 118
164 120 123
163 119 122
164 119 120
164 120 123
164 120 123
164 120 125
162 118 117
164 120 124
163 119 120
164 119 125
163 119 121
163 119 120
167 121 129
163 120 123
162 119 119
161 117 114
163 118 114
167 120 124
165 120 125
163 119 121
163 119 118
162 119 123
166 121 123
167 121 125
164 119 119
163 118 114
164 119 121
164 119 121
165 120 121
162 118 116
163 119 117
164 120 123
164 119 120
166 120 125
164 119 117
167 121 129
163 118 113
160 117 114
163 119 116
164 119 121
167 121 127
163 119 119
163 119 122
163 118 115
163 118 115
160 117 116
163 119 122
163 118 121
165 120 127
166 121 127
165 120 124
165 119 119
163 118 115
164 119 122
162 118 113
164 119 122
162 118 120
165 119 120
165 120 121
162 118 118
163 119 118
164 119 120
163 118 120
164 119 120
161 118 120
165 120 124
164 119 117
163 119 119
163 119 120
164 119 121
161 118 117
163 120 125
162 118 116
165 119 121
162 118 120
165 120 125
162 118 119
163 118 117
163 118 120
166 119 120
163 117 122
163 118 116
163 118 122
160 116 121
180 166 181
210 229 255
210 229 255
210 229 255
210 229 255
210 229 255
210 229 255
210 229 255
210 229 255
210 229 255
210 229 255
210 229 255
210 229 255
210 230 255
210 230 255
210 230 255
211 230 255
211 230 255
200 208 207
182 176 121
178 173 114
176 172 114
174 171 114
173 171 114
172 170 114
171 170 114
170 169 114
169 169 114
168 168 114
168 168 114
167 168 114
167 168 114
166 168 114
166 167 114
165 167 114
165 167 114
165 167 114
165 167 114
164 167 114
164 167 114
164 167 114
164 166 114
164 166 114
164 166 114
164 166 114
163 166 114
163 166 114
163 166 114
163 166 114
163 166 114
163 166 114
163 166 114
163 166 114
163 166 114
163 166 114
163 166 114
163 166 114
164 166 114
164 166 114
164 166 114
164 166 114
164 166 114
164 167 114
164 167 114
164 167 114
164 167 114
164 167 114
165 167 114
165 167 114
165 167 114
165 167 114
165 167 114
165 167 114
165 167 114
165 167 114
166 167 114
166 167 114
166 167 114
166 167 114
166 168 114
166 168 114
167 168 114
167 168 114
167 168 114
167 168 114
167 168 114
167 168 114
168 168 114
168 168 114
168 168 114
168 168 114
168 169 114
169 169 114
169 169 114
169 169 114
169 169 114
169 169 114
170 169 114
170 169 114
170 169 114
170 169 114
170 169 114
171 169 114
171 170 114
171 170 114
171 170 114
171 170 114
172 170 114
172 170 114
172 170 114
172 170 114
172 170 114
173 170 114
173 170 114
173 171 114
173 171 114
173 171 114
174 171 114
174 171 114
174 171 114
174 171 114
174 171 114
175 171 114
175 171 114
175 172 114
175 172 114
175 172 114
176 172 114
176 172 114
176 172 114
176 172 114
176 172 114
177 172 114
177 172 114
177 173 114
177 173 114
178 173 114
178 173 114
178 173 114
178 173 114
178 173 114
179 173 114
179 173 114
179 173 114
179 174 114
180 174 114
180 174 114
180 174 114
180 174 114
180 201 228
180 201 228
180 201 228
180 201 228
179 200 228
179 200 228
179 200 228
179 200 228
179 200 228
178 200 228
178 200 228
178 200 228
178 200 228
177 199 228
177 199 228
177 199 228
177 199 228
177 199 228
176 199 228
176 199 228
176 199 228
176 199 228
176 198 228
175 198 228
175 198 228
175 198 228
175 198 228
175 198 228
174 198 228
174 198 228
174 198 228
174 197 228
174 197 228
173 197 228
173 197 228
173 197 228
173 197 228
173 197 228
172 197 228
172 197 228
172 197 228
172 196 228
172 196 228
171 196 228
171 196 228
171 196 228
171 196 228
171 196 228
170 196 228
170 196 228
170 196 228
170 195 228
170 195 228
169 195 228
169 195 228
169 195 228
169 195 228
169 195 228
169 195 228
168 195 228
168 195 228
168 194 228
168 194 228
168 194 228
167 194 228
167 194 228
167 194 228
167 194 228
167 194 228
167 194 228
167 194 228
166 194 228
166 194 228
166 193 228
166 193 228
166 193 228
166 193 228
165 193 228
165 193 228
165 193 228
165 193 228
165 193 228
165 193 228
165 193 228
165 193 228
164 193 228
164 193 228
164 193 228
164 192 228
164 192 228
164 192 228
164 192 228
164 192 228
164 192 228
164 192 228
164 192 228
164 192 228
164 192 228
164 192 228
164 192 228
164 192 228
164 192 228
164 192 228
164 192 228
164 192 228
164 192 228
164 192 228
164 193 228
164 193 228
165 193 228
165 193 228
165 193 228
165 193 228
166 193 228
166 193 228
166 194 228
167 194 228
167 194 228
167 194 228
168 194 228
169 195 228
169 195 228
170 196 228
171 196 228
172 196 228
173 197 228
174 198 228
176 199 228
178 200 228
181 201 228
196 215 240
211 230 255
211 230 255
211 230 255
211 230 255
211 230 255
211 230 255
211 230 255
211 230 255
210 230 255
210 230 255
210 230 255
210 229 255
210 229 255
210 229 255
210 229 255
199 207 229
162 118 123
164 120 125
160 117 119
164 120 123
164 119 124
162 119 126
163 119 124
164 119 122
160 117 119
162 119 119
164 119 123
165 120 125
164 120 123
166 121 127
164 119 122
160 117 117
163 119 118
162 118 111
160 117 115
165 120 123
163 119 126
164 120 121
164 119 118
162 118 113
164 120 121
166 121 125
162 118 117
164 120 123
167 121 126
165 120 122
165 120 124
162 118 117
164 120 123
163 119 122
161 118 117
164 119 124
162 118 119
163 119 117
164 119 124
165 120 125
167 121 127
165 120 124
164 118 120
165 120 119
162 118 118
164 120 123
164 119 125
161 118 111
166 120 123
161 118 114
161 117 111
163 119 117
163 119 116
167 121 124
160 117 107
164 119 120
166 121 127
162 119 118
161 118 113
163 119 122
165 120 119
165 120 123
165 120 126
162 118 114
160 116 113
165 119 119
162 118 116
164 120 122
162 118 117
163 119 118
163 119 119
162 119 118
163 119 117
165 120 118
162 118 116
165 120 124
167 121 124
165 119 118
163 118 113
164 120 121
163 118 121
164 119 121
163 119 120
164 119 118
164 119 119
163 119 119
163 119 118
162 117 117
167 121 125
165 120 126
162 118 117
164 119 121
164 120 124
164 119 118
164 119 123
164 119 118
164 119 119
165 120 124
163 118 123
164 119 123
162 117 121
164 118 122
163 117 119
165 120 128
160 117 122
199 207 229
210 229 255
210 229 255
210 229 255
210 229 255
210 230 255
210 230 255
210 230 255
211 230 255
211 230 255
211 230 255
211 230 255
211 230 255
211 230 255
211 230 255
211 230 255
195 199 184
181 174 114
178 173 114
176 172 114
174 171 114
173 171 114
172 170 114
171 170 114
170 169 114
169 169 114
169 169 114
168 168 114
167 168 114
167 168 114
167 168 114
166 168 114
166 167 114
166 167 114
165 167 114
165 167 114
165 167 114
165 167 114
164 167 114
164 167 114
164 167 114
164 167 114
164 167 114
164 167 114
164 166 114
164 166 114
164 166 114
164 166 114
164 166 114
164 166 114
164 166 114
164 166 114
164 166 114
164 166 114
164 167 114
164 167 114
164 167 114
164 167 114
164 167 114
164 167 114
164 167 114
165 167 114
165 167 114
165 167 114
165 167 114
165 167 114
165 167 114
165 167 114
165 167 114
166 167 114
166 167 114
166 167 114
166 167 114
166 167 114
166 168 114
166 168 114
167 168 114
167 168 114
167 168 114
167 168 114
167 168 114
167 168 114
168 168 114
168 168 114
168 168 114
168 168 114
168 168 114
168 169 114
169 169 114
169 169 114
169 169 114
169 169 114
169 169 114
170 169 114
170 169 114
170 169 114
170 169 114
170 169 114
170 169 114
171 170 114
171 170 114
171 170 114
171 170 114
171 170 114
172 170 114
172 170 114
172 170 114
172 170 114
172 170 114
173 170 114
173 170 114
173 171 114
173 171 114
173 171 114
174 171 114
174 171 114
174 171 114
174 171 114
174 171 114
175 171 114
175 171 114
175 172 114
175 172 114
175 172 114
176 172 114
176 172 114
176 172 114
176 172 114
176 172 114
177 172 114
177 172 114
177 172 114
177 173 114
178 173 114
178 173 114
178 173 114
178 173 114
178 173 114
179 173 114
179 173 114
179 173 114
179 173 114
179 174 114
180 174 114
180 174 114
180 174 114
180 174 114
181 174 114
181 201 228
180 201 228
180 201 228
180 201 228
180 201 228
180 201 228
179 200 228
179 200 228
179 200 228
179 200 228
178 200 228
178 200 228
178 200 228
178 200 228
178 200 228
177 199 228
177 199 228
177 199 228
177 199 228
177 199 228
176 199 228
176 199 228
176 199 228
176 199 228
176 198 228
175 198 228
175 198 228
175 198 228
175 198 228
175 198 228
174 198 228
174 198 228
174 198 228
174 198 228
174 197 228
173 197 228
173 197 228
173 197 228
173 197 228
173 197 228
173 197 228
172 197 228
172 197 228
172 197 228
172 196 228
172 196 228
171 196 228
171 196 228
171 196 228
171 196 228
171 196 228
170 196 228
170 196 228
170 196 228
170 195 228
170 195 228
169 195 228
169 195 228
169 195 228
169 195 228
169 195 228
169 195 228
168 195 228
168 195 228
168 194 228
168 194 228
168 194 228
168 194 228
167 194 228
167 194 228
167 194 228
167 194 228
167 194 228
167 194 228
167 194 228
166 194 228
166 194 228
166 193 228
166 193 228
166 193 228
166 193 228
166 193 228
165 193 228
165 193 228
165 193 228
165 193 228
165 193 228
165 193 228
165 193 228
165 193 228
165 193 228
165 193 228
164 193 228
164 193 228
164 193 228
164 193 228
164 193 228
164 193 228
164 193 228
164 193 228
164 193 228
164 193 228
164 193 228
164 193 228
164 193 228
164 193 228
165 193 228
165 193 228
165 193 228
165 193 228
165 193 228
165 193 228
165 193 228
166 193 228
166 193 228
166 194 228
167 194 228
167 194 228
167 194 228
168 194 228
168 195 228
169 195 228
170 195 228
170 196 228
171 196 228
172 197 228
173 197 228
175 198 228
176 199 228
178 200 228
181 201 228
195 214 239
211 230 255
211 230 255
211 230 255
211 230 255
211 230 255
211 230 255
211 230 255
211 230 255
211 230 255
211 230 255
211 230 255
211 230 255
211 230 255
207 222 247
169 138 148
163 119 128
163 119 121
163 119 124
161 118 119
163 118 121
164 119 121
163 119 123
165 120 123
163 118 119
164 119 122
167 120 127
162 118 118
165 120 124
162 118 119
163 119 119
165 120 124
161 118 112
162 119 118
165 120 125
165 120 121
165 119 122
164 120 126
162 119 117
162 118 117
163 119 123
163 119 120
159 117 110
163 118 114
164 119 123
163 118 115
165 119 120
165 119 120
161 118 114
165 120 123
161 117 113
165 120 123
167 121 128
164 119 118
165 119 117
163 119 118
163 119 118
164 120 122
163 119 117
164 119 125
163 119 122
159 117 114
163 119 120
165 120 124
163 119 118
163 119 121
164 119 116
163 119 118
165 120 123
162 118 112
165 120 122
164 120 120
160 117 113
162 118 114
163 119 117
163 119 120
164 119 122
165 120 123
164 119 118
165 120 123
161 118 113
165 120 123
162 118 116
165 121 127
164 119 120
162 118 118
163 119 121
163 119 121
161 117 111
164 119 119
161 118 115
164 120 120
162 118 115
165 120 124
166 120 126
161 118 117
163 118 117
163 118 119
163 119 120
161 118 120
164 119 122
164 119 124
163 119 119
162 118 117
164 119 118
161 118 116
164 119 120
163 119 123
163 119 116
163 118 121
164 119 119
164 119 122
162 117 117
163 118 116
165 119 123
162 118 119
160 116 115
163 118 124
163 118 121
162 117 120
162 117 119
168 135 144
208 225 250
211 230 255
211 230 255
211 230 255
211 230 255
211 230 255
211 230 255
211 230 255
211 230 255
211 230 255
211 230 255
211 230 255
211 230 255
211 230 255
197 202 191
181 174 114
178 173 114
176 172 114
175 171 114
173 171 114
172 170 114
171 170 114
170 169 114
170 169 114
169 169 114
168 169 114
168 168 114
167 168 114
167 168 114
167 168 114
166 168 114
166 167 114
166 167 114
165 167 114
165 167 114
165 167 114
165 167 114
165 167 114
165 167 114
165 167 114
164 167 114
164 167 114
164 167 114
164 167 114
164 167 114
164 167 114
164 167 114
164 167 114
164 167 114
164 167 114
164 167 114
164 167 114
164 167 114
164 167 114
165 167 114
165 167 114
165 167 114
165 167 114
165 167 114
165 167 114
165 167 114
165 167 114
165 167 114
165 167 114
166 167 114
166 167 114
166 167 114
166 167 114
166 167 114
166 168 114
166 168 114
167 168 114
167 168 114
167 168 114
167 168 114
167 168 114
167 168 114
167 168 114
168 168 114
168 168 114
168 168 114
168 168 114
168 168 114
168 169 114
169 169 114
169 169 114
169 169 114
169 169 114
169 169 114
170 169 114
170 169 114
170 169 114
170 169 114
170 169 114
170 169 114
171 170 114
171 170 114
171 170 114
171 170 114
171 170 114
172 170 114
172 170 114
172 170 114
172 170 114
172 170 114
172 170 114
173 170 114
173 171 114
173 171 114
173 171 114
173 171 114
174 171 114
174 171 114
174 171 114
174 171 114
174 171 114
175 171 114
175 171 114
175 172 114
175 172 114
175 172 114
176 172 114
176 172 114
176 172 114
176 172 114
176 172 114
177 172 114
177 172 114
177 172 114
177 173 114
177 173 114
178 173 114
178 173 114
178 173 114
178 173 114
178 173 114
179 173 114
179 173 114
179 173 114
179 174 114
180 174 114
180 174 114
180 174 114
180 174 114
180 174 114
181 174 114
181 174 114
181 201 228
181 201 228
180 201 228
180 201 228
180 201 228
180 201 228
180 201 228
179 200 228
179 200 228
179 200 228
179 200 228
179 200 228
178 200 228
178 200 228
178 200 228
178 200 228
178 200 228
177 199 228
177 199 228
177 199 228
177 199 228
177 199 228
176 199 228
176 199 228
176 199 228
176 199 228
176 198 228
175 198 228
175 198 228
175 198 228
175 198 228
175 198 228
175 198 228
174 198 228
174 198 228
174 198 228
174 197 228
174 197 228
173 197 228
173 197 228
173 197 228
173 197 228
173 197 228
172 197 228
172 197 228
172 197 228
172 196 228
172 196 228
172 196 228
171 196 228
171 196 228
171 196 228
171 196 228
171 196 228
170 196 228
170 196 228
170 196 228
170 195 228
170 195 228
170 195 228
169 195 228
169 195 228
169 195 228
169 195 228
169 195 228
169 195 228
168 195 228
168 195 228
168 194 228
168 194 228
168 194 228
168 194 228
167 194 228
167 194 228
167 194 228
167 194 228
167 194 228
167 194 228
167 194 228
166 194 228
166 194 228
166 194 228
166 193 228
166 193 228
166 193 228
166 193 228
166 193 228
165 193 228
165 193 228
165 193 228
165 193 228
165 193 228
165 193 228
165 193 228
165 193 228
165 193 228
165 193 228
165 193 228
165 193 228
165 193 228
165 193 228
165 193 228
165 193 228
165 193 228
165 193 228
165 193 228
165 193 228
165 193 228
165 193 228
165 193 228
165 193 228
166 193 228
166 193 228
166 193 228
166 194 228
167 194 228
167 194 228
167 194 228
168 194 228
168 194 228
168 195 228
169 195 228
169 195 228
170 196 228
171 196 228
172 196 228
173 197 228
174 197 228
175 198 228
177 199 228
178 200 228
181 201 228
196 215 240
211 230 255
211 230 255
211 230 255
211 230 255
211 230 255
211 230 255
211 230 255
211 230 255
211 230 255
211 230 255
211 230 255
211 230 255
179 163 177
158 115 112
164 120 127
164 120 126
165 120 128
165 120 123
162 119 126
163 119 123
164 119 124
164 120 126
162 118 122
162 118 120
162 118 118
160 117 118
162 118 118
165 120 123
162 119 121
163 119 120
163 119 124
163 119 124
163 119 122
160 117 114
162 118 120
162 118 116
162 118 118
162 118 115
162 118 116
164 120 122
161 117 116
164 120 121
163 118 118
162 118 113
163 119 123
163 118 120
164 119 118
164 120 122
165 120 120
167 121 126
163 119 122
163 118 118
165 120 123
160 117 115
165 120 122
162 119 118
163 119 121
164 120 122
162 118 118
166 120 126
163 119 119
164 119 117
163 119 117
163 119 117
163 119 118
162 119 117
162 118 116
164 119 118
162 118 118
164 119 120
163 119 120
163 119 118
162 118 117
163 119 121
161 117 114
162 118 114
161 117 116
163 119 120
164 120 120
166 120 123
164 120 121
162 118 118
165 120 123
166 121 124
164 120 124
162 118 116
162 118 115
159 117 115
163 119 118
167 120 123
163 119 120
164 120 121
161 117 116
162 118 118
164 119 121
163 119 123
163 118 118
166 120 122
165 120 123
164 120 124
164 119 119
165 119 123
162 118 114
164 119 119
162 119 122
163 119 123
159 116 112
160 117 116
165 118 118
163 118 125
161 117 116
162 118 121
164 119 122
163 119 125
161 117 119
163 118 120
165 119 121
163 118 120
162 117 120
163 117 122
185 177 193
211 230 255
211 230 255
211 230 255
211 230 255
211 230 255
211 230 255
211 230 255
211 230 255
211 230 255
211 230 255
211 230 255
211 230 255
196 200 186
181 174 114
179 173 114
176 172 114
175 172 114
174 171 114
173 170 114
172 170 114
171 170 114
170 169 114
169 169 114
169 169 114
168 169 114
168 168 114
167 168 114
167 168 114
167 168 114
167 168 114
166 168 114
166 167 114
166 167 114
166 167 114
165 167 114
165 167 114
165 167 114
165 167 114
165 167 114
165 167 114
165 167 114
165 167 114
165 167 114
165 167 114
165 167 114
165 167 114
165 167 114
165 167 114
165 167 114
165 167 114
165 167 114
165 167 114
165 167 114
165 167 114
165 167 114
165 167 114
165 167 114
165 167 114
166 167 114
166 167 114
166 167 114
166 167 114
166 167 114
166 168 114
166 168 114
166 168 114
167 168 114
167 168 114
167 168 114
167 168 114
167 168 114
167 168 114
167 168 114
168 168 114
168 168 114
168 168 114
168 168 114
168 168 114
168 168 114
169 169 114
169 169 114
169 169 114
169 169 114
169 169 114
169 169 114
170 169 114
170 169 114
170 169 114
170 169 114
170 169 114
170 169 114
171 170 114
171 170 114
171 170 114
171 170 114
171 170 114
172 170 114
172 170 114
172 170 114
172 170 114
172 170 114
172 170 114
173 170 114
173 171 114
173 171 114
173 171 114
173 171 114
174 171 114
174 171 114
174 171 114
174 171 114
174 171 114
175 171 114
175 171 114
175 171 114
175 172 114
175 172 114
175 172 114
176 172 114
176 172 114
176 172 114
176 172 114
176 172 114
177 172 114
177 172 114
177 172 114
177 173 114
177 173 114
178 173 114
178 173 114
178 173 114
178 173 114
178 173 114
179 173 114
179 173 114
179 173 114
179 173 114
179 174 114
180 174 114
180 174 114
180 174 114
180 174 114
180 174 114
181 174 114
181 174 114
181 174 114
181 201 228
181 201 228
181 201 228
181 201 228
180 201 228
180 201 228
180 201 228
180 201 228
180 201 228
179 200 228
179 200 228
179 200 228
179 200 228
179 200 228
178 200 228
178 200 228
178 200 228
178 200 228
178 200 228
177 199 228
177 199 228
177 199 228
177 199 228
177 199 228
177 199 228
176 199 228
176 199 228
176 199 228
176 199 228
176 198 228
175 198 228
175 198 228
175 198 228
175 198 228
175 198 228
174 198 228
174 198 228
174 198 228
174 198 228
174 197 228
174 197 228
173 197 228
173 197 228
173 197 228
173 197 228
173 197 228
172 197 228
172 197 228
172 197 228
172 196 228
172 196 228
172 196 228
171 196 228
171 196 228
171 196 228
171 196 228
171 196 228
171 196 228
170 196 228
170 196 228
170 196 228
170 195 228
170 195 228
170 195 228
169 195 228
169 195 228
169 195 228
169 195 228
169 195 228
169 195 228
168 195 228
168 195 228
168 194 228
168 194 228
168 194 228
168 194 228
167 194 228
167 194 228
167 194 228
167 194 228
167 194 228
167 194 228
167 194 228
167 194 228
166 194 228
166 194 228
166 194 228
166 193 228
166 193 228
166 193 228
166 193 228
166 193 228
166 193 228
166 193 228
166 193 228
166 193 228
165 193 228
165 193 228
165 193 228
165 193 228
165 193 228
165 193 228
165 193 228
165 193 228
165 193 228
165 193 228
166 193 228
166 193 228
166 193 228
166 193 228
166 193 228
166 193 228
166 194 228
166 194 228
167 194 228
167 194 228
167 194 228
167 194 228
168 194 228
168 194 228
168 195 228
169 195 228
169 195 228
170 195 228
171 196 228
171 196 228
172 197 228
173 197 228
174 198 228
175 198 228
177 199 228
179 200 228
181 202 228
198 217 242
211 230 255
211 230 255
211 230 255
211 230 255
211 230 255
211 230 255
211 230 255
211 230 255
211 230 255
211 230 255
197 203 224
161 118 124
163 119 122
162 118 122
162 118 120
163 118 118
161 118 117
162 118 119
162 118 117
162 118 119
160 117 111
165 119 124
161 118 114
162 118 119
162 118 113
163 119 124
161 118 119
164 120 122
161 118 117
162 118 117
161 118 119
163 119 117
161 118 118
163 118 117
162 119 118
165 120 122
162 118 115
162 118 116
164 119 115
165 120 118
166 121 124
166 120 124
166 120 126
164 120 119
162 118 115
161 118 116
161 118 116
163 119 119
165 119 118
165 120 121
165 120 120
163 118 116
164 119 123
160 118 118
163 119 118
164 120 120
163 119 120
165 120 123
166 120 123
163 118 115
164 120 118
161 118 118
166 120 121
162 118 117
167 121 122
163 119 116
162 117 112
164 119 117
161 117 113
163 119 119
162 118 110
163 118 117
165 120 122
161 118 117
164 120 123
164 119 121
165 120 119
164 119 122
165 120 120
164 119 118
160 117 112
162 119 119
162 119 118
166 120 124
162 119 117
161 117 115
162 118 118
165 119 122
164 119 118
164 119 122
161 118 117
164 119 116
166 120 123
160 117 113
163 118 114
163 119 122
165 119 121
164 120 121
162 118 110
163 119 120
164 119 121
166 120 121
163 118 120
165 119 121
164 119 122
164 119 120
164 119 118
165 119 120
162 118 118
162 118 116
162 118 122
165 119 123
163 119 122
163 118 122
164 118 117
165 119 121
164 118 118
163 118 123
164 119 124
161 116 119
200 208 229
211 230 255
211 230 255
211 230 255
211 230 255
211 230 255
211 230 255
211 230 255
211 230 255
211 230 255
211 229 253
198 203 192
182 175 114
179 173 114
177 172 114
175 172 114
174 171 114
173 171 114
172 170 114
171 170 114
171 170 114
170 169 114
169 169 114
169 169 114
168 169 114
168 168 114
168 168 114
167 168 114
167 168 114
167 168 114
167 168 114
166 168 114
166 168 114
166 167 114
166 167 114
166 167 114
166 167 114
166 167 114
165 167 114
165 167 114
165 167 114
165 167 114
165 167 114
165 167 114
165 167 114
165 167 114
165 167 114
165 167 114
165 167 114
166 167 114
166 167 114
166 167 114
166 167 114
166 167 114
166 167 114
166 167 114
166 167 114
166 168 114
166 168 114
166 168 114
166 168 114
167 168 114
167 168 114
167 168 114
167 168 114
167 168 114
167 168 114
167 168 114
167 168 114
168 168 114
168 168 114
168 168 114
168 168 114
168 168 114
168 169 114
169 169 114
169 169 114
169 169 114
169 169 114
169 169 114
169 169 114
170 169 114
170 169 114
170 169 114
170 169 114
170 169 114
170 169 114
171 169 114
171 170 114
171 170 114
171 170 114
171 170 114
171 170 114
172 170 114
172 170 114
172 170 114
172 170 114
172 170 114
172 170 114
173 170 114
173 171 114
173 171 114
173 171 114
173 171 114
174 171 114
174 171 114
174 171 114
174 171 114
174 171 114
174 171 114
175 171 114
175 171 114
175 172 114
175 172 114
175 172 114
176 172 114
176 172 114
176 172 114
176 172 114
176 172 114
177 172 114
177 172 114
177 172 114
177 172 114
177 173 114
177 173 114
178 173 114
178 173 114
178 173 114
178 173 114
178 173 114
179 173 114
179 173 114
179 173 114
179 173 114
179 174 114
180 174 114
180 174 114
180 174 114
180 174 114
180 174 114
181 174 114
181 174 114
181 174 114
181 174 114
181 174 114
182 202 228
181 202 228
181 201 228
181 201 228
181 201 228
181 201 228
180 201 228
180 201 228
180 201 228
180 201 228
180 201 228
179 200 228
179 200 228
179 200 228
179 200 228
179 200 228
178 200 228
178 200 228
178 200 228
178 200 228
178 200 228
178 199 228
177 199 228
177 199 228
177 199 228
177 199 228
177 199 228
176 199 228
176 199 228
176 199 228
176 199 228
176 199 228
176 198 228
175 198 228
175 198 228
175 198 228
175 198 228
175 198 228
174 198 228
174 198 228
174 198 228
174 198 228
174 197 228
174 197 228
173 197 228
173 197 228
173 197 228
173 197 228
173 197 228
173 197 228
172 197 228
172 197 228
172 197 228
172 196 228
172 196 228
171 196 228
171 196 228
171 196 228
171 196 228
171 196 228
171 196 228
171 196 228
170 196 228
170 196 228
170 195 228
170 195 228
170 195 228
169 195 228
169 195 228
169 195 228
169 195 228
169 195 228
169 195 228
169 195 228
168 195 228
168 195 228
168 195 228
168 194 228
168 194 228
168 194 228
168 194 228
167 194 228
167 194 228
167 194 228
167 194 228
167 194 228
167 194 228
167 194 228
167 194 228
167 194 228
167 194 228
166 194 228
166 194 228
166 194 228
166 194 228
166 194 228
166 193 228
166 193 228
166 193 228
166 193 228
166 193 228
166 193 228
166 193 228
166 193 228
166 193 228
166 193 228
166 193 228
166 193 228
166 193 228
166 194 228
166 194 228
166 194 228
167 194 228
167 194 228
167 194 228
167 194 228
167 194 228
168 194 228
168 194 228
168 195 228
169 195 228
169 195 228
169 195 228
170 195 228
171 196 228
171 196 228
172 196 228
173 197 228
174 197 228
175 198 228
176 199 228
177 199 228
179 200 228
182 202 228
198 217 242
212 230 255
212 230 255
212 230 255
212 230 255
212 230 255
212 230 255
212 230 255
211 230 255
210 228 252
169 134 144
160 117 120
161 118 122
163 119 124
165 120 128
160 117 115
162 118 118
161 117 115
165 119 121
166 120 125
164 119 124
161 118 122
164 119 122
160 117 115
160 117 113
165 119 117
165 120 122
163 119 122
163 119 121
162 118 112
160 117 115
162 118 116
162 118 116
161 117 111
161 118 117
167 121 124
163 119 122
161 118 117
162 119 117
159 116 113
165 120 123
162 119 116
165 120 120
164 119 119
163 118 113
164 120 120
163 119 123
165 120 123
165 120 126
163 118 116
164 119 118
163 119 118
164 119 119
162 118 121
163 118 113
166 120 124
163 119 118
165 120 121
164 119 122
164 120 119
164 120 124
164 120 122
163 119 119
161 118 114
164 120 126
161 118 115
165 119 117
163 118 113
162 118 115
161 118 118
163 119 119
163 118 116
160 117 115
162 118 114
164 119 123
165 120 120
166 120 125
166 120 126
163 119 113
164 119 119
161 118 113
165 119 119
164 120 126
163 119 121
165 120 120
164 119 120
166 120 123
164 119 116
164 119 120
165 120 119
162 117 108
164 119 123
163 118 115
161 118 114
163 118 116
166 121 123
163 118 115
165 120 120
164 119 121
163 118 120
162 117 113
164 119 120
165 120 123
164 119 121
162 118 118
166 120 124
165 119 118
162 117 113
163 118 116
164 119 122
163 118 120
159 115 113
165 119 123
164 119 123
164 119 119
161 116 114
163 118 121
160 116 114
164 118 123
163 118 121
167 139 142
207 221 245
211 230 255
212 230 255
212 230 255
212 230 255
212 230 255
212 230 255
212 230 255
212 230 255
200 208 204
182 175 114
179 174 114
178 173 114
176 172 114
175 171 114
174 171 114
173 170 114
172 170 114
171 170 114
171 169 114
170 169 114
169 169 114
169 169 114
169 169 114
168 168 114
168 168 114
168 168 114
167 168 114
167 168 114
167 168 114
167 168 114
167 168 114
166 168 114
166 168 114
166 168 114
166 168 114
166 168 114
166 167 114
166 167 114
166 167 114
166 167 114
166 167 114
166 167 114
166 167 114
166 167 114
166 167 114
166 167 114
166 167 114
166 168 114
166 168 114
166 168 114
166 168 114
166 168 114
167 168 114
167 168 114
167 168 114
167 168 114
167 168 114
167 168 114
167 168 114
167 168 114
167 168 114
168 168 114
168 168 114
168 168 114
168 168 114
168 168 114
168 168 114
168 168 114
168 169 114
169 169 114
169 169 114
169 169 114
169 169 114
169 169 114
169 169 114
170 169 114
170 169 114
170 169 114
170 169 114
170 169 114
170 169 114
170 169 114
171 170 114
171 170 114
171 170 114
171 170 114
171 170 114
171 170 114
172 170 114
172 170 114
172 170 114
172 170 114
172 170 114
173 170 114
173 170 114
173 171 114
173 171 114
173 171 114
173 171 114
174 171 114
174 171 114
174 171 114
174 171 114
174 171 114
174 171 114
175 171 114
175 171 114
175 172 114
175 172 114
175 172 114
176 172 114
176 172 114
176 172 114
176 172 114
176 172 114
176 172 114
177 172 114
177 172 114
177 172 114
177 173 114
177 173 114
178 173 114
178 173 114
178 173 114
178 173 114
178 173 114
178 173 114
179 173 114
179 173 114
179 173 114
179 173 114
179 174 114
180 174 114
180 174 114
180 174 114
180 174 114
180 174 114
181 174 114
181 174 114
181 174 114
181 174 114
181 174 114
182 175 114
182 175 114
182 202 228
182 202 228
181 202 228
181 201 228
181 201 228
181 201 228
181 201 228
181 201 228
180 201 228
180 201 228
180 201 228
180 201 228
180 201 228
179 201 228
179 200 228
179 200 228
179 200 228
179 200 228
179 200 228
178 200 228
178 200 228
178 200 228
178 200 228
178 200 228
177 199 228
177 199 228
177 199 228
177 199 228
177 199 228
177 199 228
176 199 228
176 199 228
176 199 228
176 199 228
176 199 228
176 198 228
175 198 228
175 198 228
175 198 228
175 198 228
175 198 228
175 198 228
174 198 228
174 198 228
174 198 228
174 198 228
174 197 228
173 197 228
173 197 228
173 197 228
173 197 228
173 197 228
173 197 228
172 197 228
172 197 228
172 197 228
172 197 228
172 196 228
172 196 228
171 196 228
171 196 228
171 196 228
171 196 228
171 196 228
171 196 228
171 196 228
170 196 228
170 196 228
170 196 228
170 195 228
170 195 228
170 195 228
169 195 228
169 195 228
169 195 228
169 195 228
169 195 228
169 195 228
169 195 228
168 195 228
168 195 228
168 195 228
168 194 228
168 194 228
168 194 228
168 194 228
168 194 228
168 194 228
167 194 228
167 194 228
167 194 228
167 194 228
167 194 228
167 194 228
167 194 228
167 194 228
167 194 228
167 194 228
167 194 228
167 194 228
167 194 228
167 194 228
167 194 228
167 194 228
167 194 228
167 194 228
167 194 228
167 194 228
167 194 228
167 194 228
167 194 228
167 194 228
167 194 228
167 194 228
167 194 228
168 194 228
168 194 228
168 194 228
168 195 228
169 195 228
169 195 228
169 195 228
170 195 228
170 196 228
171 196 228
171 196 228
172 196 228
172 197 228
173 197 228
174 198 228
175 198 228
176 199 228
178 200 228
180 201 228
183 202 228
201 220 245
212 230 255
212 230 255
212 230 255
212 230 255
212 230 255
212 230 255
212 230 255
192 191 211
162 118 123
162 118 117
160 117 118
159 116 118
162 118 122
161 118 116
163 119 122
160 117 119
163 119 119
163 119 121
165 120 125
163 118 120
164 119 124
164 119 124
164 120 120
160 117 112
165 120 117
163 119 121
164 119 119
165 120 122
162 118 118
164 119 118
167 121 126
160 117 116
164 119 118
163 119 119
162 118 117
165 119 120
164 120 124
162 118 118
164 119 119
164 119 120
165 120 123
164 119 120
164 119 121
164 120 122
164 119 121
162 119 116
162 118 117
163 119 116
161 117 113
162 118 115
164 119 119
163 118 118
166 120 124
164 120 123
161 117 112
161 118 117
164 119 117
164 120 121
163 119 121
162 119 120
164 118 119
164 119 118
162 118 115
162 117 113
167 121 121
162 118 115
165 120 123
163 118 116
167 121 126
162 118 118
164 120 119
162 118 113
166 120 126
163 119 118
161 117 108
164 120 121
162 118 113
162 119 117
167 120 125
161 117 110
163 119 117
166 120 121
164 119 116
165 120 125
162 118 115
160 117 111
162 117 109
162 119 116
164 119 119
161 118 114
165 120 123
165 119 124
162 118 118
164 120 124
163 118 117
164 119 120
163 118 116
165 119 123
165 120 119
167 120 122
163 119 117
160 117 111
163 118 116
165 119 120
163 118 119
163 118 118
163 119 120
161 116 116
161 118 116
165 119 123
162 118 119
163 119 121
165 119 123
162 117 123
162 117 120
162 117 117
163 118 117
161 116 119
164 118 124
188 182 195
212 230 255
212 230 255
212 230 255
212 230 255
212 230 255
212 230 255
212 230 255
201 208 206
183 175 114
180 174 114
178 173 114
176 172 114
175 172 114
174 171 114
173 171 114
172 170 114
172 170 114
171 170 114
171 170 114
170 169 114
170 169 114
169 169 114
169 169 114
169 169 114
168 168 114
168 168 114
168 168 114
168 168 114
167 168 114
167 168 114
167 168 114
167 168 114
167 168 114
167 168 114
167 168 114
167 168 114
167 168 114
167 168 114
167 168 114
167 168 114
167 168 114
167 168 114
167 168 114
167 168 114
167 168 114
167 168 114
167 168 114
167 168 114
167 168 114
167 168 114
167 168 114
167 168 114
167 168 114
167 168 114
167 168 114
168 168 114
168 168 114
168 168 114
168 168 114
168 168 114
168 168 114
168 168 114
168 168 114
168 169 114
169 169 114
169 169 114
169 169 114
169 169 114
169 169 114
169 169 114
169 169 114
170 169 114
170 169 114
170 169 114
170 169 114
170 169 114
170 169 114
171 169 114
171 170 114
171 170 114
171 170 114
171 170 114
171 170 114
171 170 114
172 170 114
172 170 114
172 170 114
172 170 114
172 170 114
172 170 114
173 170 114
173 171 114
173 171 114
173 171 114
173 171 114
173 171 114
174 171 114
174 171 114
174 171 114
174 171 114
174 171 114
175 171 114
175 171 114
175 171 114
175 172 114
175 172 114
175 172 114
176 172 114
176 172 114
176 172 114
176 172 114
176 172 114
176 172 114
177 172 114
177 172 114
177 172 114
177 172 114
177 173 114
177 173 114
178 173 114
178 173 114
178 173 114
178 173 114
178 173 114
179 173 114
179 173 114
179 173 114
179 173 114
179 173 114
179 174 114
180 174 114
180 174 114
180 174 114
180 174 114
180 174 114
181 174 114
181 174 114
181 174 114
181 174 114
181 174 114
182 175 114
182 175 114
182 175 114
182 175 114
182 202 228
182 202 228
182 202 228
182 202 228
181 202 228
181 201 228
181 201 228
181 201 228
181 201 228
181 201 228
180 201 228
180 201 228
180 201 228
180 201 228
180 201 228
180 201 228
179 200 228
179 200 228
179 200 228
179 200 228
179 200 228
179 200 228
178 200 228
178 200 228
178 200 228
178 200 228
178 200 228
177 199 228
177 199 228
177 199 228
177 199 228
177 199 228
177 199 228
176 199 228
176 199 228
176 199 228
176 199 228
176 199 228
176 198 228
175 198 228
175 198 228
175 198 228
175 198 228
175 198 228
175 198 228
174 198 228
174 198 228
174 198 228
174 198 228
174 197 228
174 197 228
173 197 228
173 197 228
173 197 228
173 197 228
173 197 228
173 197 228
172 197 228
172 197 228
172 197 228
172 197 228
172 196 228
172 196 228
172 196 228
171 196 228
171 196 228
171 196 228
171 196 228
171 196 228
171 196 228
170 196 228
170 196 228
170 196 228
170 196 228
170 195 228
170 195 228
170 195 228
170 195 228
169 195 228
169 195 228
169 195 228
169 195 228
169 195 228
169 195 228
169 195 228
168 195 228
168 195 228
168 195 228
168 195 228
168 194 228
168 194 228
168 194 228
168 194 228
168 194 228
168 194 228
168 194 228
168 194 228
167 194 228
167 194 228
167 194 228
167 194 228
167 194 228
167 194 228
167 194 228
167 194 228
167 194 228
167 194 228
167 194 228
167 194 228
167 194 228
168 194 228
168 194 228
168 194 228
168 194 228
168 194 228
168 195 228
168 195 228
168 195 228
169 195 228
169 195 228
169 195 228
170 195 228
170 195 228
170 196 228
171 196 228
171 196 228
172 196 228
172 197 228
173 197 228
174 198 228
175 198 228
176 199 228
177 199 228
179 200 228
181 201 228
184 203 229
208 226 251
212 230 255
212 230 255
212 230 255
212 230 255
212 230 255
205 217 240
163 125 133
158 116 114
162 118 124
161 117 116
165 120 126
162 118 123
162 118 119
164 120 124
161 117 118
162 118 122
162 118 117
162 118 118
161 117 115
161 117 118
164 120 124
162 118 118
162 118 116
163 119 121
161 117 110
164 119 116
163 119 115
161 118 114
162 118 114
165 119 121
162 118 115
162 118 114
162 118 119
163 119 116
162 118 116
164 119 119
164 119 117
164 118 113
165 120 124
164 119 118
163 119 119
164 119 119
163 119 120
162 118 117
164 119 119
161 117 108
164 118 117
163 119 117
163 119 118
165 119 121
160 117 110
161 118 114
160 117 115
160 117 111
162 118 117
167 121 124
163 118 113
162 118 115
164 119 118
163 119 115
163 119 120
164 119 117
167 121 123
162 119 118
163 119 119
161 117 114
165 120 118
161 118 113
162 118 115
163 119 116
162 119 120
164 119 118
163 119 114
161 117 116
164 119 118
162 118 123
163 119 117
163 119 119
164 119 121
160 117 112
163 119 123
163 119 117
164 119 118
164 120 123
165 120 124
163 119 119
163 118 115
164 119 118
165 119 120
163 118 118
163 118 112
164 119 119
164 119 118
163 118 119
163 118 118
162 118 118
163 119 121
164 119 118
164 119 116
164 118 121
162 119 123
166 120 120
160 117 112
164 119 119
164 119 117
160 116 108
161 117 114
162 117 116
166 120 122
162 117 114
162 117 120
162 117 118
164 118 120
165 120 128
162 117 118
163 118 119
164 119 121
162 118 123
164 126 130
204 216 239
212 230 255
212 230 255
212 230 255
212 230 255
212 230 255
203 213 216
184 176 114
181 174 114
179 173 114
177 172 114
176 172 114
175 171 114
174 171 114
173 171 114
172 170 114
172 170 114
171 170 114
171 170 114
170 169 114
170 169 114
170 169 114
169 169 114
169 169 114
169 169 114
169 169 114
168 168 114
168 168 114
168 168 114
168 168 114
168 168 114
168 168 114
168 168 114
167 168 114
167 168 114
167 168 114
167 168 114
167 168 114
167 168 114
167 168 114
167 168 114
167 168 114
167 168 114
167 168 114
167 168 114
167 168 114
168 168 114
168 168 114
168 168 114
168 168 114
168 168 114
168 168 114
168 168 114
168 168 114
168 168 114
168 168 114
168 169 114
168 169 114
169 169 114
169 169 114
169 169 114
169 169 114
169 169 114
169 169 114
169 169 114
169 169 114
170 169 114
170 169 114
170 169 114
170 169 114
170 169 114
170 169 114
170 169 114
171 170 114
171 170 114
171 170 114
171 170 114
171 170 114
171 170 114
172 170 114
172 170 114
172 170 114
172 170 114
172 170 114
172 170 114
172 170 114
173 170 114
173 171 114
173 171 114
173 171 114
173 171 114
173 171 114
174 171 114
174 171 114
174 171 114
174 171 114
174 171 114
174 171 114
175 171 114
175 171 114
175 171 114
175 172 114
175 172 114
175 172 114
176 172 114
176 172 114
176 172 114
176 172 114
176 172 114
176 172 114
177 172 114
177 172 114
177 172 114
177 173 114
177 173 114
177 173 114
178 173 114
178 173 114
178 173 114
178 173 114
178 173 114
178 173 114
179 173 114
179 173 114
179 173 114
179 173 114
179 174 114
180 174 114
180 174 114
180 174 114
180 174 114
180 174 114
180 174 114
181 174 114
181 174 114
181 174 114
181 174 114
181 174 114
182 175 114
182 175 114
182 175 114
182 175 114
182 175 114
182 175 114
183 202 228
182 202 228
182 202 228
182 202 228
182 202 228
182 202 228
182 202 228
181 202 228
181 201 228
181 201 228
181 201 228
181 201 228
181 201 228
180 201 228
180 201 228
180 201 228
180 201 228
180 201 228
180 201 228
179 200 228
179 200 228
179 200 228
179 200 228
179 200 228
179 200 228
178 200 228
178 200 228
178 200 228
178 200 228
178 200 228
178 199 228
177 199 228
177 199 228
177 199 228
177 199 228
177 199 228
177 199 228
176 199 228
176 199 228
176 199 228
176 199 228
176 199 228
176 198 228
175 198 228
175 198 228
175 198 228
175 198 228
175 198 228
175 198 228
174 198 228
174 198 228
174 198 228
174 198 228
174 197 228
174 197 228
173 197 228
173 197 228
173 197 228
173 197 228
173 197 228
173 197 228
173 197 228
172 197 228
172 197 228
172 197 228
172 197 228
172 196 228
172 196 228
171 196 228
171 196 228
171 196 228
171 196 228
171 196 228
171 196 228
171 196 228
170 196 228
170 196 228
170 196 228
170 196 228
170 195 228
170 195 228
170 195 228
170 195 228
169 195 228
169 195 228
169 195 228
169 195 228
169 195 228
169 195 228
169 195 228
169 195 228
169 195 228
169 195 228
168 195 228
168 195 228
168 195 228
168 195 228
168 195 228
168 195 228
168 195 228
168 194 228
168 194 228
168 194 228
168 194 228
168 194 228
168 194 228
168 194 228
168 194 228
168 194 228
168 195 228
168 195 228
168 195 228
168 195 228
168 195 228
169 195 228
169 195 228
169 195 228
169 195 228
169 195 228
169 195 228
170 195 228
170 195 228
170 196 228
171 196 228
171 196 228
171 196 228
172 196 228
173 197 228
173 197 228
174 197 228
175 198 228
175 198 228
177 199 228
178 200 228
179 200 228
181 202 228
186 205 230
207 225 250
212 231 255
212 231 255
212 231 255
212 231 255
178 164 176
162 118 125
161 118 117
161 116 119
161 118 120
161 118 116
163 119 123
161 117 115
162 118 118
162 119 122
163 118 117
163 119 120
162 118 116
164 119 123
165 120 122
165 120 126
161 118 119
162 118 117
163 118 116
163 119 118
165 120 121
165 120 124
163 119 118
162 118 118
164 119 122
161 118 114
163 118 118
163 119 117
163 118 118
163 118 117
164 119 122
164 119 114
162 118 117
163 119 117
161 118 115
162 118 118
164 119 121
164 119 118
163 118 114
165 119 117
161 118 112
162 118 118
165 120 119
166 120 122
165 119 118
165 120 121
162 118 112
159 117 111
164 119 118
165 120 119
163 118 120
162 119 116
164 120 123
162 117 112
164 119 118
165 119 118
165 120 118
163 119 118
162 118 111
165 120 118
163 119 113
162 117 115
162 118 115
162 118 116
161 118 120
163 118 117
164 119 119
164 119 123
164 119 117
165 119 116
162 118 115
164 119 118
162 118 112
164 119 118
162 118 109
162 119 119
162 118 111
162 118 118
163 118 118
163 118 113
164 119 116
163 119 119
161 118 113
161 117 111
163 118 118
162 117 113
165 120 126
161 117 113
164 119 120
163 118 115
163 118 111
162 118 112
161 117 114
165 119 125
162 118 119
165 120 125
165 120 121
163 118 121
162 117 117
163 119 119
161 117 115
164 119 123
161 116 109
162 117 122
164 119 116
167 119 121
162 118 120
163 117 117
162 117 121
164 118 120
163 117 118
159 114 111
163 118 124
160 115 115
182 164 177
212 231 255
212 231 255
212 231 255
212 231 255
208 221 234
187 182 133
181 174 114
179 174 114
178 173 114
177 172 114
176 172 114
175 171 114
174 171 114
173 171 114
173 170 114
172 170 114
171 170 114
171 170 114
171 170 114
170 169 114
170 169 114
170 169 114
169 169 114
169 169 114
169 169 114
169 169 114
169 169 114
169 169 114
168 169 114
168 168 114
168 168 114
168 168 114
168 168 114
168 168 114
168 168 114
168 168 114
168 168 114
168 168 114
168 168 114
168 168 114
168 168 114
168 168 114
168 168 114
168 168 114
168 168 114
168 168 114
168 168 114
168 169 114
168 169 114
169 169 114
169 169 114
169 169 114
169 169 114
169 169 114
169 169 114
169 169 114
169 169 114
169 169 114
169 169 114
170 169 114
170 169 114
170 169 114
170 169 114
170 169 114
170 169 114
170 169 114
171 169 114
171 170 114
171 170 114
171 170 114
171 170 114
171 170 114
171 170 114
171 170 114
172 170 114
172 170 114
172 170 114
172 170 114
172 170 114
172 170 114
173 170 114
173 170 114
173 171 114
173 171 114
173 171 114
173 171 114
174 171 114
174 171 114
174 171 114
174 171 114
174 171 114
174 171 114
174 171 114
175 171 114
175 171 114
175 171 114
175 172 114
175 172 114
175 172 114
176 172 114
176 172 114
176 172 114
176 172 114
176 172 114
176 172 114
177 172 114
177 172 114
177 172 114
177 172 114
177 173 114
177 173 114
178 173 114
178 173 114
178 173 114
178 173 114
178 173 114
178 173 114
179 173 114
179 173 114
179 173 114
179 173 114
179 173 114
179 174 114
179 174 114
180 174 114
180 174 114
180 174 114
180 174 114
180 174 114
180 174 114
181 174 114
181 174 114
181 174 114
181 174 114
181 174 114
182 175 114
182 175 114
182 175 114
182 175 114
182 175 114
182 175 114
183 175 114
183 175 114
183 202 228
183 202 228
183 202 228
182 202 228
182 202 228
182 202 228
182 202 228
182 202 228
182 202 228
181 202 228
181 201 228
181 201 228
181 201 228
181 201 228
181 201 228
181 201 228
180 201 228
180 201 228
180 201 228
180 201 228
180 201 228
180 201 228
179 200 228
179 200 228
179 200 228
179 200 228
179 200 228
179 200 228
178 200 228
178 200 228
178 200 228
178 200 228
178 200 228
178 200 228
177 199 228
177 199 228
177 199 228
177 199 228
177 199 228
177 199 228
177 199 228
176 199 228
176 199 228
176 199 228
176 199 228
176 199 228
176 198 228
175 198 228
175 198 228
175 198 228
175 198 228
175 198 228
175 198 228
174 198 228
174 198 228
174 198 228
174 198 228
174 198 228
174 197 228
174 197 228
173 197 228
173 197 228
173 197 228
173 197 228
173 197 228
173 197 228
173 197 228
172 197 228
172 197 228
172 197 228
172 197 228
172 196 228
172 196 228
172 196 228
171 196 228
171 196 228
171 196 228
171 196 228
171 196 228
171 196 228
171 196 228
171 196 228
170 196 228
170 196 228
170 196 228
170 196 228
170 195 228
170 195 228
170 195 228
170 195 228
170 195 228
169 195 228
169 195 228
169 195 228
169 195 228
169 195 228
169 195 228
169 195 228
169 195 228
169 195 228
169 195 228
169 195 228
169 195 228
169 195 228
169 195 228
169 195 228
169 195 228
169 195 228
169 195 228
169 195 228
169 195 228
169 195 228
169 195 228
169 195 228
169 195 228
169 195 228
169 195 228
170 195 228
170 195 228
170 195 228
170 196 228
170 196 228
171 196 228
171 196 228
171 196 228
172 196 228
172 197 228
173 197 228
173 197 228
174 198 228
175 198 228
175 198 228
176 199 228
177 199 228
179 200 228
180 201 228
182 202 228
189 208 232
212 230 254
213 231 255
213 231 255
205 217 239
157 116 114
163 119 124
162 118 121
160 117 118
163 119 122
163 118 120
164 119 119
162 118 114
165 120 124
165 120 121
163 118 118
164 119 120
159 116 114
162 118 117
162 118 116
163 118 116
164 119 118
162 118 120
163 119 117
164 119 118
163 119 115
162 118 110
162 118 114
164 120 121
165 120 122
163 119 120
160 117 111
164 119 119
160 116 113
161 117 117
163 119 113
164 119 117
165 119 122
164 119 118
161 117 113
162 117 113
163 118 116
166 120 120
164 119 114
164 119 116
163 118 116
164 118 115
162 118 118
163 119 113
164 119 120
162 118 115
161 117 116
163 118 114
162 118 113
161 117 108
162 118 113
161 118 113
165 120 123
163 118 114
162 117 116
165 120 122
162 119 116
163 119 115
163 119 116
163 119 122
163 119 120
163 118 115
164 119 118
163 118 113
163 119 114
162 118 115
162 118 114
164 119 114
165 119 121
165 120 122
168 121 127
163 119 119
161 117 109
161 117 113
163 118 118
165 119 119
164 119 119
161 118 109
160 117 111
164 120 122
163 118 113
164 119 117
163 119 119
164 120 122
165 119 122
163 119 119
162 118 114
164 119 122
164 120 126
162 117 112
164 119 115
162 117 114
160 116 110
159 115 108
163 118 120
162 117 112
160 116 110
162 118 117
161 117 114
162 117 115
159 115 104
163 118 117
164 119 121
161 118 116
162 116 115
163 117 112
163 118 115
163 118 117
160 115 108
162 117 117
162 117 113
161 116 111
162 117 114
164 118 123
161 116 117
205 216 238
213 231 255
213 231 255
211 228 249
191 187 150
182 175 114
180 174 114
179 173 114
177 173 114
176 172 114
175 172 114
175 171 114
174 171 114
173 171 114
173 170 114
172 170 114
172 170 114
171 170 114
171 170 114
171 170 114
170 169 114
170 169 114
170 169 114
170 169 114
170 169 114
169 169 114
169 169 114
169 169 114
169 169 114
169 169 114
169 169 114
169 169 114
169 169 114
169 169 114
169 169 114
169 169 114
169 169 114
169 169 114
169 169 114
169 169 114
169 169 114
169 169 114
169 169 114
169 169 114
169 169 114
169 169 114
169 169 114
169 169 114
169 169 114
169 169 114
169 169 114
169 169 114
170 169 114
170 169 114
170 169 114
170 169 114
170 169 114
170 169 114
170 169 114
170 169 114
170 169 114
171 170 114
171 170 114
171 170 114
171 170 114
171 170 114
171 170 114
171 170 114
172 170 114
172 170 114
172 170 114
172 170 114
172 170 114
172 170 114
172 170 114
173 170 114
173 170 114
173 171 114
173 171 114
173 171 114
173 171 114
173 171 114
174 171 114
174 171 114
174 171 114
174 171 114
174 171 114
174 171 114
175 171 114
175 171 114
175 171 114
175 172 114
175 172 114
175 172 114
175 172 114
176 172 114
176 172 114
176 172 114
176 172 114
176 172 114
176 172 114
177 172 114
177 172 114
177 172 114
177 172 114
177 173 114
177 173 114
177 173 114
178 173 114
178 173 114
178 173 114
178 173 114
178 173 114
178 173 114
179 173 114
179 173 114
179 173 114
179 173 114
179 173 114
179 174 114
180 174 114
180 174 114
180 174 114
180 174 114
180 174 114
180 174 114
181 174 114
181 174 114
181 174 114
181 174 114
181 174 114
181 174 114
181 175 114
182 175 114
182 175 114
182 175 114
182 175 114
182 175 114
182 175 114
183 175 114
183 175 114
183 175 114
183 175 114
183 203 228
183 203 228
183 202 228
183 202 228
183 202 228
183 202 228
182 202 228
182 202 228
182 202 228
182 202 228
182 202 228
182 202 228
181 202 228
181 202 228
181 201 228
181 201 228
181 201 228
181 201 228
181 201 228
180 201 228
180 201 228
180 201 228
180 201 228
180 201 228
180 201 228
179 200 228
179 200 228
179 200 228
179 200 228
179 200 228
179 200 228
179 200 228
178 200 228
178 200 228
178 200 228
178 200 228
178 200 228
178 200 228
177 199 228
177 199 228
177 199 228
177 199 228
177 199 228
177 199 228
177 199 228
176 199 228
176 199 228
176 199 228
176 199 228
176 199 228
176 198 228
175 198 228
175 198 228
175 198 228
175 198 228
175 198 228
175 198 228
175 198 228
174 198 228
174 198 228
174 198 228
174 198 228
174 198 228
174 197 228
174 197 228
173 197 228
173 197 228
173 197 228
173 197 228
173 197 228
173 197 228
173 197 228
172 197 228
172 197 228
172 197 228
172 197 228
172 197 228
172 196 228
172 196 228
172 196 228
171 196 228
171 196 228
171 196 228
171 196 228
171 196 228
171 196 228
171 196 228
171 196 228
171 196 228
170 196 228
170 196 228
170 196 228
170 196 228
170 196 228
170 195 228
170 195 228
170 195 228
170 195 228
170 195 228
170 195 228
170 195 228
170 195 228
170 195 228
170 195 228
169 195 228
170 195 228
169 195 228
169 195 228
169 195 228
170 195 228
170 195 228
170 195 228
170 195 228
170 195 228
170 195 228
170 195 228
170 196 228
170 196 228
170 196 228
171 196 228
171 196 228
171 196 228
171 196 228
171 196 228
172 196 228
172 197 228
173 197 228
173 197 228
173 197 228
174 198 228
175 198 228
175 198 228
176 199 228
177 199 228
178 200 228
179 200 228
181 201 228
183 203 228
193 211 236
213 231 255
213 231 255
175 155 168
161 118 121
161 117 114
163 118 121
162 118 119
163 118 119
161 118 120
160 117 117
161 117 123
161 116 115
164 120 122
161 117 118
163 118 119
163 119 117
161 117 115
160 117 111
163 119 115
164 119 116
163 119 119
161 118 116
165 120 123
167 121 127
161 117 116
162 118 112
163 119 116
160 117 112
163 119 117
162 118 114
163 119 114
164 119 117
164 119 121
163 119 118
162 118 113
166 120 124
164 118 119
164 119 119
163 118 117
164 119 118
164 119 118
166 120 120
163 119 118
162 117 109
163 119 115
163 118 113
164 119 118
162 118 113
162 119 115
165 120 117
163 118 116
163 119 117
161 117 117
161 118 115
164 119 116
163 119 114
162 118 115
163 119 119
163 118 118
161 118 115
161 118 113
164 119 122
164 118 119
164 119 118
163 119 117
164 119 118
163 119 114
163 119 118
163 119 119
162 118 110
162 118 115
162 119 119
165 120 123
162 118 111
164 119 115
163 118 118
163 119 118
165 120 118
165 120 120
161 117 111
162 118 118
164 119 118
163 118 118
163 119 122
164 119 122
164 119 120
164 119 121
163 119 116
161 117 113
164 119 117
166 120 126
161 117 108
162 118 114
165 120 119
162 118 119
162 118 111
163 118 117
164 119 121
166 120 122
164 119 119
163 117 115
162 118 114
163 118 114
163 118 117
162 118 120
162 117 114
162 117 112
161 117 118
163 119 121
162 117 113
163 118 115
165 119 121
162 117 116
161 116 116
160 115 113
161 117 121
163 117 118
160 114 115
181 164 178
213 231 255
213 230 254
196 196 172
183 175 114
181 174 114
179 174 114
178 173 114
177 172 114
176 172 114
175 172 114
175 171 114
174 171 114
173 171 114
173 171 114
173 170 114
172 170 114
172 170 114
171 170 114
171 170 114
171 170 114
171 170 114
171 169 114
170 169 114
170 169 114
170 169 114
170 169 114
170 169 114
170 169 114
170 169 114
170 169 114
170 169 114
170 169 114
169 169 114
169 169 114
170 169 114
169 169 114
170 169 114
170 169 114
170 169 114
170 169 114
170 169 114
170 169 114
170 169 114
170 169 114
170 169 114
170 169 114
170 169 114
170 169 114
170 169 114
170 169 114
170 169 114
170 169 114
171 169 114
171 170 114
171 170 114
171 170 114
171 170 114
171 170 114
171 170 114
171 170 114
171 170 114
172 170 114
172 170 114
172 170 114
172 170 114
172 170 114
172 170 114
172 170 114
172 170 114
173 170 114
173 170 114
173 171 114
173 171 114
173 171 114
173 171 114
173 171 114
174 171 114
174 171 114
174 171 114
174 171 114
174 171 114
174 171 114
174 171 114
175 171 114
175 171 114
175 171 114
175 172 114
175 172 114
175 172 114
175 172 114
176 172 114
176 172 114
176 172 114
176 172 114
176 172 114
176 172 114
177 172 114
177 172 114
177 172 114
177 172 114
177 172 114
177 173 114
177 173 114
178 173 114
178 173 114
178 173 114
178 173 114
178 173 114
178 173 114
179 173 114
179 173 114
179 173 114
179 173 114
179 173 114
179 174 114
179 174 114
180 174 114
180 174 114
180 174 114
180 174 114
180 174 114
180 174 114
181 174 114
181 174 114
181 174 114
181 174 114
181 174 114
181 174 114
181 175 114
182 175 114
182 175 114
182 175 114
182 175 114
182 175 114
182 175 114
183 175 114
183 175 114
183 175 114
183 175 114
183 175 114
183 175 114
184 175 114
184 203 228
184 203 228
183 203 228
183 203 228
183 203 228
183 202 228
183 202 228
183 202 228
183 202 228
182 202 228
182 202 228
182 202 228
182 202 228
182 202 228
182 202 228
182 202 228
181 202 228
181 201 228
181 201 228
181 201 228
181 201 228
181 201 228
180 201 228
180 201 228
180 201 228
180 201 228
180 201 228
180 201 228
180 201 228
179 200 228
179 200 228
179 200 228
179 200 228
179 200 228
179 200 228
179 200 228
178 200 228
178 200 228
178 200 228
178 200 228
178 200 228
178 200 228
177 199 228
177 199 228
177 199 228
177 199 228
177 199 228
177 199 228
177 199 228
176 199 228
176 199 228
176 199 228
176 199 228
176 199 228
176 198 228
176 198 228
175 198 228
175 198 228
175 198 228
175 198 228
175 198 228
175 198 228
175 198 228
174 198 228
174 198 228
174 198 228
174 198 228
174 198 228
174 197 228
174 197 228
174 197 228
173 197 228
173 197 228
173 197 228
173 197 228
173 197 228
173 197 228
173 197 228
172 197 228
172 197 228
172 197 228
172 197 228
172 197 228
172 196 228
172 196 228
172 196 228
172 196 228
171 196 228
171 196 228
171 196 228
171 196 228
171 196 228
171 196 228
171 196 228
171 196 228
171 196 228
171 196 228
171 196 228
171 196 228
171 196 228
170 196 228
170 196 228
170 196 228
170 196 228
170 196 228
170 196 228
170 196 228
170 196 228
170 196 228
170 196 228
170 196 228
170 196 228
170 196 228
170 196 228
171 196 228
171 196 228
171 196 228
171 196 228
171 196 228
171 196 228
171 196 228
172 196 228
172 196 228
172 197 228
172 197 228
173 197 228
173 197 228
173 197 228
174 197 228
174 198 228
175 198 228
175 198 228
176 199 228
177 199 228
178 200 228
179 200 228
180 201 228
182 202 228
185 203 228
201 219 243
203 213 234
158 116 116
161 117 117
160 116 112
159 117 118
162 118 118
161 117 117
162 118 119
161 117 118
160 117 114
164 119 118
163 119 121
163 119 118
162 118 122
163 118 118
163 119 120
163 119 116
162 119 119
165 119 113
161 117 110
159 116 111
161 118 119
164 118 116
162 118 119
162 119 118
163 119 120
162 117 115
166 120 122
164 119 118
164 119 117
163 119 120
163 119 115
164 118 114
162 119 116
165 120 117
166 120 119
162 118 114
164 119 114
161 118 111
166 121 123
163 119 122
163 118 114
163 119 120
162 117 110
161 118 113
164 119 117
164 119 116
164 119 118
163 118 117
163 119 119
160 117 113
164 119 119
160 117 108
165 120 123
165 119 120
165 119 118
161 117 111
165 120 119
164 119 113
163 118 113
163 119 121
165 119 115
163 119 116
162 118 113
161 117 112
164 118 119
161 117 108
165 119 121
161 117 108
161 118 114
162 118 113
162 118 114
161 118 116
168 121 123
163 119 118
163 118 117
162 118 116
160 117 108
162 118 113
162 118 114
161 117 107
164 119 118
164 119 115
163 118 115
164 119 118
168 121 130
159 115 106
166 120 125
162 117 112
161 117 114
164 119 123
161 117 111
163 118 118
164 118 120
163 118 117
163 118 119
161 117 114
167 120 125
165 119 117
164 118 118
164 118 120
162 118 119
161 117 117
161 116 111
164 118 115
161 117 109
161 116 110
159 115 109
162 117 112
160 116 114
163 118 118
163 118 115
163 117 117
164 119 118
161 116 116
162 116 113
159 114 113
158 114 109
207 218 240
203 211 211
185 176 114
182 175 114
180 174 114
179 173 114
178 173 114
177 172 114
176 172 114
175 172 114
175 171 114
174 171 114
174 171 114
173 171 114
173 171 114
173 170 114
172 170 114
172 170 114
172 170 114
172 170 114
171 170 114
171 170 114
171 170 114
171 170 114
171 170 114
171 170 114
171 170 114
171 169 114
170 169 114
170 169 114
170 169 114
170 169 114
170 169 114
170 169 114
170 169 114
170 169 114
170 169 114
170 169 114
170 169 114
170 169 114
170 169 114
170 169 114
171 169 114
171 170 114
171 170 114
171 170 114
171 170 114
171 170 114
171 170 114
171 170 114
171 170 114
171 170 114
171 170 114
172 170 114
172 170 114
172 170 114
172 170 114
172 170 114
172 170 114
172 170 114
172 170 114
172 170 114
172 170 114
173 170 114
173 170 114
173 171 114
173 171 114
173 171 114
173 171 114
173 171 114
174 171 114
174 171 114
174 171 114
174 171 114
174 171 114
174 171 114
174 171 114
174 171 114
175 171 114
175 171 114
175 171 114
175 172 114
175 172 114
175 172 114
175 172 114
176 172 114
176 172 114
176 172 114
176 172 114
176 172 114
176 172 114
176 172 114
177 172 114
177 172 114
177 172 114
177 172 114
177 173 114
177 173 114
178 173 114
178 173 114
178 173 114
178 173 114
178 173 114
178 173 114
178 173 114
179 173 114
179 173 114
179 173 114
179 173 114
179 173 114
179 173 114
179 174 114
180 174 114
180 174 114
180 174 114
180 174 114
180 174 114
180 174 114
180 174 114
181 174 114
181 174 114
181 174 114
181 174 114
181 174 114
181 174 114
181 175 114
182 175 114
182 175 114
182 175 114
182 175 114
182 175 114
182 175 114
183 175 114
183 175 114
183 175 114
183 175 114
183 175 114
183 175 114
183 175 114
184 176 114
184 176 114
184 176 114
184 203 228
184 203 228
184 203 228
184 203 228
184 203 228
183 203 228
183 203 228
183 203 228
183 202 228
183 202 228
183 202 228
183 202 228
182 202 228
182 202 228
182 202 228
182 202 228
182 202 228
182 202 228
182 202 228
181 202 228
181 202 228
181 201 228
181 201 228
181 201 228
181 201 228
181 201 228
180 201 228
180 201 228
180 201 228
180 201 228
180 201 228
180 201 228
180 201 228
179 200 228
179 200 228
179 200 228
179 200 228
179 200 228
179 200 228
179 200 228
178 200 228
178 200 228
178 200 228
178 200 228
178 200 228
178 200 228
178 200 228
177 199 228
177 199 228
177 199 228
177 199 228
177 199 228
177 199 228
177 199 228
176 199 228
176 199 228
176 199 228
176 199 228
176 199 228
176 199 228
176 198 228
175 198 228
175 198 228
175 198 228
175 198 228
175 198 228
175 198 228
175 198 228
175 198 228
174 198 228
174 198 228
174 198 228
174 198 228
174 198 228
174 197 228
174 197 228
174 197 228
173 197 228
173 197 228
173 197 228
173 197 228
173 197 228
173 197 228
173 197 228
173 197 228
173 197 228
172 197 228
172 197 228
172 197 228
172 197 228
172 197 228
172 197 228
172 196 228
172 196 228
172 196 228
172 196 228
171 196 228
171 196 228
171 196 228
171 196 228
171 196 228
171 196 228
171 196 228
171 196 228
171 196 228
171 196 228
171 196 228
171 196 228
171 196 228
171 196 228
171 196 228
171 196 228
171 196 228
171 196 228
171 196 228
171 196 228
171 196 228
172 196 228
172 196 228
172 196 228
172 197 228
172 197 228
172 197 228
173 197 228
173 197 228
173 197 228
173 197 228
174 197 228
174 198 228
175 198 228
175 198 228
176 198 228
176 199 228
177 199 228
178 200 228
179 200 228
180 201 228
181 201 228
183 202 228
187 205 230
178 162 176
163 118 123
162 118 124
163 118 119
161 117 114
158 116 116
163 118 120
162 118 117
162 118 121
165 120 123
162 118 119
164 119 118
162 117 117
163 119 119
161 118 113
160 116 114
162 117 112
160 117 111
168 121 127
161 117 115
164 119 122
165 120 120
162 118 117
164 119 118
164 119 116
163 118 116
161 117 114
160 116 110
162 118 117
162 118 117
163 118 115
163 119 119
163 119 117
162 118 115
163 119 117
164 120 122
165 119 123
163 119 114
163 118 113
163 118 111
162 118 113
163 119 119
162 118 113
162 117 113
161 117 111
161 117 112
165 119 120
164 119 123
161 117 112
164 118 116
163 119 113
161 118 113
164 119 118
163 119 118
166 119 119
161 117 110
163 118 117
162 117 115
159 116 109
161 118 113
158 116 107
163 118 114
161 118 118
161 118 115
164 119 116
165 120 122
162 119 117
163 119 115
163 118 114
162 118 113
164 118 117
161 116 111
162 118 109
164 119 116
162 118 114
162 119 116
163 118 113
164 119 119
162 118 108
161 117 113
163 119 116
163 118 114
167 121 127
162 118 111
165 120 123
164 118 117
166 120 121
162 118 108
161 117 114
160 117 109
165 118 112
162 118 117
162 118 113
165 120 122
162 118 109
159 116 111
163 118 116
165 120 123
162 118 115
163 118 117
165 119 117
161 117 114
160 117 111
164 119 122
163 118 118
161 117 114
165 119 120
163 117 114
162 116 115
164 117 118
163 117 118
162 117 117
162 117 111
160 116 116
158 115 109
160 114 110
158 114 105
160 115 113
178 158 157
186 177 116
183 175 114
181 174 114
180 174 114
179 173 114
178 173 114
177 172 114
176 172 114
176 172 114
175 172 114
175 171 114
174 171 114
174 171 114
173 171 114
173 171 114
173 171 114
173 170 114
172 170 114
172 170 114
172 170 114
172 170 114
172 170 114
172 170 114
171 170 114
171 170 114
171 170 114
171 170 114
171 170 114
171 170 114
171 170 114
171 170 114
171 170 114
171 170 114
171 170 114
171 170 114
171 170 114
171 170 114
171 170 114
171 170 114
171 170 114
171 170 114
171 170 114
171 170 114
172 170 114
172 170 114
172 170 114
172 170 114
172 170 114
172 170 114
172 170 114
172 170 114
172 170 114
172 170 114
172 170 114
172 170 114
173 170 114
173 170 114
173 171 114
173 171 114
173 171 114
173 171 114
173 171 114
173 171 114
174 171 114
174 171 114
174 171 114
174 171 114
174 171 114
174 171 114
174 171 114
174 171 114
175 171 114
175 171 114
175 171 114
175 172 114
175 172 114
175 172 114
175 172 114
176 172 114
176 172 114
176 172 114
176 172 114
176 172 114
176 172 114
176 172 114
176 172 114
177 172 114
177 172 114
177 172 114
177 172 114
177 173 114
177 173 114
177 173 114
178 173 114
178 173 114
178 173 114
178 173 114
178 173 114
178 173 114
178 173 114
179 173 114
179 173 114
179 173 114
179 173 114
179 173 114
179 174 114
179 174 114
180 174 114
180 174 114
180 174 114
180 174 114
180 174 114
180 174 114
180 174 114
181 174 114
181 174 114
181 174 114
181 174 114
181 174 114
181 174 114
181 174 114
182 175 114
182 175 114
182 175 114
182 175 114
182 175 114
182 175 114
182 175 114
183 175 114
183 175 114
183 175 114
183 175 114
183 175 114
183 175 114
183 175 114
184 176 114
184 176 114
184 176 114
184 176 114
184 176 114
184 176 114
185 203 228
185 203 228
184 203 228
184 203 228
184 203 228
184 203 228
184 203 228
184 203 228
184 203 228
183 203 228
183 203 228
183 202 228
183 202 228
183 202 228
183 202 228
183 202 228
182 202 228
182 202 228
182 202 228
182 202 228
182 202 228
182 202 228
182 202 228
181 202 228
181 201 228
181 201 228
181 201 228
181 201 228
181 201 228
181 201 228
181 201 228
180 201 228
180 201 228
180 201 228
180 201 228
180 201 228
180 201 228
180 201 228
179 200 228
179 200 228
179 200 228
179 200 228
179 200 228
179 200 228
179 200 228
178 200 228
178 200 228
178 200 228
178 200 228
178 200 228
178 200 228
178 200 228
177 199 228
177 199 228
177 199 228
177 199 228
177 199 228
177 199 228
177 199 228
177 199 228
176 199 228
176 199 228
176 199 228
176 199 228
176 199 228
176 199 228
176 198 228
175 198 228
175 198 228
175 198 228
175 198 228
175 198 228
175 198 228
175 198 228
175 198 228
174 198 228
174 198 228
174 198 228
174 198 228
174 198 228
174 198 228
174 197 228
174 197 228
174 197 228
173 197 228
173 197 228
173 197 228
173 197 228
173 197 228
173 197 228
173 197 228
173 197 228
173 197 228
173 197 228
173 197 228
172 197 228
172 197 228
172 197 228
172 197 228
172 197 228
172 197 228
172 197 228
172 197 228
172 197 228
172 197 228
172 197 228
172 197 228
172 196 228
172 196 228
172 196 228
172 197 228
172 197 228
172 197 228
172 197 228
172 197 228
172 197 228
172 197 228
172 197 228
172 197 228
173 197 228
173 197 228
173 197 228
173 197 228
173 197 228
173 197 228
174 197 228
174 198 228
174 198 228
175 198 228
175 198 228
176 198 228
176 199 228
177 199 228
177 199 228
178 200 228
179 200 228
180 201 228
181 201 228
182 202 228
183 200 226
160 121 125
158 115 111
160 116 113
159 117 119
161 117 117
162 118 121
164 119 121
163 119 117
161 118 115
163 119 121
161 117 116
165 120 118
161 117 117
161 118 119
161 118 116
162 117 113
162 118 117
165 120 122
163 119 120
162 118 116
162 118 116
162 118 118
159 116 108
162 117 112
165 120 121
162 118 114
163 118 115
162 118 112
162 118 115
165 120 121
164 119 124
165 120 118
165 119 116
163 118 114
161 117 113
164 119 115
164 119 117
163 118 120
161 117 116
161 117 106
165 119 122
162 117 108
166 120 122
166 119 118
159 116 103
161 118 113
163 119 117
164 118 115
162 118 115
162 118 114
166 120 123
164 119 117
162 118 114
162 118 110
163 118 113
158 115 104
161 118 113
164 119 114
166 120 118
164 119 118
164 119 118
163 118 113
161 118 115
161 117 107
162 118 115
164 119 119
161 118 113
163 119 113
164 119 117
162 118 113
162 117 113
165 119 118
164 118 116
163 118 114
164 120 122
164 119 113
158 116 106
161 118 113
164 119 112
164 119 118
163 119 121
161 118 113
164 119 116
161 117 112
163 119 119
161 116 111
164 118 118
166 120 121
164 119 115
164 119 116
165 120 121
165 119 119
163 118 120
162 117 113
162 117 116
160 116 111
163 118 117
161 117 115
163 118 111
166 120 119
162 117 113
161 117 110
166 119 122
164 118 114
162 118 113
162 117 112
162 117 113
160 116 114
162 117 114
164 118 119
157 113 108
163 118 115
162 115 112
161 116 113
161 116 110
161 115 112
161 115 115
162 116 113
158 114 111
182 171 114
182 175 114
181 174 114
180 174 114
179 173 114
178 173 114
177 173 114
177 172 114
176 172 114
175 172 114
175 172 114
175 171 114
174 171 114
174 171 114
174 171 114
173 171 114
173 171 114
173 171 114
173 171 114
173 170 114
173 170 114
172 170 114
172 170 114
172 170 114
172 170 114
172 170 114
172 170 114
172 170 114
172 170 114
172 170 114
172 170 114
172 170 114
172 170 114
172 170 114
172 170 114
172 170 114
172 170 114
172 170 114
172 170 114
172 170 114
172 170 114
172 170 114
172 170 114
172 170 114
172 170 114
173 170 114
173 170 114
173 170 114
173 171 114
173 171 114
173 171 114
173 171 114
173 171 114
173 171 114
173 171 114
173 171 114
174 171 114
174 171 114
174 171 114
174 171 114
174 171 114
174 171 114
174 171 114
174 171 114
174 171 114
175 171 114
175 171 114
175 171 114
175 171 114
175 172 114
175 172 114
175 172 114
175 172 114
176 172 114
176 172 114
176 172 114
176 172 114
176 172 114
176 172 114
176 172 114
177 172 114
177 172 114
177 172 114
177 172 114
177 172 114
177 173 114
177 173 114
178 173 114
178 173 114
178 173 114
178 173 114
178 173 114
178 173 114
178 173 114
178 173 114
179 173 114
179 173 114
179 173 114
179 173 114
179 173 114
179 173 114
179 174 114
179 174 114
180 174 114
180 174 114
180 174 114
180 174 114
180 174 114
180 174 114
180 174 114
181 174 114
181 174 114
181 174 114
181 174 114
181 174 114
181 174 114
181 174 114
182 175 114
182 175 114
182 175 114
182 175 114
182 175 114
182 175 114
182 175 114
183 175 114
183 175 114
183 175 114
183 175 114
183 175 114
183 175 114
183 175 114
184 175 114
184 176 114
184 176 114
184 176 114
184 176 114
184 176 114
184 176 114
185 176 114
185 176 114
185 176 114
185 204 228
185 203 228
185 203 228
185 203 228
185 203 228
184 203 228
184 203 228
184 203 228
184 203 228
184 203 228
184 203 228
184 203 228
184 203 228
183 203 228
183 203 228
183 202 228
183 202 228
183 202 228
183 202 228
183 202 228
182 202 228
182 202 228
182 202 228
182 202 228
182 202 228
182 202 228
182 202 228
182 202 228
181 202 228
181 201 228
181 201 228
181 201 228
181 201 228
181 201 228
181 201 228
180 201 228
180 201 228
180 201 228
180 201 228
180 201 228
180 201 228
180 201 228
180 201 228
179 200 228
179 200 228
179 200 228
179 200 228
179 200 228
179 200 228
179 200 228
178 200 228
178 200 228
178 200 228
178 200 228
178 200 228
178 200 228
178 200 228
178 199 228
177 199 228
177 199 228
177 199 228
177 199 228
177 199 228
177 199 228
177 199 228
177 199 228
176 199 228
176 199 228
176 199 228
176 199 228
176 199 228
176 199 228
176 199 228
176 198 228
175 198 228
175 198 228
175 198 228
175 198 228
175 198 228
175 198 228
175 198 228
175 198 228
175 198 228
174 198 228
174 198 228
174 198 228
174 198 228
174 198 228
174 198 228
174 198 228
174 197 228
174 197 228
174 197 228
173 197 228
173 197 228
173 197 228
173 197 228
173 197 228
173 197 228
173 197 228
173 197 228
173 197 228
173 197 228
173 197 228
173 197 228
173 197 228
173 197 228
173 197 228
173 197 228
173 197 228
173 197 228
173 197 228
173 197 228
173 197 228
173 197 228
173 197 228
173 197 228
173 197 228
173 197 228
173 197 228
173 197 228
174 197 228
174 197 228
174 198 228
174 198 228
174 198 228
175 198 228
175 198 228
175 198 228
176 198 228
176 199 228
176 199 228
177 199 228
177 199 228
178 200 228
179 200 228
180 201 228
181 201 228
182 202 228
172 170 186
160 116 117
160 117 119
161 117 119
163 119 121
161 118 118
162 118 120
163 119 121
163 119 120
161 118 117
163 118 113
163 118 118
160 116 110
163 119 116
162 117 110
160 116 106
162 117 115
162 117 110
163 118 116
161 118 112
163 118 118
163 119 115
162 118 112
164 119 115
161 117 108
165 119 124
164 119 118
161 118 116
165 120 124
160 117 107
162 119 119
164 119 117
164 119 119
163 118 116
164 119 111
163 118 116
163 118 116
164 119 118
162 117 118
161 118 113
163 118 115
162 118 117
162 118 113
162 118 113
164 119 113
162 117 115
162 118 112
161 116 111
163 119 118
162 117 111
165 120 119
164 119 117
162 118 111
165 119 116
162 118 113
162 118 115
165 120 122
163 118 113
161 118 113
164 119 116
164 119 120
162 117 110
163 119 119
164 119 118
162 118 113
162 118 116
163 118 118
163 118 112
168 121 123
162 117 115
165 119 115
163 119 115
162 118 109
163 119 118
163 119 118
165 119 118
165 120 118
162 117 116
163 118 115
160 117 111
161 117 113
161 117 114
168 120 120
163 118 115
163 119 123
162 118 113
164 118 113
164 119 119
162 118 113
162 118 118
162 117 112
163 118 106
162 118 116
163 118 119
164 119 119
163 118 111
162 117 115
162 118 118
163 119 117
161 117 109
163 119 117
165 119 124
164 119 117
162 118 113
165 119 118
160 116 113
162 117 108
162 117 115
161 117 111
162 117 111
163 118 115
161 117 115
159 114 109
162 117 117
160 116 114
160 114 111
159 114 109
161 115 111
160 114 112
158 114 109
173 148 115
182 175 114
181 174 114
180 174 114
179 173 114
178 173 114
177 173 114
177 172 114
176 172 114
176 172 114
176 172 114
175 172 114
175 171 114
175 171 114
174 171 114
174 171 114
174 171 114
174 171 114
174 171 114
173 171 114
173 171 114
173 171 114
173 171 114
173 171 114
173 171 114
173 171 114
173 171 114
173 171 114
173 171 114
173 171 114
173 171 114
173 170 114
173 171 114
173 171 114
173 171 114
173 171 114
173 171 114
173 171 114
173 171 114
173 171 114
173 171 114
173 171 114
173 171 114
173 171 114
173 171 114
173 171 114
174 171 114
174 171 114
174 171 114
174 171 114
174 171 114
174 171 114
174 171 114
174 171 114
174 171 114
174 171 114
174 171 114
175 171 114
175 171 114
175 171 114
175 171 114
175 172 114
175 172 114
175 172 114
175 172 114
175 172 114
176 172 114
176 172 114
176 172 114
176 172 114
176 172 114
176 172 114
176 172 114
176 172 114
177 172 114
177 172 114
177 172 114
177 172 114
177 172 114
177 173 114
177 173 114
177 173 114
178 173 114
178 173 114
178 173 114
178 173 114
178 173 114
178 173 114
178 173 114
178 173 114
179 173 114
179 173 114
179 173 114
179 173 114
179 173 114
179 173 114
179 174 114
179 174 114
180 174 114
180 174 114
180 174 114
180 174 114
180 174 114
180 174 114
180 174 114
181 174 114
181 174 114
181 174 114
181 174 114
181 174 114
181 174 114
181 174 114
182 175 114
182 175 114
182 175 114
182 175 114
182 175 114
182 175 114
182 175 114
182 175 114
183 175 114
183 175 114
183 175 114
183 175 114
183 175 114
183 175 114
183 175 114
183 175 114
184 176 114
184 176 114
184 176 114
184 176 114
184 176 114
184 176 114
184 176 114
185 176 114
185 176 114
185 176 114
185 176 114
185 176 114
185 176 114
186 204 228
185 204 228
185 204 228
185 204 228
185 204 228
185 203 228
185 203 228
185 203 228
185 203 228
184 203 228
184 203 228
184 203 228
184 203 228
184 203 228
184 203 228
184 203 228
184 203 228
183 203 228
183 203 228
183 202 228
183 202 228
183 202 228
183 202 228
183 202 228
182 202 228
182 202 228
182 202 228
182 202 228
182 202 228
182 202 228
182 202 228
182 202 228
181 202 228
181 202 228
181 201 228
181 201 228
181 201 228
181 201 228
181 201 228
181 201 228
180 201 228
180 201 228
180 201 228
180 201 228
180 201 228
180 201 228
180 201 228
180 201 228
179 201 228
179 200 228
179 200 228
179 200 228
179 200 228
179 200 228
179 200 228
179 200 228
178 200 228
178 200 228
178 200 228
178 200 228
178 200 228
178 200 228
178 200 228
178 200 228
177 199 228
177 199 228
177 199 228
177 199 228
177 199 228
177 199 228
177 199 228
177 199 228
177 199 228
176 199 228
176 199 228
176 199 228
176 199 228
176 199 228
176 199 228
176 199 228
176 198 228
176 198 228
175 198 228
175 198 228
175 198 228
175 198 228
175 198 228
175 198 228
175 198 228
175 198 228
175 198 228
175 198 228
174 198 228
174 198 228
174 198 228
174 198 228
174 198 228
174 198 228
174 198 228
174 198 228
174 198 228
174 198 228
174 198 228
174 198 228
174 197 228
174 197 228
174 197 228
174 197 228
174 197 228
174 197 228
174 197 228
174 197 228
174 197 228
174 197 228
174 197 228
174 198 228
174 198 228
174 198 228
174 198 228
174 198 228
174 198 228
174 198 228
174 198 228
175 198 228
175 198 228
175 198 228
175 198 228
176 198 228
176 199 228
176 199 228
177 199 228
177 199 228
177 199 228
178 200 228
178 200 228
179 200 228
180 201 228
181 201 228
182 202 228
161 128 135
158 116 117
156 114 112
158 116 112
162 117 116
163 118 114
164 119 122
162 117 117
163 119 118
163 118 118
161 117 112
160 117 112
162 118 118
160 117 114
162 118 115
161 117 114
161 118 114
164 119 116
163 118 114
162 118 116
161 118 116
162 117 113
165 119 118
162 118 115
160 116 111
161 117 112
162 118 112
163 118 113
163 118 117
163 118 116
164 119 114
162 118 113
165 119 121
166 120 118
162 118 112
162 117 110
162 118 113
159 116 108
160 116 114
164 119 115
163 119 118
162 118 116
163 118 111
160 117 112
164 119 117
163 118 115
163 119 117
167 120 123
161 117 115
162 118 112
163 118 117
163 118 113
160 117 112
162 118 111
165 119 120
164 119 117
162 117 113
163 118 114
162 117 116
161 117 109
161 117 108
163 118 114
162 118 116
162 118 115
162 117 109
162 118 112
163 118 113
163 119 113
164 119 118
163 118 115
164 119 114
161 117 115
163 119 113
165 119 114
163 119 117
164 119 112
162 118 109
163 118 113
162 118 116
165 119 116
166 120 120
163 118 114
162 117 114
163 118 114
163 119 116
164 118 119
159 116 105
165 119 120
160 117 104
164 119 115
164 119 120
161 116 113
162 118 113
163 117 114
163 117 117
163 118 115
163 118 112
160 116 111
164 117 113
162 118 115
163 118 116
161 117 111
164 119 119
161 116 111
160 116 108
162 117 116
161 116 115
161 117 109
161 117 115
164 118 117
163 118 116
159 115 105
162 118 115
159 115 114
162 117 114
161 116 111
163 118 118
162 116 118
159 114 109
160 115 116
161 121 112
182 174 114
181 174 114
180 174 114
179 173 114
178 173 114
178 173 114
177 173 114
177 172 114
177 172 114
176 172 114
176 172 114
176 172 114
175 172 114
175 172 114
175 171 114
175 171 114
175 171 114
174 171 114
174 171 114
174 171 114
174 171 114
174 171 114
174 171 114
174 171 114
174 171 114
174 171 114
174 171 114
174 171 114
174 171 114
174 171 114
174 171 114
174 171 114
174 171 114
174 171 114
174 171 114
174 171 114
174 171 114
174 171 114
174 171 114
174 171 114
174 171 114
174 171 114
174 171 114
174 171 114
174 171 114
174 171 114
174 171 114
175 171 114
175 171 114
175 171 114
175 171 114
175 171 114
175 172 114
175 172 114
175 172 114
175 172 114
175 172 114
176 172 114
176 172 114
176 172 114
176 172 114
176 172 114
176 172 114
176 172 114
176 172 114
176 172 114
177 172 114
177 172 114
177 172 114
177 172 114
177 172 114
177 172 114
177 173 114
177 173 114
178 173 114
178 173 114
178 173 114
178 173 114
178 173 114
178 173 114
178 173 114
178 173 114
178 173 114
179 173 114
179 173 114
179 173 114
179 173 114
179 173 114
179 173 114
179 174 114
179 174 114
180 174 114
180 174 114
180 174 114
180 174 114
180 174 114
180 174 114
180 174 114
180 174 114
181 174 114
181 174 114
181 174 114
181 174 114
181 174 114
181 174 114
181 174 114
181 175 114
182 175 114
182 175 114
182 175 114
182 175 114
182 175 114
182 175 114
182 175 114
183 175 114
183 175 114
183 175 114
183 175 114
183 175 114
183 175 114
183 175 114
183 175 114
184 175 114
184 176 114
184 176 114
184 176 114
184 176 114
184 176 114
184 176 114
184 176 114
185 176 114
185 176 114
185 176 114
185 176 114
185 176 114
185 176 114
185 176 114
185 176 114
186 176 114
186 177 114
186 204 228
186 204 228
186 204 228
186 204 228
186 204 228
185 204 228
185 204 228
185 204 228
185 204 228
185 203 228
185 203 228
185 203 228
185 203 228
184 203 228
184 203 228
184 203 228
184 203 228
184 203 228
184 203 228
184 203 228
184 203 228
183 203 228
183 203 228
183 203 228
183 202 228
183 202 228
183 202 228
183 202 228
183 202 228
183 202 228
182 202 228
182 202 228
182 202 228
182 202 228
182 202 228
182 202 228
182 202 228
182 202 228
181 202 228
181 201 228
181 201 228
181 201 228
181 201 228
181 201 228
181 201 228
181 201 228
180 201 228
180 201 228
180 201 228
180 201 228
180 201 228
180 201 228
180 201 228
180 201 228
180 201 228
179 200 228
179 200 228
179 200 228
179 200 228
179 200 228
179 200 228
179 200 228
179 200 228
178 200 228
178 200 228
178 200 228
178 200 228
178 200 228
178 200 228
178 200 228
178 200 228
177 199 228
177 199 228
177 199 228
177 199 228
177 199 228
177 199 228
177 199 228
177 199 228
177 199 228
177 199 228
176 199 228
176 199 228
176 199 228
176 199 228
176 199 228
176 199 228
176 199 228
176 199 228
176 198 228
176 198 228
176 198 228
175 198 228
175 198 228
175 198 228
175 198 228
175 198 228
175 198 228
175 198 228
175 198 228
175 198 228
175 198 228
175 198 228
175 198 228
175 198 228
175 198 228
175 198 228
175 198 228
175 198 228
175 198 228
175 198 228
175 198 228
175 198 228
175 198 228
175 198 228
175 198 228
175 198 228
175 198 228
175 198 228
175 198 228
175 198 228
175 197 228
173 190 219
168 178 205
169 181 208
169 181 208
172 187 215
176 197 227
177 199 228
177 199 228
177 199 228
177 199 228
178 200 228
178 200 228
179 200 228
179 200 228
180 201 228
181 201 228
177 185 208
160 116 117
157 115 106
162 117 117
162 117 121
164 119 123
158 115 112
161 116 119
163 118 115
163 118 121
162 117 119
161 117 113
163 118 117
162 118 116
162 117 113
163 118 118
163 119 117
162 118 115
162 117 110
164 119 116
164 119 120
163 119 121
161 117 109
160 116 105
162 118 114
162 118 114
163 118 116
162 117 110
164 119 115
163 118 117
165 120 119
162 118 116
161 118 107
165 119 118
163 118 116
163 118 115
161 117 112
165 120 120
162 118 113
161 117 113
163 119 111
163 118 112
163 118 114
161 118 112
163 119 118
165 119 121
163 118 113
164 119 115
162 118 117
159 116 108
163 118 113
165 120 117
163 119 116
163 118 117
163 119 117
161 116 108
159 117 111
163 119 116
163 119 118
162 118 112
165 120 121
161 117 105
162 117 113
162 117 110
165 120 120
160 117 106
160 117 109
166 120 121
165 119 116
162 117 109
162 117 113
159 116 108
162 117 112
161 117 112
164 119 116
162 118 115
163 118 112
162 118 109
161 116 115
164 119 118
163 118 117
162 118 113
160 117 110
162 118 118
164 119 114
161 117 116
162 117 113
162 118 114
159 117 107
161 117 111
163 118 115
164 118 116
162 118 116
163 119 118
162 118 116
162 118 112
158 115 113
165 119 116
164 119 118
160 116 111
159 115 106
164 118 117
160 116 112
161 117 114
163 118 114
162 118 114
160 116 110
164 118 115
161 116 106
161 117 114
162 118 118
162 117 114
162 116 110
162 116 113
162 117 119
161 116 111
162 116 110
159 114 110
159 113 107
157 113 109
161 115 112
159 114 113
176 163 111
181 174 114
180 174 114
179 174 114
179 173 114
178 173 114
178 173 114
177 173 114
177 172 114
177 172 114
177 172 114
176 171 114
171 163 108
168 155 102
169 156 103
171 161 107
172 165 109
175 172 114
175 172 114
175 172 114
175 171 114
175 171 114
175 171 114
175 171 114
175 171 114
175 171 114
175 171 114
175 171 114
175 171 114
175 171 114
175 171 114
175 171 114
175 171 114
175 171 114
175 171 114
175 171 114
175 171 114
175 171 114
175 171 114
175 171 114
175 171 114
175 172 114
175 172 114
175 172 114
175 172 114
175 172 114
175 172 114
176 172 114
176 172 114
176 172 114
176 172 114
176 172 114
176 172 114
176 172 114
176 172 114
176 172 114
176 172 114
176 172 114
177 172 114
177 172 114
177 172 114
177 172 114
177 172 114
177 172 114
177 173 114
177 173 114
177 173 114
178 173 114
178 173 114
178 173 114
178 173 114
178 173 114
178 173 114
178 173 114
178 173 114
178 173 114
179 173 114
179 173 114
179 173 114
179 173 114
179 173 114
179 173 114
179 173 114
179 174 114
179 174 114
180 174 114
180 174 114
180 174 114
180 174 114
180 174 114
180 174 114
180 174 114
180 174 114
181 174 114
181 174 114
181 174 114
181 174 114
181 174 114
181 174 114
181 174 114
181 174 114
182 175 114
182 175 114
182 175 114
182 175 114
182 175 114
182 175 114
182 175 114
182 175 114
183 175 114
183 175 114
183 175 114
183 175 114
183 175 114
183 175 114
183 175 114
183 175 114
183 175 114
184 176 114
184 176 114
184 176 114
184 176 114
184 176 114
184 176 114
184 176 114
184 176 114
185 176 114
185 176 114
185 176 114
185 176 114
185 176 114
185 176 114
185 176 114
185 176 114
186 176 114
186 176 114
186 177 114
186 177 114
186 177 114
186 177 114
187 204 228
186 204 228
186 204 228
186 204 228
186 204 228
186 204 228
186 204 228
186 204 228
186 204 228
185 204 228
185 204 228
185 204 228
185 204 228
185 204 228
185 203 228
185 203 228
185 203 228
185 203 228
184 203 228
184 203 228
184 203 228
184 203 228
184 203 228
184 203 228
184 203 228
184 203 228
183 203 228
183 203 228
183 203 228
183 203 228
183 202 228
183 202 228
183 202 228
183 202 228
183 202 228
182 202 228
182 202 228
182 202 228
182 202 228
182 202 228
182 202 228
182 202 228
182 202 228
181 202 228
181 202 228
181 201 228
181 201 228
181 201 228
181 201 228
181 201 228
181 201 228
181 201 228
180 201 228
180 201 228
180 201 228
180 201 228
180 201 228
180 201 228
180 201 228
180 201 228
180 201 228
179 201 228
179 200 228
179 200 228
179 200 228
179 200 228
179 200 228
179 200 228
179 200 228
179 200 228
178 200 228
178 200 228
178 200 228
178 200 228
178 200 228
178 200 228
178 200 228
178 200 228
178 199 228
178 199 228
177 199 228
177 199 228
177 199 228
177 199 228
177 199 228
177 199 228
177 199 228
177 199 228
177 199 228
177 199 228
177 199 228
176 199 228
176 199 228
176 199 228
176 199 228
176 199 228
176 199 228
176 199 228
176 199 228
176 199 228
176 199 228
176 199 228
176 198 228
176 198 228
176 198 228
176 198 228
176 198 228
176 198 228
176 198 228
176 198 228
176 198 228
176 198 228
176 198 228
176 198 228
176 198 228
176 198 228
176 198 228
176 198 228
172 189 218
160 157 181
154 136 154
147 114 130
145 106 120
143 105 120
143 105 118
142 104 119
146 107 121
143 105 118
146 117 132
158 152 174
169 177 202
176 196 224
178 200 228
179 200 228
179 200 228
180 201 228
180 201 228
181 201 228
166 153 165
162 117 121
159 116 114
160 116 113
161 116 117
159 116 115
159 116 113
161 118 114
163 119 118
161 117 114
164 119 119
162 118 114
161 117 114
159 115 103
156 114 102
157 115 107
163 119 117
162 119 118
163 119 119
163 118 116
160 117 109
160 117 107
161 118 118
163 119 113
160 117 110
161 117 113
163 118 115
160 117 112
163 119 115
161 117 112
160 117 107
161 117 110
163 119 114
163 119 115
164 119 117
161 116 107
162 118 116
162 118 113
163 119 118
160 117 104
163 118 114
163 118 118
165 119 120
160 117 108
162 117 113
160 116 103
164 119 116
161 117 107
162 117 113
165 120 121
162 118 113
164 119 118
163 119 116
160 117 110
163 118 115
162 117 112
162 118 116
163 118 111
164 119 113
163 118 112
164 119 113
162 117 105
162 117 113
161 118 111
161 117 107
161 116 113
161 117 113
162 118 114
162 118 113
161 117 109
162 118 113
161 117 110
166 120 123
161 118 114
161 117 108
163 119 116
162 117 114
163 118 113
162 118 113
164 119 116
165 119 115
163 118 117
163 117 112
164 119 118
163 119 113
162 117 113
162 117 113
163 118 117
161 116 111
162 118 117
161 117 114
163 118 115
162 117 110
163 119 113
165 119 115
163 118 117
162 117 113
161 116 105
159 116 107
164 118 116
161 118 116
161 117 111
164 119 120
159 116 107
162 117 113
161 117 111
161 117 112
165 119 120
165 118 118
159 115 108
163 117 112
161 117 113
163 117 113
163 117 114
161 116 115
162 117 117
163 117 116
161 115 110
157 114 104
161 116 115
161 115 115
159 113 111
167 137 109
181 174 114
180 174 114
180 174 114
179 173 114
179 173 114
178 173 114
177 170 112
165 146 95
154 125 81
147 102 64
144 91 57
143 89 56
142 87 54
144 90 55
144 90 56
143 89 55
148 96 61
153 116 75
164 143 95
172 163 108
176 172 114
176 172 114
176 172 114
176 172 114
176 172 114
175 172 114
176 172 114
176 172 114
176 172 114
176 172 114
176 172 114
176 172 114
176 172 114
176 172 114
176 172 114
176 172 114
176 172 114
176 172 114
176 172 114
176 172 114
176 172 114
176 172 114
176 172 114
176 172 114
176 172 114
176 172 114
176 172 114
177 172 114
177 172 114
177 172 114
177 172 114
177 172 114
177 172 114
177 172 114
177 173 114
177 173 114
177 173 114
177 173 114
178 173 114
178 173 114
178 173 114
178 173 114
178 173 114
178 173 114
178 173 114
178 173 114
178 173 114
178 173 114
179 173 114
179 173 114
179 173 114
179 173 114
179 173 114
179 173 114
179 173 114
179 174 114
180 174 114
180 174 114
180 174 114
180 174 114
180 174 114
180 174 114
180 174 114
180 174 114
180 174 114
180 174 114
181 174 114
181 174 114
181 174 114
181 174 114
181 174 114
181 174 114
181 174 114
181 174 114
182 175 114
182 175 114
182 175 114
182 175 114
182 175 114
182 175 114
182 175 114
182 175 114
182 175 114
183 175 114
183 175 114
183 175 114
183 175 114
183 175 114
183 175 114
183 175 114
183 175 114
183 175 114
184 176 114
184 176 114
184 176 114
184 176 114
184 176 114
184 176 114
184 176 114
184 176 114
185 176 114
185 176 114
185 176 114
185 176 114
185 176 114
185 176 114
185 176 114
185 176 114
185 176 114
186 176 114
186 176 114
186 177 114
186 177 114
186 177 114
186 177 114
186 177 114
186 177 114
187 177 114
187 177 114
187 205 228
187 205 228
187 204 228
187 204 228
187 204 228
186 204 228
186 204 228
186 204 228
186 204 228
186 204 228
186 204 228
186 204 228
186 204 228
186 204 228
185 204 228
185 204 228
185 204 228
185 204 228
185 204 228
185 203 228
185 203 228
185 203 228
185 203 228
184 203 228
184 203 228
184 203 228
184 203 228
184 203 228
184 203 228
184 203 228
184 203 228
184 203 228
183 203 228
183 203 228
183 203 228
183 202 228
183 202 228
183 202 228
183 202 228
183 202 228
183 202 228
182 202 228
182 202 228
182 202 228
182 202 228
182 202 228
182 202 228
182 202 228
182 202 228
182 202 228
182 202 228
181 202 228
181 201 228
181 201 228
181 201 228
181 201 228
181 201 228
181 201 228
181 201 228
180 201 228
180 201 228
180 201 228
180 201 228
180 201 228
180 201 228
180 201 228
180 201 228
180 201 228
180 201 228
179 201 228
179 200 228
179 200 228
179 200 228
179 200 228
179 200 228
179 200 228
179 200 228
179 200 228
179 200 228
178 200 228
178 200 228
178 200 228
178 200 228
178 200 228
178 200 228
178 200 228
178 200 228
178 200 228
178 200 228
178 199 228
177 199 228
177 199 228
177 199 228
177 199 228
177 199 228
177 199 228
177 199 228
177 199 228
177 199 228
177 199 228
177 199 228
177 199 228
177 199 228
177 199 228
177 199 228
177 199 228
177 199 228
177 199 228
177 199 228
177 199 228
176 199 228
176 199 228
177 199 228
177 199 228
177 199 228
177 199 228
167 174 199
154 133 150
145 106 118
144 106 120
142 105 116
141 103 115
143 105 119
142 104 118
142 105 118
141 103 117
142 103 116
140 104 117
141 102 117
141 102 116
139 101 114
143 109 124
160 152 173
176 194 221
180 201 228
180 201 228
181 201 228
181 201 227
162 125 130
160 116 116
162 118 121
160 117 111
163 119 120
160 116 111
160 117 114
165 120 123
162 117 118
161 117 114
158 115 108
162 118 116
160 117 113
162 118 116
162 118 115
161 117 112
161 117 111
163 118 116
164 119 117
160 117 110
164 118 120
161 117 109
163 119 116
160 116 108
161 117 109
161 117 110
161 117 111
161 116 114
164 119 118
159 116 105
167 120 122
161 117 112
164 119 118
164 119 118
161 117 108
163 118 118
162 117 112
163 118 116
164 119 116
163 119 117
163 118 111
162 117 111
160 116 99
163 119 117
164 119 114
162 118 113
163 118 115
163 118 111
163 118 115
161 117 114
160 117 111
164 119 117
161 117 105
161 117 110
164 119 119
161 118 111
163 118 111
163 118 116
161 117 112
161 117 109
162 118 117
162 118 114
165 119 118
160 116 104
162 118 117
160 116 108
165 119 119
160 117 111
162 118 106
160 116 104
161 117 110
164 119 113
167 120 118
162 117 112
162 118 112
162 118 113
163 118 113
162 118 112
162 118 114
161 118 114
166 120 119
161 118 110
159 116 109
164 118 114
164 118 110
159 116 114
163 119 113
163 118 119
162 117 111
160 117 110
162 118 113
163 118 114
164 118 114
162 118 117
162 118 112
163 119 120
160 116 111
163 118 112
164 119 119
162 116 110
163 118 109
164 118 112
163 118 113
159 116 108
160 116 108
164 117 112
161 117 116
162 117 116
163 118 119
162 119 122
159 114 107
157 114 104
158 113 109
160 116 113
160 115 113
164 118 116
162 117 109
159 115 114
157 112 104
162 117 113
156 112 104
158 113 109
161 117 114
181 174 114
181 174 114
180 174 114
180 174 114
176 167 109
156 128 82
144 99 61
141 87 53
140 85 51
141 87 53
139 85 51
140 85 49
141 86 52
141 87 54
144 89 54
143 87 52
145 89 54
145 90 57
142 89 54
145 91 58
152 112 73
167 149 98
176 172 114
176 172 114
176 172 114
176 172 114
176 172 114
176 172 114
176 172 114
177 172 114
177 172 114
177 172 114
177 172 114
177 172 114
177 172 114
177 172 114
177 172 114
177 172 114
177 172 114
177 172 114
177 172 114
177 172 114
177 172 114
177 173 114
177 173 114
177 173 114
177 173 114
177 173 114
178 173 114
178 173 114
178 173 114
178 173 114
178 173 114
178 173 114
178 173 114
178 173 114
178 173 114
178 173 114
178 173 114
179 173 114
179 173 114
179 173 114
179 173 114
179 173 114
179 173 114
179 173 114
179 173 114
179 174 114
179 174 114
180 174 114
180 174 114
180 174 114
180 174 114
180 174 114
180 174 114
180 174 114
180 174 114
180 174 114
181 174 114
181 174 114
181 174 114
181 174 114
181 174 114
181 174 114
181 174 114
181 174 114
181 174 114
181 175 114
182 175 114
182 175 114
182 175 114
182 175 114
182 175 114
182 175 114
182 175 114
182 175 114
182 175 114
183 175 114
183 175 114
183 175 114
183 175 114
183 175 114
183 175 114
183 175 114
183 175 114
183 175 114
184 175 114
184 176 114
184 176 114
184 176 114
184 176 114
184 176 114
184 176 114
184 176 114
184 176 114
185 176 114
185 176 114
185 176 114
185 176 114
185 176 114
185 176 114
185 176 114
185 176 114
185 176 114
186 176 114
186 176 114
186 177 114
186 177 114
186 177 114
186 177 114
186 177 114
186 177 114
186 177 114
187 177 114
187 177 114
187 177 114
187 177 114
187 177 114
187 177 114
188 205 228
187 205 228
187 205 228
187 205 228
187 205 228
187 205 228
187 205 228
187 204 228
187 204 228
187 204 228
186 204 228
186 204 228
186 204 228
186 204 228
186 204 228
186 204 228
186 204 228
186 204 228
186 204 228
186 204 228
185 204 228
185 204 228
185 204 228
185 204 228
185 203 228
185 203 228
185 203 228
185 203 228
185 203 228
184 203 228
184 203 228
184 203 228
184 203 228
184 203 228
184 203 228
184 203 228
184 203 228
184 203 228
184 203 228
183 203 228
183 203 228
183 203 228
183 202 228
183 202 228
183 202 228
183 202 228
183 202 228
183 202 228
182 202 228
182 202 228
182 202 228
182 202 228
182 202 228
182 202 228
182 202 228
182 202 228
182 202 228
182 202 228
181 202 228
181 202 228
181 201 228
181 201 228
181 201 228
181 201 228
181 201 228
181 201 228
181 201 228
181 201 228
180 201 228
180 201 228
180 201 228
180 201 228
180 201 228
180 201 228
180 201 228
180 201 228
180 201 228
180 201 228
179 200 228
179 200 228
179 200 228
179 200 228
179 200 228
179 200 228
179 200 228
179 200 228
179 200 228
179 200 228
179 200 228
178 200 228
178 200 228
178 200 228
178 200 228
178 200 228
178 200 228
178 200 228
178 200 228
178 200 228
178 200 228
178 200 228
178 200 228
178 200 228
178 200 228
178 200 228
178 200 228
178 199 228
178 199 228
177 199 228
177 199 228
177 199 228
177 199 228
177 199 228
177 199 228
177 199 228
171 182 208
150 126 142
144 106 117
142 104 114
145 106 119
142 104 115
141 103 113
142 104 115
141 103 113
139 102 113
139 101 112
141 103 116
137 100 111
138 100 115
137 100 113
139 101 114
139 100 113
136 99 113
139 100 113
140 108 122
156 150 171
178 195 222
181 202 228
175 184 207
157 113 117
160 116 118
161 117 115
159 116 112
161 117 115
159 115 110
162 118 119
159 116 113
162 117 112
159 116 109
158 115 106
163 118 117
160 117 112
162 118 110
161 117 111
161 117 108
164 118 117
161 118 112
163 118 113
163 119 116
159 116 113
162 118 112
162 117 109
159 116 109
161 117 108
160 116 111
165 119 116
164 118 117
160 116 109
163 118 113
162 118 113
164 119 116
158 115 106
164 119 118
163 118 115
164 119 113
162 118 113
161 117 108
163 119 116
161 117 112
161 117 113
161 117 111
164 119 117
163 118 111
165 119 118
159 116 105
159 116 110
163 119 116
162 118 114
163 118 111
165 119 115
163 118 114
164 118 116
162 119 121
159 116 107
161 117 112
161 117 110
165 119 113
162 118 113
165 119 118
162 118 111
161 117 109
164 119 118
163 118 115
159 116 109
162 118 112
161 118 110
163 118 115
163 118 114
158 115 102
160 116 111
164 118 114
162 118 112
160 117 110
165 120 124
162 117 109
162 118 109
161 117 108
164 118 115
161 117 110
164 119 116
161 116 107
166 120 122
164 118 111
163 118 116
160 116 111
164 118 117
161 118 109
162 118 113
162 117 112
163 118 116
161 117 107
163 118 111
160 115 109
161 117 110
161 116 112
158 115 107
164 118 116
160 115 110
162 117 114
161 117 109
163 118 115
160 115 108
160 116 107
164 118 114
165 118 118
159 115 108
163 118 113
160 116 110
158 115 110
161 116 109
161 116 106
158 114 108
159 114 108
161 115 105
161 116 115
160 117 108
162 116 114
161 116 117
158 114 106
158 114 103
160 114 108
158 112 101
176 161 112
181 174 114
179 170 111
163 140 91
142 90 54
138 84 50
137 83 51
137 83 49
138 85 52
137 83 49
142 87 53
138 83 48
142 87 53
139 84 50
142 86 53
139 86 52
140 86 50
141 87 52
144 89 54
144 90 55
146 91 56
144 90 56
152 110 71
172 162 106
177 173 114
177 173 114
177 173 114
177 173 114
177 173 114
177 173 114
177 173 114
178 173 114
178 173 114
178 173 114
178 173 114
178 173 114
178 173 114
178 173 114
178 173 114
178 173 114
178 173 114
178 173 114
178 173 114
178 173 114
178 173 114
178 173 114
178 173 114
178 173 114
178 173 114
179 173 114
179 173 114
179 173 114
179 173 114
179 173 114
179 173 114
179 173 114
179 173 114
179 173 114
179 174 114
179 174 114
180 174 114
180 174 114
180 174 114
180 174 114
180 174 114
180 174 114
180 174 114
180 174 114
180 174 114
180 174 114
181 174 114
181 174 114
181 174 114
181 174 114
181 174 114
181 174 114
181 174 114
181 174 114
181 174 114
181 174 114
182 175 114
182 175 114
182 175 114
182 175 114
182 175 114
182 175 114
182 175 114
182 175 114
182 175 114
183 175 114
183 175 114
183 175 114
183 175 114
183 175 114
183 175 114
183 175 114
183 175 114
183 175 114
183 175 114
184 175 114
184 176 114
184 176 114
184 176 114
184 176 114
184 176 114
184 176 114
184 176 114
184 176 114
184 176 114
185 176 114
185 176 114
185 176 114
185 176 114
185 176 114
185 176 114
185 176 114
185 176 114
185 176 114
186 176 114
186 176 114
186 177 114
186 177 114
186 177 114
186 177 114
186 177 114
186 177 114
186 177 114
186 177 114
187 177 114
187 177 114
187 177 114
187 177 114
187 177 114
187 177 114
187 177 114
187 177 114
187 177 114
188 177 114
188 177 114
188 205 228
188 205 228
188 205 228
188 205 228
188 205 228
188 205 228
187 205 228
187 205 228
187 205 228
187 205 228
187 205 228
187 205 228
187 204 228
187 204 228
187 204 228
186 204 228
186 204 228
186 204 228
186 204 228
186 204 228
186 204 228
186 204 228
186 204 228
186 204 228
186 204 228
186 204 228
185 204 228
185 204 228
185 204 228
185 204 228
185 203 228
185 203 228
185 203 228
185 203 228
185 203 228
185 203 228
184 203 228
184 203 228
184 203 228
184 203 228
184 203 228
184 203 228
184 203 228
184 203 228
184 203 228
184 203 228
183 203 228
183 203 228
183 203 228
183 203 228
183 202 228
183 202 228
183 202 228
183 202 228
183 202 228
183 202 228
182 202 228
182 202 228
182 202 228
182 202 228
182 202 228
182 202 228
182 202 228
182 202 228
182 202 228
182 202 228
181 202 228
181 202 228
181 201 228
181 201 228
181 201 228
181 201 228
181 201 228
181 201 228
181 201 228
181 201 228
181 201 228
180 201 228
180 201 228
180 201 228
180 201 228
180 201 228
180 201 228
180 201 228
180 201 228
180 201 228
180 201 228
180 201 228
180 201 228
180 201 228
179 200 228
179 200 228
179 200 228
179 200 228
179 200 228
179 200 228
179 200 228
179 200 228
179 200 228
179 200 228
179 200 228
179 200 228
179 200 228
179 200 228
179 200 228
179 200 228
179 200 228
179 200 228
179 200 228
178 200 228
178 200 228
178 200 228
178 199 228
160 154 174
146 110 121
146 107 116
143 105 114
146 106 115
142 104 113
144 105 116
141 103 115
141 104 113
138 100 109
141 103 115
140 102 114
136 99 111
138 101 112
134 98 108
136 98 109
137 100 113
134 98 111
136 99 113
136 99 113
138 101 116
137 99 114
147 122 139
171 182 206
167 159 174
160 117 121
161 117 117
161 117 114
155 114 106
160 116 112
159 116 112
161 117 115
159 117 113
160 117 115
161 117 115
159 116 112
159 116 108
162 118 116
164 119 120
162 117 112
162 118 113
162 118 111
163 118 115
161 117 112
163 118 113
162 117 114
161 117 112
166 120 119
163 119 116
162 118 111
162 118 117
160 117 102
162 117 111
161 117 110
163 118 117
167 120 118
161 117 112
167 121 123
159 116 104
162 118 119
164 119 117
162 118 111
164 119 119
160 117 108
160 116 110
163 118 114
161 117 111
162 118 109
162 117 106
165 120 122
163 118 113
162 118 111
162 117 108
161 117 113
163 118 111
161 117 109
164 119 118
159 116 103
163 118 113
162 118 118
163 117 112
162 118 112
165 120 117
161 117 113
164 118 118
162 117 109
161 117 112
161 117 110
163 118 113
161 117 114
161 117 107
162 118 115
164 119 119
162 118 113
163 118 110
161 117 108
160 117 109
159 116 104
162 118 113
162 118 115
162 117 116
162 117 115
161 117 108
162 118 115
163 118 114
161 117 107
161 117 113
164 118 113
162 118 114
163 118 114
163 118 114
162 118 114
162 118 114
161 116 109
163 119 114
163 118 114
163 117 113
158 115 104
165 120 118
164 118 114
161 118 109
159 116 110
165 119 117
160 116 107
165 119 123
161 117 106
163 117 114
160 116 111
158 114 106
162 118 115
162 117 113
160 117 114
161 117 112
160 115 106
159 115 107
163 117 119
163 117 115
162 117 113
160 116 108
155 112 94
159 114 107
159 115 109
162 116 111
159 114 106
161 116 113
157 113 110
158 114 104
158 113 109
169 143 111
173 158 102
141 96 59
136 82 49
137 82 48
137 82 48
137 82 48
136 81 47
135 80 45
136 81 48
137 83 48
138 84 48
138 83 48
137 83 48
140 86 51
140 86 52
141 87 52
141 86 50
140 86 51
146 91 56
143 89 54
146 89 52
146 92 57
145 93 57
163 138 90
178 173 114
178 173 114
178 173 114
178 173 114
178 173 114
178 173 114
179 173 114
179 173 114
179 173 114
179 173 114
179 173 114
179 173 114
179 173 114
179 173 114
179 173 114
179 173 114
179 173 114
179 173 114
179 173 114
179 173 114
179 173 114
179 174 114
179 174 114
179 174 114
180 174 114
180 174 114
180 174 114
180 174 114
180 174 114
180 174 114
180 174 114
180 174 114
180 174 114
180 174 114
180 174 114
180 174 114
181 174 114
181 174 114
181 174 114
181 174 114
181 174 114
181 174 114
181 174 114
181 174 114
181 174 114
181 174 114
181 175 114
182 175 114
182 175 114
182 175 114
182 175 114
182 175 114
182 175 114
182 175 114
182 175 114
182 175 114
182 175 114
183 175 114
183 175 114
183 175 114
183 175 114
183 175 114
183 175 114
183 175 114
183 175 114
183 175 114
183 175 114
184 175 114
184 176 114
184 176 114
184 176 114
184 176 114
184 176 114
184 176 114
184 176 114
184 176 114
184 176 114
184 176 114
185 176 114
185 176 114
185 176 114
185 176 114
185 176 114
185 176 114
185 176 114
185 176 114
185 176 114
186 176 114
186 176 114
186 177 114
186 177 114
186 177 114
186 177 114
186 177 114
186 177 114
186 177 114
186 177 114
186 177 114
187 177 114
187 177 114
187 177 114
187 177 114
187 177 114
187 177 114
187 177 114
187 177 114
187 177 114
187 177 114
188 177 114
188 177 114
188 177 114
188 178 114
188 178 114
188 178 114
188 205 228
188 205 228
188 205 228
188 205 228
188 205 228
188 205 228
188 205 228
188 205 228
188 205 228
188 205 228
188 205 228
187 205 228
187 205 228
187 205 228
187 205 228
187 205 228
187 205 228
187 205 228
187 205 228
187 204 228
187 204 228
187 204 228
186 204 228
186 204 228
186 204 228
186 204 228
186 204 228
186 204 228
186 204 228
186 204 228
186 204 228
186 204 228
186 204 228
185 204 228
185 204 228
185 204 228
185 204 228
185 203 228
185 203 228
185 203 228
185 203 228
185 203 228
185 203 228
184 203 228
184 203 228
184 203 228
184 203 228
184 203 228
184 203 228
184 203 228
184 203 228
184 203 228
184 203 228
184 203 228
183 203 228
183 203 228
183 203 228
183 203 228
183 202 228
183 202 228
183 202 228
183 202 228
183 202 228
183 202 228
183 202 228
182 202 228
182 202 228
182 202 228
182 202 228
182 202 228
182 202 228
182 202 228
182 202 228
182 202 228
182 202 228
182 202 228
181 202 228
181 202 228
181 201 228
181 201 228
181 201 228
181 201 228
181 201 228
181 201 228
181 201 228
181 201 228
181 201 228
181 201 228
180 201 228
180 201 228
180 201 228
180 201 228
180 201 228
180 201 228
180 201 228
180 201 228
180 201 228
180 201 228
180 201 228
180 201 228
180 201 228
180 201 228
180 201 228
180 201 228
180 201 228
180 201 228
179 201 228
179 201 228
179 200 228
179 200 228
179 200 228
179 199 227
156 142 160
148 108 118
144 105 114
143 105 114
143 104 112
142 104 114
142 103 111
139 102 109
140 103 113
141 103 115
139 101 110
138 100 110
136 99 109
139 100 111
136 99 111
132 95 105
137 99 113
135 98 110
133 96 107
132 95 108
132 96 110
129 92 106
130 93 106
132 95 109
137 105 119
157 122 126
157 114 111
158 115 112
157 114 114
161 117 115
163 118 118
161 117 118
158 115 109
160 117 113
160 116 112
161 117 113
161 116 109
160 116 109
161 117 110
159 115 109
161 117 112
161 117 111
162 118 116
162 118 112
163 118 113
161 117 114
161 117 110
161 117 110
165 119 118
161 117 111
164 119 119
161 118 112
161 118 115
160 117 108
163 118 115
159 116 102
163 118 109
162 117 111
159 114 106
160 117 107
163 118 114
161 117 112
163 118 114
162 118 112
164 118 115
163 117 110
161 117 108
159 116 101
162 117 110
161 117 111
161 117 105
162 119 120
163 118 116
162 118 116
161 117 109
161 117 108
163 117 110
164 119 115
162 117 113
161 117 112
160 116 106
166 120 122
162 118 109
159 116 105
161 117 109
164 119 118
163 119 116
164 119 117
164 119 112
162 117 113
161 117 106
159 116 103
159 115 112
163 117 107
162 118 112
159 116 108
161 117 113
164 119 117
162 117 114
163 118 117
162 118 113
162 117 111
162 118 111
163 118 113
165 119 116
162 117 113
164 119 118
162 117 114
162 118 113
164 119 116
161 117 112
159 115 101
162 117 108
163 118 113
160 116 112
163 118 116
163 118 114
164 119 118
158 115 97
157 113 96
161 117 111
160 115 105
161 117 108
163 118 116
160 116 109
159 115 107
161 117 110
158 115 106
160 117 107
162 117 111
161 116 112
162 117 107
159 116 105
161 117 111
162 116 112
163 117 115
162 116 108
163 118 115
161 115 107
158 114 107
160 116 113
157 114 101
163 117 114
160 116 113
158 114 106
161 117 110
163 118 122
157 113 109
158 111 100
157 113 103
139 87 53
135 80 46
130 75 41
130 75 44
136 81 46
131 77 46
132 78 44
135 81 46
131 76 42
135 81 46
136 82 47
135 80 45
139 85 51
137 83 47
141 86 52
140 86 50
139 86 50
140 85 50
140 86 50
142 88 52
144 89 54
142 88 51
145 90 54
148 93 58
160 126 81
179 172 113
179 174 114
179 174 114
179 174 114
180 174 114
180 174 114
180 174 114
180 174 114
180 174 114
180 174 114
180 174 114
180 174 114
180 174 114
180 174 114
180 174 114
180 174 114
180 174 114
180 174 114
180 174 114
180 174 114
180 174 114
180 174 114
180 174 114
180 174 114
181 174 114
181 174 114
181 174 114
181 174 114
181 174 114
181 174 114
181 174 114
181 174 114
181 174 114
181 174 114
181 174 114
181 175 114
182 175 114
182 175 114
182 175 114
182 175 114
182 175 114
182 175 114
182 175 114
182 175 114
182 175 114
182 175 114
182 175 114
183 175 114
183 175 114
183 175 114
183 175 114
183 175 114
183 175 114
183 175 114
183 175 114
183 175 114
183 175 114
183 175 114
184 175 114
184 176 114
184 176 114
184 176 114
184 176 114
184 176 114
184 176 114
184 176 114
184 176 114
184 176 114
184 176 114
185 176 114
185 176 114
185 176 114
185 176 114
185 176 114
185 176 114
185 176 114
185 176 114
185 176 114
185 176 114
185 176 114
186 176 114
186 176 114
186 177 114
186 177 114
186 177 114
186 177 114
186 177 114
186 177 114
186 177 114
186 177 114
187 177 114
187 177 114
187 177 114
187 177 114
187 177 114
187 177 114
187 177 114
187 177 114
187 177 114
187 177 114
187 177 114
188 177 114
188 177 114
188 177 114
188 178 114
188 178 114
188 178 114
188 178 114
188 178 114
188 178 114
188 178 114
189 178 114
189 178 114
189 206 228
189 206 228
189 206 228
189 206 228
189 206 228
189 205 228
188 205 228
188 205 228
188 205 228
188 205 228
188 205 228
188 205 228
188 205 228
188 205 228
188 205 228
188 205 228
188 205 228
188 205 228
187 205 228
187 205 228
187 205 228
187 205 228
187 205 228
187 205 228
187 205 228
187 205 228
187 204 228
187 204 228
187 204 228
186 204 228
186 204 228
186 204 228
186 204 228
186 204 228
186 204 228
186 204 228
186 204 228
186 204 228
186 204 228
186 204 228
185 204 228
185 204 228
185 204 228
185 204 228
185 204 228
185 204 228
185 203 228
185 203 228
185 203 228
185 203 228
185 203 228
185 203 228
184 203 228
184 203 228
184 203 228
184 203 228
184 203 228
184 203 228
184 203 228
184 203 228
184 203 228
184 203 228
184 203 228
183 203 228
183 203 228
183 203 228
183 203 228
183 202 228
183 202 228
183 202 228
183 202 228
183 202 228
183 202 228
183 202 228
183 202 228
182 202 228
182 202 228
182 202 228
182 202 228
182 202 228
182 202 228
182 202 228
182 202 228
182 202 228
182 202 228
182 202 228
182 202 228
182 202 228
182 202 228
181 202 228
181 202 228
181 201 228
181 201 228
181 201 228
181 201 228
181 201 228
181 201 228
181 201 228
181 201 228
181 201 228
181 201 228
181 201 228
181 201 228
181 201 228
181 201 228
181 201 228
181 201 228
180 201 228
180 201 228
180 201 228
180 200 227
157 143 158
144 106 114
144 105 114
144 105 113
144 105 112
144 105 116
143 105 114
140 103 112
139 102 112
138 101 110
139 101 112
137 100 108
138 100 109
137 99 108
136 98 107
132 95 104
137 99 110
133 95 106
132 94 105
132 95 107
131 94 106
130 94 108
128 90 102
131 94 108
127 90 103
130 92 104
154 112 108
159 116 110
156 114 112
161 117 114
158 115 107
160 117 114
159 116 109
162 118 115
159 116 106
163 118 113
159 115 114
162 118 120
165 119 118
159 116 105
160 116 108
162 118 111
158 116 107
164 119 118
159 116 108
158 116 105
160 117 113
161 117 117
160 116 104
163 119 118
162 118 116
161 117 112
158 115 104
160 117 110
163 119 112
161 117 116
159 116 104
161 117 111
159 115 109
158 115 105
161 117 113
162 118 111
157 115 101
160 117 104
162 117 104
161 117 113
163 118 111
161 118 113
163 118 110
164 119 114
164 119 118
162 118 113
160 116 101
162 118 111
162 118 109
162 118 109
160 115 107
165 120 118
163 118 113
161 117 113
163 118 113
163 118 116
161 117 109
163 118 115
162 118 113
161 117 111
162 117 108
161 117 109
162 117 116
162 118 113
159 116 103
162 117 109
163 118 113
162 118 113
165 119 117
165 120 120
161 117 110
165 120 120
163 119 114
161 117 108
165 119 117
159 116 106
160 115 108
160 116 108
158 114 100
165 119 117
160 117 105
162 117 114
163 118 112
162 117 111
161 117 110
159 115 101
163 118 114
162 118 116
160 117 106
161 117 113
165 119 116
162 118 107
159 116 107
163 118 118
162 117 110
162 118 116
161 117 110
159 116 106
161 117 111
161 116 109
162 118 114
163 118 117
160 116 111
161 117 111
158 115 105
162 118 113
164 119 116
162 116 110
161 117 113
163 118 115
159 115 106
163 117 109
160 116 109
160 115 111
164 118 116
159 115 110
159 115 108
162 117 113
161 116 119
161 115 105
158 113 106
162 116 115
161 115 110
157 112 106
157 112 103
133 80 53
128 74 41
124 71 40
128 74 41
129 73 40
132 78 44
134 79 45
134 79 45
134 80 46
134 80 45
133 80 45
136 82 47
137 83 48
138 83 47
136 80 44
137 83 48
139 85 49
139 84 48
141 86 50
142 88 51
143 88 52
143 88 51
146 90 53
146 91 56
144 89 53
155 120 77
180 173 113
180 174 114
180 174 114
180 174 114
181 174 114
181 174 114
181 174 114
181 174 114
181 174 114
181 174 114
181 174 114
181 174 114
181 174 114
181 174 114
181 174 114
181 174 114
181 174 114
181 174 114
181 174 114
181 174 114
181 174 114
181 174 114
181 175 114
182 175 114
182 175 114
182 175 114
182 175 114
182 175 114
182 175 114
182 175 114
182 175 114
182 175 114
182 175 114
182 175 114
182 175 114
182 175 114
183 175 114
183 175 114
183 175 114
183 175 114
183 175 114
183 175 114
183 175 114
183 175 114
183 175 114
183 175 114
183 175 114
183 175 114
184 176 114
184 176 114
184 176 114
184 176 114
184 176 114
184 176 114
184 176 114
184 176 114
184 176 114
184 176 114
184 176 114
185 176 114
185 176 114
185 176 114
185 176 114
185 176 114
185 176 114
185 176 114
185 176 114
185 176 114
185 176 114
185 176 114
185 176 114
186 176 114
186 177 114
186 177 114
186 177 114
186 177 114
186 177 114
186 177 114
186 177 114
186 177 114
186 177 114
186 177 114
187 177 114
187 177 114
187 177 114
187 177 114
187 177 114
187 177 114
187 177 114
187 177 114
187 177 114
187 177 114
187 177 114
188 177 114
188 177 114
188 177 114
188 177 114
188 178 114
188 178 114
188 178 114
188 178 114
188 178 114
188 178 114
188 178 114
188 178 114
189 178 114
189 178 114
189 178 114
189 178 114
189 178 114
189 178 114
189 178 114
190 206 228
189 206 228
189 206 228
189 206 228
189 206 228
189 206 228
189 206 228
189 206 228
189 206 228
189 206 228
189 206 228
189 205 228
189 205 228
188 205 228
188 205 228
188 205 228
188 205 228
188 205 228
188 205 228
188 205 228
188 205 228
188 205 228
188 205 228
188 205 228
188 205 228
187 205 228
187 205 228
187 205 228
187 205 228
187 205 228
187 205 228
187 205 228
187 205 228
187 204 228
187 204 228
187 204 228
187 204 228
186 204 228
186 204 228
186 204 228
186 204 228
186 204 228
186 204 228
186 204 228
186 204 228
186 204 228
186 204 228
186 204 228
186 204 228
185 204 228
185 204 228
185 204 228
185 204 228
185 204 228
185 204 228
185 203 228
185 203 228
185 203 228
185 203 228
185 203 228
185 203 228
184 203 228
184 203 228
184 203 228
184 203 228
184 203 228
184 203 228
184 203 228
184 203 228
184 203 228
184 203 228
184 203 228
184 203 228
184 203 228
183 203 228
183 203 228
183 203 228
183 203 228
183 202 228
183 202 228
183 202 228
183 202 228
183 202 228
183 202 228
183 202 228
183 202 228
183 202 228
183 202 228
182 202 228
182 202 228
182 202 228
182 202 228
182 202 228
182 202 228
182 202 228
182 202 228
182 202 228
182 202 228
182 202 228
182 202 228
182 202 228
182 202 228
182 202 228
182 202 228
182 202 228
182 202 228
182 202 228
181 202 228
181 202 228
181 201 228
155 137 150
143 105 112
144 105 112
143 105 112
142 104 110
142 103 112
140 102 108
141 103 112
140 101 110
140 102 108
139 101 106
137 100 106
140 101 109
134 96 103
136 98 108
135 97 106
133 95 103
131 95 103
135 98 108
130 94 102
126 89 99
130 91 101
134 96 108
126 89 103
128 91 103
128 90 103
140 101 108
159 115 114
160 116 118
160 117 111
160 116 113
160 117 115
160 117 112
159 116 110
159 116 110
164 119 118
161 117 116
161 117 110
160 117 113
166 120 122
162 117 110
162 117 110
165 119 120
161 117 109
161 117 108
162 118 110
161 117 114
162 118 111
161 117 113
161 117 110
163 118 113
161 117 107
162 117 114
159 116 108
164 118 112
159 116 101
164 119 115
164 119 118
163 118 113
163 118 113
161 116 111
161 118 115
164 118 114
164 119 116
161 117 107
159 115 106
161 116 107
162 118 115
164 120 120
161 117 106
165 119 118
163 118 116
163 118 109
162 118 111
164 119 110
163 118 117
165 120 117
161 117 110
162 118 114
164 119 118
162 117 111
165 119 117
161 117 109
164 118 112
164 119 113
162 117 109
162 118 114
164 119 116
161 117 108
163 119 118
163 118 110
161 117 109
165 119 116
162 117 113
160 116 111
160 116 102
161 117 110
163 119 117
162 117 112
162 117 111
161 117 106
161 117 107
160 116 105
162 117 112
161 117 106
161 117 110
162 118 110
162 117 113
162 117 109
161 117 108
160 116 107
161 117 111
159 115 105
162 118 114
164 118 114
160 116 109
160 115 105
163 118 114
163 118 116
162 117 114
162 117 111
162 117 110
162 117 112
164 118 111
163 117 108
160 115 106
163 118 114
158 113 99
160 115 106
160 116 108
162 117 111
161 116 111
162 117 108
163 119 119
161 117 107
161 116 108
161 116 112
160 116 107
162 116 111
161 115 106
162 116 107
161 115 109
160 116 110
159 115 111
160 116 113
161 116 107
160 115 113
159 114 106
160 114 109
157 113 105
156 111 105
156 111 103
138 86 67
126 71 38
128 73 41
127 72 40
127 73 42
131 75 41
131 76 44
132 78 45
130 75 42
130 76 43
131 78 42
134 81 47
137 81 46
135 81 45
134 78 42
137 82 47
140 85 49
140 85 49
138 83 47
141 86 48
141 86 50
142 87 50
143 88 51
146 90 54
144 89 52
146 91 54
157 122 77
181 174 114
181 175 114
181 175 114
182 175 114
182 175 114
182 175 114
182 175 114
182 175 114
182 175 114
182 175 114
182 175 114
182 175 114
182 175 114
182 175 114
182 175 114
182 175 114
182 175 114
182 175 114
182 175 114
182 175 114
182 175 114
182 175 114
183 175 114
183 175 114
183 175 114
183 175 114
183 175 114
183 175 114
183 175 114
183 175 114
183 175 114
183 175 114
183 175 114
183 175 114
183 175 114
183 175 114
184 175 114
184 176 114
184 176 114
184 176 114
184 176 114
184 176 114
184 176 114
184 176 114
184 176 114
184 176 114
184 176 114
184 176 114
184 176 114
185 176 114
185 176 114
185 176 114
185 176 114
185 176 114
185 176 114
185 176 114
185 176 114
185 176 114
185 176 114
185 176 114
185 176 114
186 176 114
186 176 114
186 177 114
186 177 114
186 177 114
186 177 114
186 177 114
186 177 114
186 177 114
186 177 114
186 177 114
187 177 114
187 177 114
187 177 114
187 177 114
187 177 114
187 177 114
187 177 114
187 177 114
187 177 114
187 177 114
187 177 114
187 177 114
187 177 114
188 177 114
188 177 114
188 177 114
188 177 114
188 178 114
188 178 114
188 178 114
188 178 114
188 178 114
188 178 114
188 178 114
188 178 114
189 178 114
189 178 114
189 178 114
189 178 114
189 178 114
189 178 114
189 178 114
189 178 114
189 178 114
189 178 114
189 178 114
189 178 114
190 178 114
190 178 114
190 206 228
190 206 228
190 206 228
190 206 228
190 206 228
190 206 228
190 206 228
189 206 228
189 206 228
189 206 228
189 206 228
189 206 228
189 206 228
189 206 228
189 206 228
189 206 228
189 206 228
189 206 228
189 206 228
189 205 228
189 205 228
188 205 228
188 205 228
188 205 228
188 205 228
188 205 228
188 205 228
188 205 228
188 205 228
188 205 228
188 205 228
188 205 228
188 205 228
188 205 228
187 205 228
187 205 228
187 205 228
187 205 228
187 205 228
187 205 228
187 205 228
187 205 228
187 204 228
187 204 228
187 204 228
187 204 228
187 204 228
186 204 228
186 204 228
186 204 228
186 204 228
186 204 228
186 204 228
186 204 228
186 204 228
186 204 228
186 204 228
186 204 228
186 204 228
185 204 228
185 204 228
185 204 228
185 204 228
185 204 228
185 204 228
185 204 228
185 203 228
185 203 228
185 203 228
185 203 228
185 203 228
185 203 228
184 203 228
184 203 228
184 203 228
184 203 228
184 203 228
184 203 228
184 203 228
184 203 228
184 203 228
184 203 228
184 203 228
184 203 228
184 203 228
184 203 228
184 203 228
184 203 228
183 203 228
183 203 228
183 203 228
183 203 228
183 203 228
183 202 228
183 202 228
183 202 228
183 202 228
183 202 228
183 202 228
183 202 228
183 202 228
183 202 228
183 202 228
183 202 228
183 202 228
183 202 228
183 202 228
183 202 228
182 202 228
163 154 171
145 106 112
143 105 108
143 104 110
145 105 110
144 105 108
141 103 111
140 102 107
141 102 107
138 100 106
138 101 108
137 99 104
137 98 104
139 100 108
136 98 106
135 97 107
132 94 99
131 94 101
130 91 100
131 93 100
130 91 101
130 93 104
128 90 101
127 89 99
125 88 98
127 90 102
124 87 98
145 103 107
155 113 111
162 117 117
161 117 116
158 115 105
158 114 110
158 116 112
157 115 106
160 116 113
158 116 105
158 115 106
162 116 108
161 117 106
163 118 114
161 116 115
162 118 111
161 117 114
162 117 109
162 118 111
161 117 110
158 114 107
164 118 112
163 118 113
164 119 116
160 116 109
163 119 122
162 117 109
160 116 107
162 118 116
164 119 122
157 114 101
160 117 111
162 117 111
162 118 111
163 118 117
161 117 110
162 117 109
162 118 113
163 118 113
158 115 105
161 117 107
163 119 118
162 118 113
162 118 113
156 114 99
165 119 117
162 117 108
162 117 116
157 114 103
161 117 110
160 116 102
160 116 103
159 116 105
163 119 116
163 118 113
161 117 110
163 118 110
161 117 111
161 116 107
163 118 114
164 119 114
164 118 117
160 116 107
159 116 109
162 117 110
162 118 113
161 117 106
161 117 113
161 116 108
159 116 108
163 118 114
162 117 110
163 118 110
161 118 113
161 117 104
161 117 109
162 118 112
159 117 108
158 115 102
163 118 112
164 118 113
160 116 108
163 118 112
162 117 112
164 119 116
162 118 107
158 115 101
160 116 107
158 115 107
162 117 106
159 115 103
164 119 113
162 118 113
163 118 110
162 117 112
161 117 114
158 115 103
164 119 117
162 118 114
161 116 109
163 118 111
163 118 117
163 118 114
162 117 110
160 116 112
162 117 113
160 116 107
161 117 109
161 116 108
160 116 108
162 117 114
165 118 116
159 116 105
160 115 110
159 115 110
159 115 108
161 116 115
160 116 111
160 114 101
161 115 112
159 114 102
157 111 102
159 114 106
161 115 113
158 113 102
160 114 111
145 97 84
124 67 34
122 67 35
118 65 34
128 73 40
128 73 41
124 70 38
125 71 39
128 74 37
131 76 42
131 76 42
134 78 44
135 81 44
135 80 45
136 82 46
135 82 45
136 82 43
139 85 46
137 83 44
139 84 48
142 87 52
142 87 50
142 87 51
143 89 52
143 89 52
146 91 54
145 91 53
165 138 89
183 175 114
183 175 114
183 175 114
183 175 114
183 175 114
183 175 114
183 175 114
183 175 114
183 175 114
183 175 114
183 175 114
183 175 114
183 175 114
183 175 114
183 175 114
183 175 114
183 175 114
183 175 114
183 175 114
183 175 114
183 175 114
184 175 114
184 176 114
184 176 114
184 176 114
184 176 114
184 176 114
184 176 114
184 176 114
184 176 114
184 176 114
184 176 114
184 176 114
184 176 114
184 176 114
184 176 114
184 176 114
185 176 114
185 176 114
185 176 114
185 176 114
185 176 114
185 176 114
185 176 114
185 176 114
185 176 114
185 176 114
185 176 114
185 176 114
185 176 114
186 176 114
186 176 114
186 177 114
186 177 114
186 177 114
186 177 114
186 177 114
186 177 114
186 177 114
186 177 114
186 177 114
186 177 114
187 177 114
187 177 114
187 177 114
187 177 114
187 177 114
187 177 114
187 177 114
187 177 114
187 177 114
187 177 114
187 177 114
187 177 114
187 177 114
188 177 114
188 177 114
188 177 114
188 177 114
188 178 114
188 178 114
188 178 114
188 178 114
188 178 114
188 178 114
188 178 114
188 178 114
188 178 114
189 178 114
189 178 114
189 178 114
189 178 114
189 178 114
189 178 114
189 178 114
189 178 114
189 178 114
189 178 114
189 178 114
189 178 114
189 178 114
190 178 114
190 178 114
190 178 114
190 178 114
190 178 114
190 179 114
190 179 114
190 179 114
190 179 114
191 207 228
190 207 228
190 206 228
190 206 228
190 206 228
190 206 228
190 206 228
190 206 228
190 206 228
190 206 228
190 206 228
190 206 228
190 206 228
190 206 228
190 206 228
190 206 228
189 206 228
189 206 228
189 206 228
189 206 228
189 206 228
189 206 228
189 206 228
189 206 228
189 206 228
189 206 228
189 206 228
189 205 228
189 205 228
189 205 228
188 205 228
188 205 228
188 205 228
188 205 228
188 205 228
188 205 228
188 205 228
188 205 228
188 205 228
188 205 228
188 205 228
188 205 228
188 205 228
188 205 228
187 205 228
187 205 228
187 205 228
187 205 228
187 205 228
187 205 228
187 205 228
187 205 228
187 205 228
187 204 228
187 204 228
187 204 228
187 204 228
186 204 228
186 204 228
186 204 228
186 204 228
186 204 228
186 204 228
186 204 228
186 204 228
186 204 228
186 204 228
186 204 228
186 204 228
186 204 228
186 204 228
186 204 228
185 204 228
185 204 228
185 204 228
185 204 228
185 204 228
185 204 228
185 204 228
185 203 228
185 203 228
185 203 228
185 203 228
185 203 228
185 203 228
185 203 228
184 203 228
184 203 228
184 203 228
184 203 228
184 203 228
184 203 228
184 203 228
184 203 228
184 203 228
184 203 228
184 203 228
184 203 228
184 203 228
184 203 228
184 203 228
184 203 228
184 203 228
184 203 228
184 203 228
184 203 228
184 203 228
184 203 228
170 175 195
146 107 113
143 104 105
145 106 111
143 104 109
144 105 110
141 103 107
142 103 107
144 105 114
137 100 100
138 100 104
138 100 108
137 100 107
134 97 101
138 99 104
132 94 101
133 95 100
133 95 102
134 96 101
128 91 100
130 93 101
129 92 101
124 86 93
126 88 99
123 86 94
126 89 99
124 87 99
119 82 93
151 109 102
159 115 112
156 112 108
157 113 106
159 116 111
160 116 113
163 118 119
159 115 111
158 116 108
159 115 110
159 116 106
160 117 113
159 115 108
158 115 103
158 115 112
162 118 112
160 117 105
160 116 113
161 117 111
161 117 115
162 118 116
160 116 110
162 117 108
163 119 115
163 118 110
163 118 115
160 116 107
157 115 99
163 119 114
160 116 106
162 117 104
162 117 107
161 117 111
161 117 108
165 119 116
159 117 105
161 117 109
164 119 116
163 118 118
163 119 115
161 116 107
160 116 111
160 115 107
159 116 103
163 118 112
160 117 108
163 118 113
162 117 105
163 118 114
165 119 118
162 117 113
160 116 104
164 118 112
162 117 110
162 118 112
163 118 112
161 117 111
162 118 113
163 118 110
160 116 106
160 116 108
162 117 110
161 116 114
162 117 116
159 116 106
160 115 106
161 118 108
160 116 111
164 118 113
162 117 108
162 118 113
157 114 100
161 118 109
163 118 113
162 117 109
160 116 104
156 113 98
162 117 108
161 116 109
163 118 114
161 117 103
161 117 107
160 117 109
162 117 114
162 117 109
163 119 112
162 117 109
162 117 112
163 119 113
158 114 104
161 116 105
162 118 112
162 118 113
161 117 108
162 116 111
160 116 107
163 117 111
163 118 113
163 118 110
160 116 106
162 117 109
160 116 109
163 117 110
162 116 112
163 117 103
162 118 112
159 116 107
160 116 105
163 118 114
161 116 111
162 117 108
160 115 107
160 115 110
163 117 117
162 117 112
160 116 111
161 115 108
162 116 113
158 113 105
161 116 113
159 114 103
160 115 108
159 114 108
158 113 102
159 113 103
158 111 105
155 108 104
121 67 38
122 68 37
125 69 37
126 71 36
123 67 33
128 73 40
127 73 39
131 76 40
133 77 42
130 76 39
135 80 45
129 74 40
134 79 43
134 80 41
137 81 44
137 82 44
141 85 48
139 85 50
140 86 49
144 88 51
139 84 46
142 88 51
142 88 51
144 89 53
144 90 54
146 90 52
145 91 53
174 157 101
184 175 114
184 176 114
184 176 114
184 176 114
184 176 114
184 176 114
184 176 114
184 176 114
184 176 114
184 176 114
184 176 114
184 176 114
184 176 114
184 176 114
184 176 114
184 176 114
184 176 114
184 176 114
184 176 114
184 176 114
184 176 114
185 176 114
185 176 114
185 176 114
185 176 114
185 176 114
185 176 114
185 176 114
185 176 114
185 176 114
185 176 114
185 176 114
185 176 114
185 176 114
185 176 114
185 176 114
185 176 114
186 176 114
186 176 114
186 177 114
186 177 114
186 177 114
186 177 114
186 177 114
186 177 114
186 177 114
186 177 114
186 177 114
186 177 114
186 177 114
186 177 114
187 177 114
187 177 114
187 177 114
187 177 114
187 177 114
187 177 114
187 177 114
187 177 114
187 177 114
187 177 114
187 177 114
187 177 114
187 177 114
188 177 114
188 177 114
188 177 114
188 177 114
188 177 114
188 178 114
188 178 114
188 178 114
188 178 114
188 178 114
188 178 114
188 178 114
188 178 114
188 178 114
188 178 114
189 178 114
189 178 114
189 178 114
189 178 114
189 178 114
189 178 114
189 178 114
189 178 114
189 178 114
189 178 114
189 178 114
189 178 114
189 178 114
189 178 114
190 178 114
190 178 114
190 178 114
190 178 114
190 178 114
190 178 114
190 179 114
190 179 114
190 179 114
190 179 114
190 179 114
190 179 114
190 179 114
190 179 114
191 179 114
191 179 114
191 207 228
191 207 228
191 207 228
191 207 228
191 207 228
191 207 228
191 207 228
191 207 228
191 207 228
190 207 228
190 206 228
190 206 228
190 206 228
190 206 228
190 206 228
190 206 228
190 206 228
190 206 228
190 206 228
190 206 228
190 206 228
190 206 228
190 206 228
190 206 228
190 206 228
189 206 228
189 206 228
189 206 228
189 206 228
189 206 228
189 206 228
189 206 228
189 206 228
189 206 228
189 206 228
189 206 228
189 206 228
189 206 228
189 205 228
188 205 228
188 205 228
188 205 228
188 205 228
188 205 228
188 205 228
188 205 228
188 205 228
188 205 228
188 205 228
188 205 228
188 205 228
188 205 228
188 205 228
188 205 228
188 205 228
187 205 228
187 205 228
187 205 228
187 205 228
187 205 228
187 205 228
187 205 228
187 205 228
187 205 228
187 205 228
187 204 228
187 204 228
187 204 228
187 204 228
187 204 228
186 204 228
186 204 228
186 204 228
186 204 228
186 204 228
186 204 228
186 204 228
186 204 228
186 204 228
186 204 228
186 204 228
186 204 228
186 204 228
186 204 228
186 204 228
186 204 228
186 204 228
185 204 228
185 204 228
185 204 228
185 204 228
185 204 228
185 204 228
185 204 228
185 204 228
185 204 228
185 204 228
185 203 228
185 203 228
185 203 228
185 203 228
185 203 228
185 203 228
185 203 228
185 203 228
185 203 228
185 203 228
184 201 226
149 117 125
147 107 115
144 105 107
144 104 108
140 102 104
141 104 107
141 102 106
140 102 106
141 103 106
140 102 106
137 99 106
138 100 104
134 95 100
134 97 101
134 95 102
134 97 104
129 92 96
133 95 103
131 93 100
128 91 100
129 92 101
129 92 99
123 84 90
125 87 96
123 86 95
121 83 91
119 81 90
121 84 91
159 116 112
156 113 107
157 114 109
159 115 108
160 116 108
157 114 110
159 116 110
159 116 106
158 115 100
160 116 112
160 116 108
159 115 110
160 116 108
160 116 108
158 115 102
160 116 106
160 117 108
158 115 105
163 118 110
164 119 114
161 117 104
159 116 105
161 117 109
162 117 109
164 119 115
159 116 109
161 116 109
159 116 105
161 117 108
162 117 116
162 118 110
165 119 112
160 116 106
163 118 117
164 119 112
164 119 113
164 118 111
162 117 110
161 117 109
164 119 114
161 117 107
159 116 104
155 113 96
161 117 106
161 118 110
163 118 104
161 116 109
158 115 105
159 116 102
160 115 110
162 118 108
163 118 111
160 116 104
161 116 105
162 117 113
161 115 102
161 117 113
162 118 109
163 118 110
163 118 110
160 116 104
162 117 110
162 118 116
164 119 114
161 117 106
159 116 105
160 117 109
162 118 106
162 117 112
162 117 107
159 116 101
160 115 102
162 117 109
163 118 109
161 117 110
159 117 104
158 115 103
162 117 110
163 118 111
165 119 118
162 117 105
160 116 105
163 118 112
162 117 110
161 117 103
162 117 114
163 118 112
161 116 103
160 116 110
160 117 107
161 117 110
163 117 111
160 116 105
161 117 111
161 116 110
160 116 104
163 117 110
162 117 105
161 116 110
164 119 116
164 118 117
160 116 110
156 113 100
161 117 110
164 119 116
164 118 112
162 117 114
161 117 116
160 115 110
164 118 119
162 116 108
162 116 108
161 116 109
160 115 110
160 115 108
158 114 109
162 116 116
162 117 120
161 115 105
163 116 112
159 114 110
161 117 112
156 112 102
160 114 106
160 113 106
159 113 104
157 109 101
118 65 39
126 71 36
123 67 36
121 67 37
126 72 41
122 67 35
128 71 37
130 77 42
131 76 40
132 77 43
130 74 36
133 79 42
133 78 44
134 79 42
132 79 40
138 83 45
139 83 48
140 85 47
139 86 51
139 84 45
141 85 47
140 85 48
144 90 52
142 88 49
142 87 50
143 90 52
142 89 51
152 105 64
183 172 112
185 176 114
185 176 114
185 176 114
185 176 114
185 176 114
185 176 114
185 176 114
185 176 114
185 176 114
185 176 114
185 176 114
185 176 114
185 176 114
185 176 114
185 176 114
185 176 114
185 176 114
185 176 114
185 176 114
185 176 114
186 176 114
186 176 114
186 176 114
186 176 114
186 177 114
186 177 114
186 177 114
186 177 114
186 177 114
186 177 114
186 177 114
186 177 114
186 177 114
186 177 114
186 177 114
186 177 114
186 177 114
187 177 114
187 177 114
187 177 114
187 177 114
187 177 114
187 177 114
187 177 114
187 177 114
187 177 114
187 177 114
187 177 114
187 177 114
187 177 114
187 177 114
187 177 114
188 177 114
188 177 114
188 177 114
188 177 114
188 178 114
188 178 114
188 178 114
188 178 114
188 178 114
188 178 114
188 178 114
188 178 114
188 178 114
188 178 114
188 178 114
188 178 114
189 178 114
189 178 114
189 178 114
189 178 114
189 178 114
189 178 114
189 178 114
189 178 114
189 178 114
189 178 114
189 178 114
189 178 114
189 178 114
189 178 114
189 178 114
190 178 114
190 178 114
190 178 114
190 178 114
190 178 114
190 179 114
190 179 114
190 179 114
190 179 114
190 179 114
190 179 114
190 179 114
190 179 114
190 179 114
191 179 114
191 179 114
191 179 114
191 179 114
191 179 114
191 179 114
191 179 114
191 179 114
191 179 114
191 179 114
191 179 114
192 207 228
192 207 228
191 207 228
191 207 228
191 207 228
191 207 228
191 207 228
191 207 228
191 207 228
191 207 228
191 207 228
191 207 228
191 207 228
191 207 228
191 207 228
191 207 228
191 207 228
191 207 228
191 207 228
190 207 228
190 206 228
190 206 228
190 206 228
190 206 228
190 206 228
190 206 228
190 206 228
190 206 228
190 206 228
190 206 228
190 206 228
190 206 228
190 206 228
190 206 228
190 206 228
189 206 228
189 206 228
189 206 228
189 206 228
189 206 228
189 206 228
189 206 228
189 206 228
189 206 228
189 206 228
189 206 228
189 206 228
189 206 228
189 206 228
189 206 228
189 205 228
189 205 228
188 205 228
188 205 228
188 205 228
188 205 228
188 205 228
188 205 228
188 205 228
188 205 228
188 205 228
188 205 228
188 205 228
188 205 228
188 205 228
188 205 228
188 205 228
188 205 228
187 205 228
187 205 228
187 205 228
187 205 228
187 205 228
187 205 228
187 205 228
187 205 228
187 205 228
187 205 228
187 205 228
187 205 228
187 205 228
187 204 228
187 204 228
187 204 228
187 204 228
187 204 228
186 204 228
186 204 228
186 204 228
186 204 228
186 204 228
186 204 228
186 204 228
186 204 228
186 204 228
186 204 228
186 204 228
186 204 228
186 204 228
186 204 228
186 204 228
186 204 228
186 204 228
186 204 228
186 204 228
186 204 228
186 204 228
168 165 183
143 105 109
143 104 107
145 105 109
142 103 105
141 103 107
140 102 104
139 101 99
140 101 99
141 102 102
138 101 106
139 101 104
134 97 99
133 95 96
134 96 101
132 94 98
135 97 100
133 95 99
137 99 104
132 93 99
128 91 96
125 88 94
127 90 94
123 83 92
121 84 93
118 81 91
122 85 91
120 81 93
125 85 92
156 113 109
152 111 104
155 114 112
160 116 109
158 115 109
157 114 108
159 115 111
159 115 109
155 113 102
161 117 113
157 114 105
160 116 110
163 118 118
161 117 110
159 115 101
162 118 113
162 118 112
160 117 113
162 117 108
164 118 118
160 116 105
160 117 106
159 116 103
158 114 109
163 118 113
164 118 117
165 119 117
160 116 107
161 116 109
162 117 111
161 117 108
160 116 107
160 116 104
163 118 113
158 116 104
161 117 109
160 116 104
160 116 105
162 117 107
162 118 114
161 117 104
160 117 107
160 116 104
162 118 112
159 116 106
157 114 108
159 115 104
158 115 98
161 118 112
160 115 105
160 116 104
160 116 113
161 117 106
162 118 111
162 118 110
160 116 110
162 117 113
160 116 103
161 116 107
161 117 110
163 118 112
159 115 102
159 116 104
162 117 111
162 117 108
162 116 103
164 119 118
158 115 106
162 117 107
162 118 112
163 118 112
163 118 113
160 117 107
164 118 113
161 118 114
166 119 120
161 116 108
165 118 116
163 118 114
164 118 113
159 116 105
160 116 105
161 117 110
160 116 107
162 116 110
163 118 113
161 117 107
161 117 106
160 117 109
161 117 106
163 118 114
163 118 105
159 114 103
161 116 107
159 117 106
160 116 106
161 117 106
157 115 104
158 115 99
161 116 108
159 115 98
161 116 115
161 116 107
164 118 116
162 117 111
160 116 109
162 117 114
159 114 103
163 117 110
159 114 104
159 115 106
163 118 114
157 113 102
161 115 108
159 116 106
159 114 105
161 116 106
160 115 105
157 112 99
156 112 103
158 114 104
154 109 99
159 114 104
158 113 101
158 113 106
158 111 105
157 111 103
125 74 51
119 65 34
116 63 31
119 63 33
122 67 35
129 74 41
126 69 35
128 73 39
127 73 37
129 73 37
130 77 41
133 79 43
136 81 45
135 79 42
134 80 41
138 81 44
136 80 42
137 82 45
139 84 45
138 84 45
138 84 46
143 86 48
142 88 48
141 88 48
142 88 47
144 90 53
146 90 52
144 90 52
170 146 93
186 176 114
186 176 114
186 177 114
186 177 114
186 177 114
186 177 114
186 177 114
186 177 114
186 177 114
186 177 114
186 177 114
186 177 114
186 177 114
186 177 114
186 177 114
186 177 114
186 177 114
186 177 114
186 177 114
186 177 114
186 177 114
187 177 114
187 177 114
187 177 114
187 177 114
187 177 114
187 177 114
187 177 114
187 177 114
187 177 114
187 177 114
187 177 114
187 177 114
187 177 114
187 177 114
187 177 114
187 177 114
187 177 114
187 177 114
188 177 114
188 177 114
188 177 114
188 177 114
188 177 114
188 178 114
188 178 114
188 178 114
188 178 114
188 178 114
188 178 114
188 178 114
188 178 114
188 178 114
188 178 114
188 178 114
189 178 114
189 178 114
189 178 114
189 178 114
189 178 114
189 178 114
189 178 114
189 178 114
189 178 114
189 178 114
189 178 114
189 178 114
189 178 114
189 178 114
189 178 114
189 178 114
190 178 114
190 178 114
190 178 114
190 178 114
190 178 114
190 178 114
190 178 114
190 179 114
190 179 114
190 179 114
190 179 114
190 179 114
190 179 114
190 179 114
190 179 114
190 179 114
190 179 114
191 179 114
191 179 114
191 179 114
191 179 114
191 179 114
191 179 114
191 179 114
191 179 114
191 179 114
191 179 114
191 179 114
191 179 114
191 179 114
191 179 114
191 179 114
191 179 114
191 179 114
192 179 114
192 179 114
192 179 114
192 207 228
192 207 228
192 207 228
192 207 228
192 207 228
192 207 228
192 207 228
192 207 228
192 207 228
192 207 228
192 207 228
192 207 228
191 207 228
191 207 228
191 207 228
191 207 228
191 207 228
191 207 228
191 207 228
191 207 228
191 207 228
191 207 228
191 207 228
191 207 228
191 207 228
191 207 228
191 207 228
191 207 228
191 207 228
191 207 228
190 207 228
190 206 228
190 206 228
190 206 228
190 206 228
190 206 228
190 206 228
190 206 228
190 206 228
190 206 228
190 206 228
190 206 228
190 206 228
190 206 228
190 206 228
190 206 228
190 206 228
190 206 228
190 206 228
189 206 228
189 206 228
189 206 228
189 206 228
189 206 228
189 206 228
189 206 228
189 206 228
189 206 228
189 206 228
189 206 228
189 206 228
189 206 228
189 206 228
189 206 228
189 206 228
189 205 228
189 205 228
188 205 228
188 205 228
188 205 228
188 205 228
188 205 228
188 205 228
188 205 228
188 205 228
188 205 228
188 205 228
188 205 228
188 205 228
188 205 228
188 205 228
188 205 228
188 205 228
188 205 228
188 205 228
188 205 228
187 205 228
187 205 228
187 205 228
187 205 228
187 205 228
187 205 228
187 205 228
187 205 228
187 205 228
187 205 228
187 205 228
187 205 228
187 205 228
187 205 228
187 205 228
187 205 228
187 204 228
187 204 228
187 204 228
187 204 228
186 202 226
145 109 116
145 106 109
145 105 106
142 104 99
142 104 105
142 104 105
141 102 106
143 104 109
140 101 104
139 100 100
136 98 99
138 100 103
137 98 98
133 97 101
132 94 97
133 96 98
132 95 98
127 90 94
132 94 100
126 90 90
127 91 95
125 87 91
125 87 93
118 79 85
123 85 93
123 86 92
115 76 84
119 83 92
137 96 101
158 114 113
159 115 110
159 116 108
160 116 109
158 115 106
162 118 115
159 115 105
160 116 112
163 119 115
161 117 109
159 115 105
157 114 104
159 116 106
162 117 109
160 116 109
161 117 110
159 115 101
160 116 108
162 117 114
160 116 108
159 115 107
163 118 109
161 116 108
158 115 107
164 119 117
160 116 108
160 117 108
164 118 111
159 116 106
160 116 105
161 116 112
159 115 105
160 117 111
162 117 109
158 115 103
161 116 110
159 116 105
161 117 109
160 116 104
162 118 113
160 116 99
160 117 107
159 115 108
161 116 106
160 117 107
161 117 110
162 118 112
162 117 112
159 115 103
162 117 108
161 115 104
163 118 110
159 116 103
160 115 107
158 114 103
163 118 112
162 117 108
161 117 109
160 116 108
161 117 110
162 118 108
160 117 110
160 116 109
162 117 111
161 117 109
158 114 102
162 117 106
162 117 108
158 115 103
162 116 109
162 117 108
161 116 106
163 118 113
161 117 105
163 118 113
159 116 101
163 118 114
160 117 107
164 119 114
163 118 115
162 117 106
162 118 111
164 118 115
162 117 109
165 119 117
157 115 103
160 116 109
161 116 112
162 117 114
160 116 104
163 117 113
161 117 111
160 116 108
162 117 111
162 117 109
159 116 102
163 118 111
163 118 114
162 118 116
160 116 109
162 117 108
161 117 108
160 117 106
158 113 103
162 117 108
161 116 110
161 116 108
161 116 109
163 117 107
160 115 106
161 116 114
161 116 108
158 114 102
161 117 111
160 115 109
158 114 102
158 113 102
161 115 108
160 115 111
160 114 106
159 115 108
159 114 104
159 114 106
159 113 107
158 113 105
158 112 101
157 110 103
133 86 67
118 64 35
115 61 31
116 62 32
129 74 41
120 66 33
124 69 34
120 67 33
125 71 36
129 73 36
129 75 37
133 77 42
134 78 41
135 79 41
132 79 42
134 79 42
135 81 42
136 82 41
137 84 44
137 82 42
138 83 45
138 84 44
140 85 47
144 89 50
142 88 48
140 86 47
146 92 53
144 90 51
148 98 58
184 172 111
187 177 114
187 177 114
187 177 114
187 177 114
187 177 114
187 177 114
187 177 114
187 177 114
187 177 114
187 177 114
187 177 114
187 177 114
187 177 114
187 177 114
187 177 114
187 177 114
187 177 114
187 177 114
187 177 114
187 177 114
187 177 114
188 177 114
188 177 114
188 177 114
188 177 114
188 177 114
188 178 114
188 178 114
188 178 114
188 178 114
188 178 114
188 178 114
188 178 114
188 178 114
188 178 114
188 178 114
188 178 114
188 178 114
188 178 114
189 178 114
189 178 114
189 178 114
189 178 114
189 178 114
189 178 114
189 178 114
189 178 114
189 178 114
189 178 114
189 178 114
189 178 114
189 178 114
189 178 114
189 178 114
189 178 114
189 178 114
189 178 114
190 178 114
190 178 114
190 178 114
190 178 114
190 178 114
190 178 114
190 178 114
190 179 114
190 179 114
190 179 114
190 179 114
190 179 114
190 179 114
190 179 114
190 179 114
190 179 114
190 179 114
190 179 114
190 179 114
191 179 114
191 179 114
191 179 114
191 179 114
191 179 114
191 179 114
191 179 114
191 179 114
191 179 114
191 179 114
191 179 114
191 179 114
191 179 114
191 179 114
191 179 114
191 179 114
191 179 114
191 179 114
192 179 114
192 179 114
192 179 114
192 179 114
192 179 114
192 179 114
192 179 114
192 179 114
192 180 114
192 180 114
192 180 114
192 180 114
192 180 114
193 208 228
193 208 228
193 208 228
193 208 228
193 208 228
192 208 228
192 208 228
192 208 228
192 208 228
192 207 228
192 207 228
192 207 228
192 207 228
192 207 228
192 207 228
192 207 228
192 207 228
192 207 228
192 207 228
192 207 228
192 207 228
192 207 228
192 207 228
192 207 228
191 207 228
191 207 228
191 207 228
191 207 228
191 207 228
191 207 228
191 207 228
191 207 228
191 207 228
191 207 228
191 207 228
191 207 228
191 207 228
191 207 228
191 207 228
191 207 228
191 207 228
191 207 228
191 207 228
191 207 228
190 207 228
190 206 228
190 206 228
190 206 228
190 206 228
190 206 228
190 206 228
190 206 228
190 206 228
190 206 228
190 206 228
190 206 228
190 206 228
190 206 228
190 206 228
190 206 228
190 206 228
190 206 228
190 206 228
190 206 228
189 206 228
189 206 228
189 206 228
189 206 228
189 206 228
189 206 228
189 206 228
189 206 228
189 206 228
189 206 228
189 206 228
189 206 228
189 206 228
189 206 228
189 206 228
189 206 228
189 206 228
189 206 228
189 206 228
189 205 228
189 205 228
188 205 228
188 205 228
188 205 228
188 205 228
188 205 228
188 205 228
188 205 228
188 205 228
188 205 228
188 205 228
188 205 228
188 205 228
188 205 228
188 205 228
188 205 228
188 205 228
188 205 228
188 205 228
188 205 228
188 205 228
188 205 228
170 167 183
144 105 101
141 104 104
140 102 101
144 105 107
141 102 102
138 101 98
139 102 102
135 99 98
141 102 106
140 101 102
140 101 107
139 101 105
138 99 105
135 98 98
134 97 100
128 91 89
130 93 95
133 95 97
123 85 85
125 87 88
130 91 93
125 87 87
121 84 90
120 82 87
125 88 95
117 80 86
116 78 83
110 73 77
140 100 102
159 116 112
155 113 109
156 113 107
157 114 102
162 118 115
162 117 114
156 113 101
159 115 109
159 115 104
159 116 110
158 114 102
158 115 100
158 115 104
159 115 108
163 117 113
162 117 109
159 116 106
159 116 104
160 116 110
159 115 105
161 117 110
163 118 114
162 118 112
159 115 106
161 117 109
163 117 111
161 117 109
159 115 102
160 116 110
160 116 106
160 116 103
160 116 107
162 118 114
159 116 105
158 114 106
160 115 103
162 117 111
162 117 109
157 114 99
162 117 111
160 116 103
160 116 102
163 118 114
161 116 106
160 116 106
162 117 115
162 117 111
159 115 103
161 117 108
161 117 109
163 118 108
160 116 107
160 116 102
159 116 105
163 118 118
161 117 110
159 115 103
163 117 113
165 119 114
161 117 110
163 118 112
163 118 110
162 117 112
161 117 109
159 115 103
162 118 110
161 116 106
162 117 107
163 118 109
164 118 114
161 116 103
159 114 102
163 118 116
162 118 113
163 118 112
162 116 107
159 116 107
160 116 108
160 116 108
161 117 110
159 115 108
162 117 105
159 115 102
164 119 119
159 115 104
161 116 108
161 117 105
162 118 110
161 117 108
161 116 106
158 114 101
164 118 113
159 116 105
161 116 109
163 118 112
161 117 108
160 115 101
162 117 109
162 117 113
158 114 99
164 118 111
159 115 100
157 113 95
159 114 108
159 115 102
162 116 108
162 118 110
161 116 102
162 117 110
162 117 115
158 114 107
161 117 113
160 115 108
160 116 108
159 114 100
160 115 109
160 115 104
157 113 103
156 112 99
162 117 111
159 113 104
159 114 106
161 115 109
159 114 107
156 111 98
154 108 98
153 107 94
140 92 75
115 61 30
117 63 35
115 60 28
118 66 35
124 69 35
125 70 37
127 73 37
126 71 37
127 73 35
128 71 35
127 72 37
135 81 43
134 80 44
131 77 38
133 79 42
135 80 42
137 81 45
136 83 43
137 83 44
139 86 47
140 84 47
138 84 47
138 85 46
141 86 48
140 87 47
142 88 46
146 90 51
144 90 51
170 145 91
188 178 114
188 178 114
188 178 114
188 178 114
188 178 114
188 178 114
188 178 114
188 178 114
188 178 114
188 178 114
188 178 114
188 178 114
188 178 114
188 178 114
188 178 114
188 178 114
188 178 114
188 178 114
188 178 114
188 178 114
189 178 114
189 178 114
189 178 114
189 178 114
189 178 114
189 178 114
189 178 114
189 178 114
189 178 114
189 178 114
189 178 114
189 178 114
189 178 114
189 178 114
189 178 114
189 178 114
189 178 114
189 178 114
189 178 114
189 178 114
189 178 114
190 178 114
190 178 114
190 178 114
190 178 114
190 178 114
190 178 114
190 178 114
190 178 114
190 179 114
190 179 114
190 179 114
190 179 114
190 179 114
190 179 114
190 179 114
190 179 114
190 179 114
190 179 114
190 179 114
190 179 114
191 179 114
191 179 114
191 179 114
191 179 114
191 179 114
191 179 114
191 179 114
191 179 114
191 179 114
191 179 114
191 179 114
191 179 114
191 179 114
191 179 114
191 179 114
191 179 114
191 179 114
191 179 114
191 179 114
191 179 114
191 179 114
192 179 114
192 179 114
192 179 114
192 179 114
192 179 114
192 179 114
192 179 114
192 179 114
192 179 114
192 180 114
192 180 114
192 180 114
192 180 114
192 180 114
192 180 114
192 180 114
192 180 114
192 180 114
192 180 114
192 180 114
193 180 114
193 180 114
193 180 114
193 180 114
193 180 114
193 208 228
193 208 228
193 208 228
193 208 228
193 208 228
193 208 228
193 208 228
193 208 228
193 208 228
193 208 228
193 208 228
193 208 228
193 208 228
193 208 228
193 208 228
193 208 228
193 208 228
192 208 228
192 208 228
192 208 228
192 208 228
192 208 228
192 207 228
192 207 228
192 207 228
192 207 228
192 207 228
192 207 228
192 207 228
192 207 228
192 207 228
192 207 228
192 207 228
192 207 228
192 207 228
192 207 228
192 207 228
192 207 228
192 207 228
191 207 228
191 207 228
191 207 228
191 207 228
191 207 228
191 207 228
191 207 228
191 207 228
191 207 228
191 207 228
191 207 228
191 207 228
191 207 228
191 207 228
191 207 228
191 207 228
191 207 228
191 207 228
191 207 228
191 207 228
191 207 228
191 207 228
191 207 228
190 206 228
190 207 228
190 206 228
190 206 228
190 206 228
190 206 228
190 206 228
190 206 228
190 206 228
190 206 228
190 206 228
190 206 228
190 206 228
190 206 228
190 206 228
190 206 228
190 206 228
190 206 228
190 206 228
190 206 228
190 206 228
190 206 228
190 206 228
189 206 228
189 206 228
189 206 228
189 206 228
189 206 228
189 206 228
189 206 228
189 206 228
189 206 228
189 206 228
189 206 228
189 206 228
189 206 228
189 206 228
189 206 228
189 206 228
189 206 228
189 206 228
189 206 228
189 206 228
189 206 228
155 131 139
144 105 103
145 105 106
139 102 98
143 104 105
144 104 105
139 102 105
140 102 101
138 100 99
137 99 98
136 99 96
141 101 101
134 95 99
133 96 96
135 95 94
131 93 93
130 93 90
129 90 92
132 93 96
128 90 94
129 90 96
125 87 90
121 83 87
124 87 87
121 83 87
121 83 82
114 75 80
112 75 78
108 70 72
142 101 96
159 115 115
155 113 103
157 113 108
157 114 104
158 114 105
157 115 103
160 116 114
159 116 107
162 117 112
157 114 106
158 116 104
161 117 108
159 116 110
161 116 114
162 117 110
160 116 107
162 118 111
158 116 103
159 115 107
163 118 112
161 116 110
164 119 114
158 116 100
159 116 111
161 116 110
162 118 113
158 115 103
160 116 108
160 116 104
161 117 106
162 117 113
161 117 105
161 117 108
160 116 108
161 117 112
160 116 102
160 115 108
157 115 103
160 117 102
163 117 107
158 115 97
159 116 103
161 116 112
159 115 99
163 117 111
163 118 111
161 117 107
161 117 106
162 117 108
163 117 106
161 117 112
159 115 107
162 117 111
161 117 111
162 117 112
160 116 104
161 117 106
160 115 104
159 116 102
162 117 110
161 117 108
162 118 111
160 116 104
161 117 110
160 116 103
161 118 113
164 118 116
163 119 113
161 117 112
160 115 106
163 118 112
164 119 113
158 115 104
163 118 111
162 118 107
162 116 106
164 118 115
159 116 102
160 115 103
160 117 106
158 115 104
161 117 108
161 116 107
161 116 107
158 114 102
160 116 106
163 118 106
162 117 110
161 117 106
161 117 111
157 113 106
163 117 108
160 116 105
158 114 101
164 119 118
163 117 109
161 117 117
162 118 108
162 117 110
161 116 107
158 115 106
159 115 106
162 117 106
160 116 106
162 117 114
159 115 104
161 117 111
159 115 105
164 118 114
159 116 102
160 116 112
158 114 102
161 116 111
159 114 104
164 117 114
161 116 107
161 116 107
158 114 108
163 117 113
159 114 106
158 112 105
161 116 115
157 111 100
158 113 102
157 113 100
156 112 102
155 110 98
142 96 83
106 55 29
120 64 31
122 68 35
121 67 34
117 62 25
119 64 31
124 69 35
127 71 34
122 69 32
129 73 35
128 72 36
133 78 40
131 77 39
133 79 43
129 76 37
138 83 46
132 78 40
138 81 44
143 88 49
139 84 45
139 84 45
142 87 48
142 87 48
140 87 48
144 89 50
145 90 51
143 89 50
145 90 52
150 104 62
189 178 114
189 178 114
189 178 114
189 178 114
189 178 114
189 178 114
189 178 114
189 178 114
189 178 114
189 178 114
189 178 114
189 178 114
189 178 114
189 178 114
189 178 114
189 178 114
189 178 114
189 178 114
189 178 114
189 178 114
189 178 114
190 178 114
190 178 114
190 178 114
190 178 114
190 178 114
190 178 114
190 178 114
190 178 114
190 178 114
190 179 114
190 179 114
190 179 114
190 179 114
190 179 114
190 179 114
190 179 114
190 179 114
190 179 114
190 179 114
190 179 114
190 179 114
190 179 114
190 179 114
190 179 114
191 179 114
191 179 114
191 179 114
191 179 114
191 179 114
191 179 114
191 179 114
191 179 114
191 179 114
191 179 114
191 179 114
191 179 114
191 179 114
191 179 114
191 179 114
191 179 114
191 179 114
191 179 114
191 179 114
191 179 114
191 179 114
191 179 114
192 179 114
192 179 114
192 179 114
192 179 114
192 179 114
192 179 114
192 179 114
192 179 114
192 179 114
192 179 114
192 180 114
192 180 114
192 180 114
192 180 114
192 180 114
192 180 114
192 180 114
192 180 114
192 180 114
192 180 114
192 180 114
192 180 114
193 180 114
193 180 114
193 180 114
193 180 114
193 180 114
193 180 114
193 180 114
193 180 114
193 180 114
193 180 114
193 180 114
193 180 114
193 180 114
193 180 114
193 180 114
193 180 114
193 180 114
193 180 114
194 208 228
194 208 228
194 208 228
194 208 228
194 208 228
194 208 228
194 208 228
193 208 228
193 208 228
193 208 228
193 208 228
193 208 228
193 208 228
193 208 228
193 208 228
193 208 228
193 208 228
193 208 228
193 208 228
193 208 228
193 208 228
193 208 228
193 208 228
193 208 228
193 208 228
193 208 228
193 208 228
193 208 228
193 208 228
193 208 228
193 208 228
193 208 228
193 208 228
192 208 228
192 208 228
192 208 228
192 208 228
192 208 228
192 208 228
192 207 228
192 207 228
192 207 228
192 207 228
192 207 228
192 207 228
192 207 228
192 207 228
192 207 228
192 207 228
192 207 228
192 207 228
192 207 228
192 207 228
192 207 228
192 207 228
192 207 228
192 207 228
191 207 228
192 207 228
191 207 228
191 207 228
191 207 228
191 207 228
191 207 228
191 207 228
191 207 228
191 207 228
191 207 228
191 207 228
191 207 228
191 207 228
191 207 228
191 207 228
191 207 228
191 207 228
191 207 228
191 207 228
191 207 228
191 207 228
191 207 228
191 207 228
191 207 228
191 207 228
191 207 228
191 207 228
191 207 228
190 206 228
190 207 228
190 206 228
190 206 228
190 206 228
190 206 228
190 206 228
190 206 228
190 206 228
190 206 228
190 206 228
190 206 228
190 206 228
190 206 228
190 206 228
190 206 228
190 206 228
190 206 228
190 206 228
184 195 215
146 106 108
143 104 103
142 104 105
145 105 109
138 101 94
137 100 97
137 99 94
139 100 100
139 101 100
139 100 99
136 99 98
137 98 100
135 97 97
133 95 95
134 97 95
133 95 96
133 95 96
131 93 94
126 87 87
124 88 84
122 85 86
125 88 84
126 87 87
128 90 91
114 77 77
120 81 86
110 74 75
110 70 70
114 77 83
153 110 104
155 113 107
160 115 112
157 114 107
158 115 105
157 114 106
155 112 94
158 114 104
155 114 101
158 114 106
160 116 110
160 116 111
159 115 104
160 116 106
160 116 106
163 118 111
161 115 109
162 117 109
163 117 112
159 116 102
158 114 104
160 116 108
158 115 100
160 116 105
158 115 102
158 115 100
162 117 113
159 115 105
160 116 109
161 117 106
161 117 108
159 116 107
161 117 107
161 117 105
162 116 110
161 116 105
158 115 102
161 116 109
162 117 111
163 118 113
162 117 112
160 116 102
162 118 114
164 119 113
161 117 107
164 118 114
161 117 112
162 117 109
161 117 106
163 118 113
162 117 109
161 117 108
161 117 109
161 116 106
161 117 106
163 117 110
158 115 106
162 118 110
162 118 112
161 116 106
158 114 96
164 118 110
164 119 114
157 113 95
159 116 100
160 115 105
160 116 109
163 118 114
163 118 114
162 117 107
166 120 117
159 114 96
162 118 110
161 116 108
162 117 114
161 117 104
160 117 108
162 117 106
160 117 108
159 116 101
159 116 104
159 116 103
161 117 112
161 117 110
161 117 106
163 118 113
160 117 107
156 112 94
160 116 103
163 117 110
160 116 107
163 118 114
162 117 111
164 119 115
160 116 101
161 116 104
159 115 101
162 116 112
162 116 107
163 118 113
161 116 111
162 117 111
161 116 106
163 116 112
161 116 109
158 115 104
159 116 104
157 113 97
158 115 104
159 115 110
159 115 106
158 115 100
160 116 106
157 114 102
162 116 110
160 114 107
161 116 107
160 115 111
160 114 104
163 118 120
160 115 110
160 115 110
161 115 105
156 112 101
159 115 108
158 112 100
159 112 103
159 112 106
145 99 81
107 54 28
112 59 28
120 64 30
120 62 30
115 61 31
123 68 33
121 66 31
125 68 32
127 72 35
128 72 37
126 71 35
127 74 38
128 74 38
136 80 40
135 79 40
131 77 39
134 78 40
137 82 44
136 81 40
136 83 42
137 83 44
138 84 43
138 83 44
140 85 47
143 89 47
141 86 48
143 89 49
143 89 49
145 90 51
181 165 105
190 179 114
190 179 114
190 179 114
190 179 114
190 179 114
190 179 114
190 179 114
190 179 114
190 179 114
190 179 114
190 179 114
190 179 114
190 179 114
190 179 114
190 179 114
190 179 114
190 179 114
190 179 114
190 179 114
190 179 114
191 179 114
191 179 114
191 179 114
191 179 114
191 179 114
191 179 114
191 179 114
191 179 114
191 179 114
191 179 114
191 179 114
191 179 114
191 179 114
191 179 114
191 179 114
191 179 114
191 179 114
191 179 114
191 179 114
191 179 114
191 179 114
191 179 114
191 179 114
191 179 114
191 179 114
191 179 114
192 179 114
192 179 114
192 179 114
192 179 114
192 179 114
192 179 114
192 179 114
192 179 114
192 179 114
192 179 114
192 179 114
192 179 114
192 179 114
192 180 114
192 180 114
192 180 114
192 180 114
192 180 114
192 180 114
192 180 114
192 180 114
192 180 114
192 180 114
192 180 114
192 180 114
192 180 114
192 180 114
193 180 114
193 180 114
193 180 114
193 180 114
193 180 114
193 180 114
193 180 114
193 180 114
193 180 114
193 180 114
193 180 114
193 180 114
193 180 114
193 180 114
193 180 114
193 180 114
193 180 114
193 180 114
193 180 114
193 180 114
193 180 114
193 180 114
193 180 114
193 180 114
193 180 114
194 180 114
194 180 114
194 180 114
194 180 114
194 180 114
194 180 114
194 180 114
194 180 114
194 209 228
194 209 228
194 209 228
194 209 228
194 209 228
194 209 228
194 209 228
194 209 228
194 208 228
194 208 228
194 208 228
194 208 228
194 208 228
194 208 228
194 208 228
194 208 228
194 208 228
194 208 228
194 208 228
194 208 228
194 208 228
194 208 228
194 208 228
194 208 228
194 208 228
193 208 228
193 208 228
193 208 228
193 208 228
193 208 228
193 208 228
193 208 228
193 208 228
193 208 228
193 208 228
193 208 228
193 208 228
193 208 228
193 208 228
193 208 228
193 208 228
193 208 228
193 208 228
193 208 228
193 208 228
193 208 228
193 208 228
193 208 228
193 208 228
193 208 228
193 208 228
193 208 228
193 208 228
193 208 228
192 208 228
192 208 228
192 208 228
192 208 228
192 208 228
192 208 228
192 208 228
192 208 228
192 207 228
192 207 228
192 207 228
192 207 228
192 207 228
192 207 228
192 207 228
192 207 228
192 207 228
192 207 228
192 207 228
192 207 228
192 207 228
192 207 228
192 207 228
192 207 228
192 207 228
192 207 228
192 207 228
192 207 228
192 207 228
191 207 228
191 207 228
191 207 228
191 207 228
191 207 228
191 207 228
191 207 228
191 207 228
191 207 228
191 207 228
191 207 228
191 207 228
191 207 228
191 207 228
191 207 228
191 207 228
191 207 228
191 207 228
191 207 228
191 207 228
191 207 228
191 207 228
169 162 174
140 102 102
144 105 104
142 103 101
144 105 106
144 104 104
139 100 95
140 101 98
140 101 98
135 98 90
137 99 95
136 99 96
135 97 94
135 96 98
133 95 92
131 94 94
127 91 85
131 92 96
127 90 85
125 89 90
129 91 90
127 90 87
125 88 90
129 90 95
121 84 84
115 78 82
114 77 80
115 76 80
112 73 76
109 71 74
156 112 110
158 114 111
158 115 110
156 113 105
160 116 113
158 115 110
158 114 106
161 116 107
157 114 106
158 115 106
158 115 105
159 115 105
162 117 109
162 117 111
158 114 106
160 117 104
158 115 107
159 115 105
164 118 114
158 115 96
159 116 106
163 118 113
163 118 111
163 119 117
162 117 109
161 117 109
160 115 104
157 114 100
161 117 113
161 116 107
163 118 115
158 115 103
160 117 110
159 116 108
159 116 103
162 117 108
158 114 100
161 117 107
163 118 112
161 117 113
161 117 107
161 117 107
161 117 105
161 117 109
162 118 111
164 119 111
161 116 101
162 116 105
162 117 104
160 116 101
159 116 100
160 115 110
164 118 113
160 116 105
156 114 98
159 115 103
158 114 103
160 116 105
160 117 110
159 116 102
162 117 108
161 116 111
162 117 108
162 117 105
158 115 100
164 119 113
158 115 101
159 116 108
163 118 114
163 118 111
161 116 110
156 113 101
158 115 103
159 115 102
160 115 101
162 117 108
161 117 108
161 117 109
158 115 102
160 116 113
161 116 107
159 115 107
160 116 102
162 117 110
156 114 100
163 118 114
163 118 112
163 118 113
157 114 100
162 118 110
160 116 103
163 118 113
161 116 108
159 116 104
157 115 101
162 117 117
162 116 110
162 118 113
158 115 102
160 116 103
161 116 106
159 115 101
162 117 110
163 118 117
163 117 112
161 116 111
160 116 106
161 117 107
160 116 106
162 116 109
162 118 110
159 115 100
160 114 105
160 115 107
163 117 111
159 115 106
158 114 104
160 116 109
157 113 100
157 112 98
158 114 101
153 109 93
154 110 92
155 110 101
160 113 107
157 112 98
155 109 96
152 108 97
152 106 90
106 55 25
111 58 30
121 67 30
113 57 25
118 64 29
118 64 32
125 69 34
126 71 36
127 72 37
129 74 37
127 73 37
128 73 37
132 77 39
131 77 35
132 77 40
132 77 39
138 83 44
135 80 40
132 77 38
135 80 42
138 85 43
141 86 47
140 84 46
140 85 44
142 88 46
141 87 46
143 89 50
143 89 49
142 89 48
165 135 83
191 179 114
191 179 114
191 179 114
191 179 114
191 179 114
191 179 114
191 179 114
191 179 114
191 179 114
191 179 114
191 179 114
191 179 114
191 179 114
191 179 114
191 179 114
191 179 114
191 179 114
191 179 114
191 179 114
191 179 114
191 179 114
192 179 114
192 179 114
192 179 114
192 179 114
192 179 114
192 179 114
192 179 114
192 179 114
192 179 114
192 179 114
192 179 114
192 179 114
192 179 114
192 179 114
192 180 114
192 180 114
192 180 114
192 180 114
192 180 114
192 180 114
192 180 114
192 180 114
192 180 114
192 180 114
192 180 114
192 180 114
192 180 114
192 180 114
192 180 114
192 180 114
192 180 114
193 180 114
193 180 114
193 180 114
193 180 114
193 180 114
193 180 114
193 180 114
193 180 114
193 180 114
193 180 114
193 180 114
193 180 114
193 180 114
193 180 114
193 180 114
193 180 114
193 180 114
193 180 114
193 180 114
193 180 114
193 180 114
193 180 114
193 180 114
193 180 114
193 180 114
193 180 114
193 180 114
193 180 114
193 180 114
194 180 114
194 180 114
194 180 114
194 180 114
194 180 114
194 180 114
194 180 114
194 180 114
194 180 114
194 180 114
194 180 114
194 180 114
194 180 114
194 180 114
194 180 114
194 180 114
194 181 114
194 181 114
194 181 114
194 181 114
194 181 114
194 181 114
194 181 114
194 181 114
194 181 114
195 209 228
195 209 228
195 209 228
195 209 228
195 209 228
195 209 228
195 209 228
195 209 228
195 209 228
195 209 228
195 209 228
194 209 228
195 209 228
194 209 228
194 209 228
194 209 228
194 209 228
194 209 228
194 209 228
194 209 228
194 209 228
194 209 228
194 209 228
194 209 228
194 209 228
194 209 228
194 209 228
194 208 228
194 208 228
194 208 228
194 208 228
194 208 228
194 208 228
194 208 228
194 208 228
194 208 228
194 208 228
194 208 228
194 208 228
194 208 228
194 208 228
194 208 228
194 208 228
194 208 228
194 208 228
194 208 228
194 208 228
194 208 228
193 208 228
193 208 228
193 208 228
193 208 228
193 208 228
193 208 228
193 208 228
193 208 228
193 208 228
193 208 228
193 208 228
193 208 228
193 208 228
193 208 228
193 208 228
193 208 228
193 208 228
193 208 228
193 208 228
193 208 228
193 208 228
193 208 228
193 208 228
193 208 228
193 208 228
193 208 228
193 208 228
193 208 228
193 208 228
193 208 228
193 208 228
193 208 228
193 208 228
193 208 228
193 208 228
192 208 228
192 208 228
192 208 228
192 208 228
192 208 228
192 208 228
192 208 228
192 208 228
192 208 228
192 207 228
192 207 228
192 207 228
192 207 228
192 207 228
192 207 228
192 207 228
192 207 228
192 207 228
192 207 228
192 207 228
192 207 228
192 207 228
165 152 163
144 103 101
144 105 103
141 102 99
140 102 97
138 99 92
139 101 100
140 102 102
139 101 95
139 101 94
136 99 95
134 96 89
136 97 96
134 97 98
134 96 94
130 92 87
132 94 91
132 94 91
131 93 95
130 91 88
130 93 90
126 88 90
124 87 85
122 84 81
122 85 85
116 79 84
117 79 83
112 74 78
108 70 71
115 77 76
148 107 96
156 112 111
158 115 108
158 115 107
156 114 99
157 112 99
157 114 104
156 114 103
159 115 111
160 116 109
155 113 103
158 115 105
162 117 114
158 114 99
162 117 114
158 115 99
157 115 96
162 117 108
158 115 103
160 116 104
162 117 108
160 116 109
158 114 104
157 115 100
160 116 110
161 115 103
161 117 111
160 116 108
160 116 107
161 117 108
157 114 97
160 116 105
162 117 108
159 116 103
160 116 110
161 117 108
162 118 107
160 116 108
160 116 108
158 114 98
159 115 103
161 116 112
160 116 107
159 116 103
162 118 114
164 119 114
161 117 105
159 116 102
160 115 101
161 116 108
161 117 110
160 115 102
159 116 103
160 116 104
159 116 104
163 117 110
163 119 115
162 117 109
159 116 105
159 115 106
160 115 102
160 116 106
164 118 110
162 117 110
160 116 109
160 117 104
163 118 112
159 114 108
160 117 108
160 115 110
161 116 106
163 118 107
162 117 110
163 118 113
158 115 103
165 119 115
162 118 109
161 116 109
160 116 103
159 116 110
159 116 101
162 117 109
160 115 101
161 116 106
159 115 105
160 116 106
162 117 107
160 115 106
160 115 104
159 116 101
159 116 105
162 116 107
158 115 103
161 117 110
161 117 108
160 114 103
160 116 107
159 116 107
161 116 106
158 114 101
160 115 101
162 117 108
158 114 95
158 114 99
157 114 101
159 115 103
162 117 108
163 117 110
159 115 101
159 114 107
161 116 106
157 113 102
160 115 104
161 116 104
161 116 110
157 112 98
162 116 108
158 113 102
160 115 107
162 116 109
159 114 103
158 113 100
161 115 112
159 114 106
155 111 93
163 116 112
154 110 100
157 111 103
155 109 103
111 59 32
109 56 25
112 57 26
112 60 30
121 66 32
119 65 28
124 69 36
123 68 30
123 68 33
130 73 38
129 73 37
130 74 34
130 75 37
134 79 36
130 76 40
135 80 42
132 78 36
137 82 41
137 81 42
137 82 42
137 82 40
136 83 43
139 84 44
138 84 44
141 86 46
144 89 50
144 89 49
143 89 50
144 89 46
160 124 75
192 180 114
192 180 114
192 180 114
192 180 114
192 180 114
192 180 114
192 180 114
192 180 114
192 180 114
192 180 114
192 180 114
192 180 114
192 180 114
192 180 114
192 180 114
192 180 114
192 180 114
192 180 114
193 180 114
192 180 114
192 180 114
192 180 114
193 180 114
193 180 114
193 180 114
193 180 114
193 180 114
193 180 114
193 180 114
193 180 114
193 180 114
193 180 114
193 180 114
193 180 114
193 180 114
193 180 114
193 180 114
193 180 114
193 180 114
193 180 114
193 180 114
193 180 114
193 180 114
193 180 114
193 180 114
193 180 114
193 180 114
193 180 114
193 180 114
193 180 114
193 180 114
193 180 114
193 180 114
193 180 114
193 180 114
193 180 114
193 180 114
193 180 114
193 180 114
194 180 114
194 180 114
194 180 114
194 180 114
194 180 114
194 180 114
194 180 114
194 180 114
194 180 114
194 180 114
194 180 114
194 180 114
194 180 114
194 180 114
194 180 114
194 180 114
194 180 114
194 181 114
194 180 114
194 181 114
194 181 114
194 181 114
194 181 114
194 181 114
194 181 114
194 181 114
194 181 114
194 181 114
194 181 114
194 181 114
194 181 114
194 181 114
194 181 114
195 181 114
195 181 114
195 181 114
195 181 114
195 181 114
195 181 114
195 181 114
195 181 114
195 181 114
195 181 114
195 181 114
195 181 114
195 181 114
195 181 114
195 209 228
195 209 228
195 209 228
195 209 228
195 209 228
195 209 228
195 209 228
195 209 228
195 209 228
195 209 228
195 209 228
195 209 228
195 209 228
195 209 228
195 209 228
195 209 228
195 209 228
195 209 228
195 209 228
195 209 228
195 209 228
195 209 228
195 209 228
195 209 228
195 209 228
195 209 228
195 209 228
195 209 228
195 209 228
195 209 228
195 209 228
195 209 228
195 209 228
195 209 228
195 209 228
195 209 228
195 209 228
194 209 228
195 209 228
194 209 228
194 209 228
194 209 228
194 209 228
194 209 228
194 209 228
194 209 228
194 209 228
194 209 228
194 209 228
194 209 228
194 209 228
194 209 228
194 209 228
194 209 228
194 209 228
194 209 228
194 209 228
194 208 228
194 208 228
194 208 228
194 208 228
194 208 228
194 208 228
194 208 228
194 208 228
194 208 228
194 208 228
194 208 228
194 208 228
194 208 228
194 208 228
194 208 228
194 208 228
194 208 228
194 208 228
194 208 228
194 208 228
194 208 228
194 208 228
194 208 228
194 208 228
193 208 228
193 208 228
193 208 228
193 208 228
193 208 228
193 208 228
193 208 228
193 208 228
193 208 228
193 208 228
193 208 228
193 208 228
193 208 228
193 208 228
193 208 228
193 208 228
193 208 228
193 208 228
193 208 228
193 208 228
193 208 228
193 208 228
193 208 228
193 208 228
149 115 118
143 103 98
143 104 101
140 102 97
138 99 93
142 102 99
141 103 96
138 100 91
141 101 99
134 97 89
136 99 94
137 99 96
134 97 97
131 94 91
133 94 93
130 93 91
133 96 91
129 91 90
130 90 92
124 89 80
126 88 89
124 86 85
125 86 83
119 81 79
122 81 82
115 76 75
113 74 73
115 77 79
105 67 63
113 74 69
153 111 100
151 109 99
158 114 106
156 112 100
162 117 110
152 110 97
158 115 106
158 115 104
159 116 108
157 114 102
160 117 112
158 115 106
156 114 103
160 117 105
158 114 104
158 114 102
159 115 105
162 118 112
160 116 108
160 116 107
162 117 111
161 116 105
161 117 105
162 117 110
156 113 97
161 117 108
162 117 112
159 116 104
158 115 104
164 118 110
160 115 103
159 115 99
159 116 103
160 117 111
157 114 98
161 116 111
161 117 107
161 117 110
161 117 110
157 113 101
160 116 105
160 116 108
160 116 105
161 116 109
163 118 111
161 116 104
161 117 108
161 116 106
162 118 113
159 116 103
163 119 116
162 116 107
157 114 100
159 116 102
161 116 106
161 116 111
160 117 103
160 116 104
162 117 112
160 115 103
161 116 108
164 118 115
159 115 103
160 116 106
164 118 112
159 116 102
159 115 107
158 114 96
159 116 108
160 116 101
160 116 105
162 118 108
159 116 103
163 118 115
161 115 101
161 117 108
158 114 101
162 117 109
159 115 102
160 116 103
159 116 102
160 116 103
159 116 105
163 118 114
158 115 101
161 116 107
159 116 107
160 115 104
160 116 106
163 117 107
160 116 101
160 116 104
160 116 99
164 118 112
161 116 108
159 115 102
161 116 110
159 115 104
161 117 112
160 116 108
159 115 105
163 118 110
162 117 105
162 117 106
161 116 107
159 115 97
157 114 96
161 117 107
160 115 108
159 115 104
161 117 108
161 116 109
159 115 101
160 115 106
159 115 105
161 115 109
159 114 101
157 113 100
159 114 105
160 114 105
157 112 98
158 113 100
158 113 106
154 110 97
158 113 105
155 109 99
159 113 105
154 108 95
151 106 97
114 61 36
110 56 24
112 59 26
111 58 24
120 65 33
117 64 29
118 63 29
124 68 33
123 69 35
125 71 34
127 73 36
132 77 37
132 75 35
130 75 34
130 75 36
132 76 39
133 78 39
129 76 37
135 81 41
138 83 45
135 80 41
134 81 40
136 83 44
136 83 44
139 86 45
137 83 41
142 87 46
143 88 49
142 88 49
144 93 50
193 180 114
193 180 114
193 180 114
193 180 114
193 180 114
193 180 114
193 180 114
193 180 114
193 180 114
193 180 114
193 180 114
193 180 114
193 180 114
193 180 114
193 180 114
193 180 114
193 180 114
193 180 114
193 180 114
193 180 114
193 180 114
193 180 114
193 180 114
194 180 114
194 180 114
194 180 114
194 180 114
194 180 114
194 180 114
194 180 114
194 180 114
194 180 114
194 180 114
194 180 114
194 180 114
194 180 114
194 180 114
194 180 114
194 180 114
194 180 114
194 180 114
194 180 114
194 180 114
194 180 114
194 180 114
194 180 114
194 180 114
194 181 114
194 181 114
194 181 114
194 181 114
194 181 114
194 181 114
194 181 114
194 181 114
194 181 114
194 181 114
194 181 114
194 181 114
194 181 114
194 181 114
194 181 114
194 181 114
194 181 114
194 181 114
194 181 114
194 181 114
195 181 114
195 181 114
195 181 114
195 181 114
195 181 114
195 181 114
195 181 114
195 181 114
195 181 114
195 181 114
195 181 114
195 181 114
195 181 114
195 181 114
195 181 114
195 181 114
195 181 114
195 181 114
195 181 114
195 181 114
195 181 114
195 181 114
195 181 114
195 181 114
195 181 114
195 181 114
195 181 114
195 181 114
195 181 114
195 181 114
195 181 114
195 181 114
195 181 114
195 181 114
195 181 114
195 181 114
195 181 114
195 181 114
195 181 114
196 210 228
196 210 228
196 210 228
196 210 228
196 209 228
196 209 228
196 209 228
196 209 228
196 209 228
196 209 228
196 209 228
196 209 228
196 209 228
196 209 228
196 209 228
196 209 228
196 209 228
196 209 228
196 209 228
196 209 228
196 209 228
196 209 228
196 209 228
195 209 228
195 209 228
195 209 228
195 209 228
195 209 228
195 209 228
195 209 228
195 209 228
195 209 228
195 209 228
195 209 228
195 209 228
195 209 228
195 209 228
195 209 228
195 209 228
195 209 228
195 209 228
195 209 228
195 209 228
195 209 228
195 209 228
195 209 228
195 209 228
195 209 228
195 209 228
195 209 228
195 209 228
195 209 228
195 209 228
195 209 228
195 209 228
195 209 228
195 209 228
195 209 228
195 209 228
195 209 228
195 209 228
195 209 228
195 209 228
195 209 228
195 209 228
195 209 228
195 209 228
195 209 228
195 209 228
195 209 228
195 209 228
195 209 228
195 209 228
195 209 228
195 209 228
195 209 228
195 209 228
195 209 228
194 209 228
194 209 228
194 209 228
194 209 228
194 209 228
194 209 228
194 209 228
194 209 228
194 209 228
194 209 228
194 209 228
194 209 228
194 209 228
194 209 228
194 209 228
194 209 228
194 209 228
194 209 228
194 209 228
194 209 228
194 209 228
194 209 228
194 209 228
194 209 228
194 209 228
194 209 228
191 202 222
145 105 103
139 101 89
141 102 94
138 100 95
142 103 102
138 100 90
140 102 99
136 99 89
136 98 92
136 99 94
135 98 91
135 98 92
131 94 88
131 92 88
133 95 88
133 95 92
129 92 81
133 95 82
128 90 83
128 89 88
123 86 73
122 83 80
123 86 84
123 84 84
115 77 77
121 84 83
113 75 72
114 75 76
102 66 65
111 74 69
150 109 97
153 112 103
158 114 103
152 110 99
162 117 111
156 112 94
157 113 103
157 114 102
158 115 104
160 116 106
156 113 97
157 114 101
160 116 110
160 116 106
160 115 104
160 116 106
163 118 111
160 115 105
159 116 103
161 117 109
160 116 104
161 117 110
158 114 102
160 116 107
160 116 110
162 116 107
157 115 105
161 116 106
160 116 108
163 117 110
159 116 101
162 117 112
161 116 101
159 115 103
160 116 103
159 115 98
162 118 109
162 117 110
156 112 98
160 116 107
159 115 101
159 114 104
162 117 108
160 116 108
158 114 100
159 115 103
159 116 107
160 116 103
163 117 111
162 117 107
161 117 107
157 114 102
157 114 94
157 114 97
162 118 108
160 116 109
163 118 109
160 115 110
164 119 114
162 118 111
161 117 113
160 116 101
160 116 105
163 117 108
160 116 103
159 114 103
161 117 107
161 117 105
159 115 102
160 116 103
160 115 104
163 117 110
162 117 111
162 117 112
162 117 106
159 115 103
163 117 110
158 115 100
165 118 116
161 116 110
162 117 106
158 114 105
161 117 107
161 117 106
162 117 107
160 116 109
160 116 103
165 118 117
158 114 103
160 116 104
160 116 107
161 116 108
159 115 100
161 116 106
161 117 111
159 115 101
160 117 106
162 116 108
159 115 103
162 117 111
155 112 93
154 112 86
159 115 103
160 115 103
158 115 101
162 116 108
157 114 102
154 110 94
159 115 106
157 113 99
159 114 102
158 115 103
158 114 99
157 113 95
156 112 101
158 114 106
161 116 105
160 115 110
159 114 100
161 116 108
157 112 100
157 113 103
160 115 107
159 113 103
155 110 103
157 111 99
160 114 105
159 112 101
154 109 92
119 72 53
110 55 23
111 57 26
113 57 26
118 64 33
122 68 30
110 57 23
122 68 29
124 69 32
119 67 32
128 74 37
128 73 36
128 76 36
129 74 35
128 76 38
130 75 35
131 76 38
133 77 38
133 80 40
137 81 42
133 81 40
137 83 41
135 81 41
139 84 43
136 82 40
136 83 40
141 87 44
143 88 45
142 88 48
142 90 47
192 177 111
194 181 114
194 181 114
194 181 114
194 181 114
194 181 114
194 181 114
194 181 114
194 181 114
194 181 114
194 181 114
194 181 114
194 181 114
194 181 114
194 181 114
194 181 114
194 181 114
194 181 114
194 181 114
194 181 114
194 181 114
194 181 114
194 181 114
194 181 114
194 181 114
195 181 114
195 181 114
195 181 114
195 181 114
195 181 114
195 181 114
195 181 114
195 181 114
195 181 114
195 181 114
195 181 114
195 181 114
195 181 114
195 181 114
195 181 114
195 181 114
195 181 114
195 181 114
195 181 114
195 181 114
195 181 114
195 181 114
195 181 114
195 181 114
195 181 114
195 181 114
195 181 114
195 181 114
195 181 114
195 181 114
195 181 114
195 181 114
195 181 114
195 181 114
195 181 114
195 181 114
195 181 114
195 181 114
195 181 114
195 181 114
195 181 114
195 181 114
195 181 114
195 181 114
195 181 114
195 181 114
195 181 114
195 181 114
195 181 114
195 181 114
195 181 114
195 181 114
195 181 114
195 181 114
195 181 114
196 181 114
195 181 114
195 181 114
196 181 114
196 181 114
196 181 114
196 181 114
196 181 114
196 181 114
196 181 114
196 181 114
196 181 114
196 181 114
196 181 114
196 181 114
196 181 114
196 181 114
196 181 114
196 181 114
196 181 114
196 181 114
196 181 114
196 181 114
196 181 114
196 181 114
196 181 114
196 210 228
196 210 228
196 210 228
196 210 228
196 210 228
196 210 228
196 210 228
196 210 228
196 210 228
196 210 228
196 210 228
196 210 228
196 210 228
196 210 228
196 210 228
196 210 228
196 210 228
196 210 228
196 210 228
196 210 228
196 210 228
196 210 228
196 210 228
196 210 228
196 210 228
196 210 228
196 210 228
196 210 228
196 210 228
196 210 228
196 210 228
196 210 228
196 210 228
196 210 228
196 210 228
196 210 228
196 210 228
196 210 228
196 210 228
196 210 228
196 210 228
196 210 228
196 210 228
196 210 228
196 210 228
196 210 228
196 209 228
196 210 228
196 209 228
196 209 228
196 209 228
196 209 228
196 209 228
196 209 228
196 209 228
196 209 228
196 209 228
196 209 228
196 209 228
196 209 228
196 209 228
196 209 228
196 209 228
196 209 228
196 209 228
196 209 228
196 209 228
196 209 228
196 209 228
196 209 228
196 209 228
196 209 228
196 209 228
196 209 228
195 209 228
195 209 228
195 209 228
195 209 228
195 209 228
195 209 228
195 209 228
195 209 228
195 209 228
195 209 228
195 209 228
195 209 228
195 209 228
195 209 228
195 209 228
195 209 228
195 209 228
195 209 228
195 209 228
195 209 228
195 209 228
195 209 228
195 209 228
195 209 228
195 209 228
195 209 228
195 209 228
195 209 228
195 209 228
195 209 228
180 184 197
145 105 97
144 105 102
144 104 101
140 101 95
136 100 84
140 101 97
140 101 97
136 98 88
136 98 93
137 98 93
135 97 88
132 95 85
134 97 94
133 95 94
132 95 88
129 91 83
129 92 86
128 90 87
124 86 80
130 92 87
125 86 83
124 87 84
121 83 79
120 82 79
116 79 80
114 77 70
113 75 73
115 77 74
103 63 63
117 77 73
154 112 99
154 112 99
154 111 107
155 112 98
157 114 104
159 116 108
159 114 106
157 113 105
157 115 98
158 115 106
157 114 98
162 117 115
160 116 104
161 117 108
159 115 106
160 116 107
159 116 107
159 115 103
159 116 105
160 116 105
159 115 109
161 116 108
161 117 107
163 117 110
158 115 110
161 117 110
160 116 108
161 116 108
160 116 110
157 114 101
161 117 107
161 117 105
157 113 98
159 115 101
158 114 101
161 116 109
160 115 104
160 116 105
162 117 107
163 118 113
161 116 111
161 116 106
160 116 103
161 116 106
160 116 104
158 115 101
160 115 104
164 118 112
161 117 105
161 117 106
164 118 113
155 112 95
160 116 107
157 112 98
159 115 107
158 115 105
161 117 103
160 116 103
161 117 106
161 116 107
161 117 108
160 116 103
163 118 106
162 117 104
161 116 105
161 116 105
157 114 95
163 117 113
163 118 109
158 115 101
161 116 109
158 114 102
158 115 98
160 116 102
161 117 108
163 117 107
158 114 98
161 117 110
161 116 107
159 115 99
161 117 108
161 117 104
159 115 104
162 116 105
161 116 104
158 114 101
159 116 105
160 117 113
161 116 107
163 118 109
157 114 99
157 112 104
158 115 100
159 116 106
160 116 106
161 117 105
160 116 107
163 116 108
161 116 109
159 115 102
160 116 108
164 119 115
158 116 103
162 117 113
163 117 111
159 115 104
159 115 101
160 115 105
156 113 94
159 114 108
159 115 99
157 114 97
159 114 105
156 112 92
161 116 103
161 116 105
160 115 103
161 116 111
157 114 98
161 115 106
161 114 105
157 112 102
160 114 103
157 112 103
157 113 103
158 113 101
155 110 91
153 108 89
154 106 97
115 67 50
109 58 25
112 59 23
118 63 28
115 62 29
116 62 26
113 60 28
119 66 28
123 68 31
121 67 33
126 72 36
126 72 36
128 73 35
131 75 35
127 73 34
134 78 40
132 78 36
134 79 38
132 79 38
136 82 41
135 81 39
136 82 42
139 85 44
134 81 38
140 86 44
140 86 44
140 87 47
140 86 46
144 90 48
137 86 41
184 164 102
195 181 114
195 181 114
195 181 114
195 181 114
195 181 114
195 181 114
195 181 114
195 181 114
195 181 114
195 181 114
195 181 114
195 181 114
195 181 114
195 181 114
195 181 114
195 181 114
195 181 114
195 181 114
195 181 114
195 181 114
195 181 114
195 181 114
195 181 114
195 181 114
195 181 114
195 181 114
195 181 114
195 181 114
195 181 114
195 181 114
196 181 114
196 181 114
196 181 114
196 181 114
196 181 114
196 181 114
196 181 114
196 181 114
196 181 114
196 181 114
196 181 114
196 181 114
196 181 114
196 181 114
196 181 114
196 181 114
196 181 114
196 181 114
196 181 114
196 181 114
196 181 114
196 181 114
196 181 114
196 181 114
196 181 114
196 181 114
196 181 114
196 181 114
196 181 114
196 181 114
196 181 114
196 181 114
196 181 114
196 181 114
196 181 114
196 181 114
196 181 114
196 181 114
196 181 114
196 181 114
196 181 114
196 181 114
196 181 114
196 181 114
196 181 114
196 181 114
196 181 114
196 182 114
196 182 114
196 182 114
196 182 114
196 182 114
196 182 114
196 182 114
196 182 114
196 182 114
196 182 114
196 182 114
196 182 114
196 182 114
196 182 114
196 182 114
196 182 114
196 182 114
196 182 114
196 182 114
196 182 114
196 182 114
196 182 114
196 182 114
196 182 114
196 182 114
196 182 114
196 182 114
196 182 114
197 210 228
197 210 228
197 210 228
197 210 228
197 210 228
197 210 228
197 210 228
197 210 228
197 210 228
197 210 228
197 210 228
197 210 228
197 210 228
197 210 228
197 210 228
197 210 228
197 210 228
197 210 228
197 210 228
197 210 228
197 210 228
197 210 228
197 210 228
197 210 228
197 210 228
197 210 228
197 210 228
197 210 228
197 210 228
197 210 228
197 210 228
197 210 228
197 210 228
197 210 228
197 210 228
197 210 228
197 210 228
197 210 228
197 210 228
197 210 228
197 210 228
197 210 228
197 210 228
197 210 228
197 210 228
197 210 228
197 210 228
197 210 228
197 210 228
197 210 228
197 210 228
197 210 228
197 210 228
197 210 228
197 210 228
197 210 228
197 210 228
197 210 228
197 210 228
197 210 228
197 210 228
196 210 228
196 210 228
197 210 228
197 210 228
196 210 228
197 210 228
196 210 228
196 210 228
196 210 228
196 210 228
196 210 228
196 210 228
196 210 228
196 210 228
196 210 228
196 210 228
196 210 228
196 210 228
196 210 228
196 210 228
196 210 228
196 210 228
196 210 228
196 210 228
196 210 228
196 210 228
196 210 228
196 210 228
196 210 228
196 210 228
196 210 228
196 210 228
196 210 228
196 210 228
196 210 228
196 210 228
196 210 228
196 210 228
196 210 228
196 210 228
196 210 228
196 210 228
196 210 228
183 187 201
142 103 95
141 102 94
140 102 92
140 101 96
139 100 94
138 100 93
136 97 87
137 100 93
137 99 95
135 97 88
134 97 88
136 97 93
132 95 91
132 94 83
128 90 85
131 92 89
126 87 82
127 90 86
126 88 81
127 88 81
124 86 80
121 84 70
121 83 74
115 76 70
117 79 72
120 80 73
116 79 75
111 75 66
111 74 72
118 80 71
154 112 106
153 111 101
154 111 104
153 110 95
156 113 101
156 113 109
160 116 111
161 117 112
157 113 99
161 116 110
159 116 108
158 113 100
161 116 107
160 116 108
156 113 98
157 114 99
160 115 101
159 114 103
158 115 99
159 114 104
157 113 103
161 116 107
160 117 108
155 112 96
162 117 106
158 115 103
160 116 104
158 115 105
161 116 108
159 115 103
158 115 101
160 115 108
160 116 99
157 114 98
160 116 106
157 114 96
160 116 104
164 118 113
158 115 100
159 114 103
157 114 100
158 114 97
160 116 101
163 117 108
160 117 105
162 118 108
162 118 108
161 116 105
161 116 103
162 118 109
159 116 100
159 116 106
160 116 107
160 116 107
156 113 102
162 117 106
163 118 113
160 116 108
160 116 103
159 116 107
160 116 106
165 118 109
156 112 97
162 118 113
161 117 109
162 118 111
159 115 99
163 116 109
160 115 104
159 115 103
160 115 102
160 116 105
160 114 102
162 117 113
161 117 110
160 116 101
160 116 106
160 115 98
159 115 103
160 115 102
161 117 104
160 116 109
162 117 106
157 115 99
161 117 111
159 115 105
160 115 105
159 116 102
160 115 101
161 116 111
161 116 106
158 115 100
158 115 100
157 115 96
158 115 98
161 117 105
160 117 105
158 115 101
161 116 105
161 117 107
163 117 113
160 116 105
159 115 100
163 117 115
159 113 96
158 114 97
162 116 107
162 116 103
162 116 104
161 116 105
157 114 104
156 113 98
159 115 96
156 113 99
159 115 101
158 114 101
159 114 101
159 115 106
156 112 100
158 115 104
161 116 107
157 112 102
157 112 97
154 110 95
155 111 101
157 112 97
155 110 102
157 112 101
152 107 93
122 74 55
106 54 23
110 55 24
107 55 24
113 58 24
120 66 32
119 65 27
122 66 29
124 69 31
125 70 32
123 68 32
129 73 32
125 71 32
128 74 35
128 72 36
128 75 35
133 79 41
133 79 39
133 79 38
135 81 41
133 79 40
136 82 42
134 79 38
138 84 42
139 85 43
139 85 45
143 89 49
140 86 44
141 86 44
143 89 45
177 153 94
196 182 114
196 182 114
196 182 114
196 182 114
196 182 114
196 182 114
196 182 114
196 182 114
196 182 114
196 182 114
196 182 114
196 182 114
196 182 114
196 182 114
196 182 114
196 182 114
196 182 114
196 182 114
196 182 114
196 182 114
196 182 114
196 182 114
196 182 114
196 182 114
196 182 114
196 182 114
196 182 114
196 182 114
196 182 114
197 182 114
196 182 114
196 182 114
196 182 114
196 182 114
196 182 114
197 182 114
196 182 114
196 182 114
196 182 114
197 182 114
196 182 114
197 182 114
197 182 114
197 182 114
197 182 114
197 182 114
197 182 114
197 182 114
197 182 114
197 182 114
197 182 114
197 182 114
197 182 114
197 182 114
197 182 114
197 182 114
197 182 114
197 182 114
197 182 114
197 182 114
197 182 114
197 182 114
197 182 114
197 182 114
197 182 114
197 182 114
197 182 114
197 182 114
197 182 114
197 182 114
197 182 114
197 182 114
197 182 114
197 182 114
197 182 114
197 182 114
197 182 114
197 182 114
197 182 114
197 182 114
197 182 114
197 182 114
197 182 114
197 182 114
197 182 114
197 182 114
197 182 114
197 182 114
197 182 114
197 182 114
197 182 114
197 182 114
197 182 114
197 182 114
197 182 114
197 182 114
197 182 114
197 182 114
197 182 114
197 182 114
197 182 114
197 182 114
197 182 114
197 182 114
197 182 114
198 210 228
198 210 228
198 210 228
198 210 228
197 210 228
198 210 228
198 210 228
198 210 228
198 210 228
197 210 228
198 210 228
197 210 228
197 210 228
197 210 228
197 210 228
198 210 228
198 210 228
198 210 228
197 210 228
198 210 228
197 210 228
197 210 228
198 210 228
198 210 228
197 210 228
197 210 228
197 210 228
197 210 228
197 210 228
197 210 228
197 210 228
197 210 228
197 210 228
197 210 228
197 210 228
197 210 228
197 210 228
197 210 228
197 210 228
197 210 228
197 210 228
197 210 228
197 210 228
197 210 228
197 210 228
197 210 228
197 210 228
197 210 228
197 210 228
197 210 228
197 210 228
197 210 228
197 210 228
197 210 228
197 210 228
197 210 228
197 210 228
197 210 228
197 210 228
197 210 228
197 210 228
197 210 228
197 210 228
197 210 228
197 210 228
197 210 228
197 210 228
197 210 228
197 210 228
197 210 228
197 210 228
197 210 228
197 210 228
197 210 228
197 210 228
197 210 228
197 210 228
197 210 228
197 210 228
197 210 228
197 210 228
197 210 228
197 210 228
197 210 228
197 210 228
197 210 228
197 210 228
197 210 228
197 210 228
197 210 228
197 210 228
197 210 228
197 210 228
197 210 228
197 210 228
197 210 228
197 210 228
197 210 228
197 210 228
197 210 228
197 210 228
197 210 228
197 210 228
197 210 228
181 183 195
145 104 98
138 100 83
139 100 92
140 102 94
140 101 94
137 99 87
136 99 85
136 99 87
135 97 89
140 100 99
132 94 79
130 93 86
133 96 89
133 95 89
130 93 89
128 91 79
131 93 80
124 85 73
125 88 78
126 89 81
124 87 81
124 85 82
118 79 73
121 83 79
114 74 72
112 75 69
113 75 65
109 71 64
102 65 64
118 80 74
150 108 91
156 112 105
156 113 105
158 115 101
157 114 106
158 114 106
155 112 95
158 115 104
155 113 102
159 115 108
160 116 105
154 111 92
158 114 103
158 115 105
161 116 112
157 114 99
158 115 99
161 117 108
157 115 104
160 115 106
161 117 107
162 117 107
160 115 105
159 116 100
161 116 105
158 115 103
163 117 107
161 117 112
162 117 109
156 113 98
163 118 112
160 116 102
160 116 109
161 117 107
160 115 105
160 116 106
159 115 106
158 114 96
158 115 95
160 116 103
158 114 99
163 118 113
160 116 103
162 117 107
160 115 105
163 118 112
161 117 110
157 114 95
159 114 101
160 116 104
160 117 111
158 114 98
163 118 112
161 117 110
158 114 101
158 115 101
162 117 107
159 116 101
160 114 110
163 118 110
161 116 104
159 116 104
156 113 90
161 117 111
161 116 103
159 116 100
159 115 108
163 117 109
155 113 94
163 117 114
157 114 96
157 115 99
160 115 102
161 117 110
161 116 103
160 116 103
162 117 106
160 116 105
158 114 97
160 116 103
156 114 95
162 118 109
160 116 107
159 115 102
162 117 111
159 115 103
157 113 100
160 116 105
158 116 102
158 114 99
158 115 103
160 116 103
164 118 115
163 118 108
159 114 103
159 116 105
159 115 100
162 116 110
160 117 102
158 114 96
161 117 111
157 114 96
156 113 98
160 114 104
161 116 108
160 115 107
156 113 99
160 116 106
159 115 99
157 114 98
157 113 96
158 114 105
157 113 99
161 116 113
159 114 107
158 113 97
157 114 100
156 112 96
162 116 107
160 115 105
159 113 99
157 112 93
157 111 101
153 109 88
159 113 100
154 109 99
162 114 107
157 112 98
154 108 97
125 77 55
103 51 23
108 55 23
111 57 22
113 60 25
115 61 26
116 61 28
117 65 27
120 66 27
122 68 33
126 72 34
129 74 33
129 75 35
129 74 35
129 76 35
130 75 36
130 75 36
131 77 37
132 79 40
133 79 40
133 78 38
133 80 35
138 84 42
138 84 40
136 83 40
138 84 43
142 88 47
141 87 45
140 87 43
143 89 47
184 160 99
197 182 114
197 182 114
197 182 114
197 182 114
197 182 114
197 182 114
197 182 114
197 182 114
197 182 114
197 182 114
197 182 114
197 182 114
197 182 114
197 182 114
197 182 114
197 182 114
197 182 114
197 182 114
197 182 114
197 182 114
197 182 114
197 182 114
197 182 114
197 182 114
197 182 114
197 182 114
197 182 114
197 182 114
197 182 114
197 182 114
197 182 114
197 182 114
197 182 114
197 182 114
197 182 114
197 182 114
197 182 114
197 182 114
197 182 114
197 182 114
197 182 114
197 182 114
197 182 114
197 182 114
197 182 114
197 182 114
197 182 114
197 182 114
197 182 114
197 182 114
197 182 114
197 182 114
197 182 114
197 182 114
197 182 114
197 182 114
197 182 114
197 182 114
197 182 114
197 182 114
197 182 114
197 182 114
197 182 114
197 182 114
197 182 114
197 182 114
197 182 114
197 182 114
197 182 114
197 182 114
197 182 114
197 182 114
197 182 114
197 182 114
197 182 114
197 182 114
197 182 114
197 182 114
197 182 114
197 182 114
197 182 114
197 182 114
197 182 114
197 182 114
197 182 114
197 182 114
197 182 114
198 182 114
197 182 114
197 182 114
198 182 114
198 182 114
197 182 114
197 182 114
198 182 114
198 182 114
198 182 114
198 182 114
198 182 114
198 182 114
198 182 114
198 182 114
198 182 114
198 182 114
198 182 114
198 211 228
198 211 228
198 211 228
198 211 228
198 211 228
198 211 228
198 211 228
198 211 228
198 211 228
198 211 228
198 211 228
198 211 228
198 211 228
198 211 228
198 211 228
198 211 228
198 211 228
198 211 228
198 211 228
198 211 228
198 211 228
198 211 228
198 211 228
198 211 228
198 211 228
198 211 228
198 211 228
198 211 228
198 211 228
198 211 228
198 211 228
198 211 228
198 211 228
198 211 228
198 211 228
198 211 228
198 211 228
198 211 228
198 211 228
198 211 228
198 211 228
198 211 228
198 211 228
198 211 228
198 211 228
198 211 228
198 211 228
198 211 228
198 211 228
198 211 228
198 211 228
198 211 228
198 211 228
198 211 228
198 211 228
198 211 228
198 211 228
198 211 228
198 211 228
198 211 228
198 211 228
198 211 228
198 211 228
198 211 228
198 211 228
198 211 228
198 211 228
198 211 228
198 211 228
198 211 228
198 211 228
198 211 228
198 211 228
198 211 228
198 211 228
198 211 228
198 211 228
198 211 228
198 211 228
198 211 228
198 211 228
198 211 228
198 211 228
198 211 228
198 211 228
198 211 228
198 211 228
198 211 228
198 211 228
198 211 228
198 211 228
198 211 228
198 211 228
198 211 228
198 211 228
198 211 228
198 211 228
198 211 228
198 211 228
198 211 228
198 211 228
198 211 228
198 211 228
198 211 228
183 184 197
141 102 89
139 101 89
139 101 90
139 100 90
138 100 93
135 98 90
136 98 92
135 98 84
137 98 86
133 96 87
137 99 91
131 94 84
131 94 86
133 95 83
131 94 85
131 93 89
127 89 76
124 87 78
126 88 78
128 90 81
123 84 80
119 82 80
120 82 76
118 80 76
115 79 65
115 77 67
113 74 66
110 73 68
110 71 62
118 80 77
151 110 99
155 112 104
151 110 94
158 114 103
155 113 99
160 116 107
157 114 105
158 116 105
156 113 99
156 114 103
160 116 107
157 113 97
158 114 101
157 113 98
159 114 105
159 115 102
155 112 94
160 116 105
159 115 103
159 115 110
158 115 103
160 116 103
158 114 100
158 115 104
158 114 98
159 116 106
162 117 111
162 117 106
159 115 102
162 117 111
158 114 101
158 116 103
159 115 98
159 115 104
158 114 97
162 117 107
164 118 110
161 117 108
161 116 109
160 117 109
159 116 103
160 116 100
161 116 106
161 117 103
159 116 100
159 116 98
161 117 108
161 116 103
158 114 102
160 116 105
160 116 103
161 116 102
160 116 107
162 117 106
161 116 110
159 116 104
160 116 106
161 117 108
160 116 103
159 115 96
158 116 103
162 117 106
159 115 100
158 115 98
160 116 105
159 116 100
161 117 108
163 118 107
159 115 106
158 114 99
155 113 90
161 116 104
159 115 106
161 116 106
159 115 102
157 114 103
156 112 95
161 116 108
162 117 104
157 113 97
164 119 112
162 117 112
162 118 110
162 118 112
161 116 107
162 117 106
160 115 104
160 116 103
158 114 104
161 116 108
163 118 111
161 116 107
161 116 103
160 116 101
160 116 102
158 114 104
156 113 101
162 117 111
162 117 106
158 115 103
160 116 103
159 115 98
157 113 99
163 118 113
161 116 107
157 113 99
158 115 108
161 116 106
163 117 110
161 115 102
157 113 96
157 113 100
160 115 108
159 115 103
156 113 100
156 111 100
155 111 95
158 114 99
159 113 105
157 112 96
158 115 105
156 112 99
158 112 100
159 113 97
158 113 102
156 111 100
153 110 94
154 110 92
155 110 95
118 71 52
109 57 22
104 51 21
111 59 26
113 60 24
116 62 25
115 63 29
117 63 29
121 67 29
120 68 28
123 69 34
118 65 23
129 75 35
129 75 31
129 75 35
131 76 37
127 73 31
135 81 41
131 76 36
134 79 39
135 80 39
136 81 42
134 80 36
133 79 37
138 83 43
136 83 38
139 85 41
141 87 44
143 89 46
142 88 44
180 156 95
198 183 114
198 183 114
198 183 114
198 183 114
198 183 114
198 183 114
198 183 114
198 183 114
198 183 114
198 183 114
198 183 114
198 183 114
198 183 114
198 183 114
198 183 114
198 183 114
198 183 114
198 183 114
198 183 114
198 183 114
198 183 114
198 183 114
198 183 114
198 183 114
198 183 114
198 183 114
198 183 114
198 183 114
198 183 114
198 183 114
198 183 114
198 183 114
198 183 114
198 183 114
198 183 114
198 183 114
198 183 114
198 183 114
198 183 114
198 183 114
198 183 114
198 183 114
198 183 114
198 183 114
198 183 114
198 183 114
198 183 114
198 183 114
198 183 114
198 183 114
198 183 114
198 183 114
198 183 114
198 183 114
198 183 114
198 183 114
198 183 114
198 183 114
198 183 114
198 183 114
198 183 114
198 183 114
198 182 114
198 182 114
198 183 114
198 183 114
198 183 114
198 182 114
198 182 114
198 182 114
198 183 114
198 182 114
198 182 114
198 183 114
198 182 114
198 182 114
198 183 114
198 182 114
198 182 114
198 182 114
198 182 114
198 182 114
198 182 114
198 182 114
198 182 114
198 182 114
198 182 114
198 182 114
198 182 114
198 182 114
198 182 114
198 182 114
198 182 114
198 182 114
198 182 114
198 182 114
198 182 114
198 182 114
198 182 114
198 182 114
198 182 114
198 182 114
198 182 114
198 182 114
198 182 114
199 211 228
199 211 228
199 211 228
199 211 228
199 211 228
199 211 228
199 211 228
199 211 228
199 211 228
199 211 228
199 211 228
199 211 228
199 211 228
199 211 228
199 211 228
199 211 228
199 211 228
199 211 228
199 211 228
199 211 228
199 211 228
199 211 228
199 211 228
199 211 228
199 211 228
199 211 228
199 211 228
199 211 228
199 211 228
199 211 228
199 211 228
199 211 228
199 211 228
199 211 228
199 211 228
199 211 228
199 211 228
199 211 228
199 211 228
199 211 228
199 211 228
199 211 228
199 211 228
199 211 228
199 211 228
199 211 228
199 211 228
199 211 228
199 211 228
199 211 228
199 211 228
199 211 228
199 211 228
199 211 228
199 211 228
199 211 228
199 211 228
199 211 228
199 211 228
199 211 228
199 211 228
199 211 228
199 211 228
199 211 228
199 211 228
199 211 228
199 211 228
199 211 228
199 211 228
199 211 228
199 211 228
199 211 228
199 211 228
199 211 228
199 211 228
199 211 228
199 211 228
199 211 228
199 211 228
199 211 228
199 211 228
199 211 228
199 211 228
199 211 228
199 211 228
199 211 228
199 211 228
199 211 228
199 211 228
199 211 228
199 211 228
199 211 228
199 211 228
199 211 228
199 211 228
199 211 228
199 211 228
199 211 228
199 211 228
199 211 228
199 211 228
199 211 228
199 211 228
199 211 228
180 182 193
142 103 93
139 100 88
139 100 89
140 101 90
140 101 92
136 98 86
134 97 83
136 98 89
134 97 88
136 97 93
128 91 76
128 92 76
133 95 85
124 87 73
128 91 83
126 88 81
127 90 81
127 89 84
125 87 75
124 86 81
120 82 72
119 82 72
123 84 82
119 82 74
111 73 68
113 75 66
111 74 66
108 71 64
102 66 61
109 71 59
152 110 100
154 112 100
157 113 101
155 113 100
156 113 102
157 115 108
159 115 98
160 115 107
158 115 107
154 112 96
155 112 95
156 113 100
164 118 117
159 115 106
162 116 111
158 115 100
160 116 99
158 114 100
160 115 102
157 115 94
157 114 98
158 115 102
158 114 100
156 112 92
162 117 106
161 115 108
161 117 103
161 117 106
156 113 94
157 114 96
159 116 105
159 115 103
162 117 106
159 115 105
159 115 100
157 114 97
160 115 109
162 117 114
160 115 103
161 117 110
159 115 103
159 116 103
160 116 100
157 115 99
160 116 103
160 115 99
163 117 108
158 115 103
165 119 114
160 115 106
154 112 96
160 116 103
163 118 107
158 115 102
160 116 107
162 118 111
159 115 99
159 115 98
161 116 106
160 117 105
160 116 107
159 115 104
159 114 99
157 114 102
166 119 118
162 116 108
160 115 104
159 114 98
156 114 97
159 115 99
161 117 104
158 114 100
161 117 103
164 118 106
157 114 93
161 117 105
158 115 100
158 113 103
159 115 103
158 114 101
160 115 102
161 117 111
160 116 105
160 116 103
159 115 100
160 115 103
159 115 104
157 113 94
161 116 105
162 117 109
155 113 91
162 117 106
158 114 99
159 114 100
157 114 96
160 116 106
163 118 113
160 115 101
162 116 106
162 118 111
162 117 106
161 116 104
162 117 109
157 114 97
152 111 90
160 115 100
160 115 102
161 115 107
158 114 100
160 115 103
159 115 100
159 114 102
160 115 103
158 113 102
155 111 96
158 114 101
159 115 103
156 112 95
159 114 99
155 111 101
157 112 96
155 110 94
158 114 102
157 112 102
155 111 93
154 110 93
156 111 103
152 107 93
150 105 85
122 73 55
108 55 21
109 55 22
110 56 23
110 59 24
110 59 24
118 65 27
119 64 30
123 69 29
122 69 29
119 65 27
126 71 29
124 69 27
131 77 37
126 72 32
131 75 34
131 77 34
129 75 35
132 79 37
133 79 36
134 82 39
131 77 36
136 82 40
133 81 35
136 83 40
136 84 38
138 85 40
140 86 42
137 85 42
140 87 45
187 164 101
199 183 114
199 183 114
199 183 114
199 183 114
199 183 114
199 183 114
199 183 114
199 183 114
199 183 114
199 183 114
199 183 114
199 183 114
199 183 114
199 183 114
199 183 114
199 183 114
199 183 114
199 183 114
199 183 114
199 183 114
199 183 114
199 183 114
199 183 114
199 183 114
199 183 114
199 183 114
199 183 114
199 183 114
199 183 114
199 183 114
199 183 114
199 183 114
199 183 114
199 183 114
199 183 114
199 183 114
199 183 114
199 183 114
199 183 114
199 183 114
199 183 114
199 183 114
199 183 114
199 183 114
199 183 114
199 183 114
199 183 114
199 183 114
199 183 114
199 183 114
199 183 114
199 183 114
199 183 114
199 183 114
199 183 114
199 183 114
199 183 114
199 183 114
199 183 114
199 183 114
199 183 114
199 183 114
199 183 114
199 183 114
199 183 114
199 183 114
199 183 114
199 183 114
199 183 114
199 183 114
199 183 114
199 183 114
199 183 114
199 183 114
199 183 114
199 183 114
199 183 114
199 183 114
199 183 114
199 183 114
199 183 114
199 183 114
199 183 114
199 183 114
199 183 114
199 183 114
199 183 114
199 183 114
199 183 114
199 183 114
199 183 114
199 183 114
199 183 114
199 183 114
199 183 114
199 183 114
199 183 114
199 183 114
199 183 114
199 183 114
199 183 114
199 183 114
199 183 114
199 183 114
199 183 114
199 211 228
199 211 228
199 211 228
199 211 228
199 211 228
199 211 228
199 211 228
199 211 228
199 211 228
199 211 228
199 211 228
199 211 228
199 211 228
199 211 228
199 211 228
199 211 228
199 211 228
199 211 228
199 211 228
199 211 228
199 211 228
199 212 228
199 212 228
199 212 228
199 212 228
199 212 228
199 212 228
199 212 228
199 212 228
200 212 228
200 212 228
200 212 228
200 212 228
200 212 228
200 212 228
200 212 228
200 212 228
200 212 228
200 212 228
200 212 228
200 212 228
200 212 228
200 212 228
200 212 228
200 212 228
200 212 228
200 212 228
200 212 228
200 212 228
200 212 228
200 212 228
200 212 228
200 212 228
200 212 228
200 212 228
200 212 228
200 212 228
200 212 228
200 212 228
200 212 228
200 212 228
200 212 228
200 212 228
200 212 228
200 212 228
200 212 228
200 212 228
200 212 228
200 212 228
200 212 228
200 212 228
200 212 228
200 212 228
199 211 226
200 212 228
199 211 226
199 211 225
199 211 225
199 211 226
197 210 220
196 208 216
196 209 217
196 208 216
193 206 207
196 208 216
195 208 214
196 209 217
194 207 209
193 206 208
191 204 199
194 207 211
193 206 208
193 206 207
190 204 199
192 205 204
190 204 196
193 206 208
190 204 200
190 204 198
190 203 196
194 207 211
193 206 207
193 206 206
192 205 202
185 191 193
141 103 94
138 100 85
138 99 86
139 101 83
135 98 83
139 99 89
137 99 88
133 94 80
132 95 83
131 93 84
132 94 85
130 93 83
132 94 87
127 88 74
131 93 82
124 87 78
128 90 81
124 87 71
125 87 78
126 88 73
123 86 69
121 83 76
116 77 69
118 81 76
114 76 65
117 79 77
104 65 56
108 71 57
106 69 56
116 78 64
143 103 83
151 110 96
156 112 103
154 113 93
154 112 99
158 113 103
154 111 93
156 113 97
156 113 97
157 114 100
154 112 96
162 117 112
158 114 102
159 115 99
156 113 99
161 117 110
157 114 95
159 116 103
159 115 105
160 116 111
159 116 97
158 114 103
155 113 99
161 116 108
160 115 100
159 115 100
160 116 107
156 112 94
162 117 108
160 116 110
158 115 105
158 114 99
165 119 115
160 116 103
159 115 98
159 115 98
162 117 110
160 116 102
159 115 103
160 116 103
159 115 103
160 117 101
159 114 98
157 114 96
159 116 100
162 116 103
159 114 104
161 117 103
158 115 97
160 116 103
157 113 98
163 118 113
160 115 103
161 117 108
158 114 103
159 115 103
161 116 101
158 115 102
161 117 109
159 115 103
161 116 103
157 114 98
158 114 99
156 114 101
158 114 98
159 116 103
153 111 82
163 117 107
158 115 100
160 115 106
159 116 107
162 117 106
161 116 103
160 115 103
161 117 109
157 113 98
164 117 108
157 114 101
156 113 97
157 113 100
160 116 101
157 113 95
160 115 102
161 115 107
162 118 108
159 114 108
157 113 97
159 115 109
160 115 98
158 114 100
158 115 98
161 116 103
163 118 106
160 115 99
161 116 101
158 114 102
160 115 104
158 114 99
161 116 102
162 117 108
160 116 102
158 114 100
163 117 113
159 114 100
159 115 104
156 113 87
158 114 98
159 115 103
160 116 103
158 113 102
156 111 97
161 115 107
157 114 97
156 111 100
155 111 99
160 115 108
159 113 98
156 111 88
157 113 98
157 112 96
156 112 101
158 112 104
153 110 93
154 109 88
157 111 98
155 111 87
153 108 93
155 110 94
149 105 84
113 65 38
108 54 23
106 54 21
110 56 25
116 63 24
112 59 25
117 65 31
120 66 28
123 68 33
123 68 30
122 69 31
122 69 29
126 72 32
124 70 28
128 74 34
126 73 29
128 75 37
132 78 36
130 77 35
129 76 35
133 79 36
133 80 39
137 82 40
136 82 38
137 84 39
137 84 41
136 83 42
142 88 43
142 87 45
139 85 42
183 164 92
192 177 101
194 179 104
192 178 102
193 179 104
195 180 106
194 179 105
191 177 101
190 176 99
192 178 103
193 179 104
195 180 107
195 180 106
190 176 99
194 179 106
192 178 103
192 178 101
194 179 104
195 180 106
193 178 102
196 181 108
193 179 104
192 178 102
196 181 108
197 181 109
198 182 110
199 183 112
199 183 113
199 183 112
199 183 113
200 183 114
200 183 114
200 183 114
200 183 114
200 183 114
200 183 114
200 183 114
200 183 114
200 183 114
200 183 114
200 183 114
200 183 114
200 183 114
200 183 114
200 183 114
200 183 114
200 183 114
200 183 114
200 183 114
200 183 114
200 183 114
200 183 114
200 183 114
200 183 114
200 183 114
200 183 114
200 183 114
200 183 114
200 183 114
200 183 114
200 183 114
200 183 114
200 183 114
200 183 114
200 183 114
200 183 114
200 183 114
200 183 114
200 183 114
200 183 114
200 183 114
200 183 114
200 183 114
200 183 114
200 183 114
199 183 114
200 183 114
199 183 114
199 183 114
199 183 114
199 183 114
199 183 114
199 183 114
199 183 114
199 183 114
199 183 114
199 183 114
199 183 114
199 183 114
199 183 114
199 183 114
199 183 114
199 183 114
199 183 114
199 183 114
199 183 114
199 183 114
199 183 114
199 183 114
199 183 114
199 183 114
199 183 114
199 183 114
199 183 114
199 183 114
199 183 114
200 212 228
200 212 228
200 212 228
200 212 228
200 212 228
200 212 228
200 212 228
200 212 228
200 212 228
200 212 228
200 212 228
200 212 228
200 212 228
200 212 228
200 212 228
200 212 228
200 212 228
200 212 228
200 212 228
200 212 228
200 212 228
200 212 228
200 212 228
200 212 228
200 212 228
200 212 228
200 212 228
200 212 228
200 212 228
200 212 228
200 212 228
200 212 228
200 212 228
200 212 228
200 211 226
198 210 223
199 211 225
196 209 216
192 205 203
194 207 209
187 202 190
191 205 202
189 203 194
188 202 191
188 203 194
184 199 177
182 197 171
185 199 178
181 196 168
181 197 169
178 194 151
174 191 141
175 192 146
177 193 151
178 194 153
169 187 121
173 190 133
171 189 127
170 188 125
169 187 121
168 186 114
164 183 88
164 183 88
166 184 97
160 180 79
162 182 82
160 180 72
161 181 82
160 180 60
161 181 72
158 178 45
158 179 51
156 177 39
155 176 0
156 177 0
155 176 0
154 176 0
156 177 0
155 177 0
155 176 0
156 177 0
157 177 0
156 177 0
155 177 0
156 177 0
156 177 0
156 177 0
156 176 0
155 177 0
157 177 0
155 177 0
157 177 0
155 176 0
155 177 0
157 177 0
155 176 0
155 176 0
155 176 0
156 177 0
157 178 0
155 176 0
155 177 0
156 177 0
155 177 0
154 171 24
138 99 86
136 99 86
137 99 85
141 102 89
139 100 91
135 98 88
134 96 82
135 97 86
134 96 81
130 93 79
133 96 88
134 96 82
132 94 84
130 92 85
130 92 82
125 87 72
117 81 69
122 85 70
125 87 73
122 85 74
124 86 73
118 81 72
115 78 66
116 79 70
113 74 63
112 74 67
108 69 59
107 70 62
104 67 48
111 74 62
154 111 101
156 112 102
157 114 101
152 110 91
154 111 93
152 110 93
157 114 104
156 113 101
158 116 103
154 110 100
157 114 102
159 115 106
156 113 96
157 115 101
157 115 99
160 116 110
158 115 103
160 115 108
160 115 104
157 115 96
157 114 100
161 117 108
159 115 104
158 114 101
160 116 103
158 114 101
159 115 103
160 116 103
160 116 106
158 115 106
159 115 99
159 116 104
158 114 98
156 113 95
157 114 99
157 114 100
158 115 98
160 117 106
161 116 103
159 115 104
160 116 105
157 115 101
162 117 110
159 114 103
160 116 105
159 116 98
160 116 104
160 116 100
161 116 105
156 114 95
160 116 101
159 115 100
160 115 103
159 115 103
160 116 107
161 117 101
158 114 97
158 115 95
159 115 103
157 113 99
158 114 100
155 113 94
160 115 110
160 116 105
162 116 110
156 113 94
162 117 109
158 115 102
161 116 105
159 116 102
161 116 109
161 116 106
159 115 99
159 115 107
159 115 98
159 115 100
159 115 103
160 115 106
162 116 111
159 115 98
158 115 103
162 117 109
159 115 105
159 115 100
162 118 106
158 115 101
162 117 109
158 115 98
158 114 101
158 115 99
156 112 93
158 114 93
165 120 118
160 115 107
159 115 103
162 117 113
160 115 105
155 112 95
159 115 97
160 116 102
159 115 100
157 114 100
155 111 95
158 115 100
159 115 103
160 115 102
158 115 106
160 115 100
158 113 102
156 113 99
161 115 103
158 113 99
155 112 98
157 113 100
158 112 103
158 114 99
158 114 103
156 112 95
154 110 89
155 112 90
160 115 108
154 109 88
157 112 100
157 112 98
156 111 97
153 109 95
153 107 91
152 106 89
151 106 90
115 67 51
99 48 16
107 53 20
111 59 28
113 58 21
114 62 23
114 60 25
120 66 28
120 66 24
119 66 29
125 72 30
124 70 31
123 69 29
122 69 30
127 74 32
126 73 28
131 76 37
129 76 33
133 79 38
136 82 39
133 79 37
135 81 38
137 82 40
137 82 42
134 80 36
139 85 42
138 84 42
135 82 38
138 85 43
137 85 40
154 148 14
156 153 0
157 153 0
156 153 0
155 153 0
156 153 0
155 152 0
157 153 0
158 154 0
156 153 0
156 153 0
156 153 0
155 153 0
156 153 0
156 153 0
156 153 0
156 153 0
155 153 0
157 154 0
156 153 0
156 153 0
156 153 0
156 153 0
154 152 0
157 154 0
156 153 0
156 153 0
155 153 0
155 153 0
157 154 0
156 153 0
156 153 0
157 154 11
159 155 22
158 154 28
158 154 19
162 157 39
163 158 39
164 158 45
166 159 47
163 158 42
166 159 48
166 160 54
166 160 49
169 162 60
168 161 58
170 163 61
170 162 60
170 162 61
172 164 67
173 165 67
175 166 72
173 165 68
178 168 78
181 170 83
179 169 80
178 168 79
185 173 90
183 171 86
184 172 89
186 174 92
189 176 97
187 174 93
191 177 99
194 179 104
194 179 105
190 176 99
195 180 106
194 179 105
197 181 109
200 183 113
200 184 114
200 184 114
200 184 114
200 183 114
200 184 114
200 183 114
200 183 114
200 183 114
200 183 114
200 183 114
200 183 114
200 183 114
200 183 114
200 183 114
200 183 114
200 183 114
200 183 114
200 183 114
200 183 114
200 183 114
200 183 114
200 183 114
200 183 114
200 183 114
200 183 114
200 183 114
200 183 114
200 183 114
200 183 114
200 183 114
200 183 114
200 183 114
200 183 114
200 183 114
200 183 114
200 212 228
200 212 228
200 212 228
200 212 228
200 212 228
200 212 228
200 212 228
200 212 228
200 212 228
200 212 228
200 212 228
200 212 228
198 210 223
196 209 217
196 209 216
190 204 198
191 204 199
184 199 178
187 201 187
182 197 169
183 198 172
180 195 160
179 195 161
175 192 144
174 191 141
171 189 127
168 186 116
168 186 114
164 183 97
166 185 102
160 180 72
158 179 51
157 178 45
156 177 0
155 176 0
156 177 0
156 177 0
157 177 0
157 177 0
157 177 0
155 177 0
156 177 0
156 177 0
156 177 0
155 176 0
156 177 0
156 177 0
155 176 0
156 177 0
155 176 0
155 177 0
155 177 0
155 177 0
155 176 0
156 177 0
155 177 0
155 176 0
156 177 0
155 176 0
155 176 0
156 177 0
156 177 0
156 177 0
156 176 0
157 177 0
156 177 0
156 177 0
156 176 0
155 176 0
156 177 0
154 176 0
156 177 0
157 177 0
154 176 0
155 176 0
156 177 0
155 176 0
155 176 0
155 176 0
155 176 0
156 177 0
156 177 0
157 177 0
156 177 0
155 175 0
156 177 0
156 177 0
156 177 0
154 176 0
154 176 0
156 176 0
155 176 0
156 177 0
155 176 0
155 176 0
156 176 0
155 175 0
155 176 0
155 177 0
156 177 0
156 176 0
156 177 0
155 176 0
156 177 0
156 177 0
137 111 68
139 100 85
137 98 86
137 99 86
134 96 76
130 93 76
134 95 84
137 99 89
129 93 77
132 94 78
136 97 87
130 94 83
131 93 82
130 93 82
124 89 72
128 91 79
125 88 68
125 88 78
124 87 73
124 86 75
113 75 57
120 83 69
115 79 63
109 72 56
113 75 68
106 68 57
110 75 59
105 69 53
105 70 59
105 68 53
151 109 99
154 110 97
152 111 89
157 114 98
156 113 98
153 111 94
155 112 95
157 113 102
156 113 99
158 114 103
153 111 89
161 116 105
157 114 99
155 112 99
157 114 97
158 114 99
161 116 106
160 117 105
161 116 107
156 113 91
159 115 107
160 115 105
158 114 95
157 114 102
158 114 96
160 115 105
162 117 106
159 116 101
158 115 108
158 115 99
162 117 109
158 115 98
157 112 97
160 115 101
158 114 99
164 118 108
157 114 100
160 116 106
156 113 90
159 115 104
157 112 103
159 115 102
158 114 96
158 115 100
161 116 107
160 116 103
159 115 103
158 116 103
158 115 103
155 112 96
160 116 103
160 116 111
159 115 101
161 117 105
160 114 103
158 115 103
161 116 103
158 113 91
157 114 96
159 115 103
157 114 98
160 116 103
158 114 102
161 117 104
154 112 93
158 115 95
163 117 113
160 116 101
159 114 97
158 114 101
163 118 103
156 113 90
160 116 102
158 114 99
162 117 109
160 115 102
158 114 98
162 117 107
158 113 98
159 115 101
158 115 99
158 113 103
159 115 103
158 115 101
159 114 103
163 118 105
162 117 107
160 115 105
157 114 94
162 117 102
162 117 107
157 113 93
159 116 102
161 117 105
158 114 97
159 115 99
158 115 99
160 116 102
162 117 109
161 116 106
158 114 99
158 115 105
155 113 94
158 114 98
159 115 100
158 114 96
160 115 103
155 112 94
160 115 102
158 114 98
160 115 102
158 113 95
160 113 106
160 115 106
156 112 95
159 114 104
159 114 98
156 112 98
154 111 90
154 110 94
158 114 100
156 112 97
154 110 89
157 112 93
153 109 91
153 108 94
151 105 90
152 107 87
153 107 91
105 55 33
99 47 14
104 51 16
104 53 16
115 62 25
111 58 18
117 63 26
116 61 24
118 65 26
120 66 26
116 62 25
117 64 20
123 70 28
122 68 32
127 75 34
126 74 29
129 76 32
126 73 32
129 75 31
133 79 34
132 78 34
132 79 34
137 83 39
135 82 36
135 82 38
137 84 40
134 82 34
135 82 36
139 86 41
137 91 38
155 152 0
157 153 0
155 153 0
154 151 0
156 153 0
155 153 0
156 153 0
155 152 0
156 153 0
155 153 0
154 152 0
155 153 0
156 153 0
157 153 0
156 152 0
155 153 0
154 152 0
155 153 0
156 153 0
155 153 0
156 153 0
155 152 0
155 152 0
155 153 0
155 152 0
156 153 0
155 153 0
155 153 0
155 153 0
156 153 0
156 153 0
154 152 0
155 153 0
156 153 0
156 153 0
155 152 0
157 154 0
155 152 0
155 153 0
156 153 0
156 153 0
157 153 0
158 154 0
157 153 0
157 154 0
156 153 0
156 153 0
157 154 0
157 154 0
155 153 0
156 153 0
156 153 0
155 153 0
156 153 0
156 153 0
155 153 0
156 153 0
157 154 0
156 153 0
155 153 0
155 153 0
157 153 0
155 152 0
157 153 0
154 152 0
155 153 0
157 154 0
156 153 0
156 153 0
157 154 0
155 153 0
156 153 11
159 155 25
159 155 28
160 156 32
165 159 49
167 160 51
166 160 49
172 164 64
174 165 68
173 165 68
177 167 75
178 168 77
179 168 79
184 172 90
185 173 90
184 172 87
191 177 99
191 177 100
192 178 101
194 179 105
197 181 109
200 183 113
200 184 114
200 184 114
200 184 114
200 184 114
200 184 114
200 184 114
200 184 114
200 184 114
200 184 114
200 184 114
200 184 114
200 183 114
200 183 114
189 203 191
186 200 180
185 199 178
180 196 163
177 193 153
175 191 141
171 189 125
167 186 114
163 183 88
162 182 79
163 182 79
158 178 0
157 177 0
155 176 0
156 177 0
156 177 0
156 177 0
154 176 0
158 178 0
156 177 0
157 177 0
156 177 0
156 177 0
156 177 0
157 177 0
156 177 0
157 177 0
155 177 0
156 177 0
156 177 0
156 177 0
155 176 0
156 177 0
156 177 0
155 177 0
157 177 0
157 177 0
158 178 0
157 177 0
155 177 0
154 176 0
156 177 0
155 177 0
156 176 0
156 177 0
155 177 0
156 177 0
154 176 0
155 176 0
156 177 0
154 175 0
156 177 0
156 177 0
155 176 0
157 178 0
156 176 0
156 177 0
155 176 0
155 176 0
157 178 0
157 177 0
156 176 0
156 177 0
156 177 0
156 177 0
156 177 0
157 177 0
155 177 0
156 177 0
154 175 0
156 177 0
155 176 0
156 176 0
157 177 0
155 176 0
156 177 0
156 176 0
154 175 0
155 176 0
155 176 0
156 176 0
155 176 0
156 177 0
155 176 0
155 176 0
155 176 0
156 177 0
155 175 0
155 175 0
155 176 0
156 176 0
156 175 0
155 176 0
156 177 0
154 175 0
155 176 0
156 177 0
155 175 0
155 176 0
155 175 0
156 176 0
154 175 0
156 176 0
155 176 0
155 175 0
143 128 67
137 99 85
137 98 82
135 98 79
136 98 83
137 99 85
135 97 85
132 95 74
134 96 86
131 94 78
130 93 78
130 92 76
127 90 71
131 93 70
125 88 71
126 89 70
118 82 62
126 89 72
123 85 64
122 84 73
120 83 69
117 79 67
114 76 56
114 78 64
111 75 60
115 76 68
108 71 55
105 68 56
99 62 45
105 68 57
153 110 92
153 109 99
155 112 100
154 112 92
157 114 99
152 109 91
156 113 99
154 111 88
154 111 88
157 113 99
159 115 105
158 114 95
160 116 107
154 111 91
157 114 98
156 113 93
157 114 100
157 114 98
158 114 95
156 112 97
158 114 98
160 115 102
157 114 93
157 114 96
156 113 97
161 117 107
156 113 97
159 115 100
161 116 107
162 117 105
160 116 103
157 113 91
161 116 104
162 118 110
159 115 98
157 114 99
160 115 112
160 115 97
160 115 102
157 113 91
160 116 105
159 115 100
156 114 93
158 115 95
160 116 103
159 115 101
158 115 95
159 115 98
160 115 104
161 116 104
160 115 105
160 115 102
158 115 100
162 117 108
163 118 112
160 116 99
161 116 102
160 115 104
161 116 105
163 117 106
160 115 103
161 117 107
159 115 97
161 116 102
158 115 93
157 112 103
157 114 94
161 116 103
158 115 103
158 115 99
160 116 101
157 114 98
156 113 94
160 116 107
159 114 100
161 116 101
158 115 101
160 116 100
160 116 104
160 116 102
159 115 101
162 117 108
162 117 114
159 115 99
159 115 102
159 115 103
161 116 105
158 114 100
157 114 93
159 115 101
159 116 101
157 114 98
160 116 105
157 114 99
163 117 106
161 116 107
162 116 107
159 114 94
158 115 99
159 115 103
160 115 96
162 117 109
158 113 98
159 114 102
160 115 105
156 113 96
161 116 104
157 113 97
159 115 100
156 113 89
159 114 96
160 113 101
162 117 107
159 115 104
156 111 96
156 111 96
159 113 98
154 112 90
158 112 99
158 112 98
154 110 96
156 113 100
159 113 99
149 106 85
157 113 97
150 106 81
152 106 92
158 112 101
149 103 79
104 54 23
104 52 13
107 55 21
110 57 24
107 57 21
115 62 24
117 62 25
114 62 22
115 61 25
121 67 31
125 71 28
121 68 27
124 69 24
126 74 32
122 69 28
129 76 32
122 68 28
128 75 31
127 75 31
131 77 35
132 79 36
132 79 33
132 79 37
133 81 38
136 83 40
132 81 39
138 84 41
134 82 38
136 83 37
143 102 39
155 153 0
154 152 0
154 151 0
154 151 0
155 153 0
156 153 0
155 152 0
154 151 0
154 151 0
156 153 0
154 152 0
154 151 0
156 152 0
155 152 0
156 153 0
154 151 0
156 153 0
157 153 0
154 152 0
156 153 0
156 152 0
155 152 0
156 153 0
155 153 0
156 153 0
156 153 0
156 153 0
156 153 0
156 153 0
155 153 0
154 152 0
156 153 0
156 153 0
156 153 0
157 154 0
156 153 0
157 154 0
155 152 0
155 152 0
157 154 0
156 153 0
155 152 0
157 154 0
156 153 0
157 153 0
154 152 0
156 153 0
156 153 0
156 153 0
156 153 0
155 152 0
156 153 0
156 153 0
156 153 0
155 153 0
157 154 0
156 153 0
157 154 0
156 153 0
153 152 0
155 152 0
155 153 0
155 152 0
155 152 0
155 153 0
154 152 0
156 153 0
154 152 0
153 152 0
156 153 0
157 154 0
156 153 0
156 153 0
156 153 0
156 153 0
157 153 0
157 154 0
156 152 0
155 153 0
157 154 0
155 153 0
157 154 0
155 153 0
155 153 0
155 153 0
157 154 0
155 153 0
156 153 0
156 153 0
157 153 0
156 153 0
156 153 0
157 153 0
157 154 19
160 156 30
161 156 36
164 159 49
169 162 59
170 163 61
170 163 62
177 167 75
180 170 82
181 170 84
184 172 90
184 172 88
186 173 91
155 176 0
156 177 0
155 176 0
156 177 0
157 177 0
155 177 0
156 177 0
156 177 0
157 177 0
156 177 0
156 177 0
156 177 0
155 177 0
156 177 0
155 176 0
155 176 0
155 176 0
155 176 0
156 176 0
156 177 0
157 177 0
157 178 0
156 177 0
155 176 0
156 177 0
156 177 0
156 177 0
157 177 0
156 177 0
154 174 0
156 177 0
156 177 0
155 177 0
156 177 0
155 177 0
155 176 0
158 177 0
156 177 0
154 176 0
156 176 0
155 176 0
156 177 0
156 177 0
155 175 0
157 178 0
155 177 0
156 176 0
156 177 0
155 176 0
155 176 0
156 176 0
154 176 0
156 176 0
156 177 0
155 176 0
155 176 0
156 176 0
157 177 0
155 176 0
155 176 0
156 176 0
156 177 0
156 176 0
156 177 0
154 176 0
156 177 0
156 175 0
156 177 0
156 177 0
155 175 0
156 176 0
155 176 0
155 176 0
155 175 0
155 177 0
156 176 0
155 176 0
155 175 0
156 176 0
155 176 0
154 175 0
155 176 0
156 177 0
154 173 0
155 175 0
156 176 0
156 176 0
154 175 0
155 175 0
156 176 0
156 176 0
155 175 0
154 175 0
155 175 0
155 175 0
154 174 0
154 175 0
154 174 0
155 175 0
153 172 0
155 175 0
153 172 0
155 174 0
154 174 0
153 172 0
146 145 62
136 97 75
135 97 81
138 99 83
135 97 82
132 95 73
133 96 76
136 98 86
131 94 72
129 90 75
133 95 82
129 91 78
128 91 75
128 90 67
128 91 76
121 85 68
128 90 79
125 88 72
125 87 68
120 83 67
126 88 69
119 82 64
116 79 64
117 79 65
113 76 62
112 76 58
112 74 66
102 65 51
109 71 61
99 61 44
142 102 72
153 110 97
156 111 103
152 111 92
149 108 82
156 113 101
155 112 95
156 112 94
158 114 100
161 116 108
153 112 93
158 115 108
161 116 111
155 112 95
159 115 107
155 112 98
157 115 95
154 113 95
160 115 104
160 116 102
158 114 95
157 113 101
154 112 92
157 114 97
155 111 89
159 113 97
158 114 104
160 115 104
160 115 104
159 116 102
157 114 97
159 115 107
159 116 100
161 117 106
159 115 107
157 113 94
157 114 102
161 116 108
160 116 101
158 115 103
160 115 102
158 115 93
159 115 103
159 115 103
161 116 104
159 114 101
159 115 100
157 113 98
158 114 100
158 115 98
160 115 103
157 114 97
161 116 103
159 114 103
159 115 103
158 114 103
159 115 101
159 115 98
158 114 98
160 115 100
158 115 99
158 114 101
158 116 98
161 116 104
159 115 100
161 116 102
161 116 109
158 115 103
156 113 97
162 117 113
162 117 108
156 113 96
158 114 99
155 113 99
158 115 103
160 115 101
160 116 105
158 114 94
162 116 109
158 115 101
163 118 114
161 116 105
159 115 100
158 114 98
160 116 103
162 116 109
160 116 102
162 117 107
157 114 97
158 113 100
157 113 101
157 114 95
155 113 85
160 115 103
165 119 118
157 114 96
159 116 103
163 117 108
160 115 103
159 114 98
161 116 105
160 115 105
156 112 96
154 112 90
157 114 100
157 113 93
159 114 105
160 115 105
158 114 99
152 110 90
158 113 97
158 113 101
158 113 106
156 113 99
157 113 98
155 111 94
155 110 93
157 113 95
157 113 98
157 112 97
156 111 90
158 112 102
155 112 96
151 108 93
156 111 98
152 109 80
155 110 96
151 106 92
150 104 82
105 54 17
101 52 17
105 56 21
109 57 16
108 56 17
106 54 20
111 60 21
117 64 27
115 62 27
120 67 27
121 67 29
121 69 26
123 69 27
123 69 25
123 71 28
124 71 26
128 75 32
131 77 33
129 76 35
133 79 37
126 73 29
132 79 32
133 79 34
133 81 38
135 81 39
137 83 39
137 83 37
137 84 40
137 85 39
146 124 25
155 151 0
154 151 0
154 152 0
154 151 0
154 150 0
155 151 0
155 152 0
155 152 0
154 151 0
153 150 0
154 152 0
154 152 0
154 152 0
154 151 0
154 152 0
155 152 0
154 152 0
156 153 0
156 153 0
155 152 0
156 152 0
154 152 0
157 154 0
154 151 0
155 151 0
156 153 0
154 152 0
156 152 0
156 152 0
155 152 0
155 152 0
155 152 0
156 153 0
154 152 0
156 153 0
155 152 0
155 152 0
156 153 0
156 152 0
155 153 0
155 152 0
154 152 0
156 153 0
155 153 0
156 153 0
155 152 0
156 153 0
154 152 0
156 152 0
155 153 0
156 153 0
156 153 0
155 153 0
155 152 0
155 152 0
155 153 0
155 153 0
156 153 0
156 153 0
155 152 0
155 153 0
155 153 0
156 153 0
155 153 0
155 153 0
155 153 0
156 153 0
156 153 0
157 153 0
157 153 0
157 154 0
157 154 0
156 153 0
156 153 0
156 153 0
155 152 0
154 152 0
156 153 0
156 153 0
157 154 0
155 152 0
157 154 0
155 153 0
155 153 0
155 153 0
158 154 0
155 153 0
155 153 0
156 153 0
156 153 0
157 153 0
156 153 0
156 153 0
156 153 0
157 154 0
154 152 0
156 153 0
156 153 0
156 153 0
155 152 0
155 153 0
154 152 0
157 153 0
156 153 0
155 153 0
156 153 0
155 176 0
156 177 0
155 176 0
157 177 0
157 178 0
156 177 0
155 176 0
156 177 0
157 177 0
156 177 0
156 176 0
155 177 0
155 176 0
155 176 0
155 177 0
156 176 0
155 176 0
155 176 0
155 176 0
157 178 0
157 177 0
156 177 0
156 177 0
155 176 0
155 176 0
156 177 0
154 176 0
155 176 0
155 176 0
156 177 0
155 176 0
158 178 0
157 177 0
155 177 0
155 176 0
156 177 0
156 176 0
157 177 0
156 176 0
154 175 0
156 177 0
157 177 0
157 177 0
156 177 0
155 176 0
155 175 0
156 177 0
157 177 0
156 177 0
156 177 0
153 174 0
155 176 0
156 177 0
155 176 0
155 176 0
156 176 0
156 177 0
155 175 0
155 176 0
155 176 0
155 176 0
156 177 0
155 175 0
155 176 0
154 176 0
155 176 0
155 176 0
154 175 0
157 177 0
156 177 0
156 176 0
155 176 0
156 177 0
154 174 0
156 176 0
154 175 0
154 174 0
153 174 0
156 177 0
156 177 0
156 176 0
154 175 0
155 175 0
154 175 0
155 174 0
155 175 0
154 174 0
154 175 0
155 175 0
156 175 0
152 172 0
154 174 0
155 175 0
153 173 0
155 174 0
154 172 0
152 171 0
155 173 0
153 171 0
153 172 0
153 172 0
153 171 0
153 172 0
154 174 0
153 174 0
149 156 39
135 97 76
138 99 84
134 97 75
137 98 79
133 96 79
135 97 85
133 96 72
133 94 75
130 93 79
127 91 76
131 93 78
129 92 76
125 88 77
126 88 75
126 89 72
121 84 63
123 86 72
127 91 74
118 82 63
122 84 65
115 79 59
108 74 51
120 81 69
114 78 61
110 73 52
106 69 57
102 66 49
105 68 50
97 60 38
143 102 96
150 107 86
156 113 104
156 113 100
154 113 99
153 111 96
155 112 93
151 109 87
156 113 101
158 114 106
156 113 99
159 114 103
157 114 95
154 110 97
158 115 97
157 113 95
159 116 108
159 115 105
156 113 91
158 114 103
157 113 96
159 115 100
162 117 112
156 112 96
156 113 98
158 114 101
160 116 103
158 114 100
160 116 103
156 113 93
159 115 99
159 116 101
159 116 100
154 112 91
159 114 101
157 113 100
159 115 97
158 115 101
160 116 100
158 115 100
157 114 90
161 117 102
156 113 96
159 116 102
159 114 102
162 117 108
157 114 95
158 114 95
164 117 110
155 112 93
154 112 90
157 115 100
159 115 106
159 115 102
159 115 101
157 114 97
163 118 108
159 114 101
159 115 96
161 116 105
157 114 96
159 115 98
155 113 88
160 116 105
161 116 103
159 116 103
160 116 104
163 116 105
157 114 99
158 114 99
162 117 109
159 115 103
163 117 107
158 115 103
160 115 104
155 112 95
160 116 103
156 112 94
159 115 97
159 115 104
158 114 105
160 115 102
162 117 105
157 113 97
157 114 95
159 114 99
159 116 98
161 116 105
162 117 107
161 116 103
160 115 103
158 113 99
160 116 105
159 116 99
163 118 110
159 114 100
157 114 100
157 114 98
158 113 98
157 114 97
157 113 96
160 115 100
160 115 100
156 113 98
158 113 89
159 114 105
158 114 100
159 114 99
159 115 101
158 114 98
158 114 102
157 111 94
157 112 96
158 113 100
158 113 97
158 113 98
156 111 99
155 111 96
158 113 105
157 112 94
156 111 100
155 111 89
157 113 105
157 111 96
155 111 98
156 110 91
152 107 88
153 105 85
140 92 71
96 46 11
105 53 15
104 53 18
112 59 17
111 60 22
115 62 21
109 59 22
114 61 19
120 66 26
117 63 26
122 68 28
121 67 28
120 68 23
123 71 27
125 72 29
130 76 34
127 73 30
128 74 31
132 79 32
130 77 34
126 74 28
132 78 33
133 80 36
134 80 38
135 82 39
138 85 41
135 82 39
134 82 34
136 84 35
151 142 16
151 149 0
153 150 0
154 151 0
151 148 0
153 150 0
153 150 0
154 151 0
153 150 0
155 151 0
153 151 0
156 152 0
155 152 0
154 151 0
154 151 0
154 151 0
155 152 0
154 150 0
154 151 0
154 152 0
155 152 0
155 152 0
155 152 0
154 151 0
154 151 0
154 152 0
155 150 0
156 152 0
153 150 0
153 152 0
153 151 0
156 153 0
155 152 0
155 152 0
156 152 0
155 152 0
153 150 0
155 152 0
156 153 0
153 151 0
154 152 0
156 153 0
156 153 0
156 153 0
156 153 0
156 153 0
156 153 0
156 153 0
156 152 0
155 152 0
158 153 0
154 152 0
157 154 0
154 151 0
155 152 0
154 152 0
156 153 0
155 153 0
154 152 0
156 153 0
154 152 0
156 153 0
156 153 0
155 153 0
155 152 0
156 152 0
155 152 0
155 153 0
157 154 0
156 153 0
155 152 0
156 152 0
156 153 0
154 152 0
156 153 0
157 154 0
156 153 0
155 152 0
155 153 0
158 154 0
156 153 0
154 152 0
156 153 0
156 153 0
157 154 0
156 153 0
155 153 0
155 153 0
156 153 0
157 153 0
154 152 0
154 152 0
156 153 0
156 153 0
155 153 0
155 153 0
156 153 0
156 153 0
157 154 0
157 154 0
157 154 0
156 153 0
156 153 0
155 153 0
156 153 0
155 153 0
155 153 0
156 177 0
156 176 0
156 177 0
156 177 0
155 176 0
157 177 0
156 177 0
155 176 0
156 177 0
156 177 0
156 177 0
155 176 0
157 177 0
155 177 0
156 177 0
156 177 0
155 176 0
155 176 0
156 177 0
156 177 0
157 177 0
157 177 0
155 176 0
157 177 0
156 176 0
157 177 0
155 177 0
155 176 0
155 176 0
155 176 0
156 177 0
155 176 0
156 176 0
155 175 0
155 176 0
155 177 0
154 176 0
155 176 0
155 177 0
154 175 0
154 176 0
156 176 0
155 176 0
157 177 0
157 177 0
156 176 0
156 177 0
156 177 0
155 175 0
157 177 0
156 177 0
157 177 0
155 176 0
155 176 0
155 176 0
156 176 0
154 175 0
156 176 0
156 177 0
156 176 0
155 175 0
155 176 0
156 177 0
155 176 0
154 175 0
153 172 0
155 175 0
157 176 0
155 175 0
154 175 0
155 174 0
155 176 0
155 175 0
154 174 0
154 175 0
155 176 0
154 173 0
155 176 0
155 175 0
156 176 0
155 176 0
154 173 0
153 173 0
155 176 0
154 174 0
153 173 0
153 174 0
153 173 0
154 174 0
153 172 0
153 173 0
155 175 0
153 172 0
152 173 0
152 172 0
153 173 0
153 172 0
153 172 0
153 170 0
152 170 0
154 173 0
149 166 0
152 171 0
152 170 0
152 169 0
152 168 0
142 114 76
134 97 77
137 98 78
134 97 78
131 95 61
130 94 73
129 92 67
127 90 67
131 93 73
124 87 66
128 90 71
130 92 80
127 90 76
126 88 74
128 90 74
123 87 69
128 89 76
122 86 70
117 80 63
112 76 56
117 81 57
112 76 56
120 83 64
111 74 48
108 72 51
100 64 38
101 64 48
99 63 40
96 61 44
139 99 79
148 107 86
152 110 94
152 110 92
152 110 94
157 113 100
157 115 105
152 110 89
153 111 94
157 113 100
158 113 105
154 110 97
157 114 98
156 114 100
159 114 102
156 114 99
155 113 93
158 113 100
160 115 101
154 111 92
158 114 92
156 112 93
159 115 97
157 113 89
158 114 99
158 114 94
160 116 103
158 114 103
156 113 94
158 115 102
157 114 97
158 114 101
157 114 97
159 116 98
156 113 98
162 117 108
159 115 96
158 115 101
160 116 99
159 116 103
160 116 103
161 117 105
158 115 90
161 116 102
159 116 99
158 114 101
154 111 94
159 114 102
159 115 103
158 115 102
159 115 96
156 114 98
163 118 109
159 115 101
162 117 102
158 114 100
159 115 105
158 114 102
161 117 102
160 116 107
157 114 97
160 116 105
159 115 100
161 116 107
160 115 99
159 115 101
159 115 101
158 115 100
160 116 101
158 114 101
157 113 97
158 114 95
157 113 95
160 115 107
159 115 104
157 114 95
160 115 102
157 114 98
159 115 104
162 117 104
159 115 101
159 115 98
157 114 95
158 114 98
158 114 94
163 117 109
158 114 98
158 115 101
159 115 99
161 115 104
157 114 93
159 115 101
159 114 99
156 113 93
160 116 102
156 113 95
157 113 102
159 115 101
158 114 96
159 115 103
156 113 96
160 116 103
161 116 106
156 113 95
156 113 94
155 112 96
156 111 94
160 115 97
155 111 92
156 112 87
160 114 104
157 114 96
159 115 101
156 113 97
160 115 100
157 113 97
156 113 93
156 112 99
157 113 99
155 109 91
158 112 98
158 113 105
153 110 87
158 114 101
157 111 95
148 104 80
155 109 89
153 107 90
140 94 68
98 47 7
99 49 10
106 54 15
110 57 20
107 57 20
112 58 18
113 62 21
115 61 27
120 66 26
115 63 20
118 64 26
121 69 27
120 66 24
128 73 32
124 71 24
127 74 32
125 73 26
129 77 33
128 74 29
130 78 34
129 78 37
129 76 30
130 78 35
129 77 30
130 79 33
136 83 37
135 82 36
134 83 35
140 93 39
152 149 0
149 146 0
151 147 0
152 148 0
150 147 0
153 149 0
153 149 0
152 149 0
152 150 0
152 149 0
154 151 0
153 149 0
154 151 0
154 151 0
154 150 0
152 149 0
152 149 0
154 150 0
154 150 0
154 151 0
155 151 0
153 150 0
155 151 0
155 153 0
155 150 0
155 151 0
156 152 0
155 153 0
154 152 0
154 151 0
155 151 0
155 152 0
153 151 0
153 150 0
154 152 0
155 151 0
154 151 0
154 152 0
156 153 0
156 153 0
156 152 0
156 153 0
154 152 0
154 152 0
155 152 0
154 150 0
157 152 0
155 153 0
156 153 0
154 152 0
156 153 0
154 152 0
156 153 0
155 152 0
155 152 0
156 153 0
153 150 0
155 152 0
155 152 0
156 153 0
155 152 0
155 152 0
156 153 0
156 152 0
157 153 0
155 152 0
155 152 0
156 153 0
156 153 0
158 154 0
156 153 0
156 153 0
157 153 0
156 153 0
156 153 0
155 153 0
156 153 0
156 153 0
156 153 0
156 153 0
156 153 0
155 153 0
156 153 0
154 152 0
156 153 0
156 153 0
157 154 0
155 153 0
156 153 0
156 153 0
154 152 0
156 153 0
156 153 0
156 153 0
157 154 0
156 153 0
155 152 0
155 153 0
156 153 0
157 153 0
156 153 0
157 154 0
155 152 0
157 153 0
155 153 0
155 153 0
156 153 0
155 176 0
154 175 0
155 176 0
156 177 0
156 177 0
156 177 0
156 177 0
155 176 0
155 177 0
155 176 0
154 175 0
155 176 0
155 176 0
156 177 0
156 177 0
156 176 0
155 176 0
154 176 0
154 176 0
155 175 0
156 177 0
155 176 0
154 176 0
155 175 0
155 176 0
155 176 0
155 176 0
155 176 0
155 176 0
156 177 0
155 176 0
156 177 0
154 175 0
154 176 0
156 177 0
155 176 0
155 176 0
155 176 0
155 176 0
154 174 0
154 175 0
155 176 0
156 177 0
154 176 0
156 177 0
155 175 0
155 176 0
157 177 0
155 176 0
156 177 0
154 174 0
154 174 0
154 174 0
156 176 0
155 175 0
155 175 0
154 175 0
156 177 0
154 174 0
154 175 0
154 176 0
155 176 0
154 175 0
154 175 0
154 175 0
154 175 0
155 174 0
155 175 0
154 174 0
154 174 0
155 175 0
154 174 0
155 173 0
153 174 0
153 174 0
154 175 0
154 175 0
152 173 0
156 176 0
153 172 0
154 172 0
153 173 0
155 176 0
154 174 0
153 172 0
154 173 0
153 172 0
154 173 0
151 171 0
153 173 0
152 170 0
153 171 0
150 169 0
153 172 0
153 171 0
154 170 0
153 172 0
150 167 0
153 171 0
150 167 0
152 168 0
150 165 0
149 164 0
149 164 0
151 166 0
149 166 0
145 146 48
134 96 78
135 97 73
129 92 67
133 96 69
133 96 78
129 92 72
130 93 71
131 94 74
131 94 67
125 90 64
123 86 71
125 89 65
126 90 69
129 91 72
122 85 60
122 86 67
116 80 52
117 79 55
117 80 58
118 82 61
116 79 61
110 73 55
111 74 49
113 78 59
104 69 45
101 66 45
104 69 49
95 59 32
134 94 82
150 108 89
154 111 97
150 109 93
154 111 98
155 112 103
157 113 103
155 112 103
158 114 96
154 112 98
155 111 94
157 113 100
155 113 88
158 114 105
157 114 100
154 112 88
154 112 93
159 115 106
158 114 100
153 110 87
155 112 92
157 113 100
155 111 91
161 117 106
154 111 88
159 116 104
155 112 93
159 114 99
158 115 102
160 116 102
158 114 95
161 117 104
163 118 110
161 117 104
157 114 95
160 115 103
158 115 91
158 114 102
158 114 97
158 115 95
158 114 104
160 116 105
160 115 103
154 112 91
160 115 106
158 115 99
157 113 95
156 113 96
159 115 103
159 115 98
156 113 94
155 113 90
155 112 88
159 115 99
161 116 105
157 113 99
160 115 103
158 114 98
161 115 107
157 114 96
161 116 103
160 115 102
157 114 95
163 117 106
160 115 100
159 115 98
159 115 103
155 112 88
159 116 102
156 114 90
159 115 100
158 114 100
162 117 101
162 117 109
158 115 99
156 113 89
156 112 93
160 115 103
161 116 102
158 114 98
157 114 97
160 115 104
160 115 97
157 113 99
158 115 99
158 113 95
155 112 92
160 116 103
157 114 95
157 114 97
161 116 108
159 114 99
157 114 101
159 115 98
157 113 99
157 113 102
158 114 102
153 109 94
161 116 103
161 116 94
160 114 106
155 112 90
163 117 108
155 111 90
156 112 96
158 113 96
158 113 95
157 114 94
157 113 99
158 113 101
159 114 96
164 117 112
159 114 103
157 113 92
157 113 94
155 110 94
157 113 104
153 109 95
158 113 95
154 111 91
158 112 96
158 113 99
153 110 86
156 111 92
155 110 89
152 108 91
153 108 92
150 104 81
126 82 63
103 52 17
104 53 15
105 53 17
106 56 21
112 60 20
107 56 16
112 59 18
117 65 23
117 66 27
116 65 27
121 69 26
123 69 26
123 70 28
124 72 31
122 70 26
129 75 33
124 73 29
123 71 30
126 74 32
126 75 30
131 78 35
134 80 35
129 77 33
131 78 33
133 81 33
129 77 34
132 80 35
136 84 38
143 124 20
152 146 0
153 149 0
151 147 0
151 148 0
151 146 0
151 146 0
152 148 0
152 147 0
153 150 0
154 150 0
152 148 0
154 150 0
152 149 0
153 149 0
153 149 0
152 147 0
153 149 0
154 150 0
154 152 0
155 151 0
153 149 0
153 150 0
154 150 0
154 152 0
154 151 0
153 149 0
153 150 0
153 149 0
154 150 0
154 150 0
154 151 0
154 150 0
154 151 0
155 153 0
156 152 0
156 153 0
156 152 0
153 150 0
155 152 0
157 152 0
156 152 0
156 153 0
153 150 0
155 152 0
154 152 0
155 152 0
155 152 0
153 152 0
155 152 0
156 153 0
155 153 0
155 152 0
154 151 0
156 153 0
156 152 0
155 152 0
155 153 0
155 152 0
155 152 0
155 152 0
155 152 0
156 153 0
155 152 0
155 152 0
155 152 0
155 152 0
155 152 0
153 151 0
154 151 0
155 152 0
154 152 0
157 153 0
156 153 0
155 153 0
155 152 0
157 153 0
156 153 0
156 153 0
156 153 0
155 152 0
157 153 0
155 152 0
156 153 0
156 153 0
154 152 0
156 153 0
157 153 0
156 153 0
156 153 0
156 153 0
157 153 0
156 153 0
157 153 0
156 153 0
156 153 0
153 152 0
156 153 0
154 152 0
155 152 0
156 153 0
154 152 0
156 153 0
155 153 0
155 153 0
156 153 0
157 154 0
156 153 0
156 177 0
155 176 0
156 177 0
156 177 0
156 177 0
155 176 0
156 177 0
156 177 0
155 176 0
156 177 0
156 177 0
156 177 0
155 176 0
155 176 0
155 176 0
156 177 0
156 177 0
155 176 0
156 176 0
154 176 0
156 176 0
156 176 0
156 176 0
156 177 0
156 177 0
156 177 0
155 176 0
156 177 0
154 175 0
155 175 0
156 176 0
156 177 0
155 176 0
156 177 0
155 175 0
156 176 0
155 177 0
155 176 0
156 177 0
154 175 0
156 177 0
153 174 0
156 176 0
156 176 0
155 176 0
155 176 0
154 175 0
157 177 0
155 176 0
156 177 0
155 175 0
154 176 0
156 176 0
154 175 0
156 176 0
155 175 0
156 176 0
155 175 0
156 176 0
153 174 0
153 173 0
157 175 0
155 176 0
154 174 0
155 175 0
155 176 0
155 175 0
153 172 0
154 174 0
155 175 0
153 173 0
154 175 0
152 172 0
154 175 0
155 175 0
154 174 0
152 171 0
153 174 0
153 174 0
154 174 0
153 173 0
154 173 0
153 172 0
155 175 0
153 172 0
153 172 0
151 171 0
153 173 0
153 172 0
150 166 0
153 172 0
151 170 0
152 171 0
151 169 0
154 171 0
153 172 0
152 171 0
150 164 0
152 171 0
151 164 0
150 166 0
148 165 0
148 160 0
149 163 0
146 159 0
151 168 0
146 155 21
137 101 75
130 92 70
129 92 69
133 95 74
128 91 64
132 95 70
131 93 68
127 90 69
126 89 69
127 90 67
130 92 71
124 89 65
122 86 60
125 88 69
117 81 63
120 84 58
124 87 67
120 82 66
115 79 50
115 79 50
113 76 62
114 78 53
110 73 53
111 76 53
101 65 45
109 72 51
105 69 35
91 56 27
125 87 74
150 108 87
147 107 84
151 109 87
157 112 102
159 115 102
153 110 88
154 110 91
155 111 95
154 112 93
157 113 100
158 114 103
156 112 95
158 114 100
157 113 98
156 114 94
156 111 94
158 114 99
155 112 92
158 114 98
156 113 97
159 115 106
157 114 97
156 113 97
160 115 98
157 114 93
154 112 89
159 114 101
156 112 92
160 116 104
159 115 101
156 112 88
158 114 96
161 115 105
158 114 94
156 113 88
156 112 91
158 114 100
162 118 110
157 114 98
159 114 99
159 115 97
160 115 102
163 117 108
158 115 103
158 114 98
159 115 99
154 111 85
157 114 96
159 114 103
157 114 91
157 114 94
154 112 95
160 116 103
161 116 101
159 116 104
159 115 99
154 112 89
158 113 100
158 114 96
157 115 100
159 115 94
157 114 99
158 114 101
159 115 100
160 115 102
158 114 96
155 112 94
158 114 100
160 116 103
156 113 97
158 114 96
159 114 103
158 114 96
159 115 96
159 114 103
158 113 100
162 117 112
162 116 103
159 115 100
154 111 99
160 115 102
159 115 101
157 113 94
158 113 95
158 114 100
160 115 103
157 114 90
157 114 96
159 115 101
160 114 102
157 114 96
157 114 97
159 116 99
161 116 99
160 116 101
161 115 106
154 111 93
158 113 101
160 115 107
155 112 89
159 114 98
157 114 99
156 112 98
156 113 96
158 113 97
158 113 102
158 113 96
159 114 100
158 114 100
160 114 104
157 113 97
157 113 98
155 110 96
156 112 95
161 114 100
157 112 95
156 111 93
153 109 87
155 111 97
156 112 95
158 112 96
156 110 93
154 110 97
152 108 84
149 106 90
151 104 81
150 106 80
121 73 45
102 53 15
99 50 15
108 57 19
109 55 18
106 55 18
112 59 19
116 66 23
114 62 20
120 66 25
117 66 28
117 65 23
119 66 27
124 70 28
128 73 31
122 69 24
127 74 32
128 75 32
130 77 31
129 77 31
124 72 32
127 75 32
127 76 31
132 79 32
127 74 29
130 77 32
134 81 35
135 83 36
134 85 32
146 139 8
151 144 0
149 145 0
150 145 0
152 149 0
150 146 0
150 145 0
152 146 0
152 148 0
151 146 0
152 145 0
152 149 0
152 149 0
153 150 0
152 148 0
152 148 0
153 149 0
152 147 0
153 150 0
153 148 0
154 150 0
154 150 0
154 150 0
153 148 0
153 150 0
152 150 0
151 148 0
154 152 0
154 150 0
154 150 0
153 150 0
153 149 0
154 151 0
155 152 0
154 150 0
157 153 0
155 152 0
153 150 0
153 149 0
154 150 0
153 149 0
155 152 0
153 150 0
155 151 0
153 150 0
156 152 0
154 149 0
154 152 0
155 152 0
155 152 0
154 151 0
154 151 0
154 151 0
154 151 0
155 152 0
156 153 0
154 151 0
157 153 0
155 152 0
156 153 0
155 151 0
157 153 0
155 152 0
155 152 0
157 152 0
155 152 0
154 151 0
155 152 0
156 153 0
155 152 0
154 151 0
155 153 0
155 152 0
155 151 0
155 152 0
156 153 0
156 152 0
155 152 0
154 152 0
156 153 0
154 151 0
155 153 0
156 153 0
157 153 0
155 153 0
157 153 0
157 153 0
157 153 0
154 152 0
155 153 0
156 152 0
155 153 0
155 153 0
155 153 0
154 152 0
156 153 0
157 154 0
157 153 0
155 152 0
155 152 0
157 153 0
156 152 0
155 152 0
155 153 0
156 152 0
156 153 0
156 153 0
157 154 0
156 176 0
156 177 0
155 175 0
156 176 0
155 176 0
156 177 0
155 176 0
154 176 0
153 175 0
156 177 0
155 176 0
155 176 0
154 175 0
156 177 0
156 176 0
157 176 0
156 177 0
155 175 0
156 176 0
157 177 0
156 176 0
156 177 0
156 175 0
156 176 0
155 176 0
154 174 0
154 176 0
155 175 0
155 175 0
155 176 0
155 174 0
155 175 0
156 176 0
155 176 0
155 177 0
156 176 0
154 174 0
154 175 0
154 174 0
157 177 0
154 174 0
155 175 0
153 174 0
156 177 0
156 177 0
155 175 0
154 175 0
155 176 0
154 174 0
155 176 0
154 175 0
154 175 0
155 176 0
154 174 0
156 177 0
154 175 0
155 176 0
154 175 0
156 177 0
155 174 0
154 175 0
155 175 0
155 176 0
153 172 0
155 175 0
152 171 0
154 174 0
154 174 0
154 174 0
154 174 0
156 175 0
154 174 0
154 175 0
155 174 0
155 175 0
154 172 0
152 172 0
154 172 0
155 174 0
152 169 0
151 170 0
151 169 0
151 171 0
152 172 0
153 172 0
151 170 0
152 170 0
150 168 0
154 171 0
148 167 0
151 170 0
151 170 0
152 169 0
152 169 0
151 170 0
149 165 0
148 166 0
150 167 0
150 168 0
151 166 0
151 164 0
147 160 0
149 164 0
149 164 0
145 157 0
150 163 0
143 155 0
142 135 46
131 93 62
133 94 78
131 92 66
131 94 72
132 95 75
129 92 72
128 91 68
129 91 68
127 91 67
132 93 77
121 86 51
120 84 60
118 83 52
121 84 65
120 84 54
123 85 68
119 83 56
118 81 59
114 79 54
116 81 59
114 78 55
108 73 50
108 71 49
109 74 49
102 66 44
102 65 44
104 69 39
113 75 51
147 106 84
148 106 88
155 111 96
151 109 82
150 108 87
156 113 100
154 110 93
156 113 101
157 113 101
156 113 97
155 112 102
153 111 85
157 114 97
156 113 94
154 111 93
153 111 95
161 116 109
155 112 96
157 113 93
156 114 94
156 113 98
155 113 90
157 113 89
157 113 94
161 117 102
155 112 93
159 114 97
159 115 106
161 117 102
159 115 100
157 114 99
158 114 97
155 112 96
157 113 98
158 114 101
157 114 95
156 113 91
154 111 90
157 113 94
161 116 105
160 115 108
157 114 95
158 115 98
160 115 102
159 115 103
157 114 99
156 113 94
155 112 88
155 113 89
159 115 98
162 116 104
157 113 96
161 116 103
156 113 91
158 115 97
157 114 96
163 117 109
157 113 94
159 113 99
158 114 100
160 115 99
159 116 99
153 111 91
161 117 104
161 117 106
154 112 94
156 114 96
158 114 95
162 117 105
156 113 93
157 113 95
159 116 99
159 115 99
158 114 93
156 112 100
159 115 104
162 117 112
163 117 105
159 115 100
158 114 96
158 115 96
161 116 107
158 115 96
162 117 104
158 115 100
160 115 101
161 116 105
157 114 97
155 113 95
158 115 99
157 113 98
158 114 98
159 115 95
159 115 97
158 115 98
160 115 98
160 115 105
157 113 97
160 115 102
157 113 91
160 116 102
157 113 97
156 112 97
158 114 99
154 111 90
157 113 93
155 112 93
157 113 99
154 111 95
155 112 96
158 113 96
161 116 103
156 111 94
154 110 90
155 111 97
158 113 100
157 113 102
159 113 95
151 107 91
156 112 95
150 107 84
152 108 88
155 111 98
152 107 87
151 107 84
151 106 84
152 104 80
114 67 41
104 54 19
101 52 14
104 54 17
109 57 19
105 54 17
115 62 22
114 63 21
114 64 22
119 65 22
120 67 22
120 69 25
117 65 22
117 65 22
118 67 23
121 70 25
119 68 26
127 74 29
127 75 31
129 77 27
129 75 31
124 73 30
132 79 34
130 78 34
131 79 33
129 77 31
133 82 35
135 81 36
137 106 25
145 139 0
147 141 0
146 141 0
150 145 0
151 143 0
149 143 0
148 141 0
149 144 0
151 144 0
151 145 0
149 144 0
150 145 0
150 145 0
153 148 0
151 147 0
152 149 0
152 147 0
152 148 0
153 149 0
150 145 0
150 146 0
154 150 0
153 149 0
152 148 0
152 149 0
151 147 0
154 151 0
154 151 0
152 148 0
153 149 0
152 148 0
153 151 0
153 149 0
153 150 0
153 151 0
152 149 0
152 148 0
152 149 0
154 149 0
152 149 0
153 149 0
153 150 0
153 151 0
154 150 0
156 153 0
156 152 0
154 151 0
156 153 0
156 153 0
154 150 0
156 152 0
154 152 0
156 153 0
155 152 0
154 151 0
155 152 0
155 151 0
155 152 0
156 152 0
157 153 0
154 152 0
154 151 0
155 152 0
156 153 0
156 152 0
154 152 0
155 152 0
155 152 0
154 151 0
155 152 0
155 152 0
155 152 0
156 153 0
156 152 0
156 152 0
155 152 0
156 152 0
156 153 0
156 153 0
156 153 0
156 153 0
155 152 0
156 152 0
156 153 0
155 152 0
155 152 0
155 152 0
156 153 0
155 153 0
154 151 0
154 152 0
157 154 0
155 152 0
156 153 0
156 153 0
155 152 0
155 152 0
156 153 0
156 153 0
155 152 0
156 153 0
155 152 0
155 152 0
156 153 0
156 153 0
155 152 0
155 152 0
155 153 0
155 176 0
156 177 0
157 177 0
155 175 0
156 176 0
155 177 0
155 176 0
154 175 0
155 176 0
155 176 0
156 176 0
154 175 0
155 176 0
155 176 0
155 177 0
154 175 0
156 176 0
155 176 0
156 176 0
156 177 0
155 176 0
157 177 0
155 176 0
155 176 0
156 176 0
154 175 0
155 175 0
156 176 0
156 177 0
157 177 0
153 175 0
156 176 0
154 175 0
154 174 0
156 176 0
156 175 0
156 176 0
156 177 0
155 175 0
155 175 0
156 176 0
157 177 0
155 176 0
154 174 0
154 176 0
153 174 0
153 175 0
155 175 0
156 176 0
155 174 0
155 174 0
155 176 0
153 174 0
153 171 0
155 175 0
155 175 0
154 175 0
154 174 0
153 173 0
154 174 0
154 175 0
154 174 0
154 174 0
153 173 0
153 173 0
152 172 0
152 171 0
155 175 0
155 174 0
155 174 0
153 173 0
153 173 0
152 171 0
154 173 0
153 172 0
152 172 0
152 170 0
154 172 0
151 170 0
150 168 0
151 171 0
154 175 0
151 170 0
154 173 0
151 171 0
151 170 0
152 171 0
153 173 0
151 170 0
152 169 0
151 169 0
149 166 0
150 166 0
147 162 0
148 162 0
150 167 0
150 166 0
147 161 0
150 164 0
148 163 0
151 165 0
149 163 0
147 159 0
148 162 0
149 162 0
145 156 0
143 151 0
148 159 21
134 102 67
133 95 68
131 93 67
124 87 55
131 94 67
128 91 63
124 87 68
126 89 68
124 88 57
122 86 60
123 88 61
126 90 67
123 88 64
126 89 65
118 82 58
117 83 41
118 80 58
114 78 55
119 82 59
114 77 59
112 76 47
106 69 43
109 75 40
103 66 41
107 71 49
104 67 39
105 67 44
96 60 40
146 106 85
153 110 98
152 109 96
154 111 95
153 111 97
154 112 94
157 113 93
156 113 99
157 112 102
155 112 96
154 110 91
157 113 100
158 114 101
157 114 99
157 114 102
153 110 87
156 112 98
159 115 100
157 114 94
155 113 95
157 113 97
156 113 93
157 114 98
157 114 95
156 112 93
155 112 87
158 114 101
156 113 94
156 113 89
162 116 107
158 114 99
158 114 99
160 115 98
153 111 80
156 113 99
160 115 99
157 114 91
157 113 92
156 113 96
158 113 103
160 115 104
160 116 100
158 114 100
158 115 96
156 114 94
158 114 97
156 113 97
156 113 97
160 115 102
162 117 107
160 115 103
158 113 96
160 115 102
159 115 105
155 113 98
156 112 93
156 113 93
158 114 103
159 114 101
162 117 110
161 116 105
157 113 99
158 114 95
157 113 95
158 113 103
160 115 101
160 115 102
159 115 103
156 112 99
159 115 97
163 117 105
162 116 107
161 116 109
156 113 94
157 114 99
158 113 98
158 114 99
159 115 98
159 115 103
160 116 102
159 116 102
158 114 94
158 114 97
155 112 96
157 113 98
158 114 93
153 110 94
156 114 94
158 113 100
156 112 93
157 113 100
157 113 95
157 114 93
159 114 98
161 115 105
158 114 93
160 115 99
157 113 97
156 112 99
156 112 97
156 112 93
158 113 95
162 117 106
157 114 105
157 114 99
156 112 95
157 112 98
159 115 96
158 113 94
157 112 96
156 112 95
155 111 96
157 112 104
155 111 89
158 114 100
154 111 95
152 110 90
154 110 87
153 108 85
154 110 94
156 110 95
150 106 84
156 111 93
153 109 85
155 108 95
154 108 90
152 106 87
97 49 17
97 47 8
100 50 8
105 55 17
103 54 18
108 55 18
114 64 18
112 60 18
111 59 19
111 60 13
113 62 17
121 68 24
117 66 25
124 72 27
126 73 30
120 70 25
124 71 26
123 69 28
120 68 24
129 75 33
127 74 29
124 73 26
125 75 29
126 76 28
131 77 31
128 77 31
128 77 33
127 81 27
144 134 6
148 140 0
148 139 0
144 137 0
145 133 0
145 138 0
146 139 0
147 139 0
146 141 0
149 143 0
149 142 0
149 140 0
153 146 0
151 144 0
151 144 0
151 148 0
150 146 0
152 149 0
151 146 0
149 145 0
152 147 0
151 147 0
154 150 0
151 147 0
152 149 0
153 148 0
152 146 0
152 147 0
153 151 0
154 150 0
151 148 0
151 146 0
154 150 0
154 150 0
153 149 0
154 149 0
154 150 0
153 149 0
155 151 0
152 150 0
154 150 0
154 151 0
154 150 0
153 151 0
154 150 0
154 150 0
154 150 0
154 151 0
154 151 0
155 152 0
155 152 0
155 152 0
154 151 0
154 150 0
155 151 0
155 152 0
153 151 0
155 151 0
154 150 0
156 152 0
155 152 0
155 152 0
155 152 0
154 149 0
154 151 0
153 151 0
155 152 0
153 150 0
156 153 0
155 152 0
156 153 0
156 153 0
155 151 0
154 151 0
155 152 0
155 152 0
156 153 0
157 154 0
154 151 0
155 152 0
156 153 0
155 152 0
156 153 0
155 152 0
155 153 0
155 152 0
154 152 0
155 152 0
154 151 0
154 151 0
155 151 0
155 152 0
157 153 0
153 151 0
155 152 0
157 153 0
155 152 0
156 153 0
156 153 0
156 153 0
156 153 0
155 153 0
157 153 0
156 153 0
155 153 0
155 153 0
156 153 0
155 153 0
155 153 0
155 176 0
156 177 0
156 176 0
155 177 0
155 176 0
155 176 0
156 177 0
155 176 0
156 177 0
156 176 0
155 176 0
153 174 0
157 177 0
157 177 0
154 176 0
155 175 0
156 176 0
154 175 0
155 175 0
156 176 0
156 177 0
155 176 0
155 176 0
154 175 0
155 175 0
155 174 0
154 174 0
155 176 0
155 175 0
155 176 0
154 175 0
155 175 0
155 175 0
155 175 0
154 174 0
156 176 0
156 175 0
154 175 0
155 176 0
155 176 0
154 174 0
154 174 0
156 177 0
155 176 0
153 174 0
154 175 0
156 177 0
153 173 0
155 175 0
154 174 0
154 175 0
153 174 0
153 174 0
152 172 0
154 173 0
154 176 0
156 176 0
153 172 0
155 175 0
154 175 0
152 173 0
153 172 0
155 175 0
154 173 0
153 172 0
153 173 0
154 173 0
153 173 0
154 175 0
152 171 0
154 172 0
153 172 0
152 172 0
154 174 0
151 167 0
152 168 0
154 173 0
153 171 0
154 174 0
152 171 0
152 169 0
152 169 0
152 170 0
149 167 0
152 169 0
151 169 0
150 168 0
152 171 0
150 168 0
149 165 0
151 168 0
150 168 0
150 166 0
151 166 0
149 165 0
148 163 0
150 165 0
148 162 0
145 157 0
146 161 0
148 163 0
145 155 0
143 153 0
144 153 0
143 153 0
144 155 0
140 147 0
144 155 0
137 132 28
129 93 64
129 92 67
129 91 64
130 93 71
126 90 54
129 92 63
130 93 62
126 89 64
126 88 68
128 90 68
124 88 61
123 87 60
121 85 52
116 82 53
115 79 55
122 85 59
118 82 55
113 78 43
111 76 49
106 69 43
112 75 40
109 72 47
99 64 32
104 70 36
102 68 36
104 70 29
97 61 33
144 103 83
150 108 86
151 108 93
155 111 100
157 112 97
157 113 104
154 112 90
156 113 101
159 114 101
155 112 91
155 112 95
156 112 94
158 114 96
157 114 94
155 112 102
159 114 97
154 112 87
158 114 98
159 115 100
156 112 90
158 114 105
157 114 94
159 115 105
157 114 101
158 114 98
157 113 96
157 114 102
159 115 98
157 113 97
159 115 98
156 113 97
156 113 95
155 112 89
155 112 94
159 115 100
157 114 98
160 115 102
156 112 90
156 113 97
159 114 103
156 113 94
159 114 98
156 112 90
157 113 96
160 116 98
159 115 100
156 114 90
157 113 91
158 114 99
159 115 104
158 113 94
159 114 100
153 111 91
156 113 97
158 113 96
156 112 93
157 113 102
157 114 97
158 115 103
157 112 94
157 113 98
156 113 91
158 115 103
157 114 99
157 114 95
162 117 105
158 114 99
158 115 101
158 114 97
158 114 98
159 114 99
157 112 95
159 114 101
156 113 90
157 113 93
159 114 101
160 115 101
156 113 93
159 115 99
160 114 103
154 111 93
157 113 97
157 112 99
158 114 96
156 112 92
160 115 103
158 114 95
157 114 96
161 116 102
158 115 94
159 115 101
161 116 103
156 113 96
157 114 96
156 113 95
158 115 98
158 113 102
158 114 93
157 113 99
161 115 102
158 113 96
159 114 100
162 116 101
162 117 106
159 114 97
156 112 86
156 113 96
155 112 92
157 112 97
155 112 93
156 112 95
156 111 90
156 112 89
153 109 87
153 109 91
155 111 91
154 109 96
158 112 92
152 109 88
154 108 92
150 106 86
153 108 87
156 111 94
150 106 89
150 105 82
151 107 87
138 93 68
95 47 10
106 54 13
101 51 12
102 52 12
110 58 19
107 56 19
109 58 21
110 58 18
117 65 25
119 69 24
114 62 18
115 64 18
116 64 18
120 68 23
122 70 26
122 69 24
117 66 24
125 73 27
126 74 30
129 76 32
122 71 24
132 79 35
124 73 28
127 76 29
131 79 34
133 81 32
131 79 32
136 112 20
146 135 0
139 130 0
143 135 0
143 132 0
149 140 0
148 141 0
142 131 0
145 134 0
146 137 0
146 140 0
146 139 0
152 146 0
147 141 0
149 145 0
149 143 0
147 140 0
149 142 0
149 144 0
146 140 0
150 144 0
152 148 0
152 147 0
152 147 0
153 150 0
152 147 0
154 150 0
153 149 0
152 148 0
152 147 0
154 149 0
153 147 0
153 148 0
152 146 0
153 150 0
152 148 0
151 148 0
152 148 0
151 146 0
152 146 0
152 149 0
151 147 0
151 146 0
153 149 0
153 150 0
153 150 0
154 151 0
154 151 0
154 149 0
153 151 0
154 150 0
154 151 0
153 149 0
156 153 0
154 150 0
153 150 0
154 150 0
155 152 0
153 150 0
153 150 0
154 151 0
155 152 0
154 150 0
156 153 0
156 152 0
155 152 0
154 151 0
155 152 0
156 152 0
157 153 0
154 150 0
154 150 0
156 153 0
156 152 0
155 151 0
156 152 0
154 151 0
155 151 0
156 152 0
156 153 0
154 150 0
155 151 0
155 152 0
155 152 0
155 153 0
153 151 0
156 153 0
154 152 0
155 153 0
155 152 0
156 153 0
155 152 0
155 152 0
154 151 0
155 151 0
154 151 0
154 150 0
157 154 0
155 152 0
156 153 0
154 152 0
155 152 0
154 151 0
156 153 0
156 153 0
156 153 0
155 152 0
156 153 0
155 153 0
155 152 0
154 174 0
155 176 0
155 176 0
157 177 0
156 175 0
156 177 0
155 176 0
155 175 0
156 177 0
156 177 0
155 176 0
156 177 0
156 176 0
156 176 0
155 176 0
155 176 0
154 175 0
155 175 0
156 176 0
154 175 0
156 177 0
154 176 0
156 176 0
157 177 0
154 174 0
154 174 0
155 177 0
155 176 0
154 173 0
156 176 0
154 175 0
156 176 0
155 175 0
155 176 0
154 175 0
154 175 0
152 172 0
154 175 0
156 177 0
154 174 0
154 176 0
153 174 0
154 175 0
155 175 0
155 175 0
155 175 0
153 173 0
153 172 0
155 176 0
154 173 0
154 173 0
154 174 0
152 173 0
153 173 0
153 174 0
155 174 0
153 173 0
154 174 0
150 171 0
154 174 0
153 172 0
152 172 0
153 172 0
153 172 0
152 172 0
151 169 0
152 172 0
154 173 0
151 171 0
153 172 0
153 171 0
151 169 0
153 173 0
152 172 0
152 172 0
153 172 0
153 173 0
152 168 0
152 170 0
153 172 0
151 167 0
152 168 0
150 169 0
150 166 0
150 167 0
152 169 0
149 165 0
152 169 0
151 169 0
153 171 0
149 164 0
150 166 0
151 167 0
147 161 0
146 159 0
148 164 0
146 159 0
148 163 0
150 166 0
146 159 0
145 157 0
145 156 0
148 161 0
141 150 0
146 160 0
147 160 0
139 145 0
140 146 0
134 136 0
134 115 46
131 93 68
126 89 63
128 90 64
127 90 68
127 89 65
123 87 56
125 90 61
124 87 65
118 83 57
125 89 62
119 84 57
119 82 58
121 85 58
119 84 56
114 79 49
120 84 56
118 83 57
112 76 46
110 76 45
115 80 52
114 78 44
104 69 31
109 73 45
101 65 34
98 63 24
96 61 27
132 93 69
148 107 90
154 111 98
150 109 92
152 109 88
157 114 97
153 111 97
155 111 94
153 111 92
156 112 93
156 112 97
155 112 90
157 114 95
155 112 94
155 113 89
155 113 94
155 112 88
153 111 88
155 111 88
160 115 103
158 115 103
157 112 95
157 112 98
158 114 101
156 113 94
160 115 102
159 115 103
159 115 100
158 115 97
159 115 101
156 113 93
162 116 103
159 114 101
156 113 94
160 116 108
156 113 97
157 113 95
156 112 99
157 113 97
159 115 105
158 114 100
161 116 102
152 110 87
160 115 101
154 111 89
159 114 94
160 116 101
163 118 111
160 115 107
159 115 94
158 114 102
158 115 98
159 114 99
159 115 101
159 114 97
156 113 89
158 113 94
159 115 101
158 115 96
157 113 93
159 115 101
158 114 97
158 113 99
161 115 104
159 115 102
155 111 90
160 115 100
159 114 98
160 116 103
160 115 102
157 113 99
153 111 89
159 115 104
159 115 100
157 113 94
157 113 95
156 113 96
157 112 95
160 116 101
157 113 91
158 114 99
155 112 90
155 112 96
159 114 99
158 114 103
162 117 104
158 114 95
158 113 102
157 113 95
155 112 86
157 113 94
159 115 97
156 113 93
159 115 101
154 111 85
156 113 94
158 114 94
155 111 95
157 114 99
158 114 99
159 114 97
159 114 100
159 114 106
157 113 92
156 112 90
155 111 90
157 114 95
156 113 90
157 113 98
158 113 97
157 113 92
157 113 95
154 111 89
155 111 91
157 113 94
155 110 93
158 114 96
153 110 83
153 109 91
152 110 87
152 108 85
156 111 100
152 106 85
151 106 82
153 109 85
149 104 83
135 88 65
106 57 15
101 51 12
104 53 7
107 56 9
107 57 16
106 54 12
111 60 19
115 64 20
108 59 19
115 63 21
120 67 24
116 64 20
116 64 25
121 70 29
120 69 24
120 68 27
123 71 29
123 71 24
120 69 28
122 72 25
124 73 28
128 76 33
129 76 29
128 75 30
126 75 28
128 77 32
133 99 26
137 120 0
140 125 0
142 131 0
146 136 0
141 127 0
143 135 0
144 133 0
146 137 0
146 138 0
145 135 0
148 141 0
146 140 0
146 138 0
150 143 0
149 144 0
147 140 0
150 144 0
147 141 0
150 144 0
152 148 0
153 147 0
153 148 0
148 143 0
152 149 0
154 149 0
150 145 0
151 144 0
152 148 0
150 147 0
150 145 0
154 150 0
155 151 0
154 148 0
150 145 0
152 148 0
153 148 0
149 144 0
154 151 0
154 150 0
152 146 0
152 147 0
153 150 0
153 149 0
152 148 0
152 148 0
151 148 0
152 148 0
155 151 0
154 151 0
156 152 0
153 150 0
154 150 0
154 149 0
154 148 0
156 153 0
152 148 0
155 152 0
156 152 0
155 150 0
155 152 0
152 148 0
154 151 0
155 151 0
154 149 0
153 150 0
154 151 0
154 151 0
155 152 0
156 152 0
155 152 0
155 151 0
155 152 0
153 150 0
155 151 0
156 152 0
154 151 0
155 152 0
154 151 0
153 150 0
155 151 0
155 151 0
155 152 0
156 153 0
153 151 0
154 151 0
154 151 0
155 151 0
155 152 0
156 153 0
156 153 0
155 152 0
156 153 0
155 152 0
156 153 0
156 152 0
156 153 0
154 152 0
154 151 0
155 152 0
154 152 0
156 153 0
155 151 0
155 153 0
155 153 0
156 153 0
155 153 0
156 153 0
157 154 0
155 151 0
155 153 0
155 176 0
155 175 0
155 176 0
155 176 0
155 176 0
155 176 0
155 176 0
156 176 0
154 176 0
155 176 0
154 175 0
155 175 0
155 176 0
155 176 0
155 174 0
155 176 0
156 177 0
156 176 0
156 177 0
155 176 0
154 175 0
155 176 0
156 176 0
154 175 0
155 175 0
154 175 0
156 176 0
154 173 0
154 174 0
155 175 0
155 175 0
155 176 0
154 175 0
155 176 0
155 174 0
151 170 0
154 173 0
153 175 0
155 176 0
155 175 0
154 174 0
154 174 0
157 177 0
153 173 0
156 175 0
152 173 0
154 173 0
154 174 0
154 174 0
154 174 0
154 174 0
154 174 0
154 175 0
154 174 0
152 173 0
153 174 0
152 173 0
154 174 0
156 175 0
154 174 0
153 172 0
153 172 0
152 172 0
152 172 0
154 173 0
153 174 0
153 173 0
152 170 0
153 172 0
152 170 0
153 173 0
153 170 0
152 169 0
151 170 0
153 172 0
150 167 0
149 166 0
152 171 0
150 168 0
149 165 0
150 166 0
150 167 0
153 172 0
151 168 0
150 168 0
149 164 0
151 166 0
147 159 0
150 166 0
149 167 0
149 164 0
148 162 0
149 166 0
149 163 0
146 162 0
148 163 0
145 155 0
147 160 0
146 156 0
148 160 0
142 151 0
142 151 0
143 152 0
138 142 0
142 148 0
137 141 0
141 146 0
141 144 0
136 139 0
138 141 12
122 91 51
127 90 64
128 90 65
130 93 70
126 89 58
118 83 55
123 87 62
119 84 54
125 89 57
125 87 62
123 88 60
114 78 44
121 83 57
118 81 51
108 72 47
115 78 49
119 82 63
114 78 45
106 72 39
106 72 43
104 70 25
107 73 29
111 77 37
105 70 38
106 71 33
100 64 24
119 83 52
147 105 81
154 111 92
154 111 93
152 110 90
152 111 95
153 110 86
156 113 95
155 112 96
156 112 98
156 112 95
154 111 91
153 110 92
157 113 101
160 115 101
155 113 91
156 114 98
156 113 92
155 112 95
158 114 94
155 111 91
154 112 88
155 111 95
157 114 96
159 114 97
158 114 98
157 113 94
156 113 93
157 114 96
160 115 103
155 112 97
158 115 100
160 115 102
155 112 98
157 113 97
157 112 95
160 115 108
159 115 102
156 114 94
159 114 99
160 117 104
157 114 97
157 113 101
157 113 97
157 113 94
157 113 95
157 114 95
154 113 86
157 113 95
157 112 94
158 113 98
157 114 91
160 115 100
156 113 95
159 115 103
158 114 94
155 111 93
160 115 102
157 113 97
155 111 90
156 114 97
158 114 94
156 112 93
157 114 93
159 115 99
158 114 100
161 116 104
158 114 99
155 113 88
159 115 96
159 115 97
154 112 89
161 116 104
157 113 95
158 114 98
157 114 102
158 113 96
160 115 98
158 113 97
161 116 102
160 115 104
159 115 98
156 112 90
158 115 101
159 114 97
155 111 89
159 114 99
159 113 101
154 110 86
156 112 95
157 114 89
154 109 88
161 115 103
155 111 90
156 113 93
157 112 94
161 115 101
157 112 96
156 113 94
158 114 93
156 111 95
154 110 91
157 112 99
154 110 87
157 113 96
159 114 99
159 113 98
156 111 90
155 111 93
159 115 103
156 112 94
155 111 90
154 111 95
154 111 93
156 112 92
159 115 100
157 112 90
159 113 102
154 110 92
156 109 90
159 112 102
153 109 89
152 107 78
150 105 81
152 108 87
153 108 93
116 71 45
104 54 8
103 52 6
102 52 16
111 61 14
102 51 14
102 53 9
109 60 20
110 58 13
115 63 20
109 59 19
113 61 19
120 68 21
115 64 20
115 63 21
117 67 25
118 66 21
121 71 24
119 68 22
120 69 25
126 74 29
126 76 30
125 74 26
125 74 32
124 74 27
124 73 24
132 91 28
132 116 0
136 121 0
136 122 0
143 130 0
143 132 0
143 130 0
140 129 0
143 132 0
144 134 0
144 132 0
146 135 0
147 138 0
142 133 0
147 138 0
150 145 0
143 136 0
150 144 0
146 140 0
150 142 0
149 144 0
148 140 0
148 141 0
150 144 0
148 143 0
150 145 0
150 146 0
152 146 0
149 143 0
151 146 0
151 147 0
150 143 0
151 148 0
152 149 0
150 144 0
152 145 0
152 146 0
152 146 0
150 146 0
152 148 0
156 152 0
155 150 0
156 151 0
152 147 0
153 147 0
151 146 0
152 148 0
152 148 0
153 149 0
153 149 0
152 148 0
153 149 0
152 147 0
155 152 0
153 150 0
153 148 0
155 152 0
155 152 0
153 149 0
153 150 0
153 150 0
154 150 0
154 151 0
152 147 0
154 151 0
154 149 0
153 150 0
155 151 0
154 151 0
153 150 0
154 152 0
156 151 0
155 151 0
155 150 0
155 152 0
154 151 0
154 151 0
154 149 0
155 151 0
154 151 0
156 151 0
155 152 0
155 151 0
154 152 0
155 152 0
156 153 0
156 153 0
155 152 0
155 151 0
154 150 0
155 152 0
156 153 0
157 153 0
155 152 0
156 153 0
155 152 0
154 150 0
155 153 0
154 151 0
153 151 0
155 153 0
155 153 0
155 152 0
155 152 0
156 153 0
155 153 0
155 152 0
155 152 0
157 153 0
155 152 0
156 153 0
156 153 0
155 176 0
156 176 0
155 176 0
155 175 0
155 176 0
154 175 0
155 176 0
154 174 0
156 176 0
154 174 0
155 176 0
156 176 0
155 175 0
155 176 0
156 176 0
155 176 0
156 177 0
155 176 0
156 177 0
155 176 0
155 175 0
154 176 0
153 174 0
154 175 0
154 175 0
155 176 0
154 174 0
153 174 0
154 174 0
154 174 0
155 175 0
155 176 0
154 174 0
155 174 0
155 176 0
154 174 0
153 174 0
155 175 0
154 174 0
155 174 0
154 174 0
153 174 0
155 175 0
154 175 0
154 175 0
153 173 0
154 174 0
153 173 0
154 174 0
153 174 0
155 175 0
153 174 0
152 171 0
154 175 0
153 173 0
152 171 0
150 171 0
154 174 0
154 173 0
152 171 0
152 172 0
151 171 0
151 171 0
152 170 0
151 170 0
154 175 0
153 173 0
149 166 0
154 172 0
153 173 0
150 167 0
152 171 0
150 168 0
155 174 0
153 171 0
151 169 0
151 170 0
149 165 0
154 172 0
152 170 0
148 164 0
149 163 0
146 160 0
150 168 0
147 163 0
150 165 0
149 164 0
149 167 0
149 165 0
148 163 0
149 167 0
148 160 0
147 161 0
144 155 0
146 161 0
147 162 0
147 161 0
146 159 0
142 151 0
145 158 0
144 152 0
142 151 0
143 154 0
138 144 0
135 136 0
136 139 0
138 145 0
138 142 0
135 136 0
128 125 0
130 126 12
128 102 46
130 93 60
125 87 63
124 88 55
129 92 60
126 90 54
129 91 70
114 81 48
122 86 61
117 82 46
119 83 53
119 83 51
116 81 45
112 76 49
118 81 50
112 77 45
113 78 41
112 76 48
109 74 40
110 73 41
99 65 34
107 71 33
103 68 30
102 68 33
105 69 34
112 75 46
148 106 85
151 108 98
153 110 91
148 107 82
152 109 91
152 110 86
152 110 80
158 114 99
152 110 90
156 112 94
155 113 98
155 112 94
153 112 88
156 112 91
153 111 90
159 114 96
157 113 93
157 114 95
160 115 108
159 114 98
156 114 93
153 109 87
153 110 92
155 112 90
154 112 88
157 113 99
155 112 92
160 114 100
155 112 94
158 113 94
154 112 88
158 115 97
158 114 97
156 113 96
162 117 104
157 113 93
159 116 102
154 112 90
159 112 96
156 113 95
157 113 100
155 110 97
159 116 98
158 114 93
158 114 96
157 113 92
160 115 107
155 111 90
155 112 90
156 112 91
158 114 98
159 115 100
155 112 91
158 114 94
158 114 97
158 114 96
154 110 88
157 113 90
158 114 95
157 113 97
158 113 96
159 115 99
156 113 90
159 115 98
157 113 96
158 114 103
155 112 94
155 112 88
156 113 95
158 114 103
160 115 102
156 114 93
160 115 99
158 114 100
157 113 88
159 115 106
160 115 103
157 113 90
160 115 104
161 117 103
156 113 97
155 111 93
159 113 105
156 113 82
158 114 100
157 113 95
160 116 98
156 112 92
159 114 98
157 113 94
156 112 97
160 115 104
158 113 101
159 115 98
156 113 94
156 112 91
156 113 91
158 114 97
156 113 97
157 113 91
158 113 99
155 112 86
157 113 95
156 112 98
155 111 94
153 110 85
154 112 83
159 114 98
156 111 93
156 111 98
156 112 94
156 113 95
156 111 98
156 112 98
156 110 96
153 108 87
154 110 95
156 111 91
153 107 88
157 110 96
153 108 93
152 108 90
154 107 92
151 106 86
147 102 72
113 64 31
102 53 5
100 53 11
98 51 12
105 56 10
109 58 15
106 57 13
109 59 14
111 60 18
106 56 13
115 64 17
115 64 21
116 65 22
115 64 21
116 66 23
120 69 25
123 71 25
118 69 24
120 70 22
124 72 29
123 71 27
116 68 23
127 76 30
125 74 27
125 74 28
121 80 21
135 116 0
134 116 0
142 126 0
136 122 0
143 128 0
141 129 0
140 127 0
142 128 0
140 127 0
145 136 0
143 134 0
140 129 0
147 135 0
148 139 0
141 130 0
148 139 0
147 137 0
147 140 0
149 142 0
146 139 0
152 145 0
146 139 0
150 144 0
148 142 0
148 140 0
150 146 0
150 144 0
151 144 0
150 145 0
153 148 0
152 147 0
152 144 0
151 145 0
151 145 0
150 145 0
151 143 0
151 144 0
153 149 0
152 145 0
151 147 0
153 147 0
152 148 0
151 147 0
152 146 0
153 149 0
153 149 0
152 147 0
152 148 0
153 148 0
153 148 0
155 151 0
153 149 0
153 148 0
153 148 0
154 150 0
155 151 0
155 151 0
154 150 0
153 148 0
155 152 0
155 150 0
153 150 0
153 149 0
154 150 0
155 152 0
155 151 0
155 152 0
154 150 0
152 149 0
152 148 0
153 149 0
155 151 0
155 151 0
153 150 0
154 150 0
155 151 0
155 151 0
154 151 0
154 150 0
154 152 0
155 152 0
155 152 0
152 149 0
154 150 0
155 152 0
153 149 0
155 151 0
152 147 0
155 152 0
154 151 0
154 151 0
152 149 0
155 152 0
156 153 0
154 150 0
155 152 0
154 150 0
155 151 0
155 152 0
154 150 0
155 152 0
155 152 0
156 152 0
155 152 0
154 152 0
155 152 0
155 152 0
156 152 0
155 152 0
155 152 0
156 153 0
155 152 0
155 176 0
155 176 0
155 176 0
154 175 0
156 176 0
155 176 0
156 176 0
158 177 0
154 176 0
156 176 0
155 176 0
155 174 0
154 175 0
155 176 0
155 175 0
155 176 0
155 175 0
154 174 0
154 173 0
153 174 0
154 174 0
154 175 0
153 174 0
156 176 0
154 175 0
155 176 0
154 175 0
153 173 0
153 173 0
154 175 0
153 175 0
153 172 0
154 173 0
153 174 0
154 174 0
157 177 0
154 175 0
154 174 0
156 176 0
155 175 0
151 171 0
152 171 0
156 175 0
154 174 0
153 173 0
153 174 0
153 173 0
153 173 0
155 175 0
153 173 0
156 175 0
154 175 0
153 175 0
153 173 0
153 172 0
155 174 0
154 172 0
154 172 0
153 172 0
152 172 0
154 175 0
152 168 0
153 172 0
154 173 0
152 171 0
152 171 0
155 175 0
152 171 0
153 172 0
148 161 0
153 173 0
153 173 0
151 168 0
149 166 0
149 165 0
152 169 0
148 166 0
150 169 0
149 165 0
149 163 0
150 168 0
149 167 0
149 163 0
150 167 0
149 164 0
148 161 0
148 164 0
148 163 0
147 162 0
148 162 0
147 162 0
147 160 0
147 161 0
145 156 0
143 154 0
148 163 0
144 156 0
146 158 0
141 149 0
143 153 0
142 147 0
142 149 0
142 151 0
144 153 0
141 148 0
136 139 0
139 144 0
138 140 0
129 125 0
132 133 0
130 127 0
123 113 0
126 104 38
124 87 61
122 86 57
121 85 43
121 85 47
124 87 58
122 85 51
122 86 52
115 80 47
117 81 54
119 83 48
116 79 51
118 81 54
114 79 39
115 79 47
107 72 32
111 76 36
109 74 30
108 73 28
107 72 29
110 74 39
102 67 29
105 72 29
105 70 13
106 71 28
143 105 80
147 106 82
152 109 87
153 110 87
151 110 92
155 112 98
154 112 86
152 108 90
155 111 96
158 114 99
153 110 90
154 111 91
153 111 86
159 114 100
155 112 92
156 113 93
154 111 92
156 113 93
157 114 97
156 112 90
157 113 92
156 112 93
156 112 93
155 113 93
155 112 101
155 112 89
157 114 95
156 113 85
156 113 94
154 111 93
157 113 98
155 111 95
156 113 93
158 113 95
160 115 102
157 114 98
157 114 94
159 114 99
156 113 91
158 114 94
159 113 104
158 113 97
155 112 87
158 114 97
153 111 86
158 114 100
154 112 86
158 114 97
157 113 95
161 116 106
159 114 100
157 113 93
155 112 93
158 114 101
157 114 90
158 113 101
161 116 107
157 114 98
154 111 84
158 113 99
155 112 88
157 113 96
157 114 96
159 114 100
158 114 100
155 113 89
158 114 101
161 116 106
158 114 93
158 115 96
158 113 94
156 113 88
158 114 99
153 111 81
159 114 98
157 113 93
154 112 89
154 111 90
160 115 103
156 112 89
155 112 89
159 115 101
158 114 102
158 113 95
159 115 102
158 114 97
158 114 95
155 111 89
158 113 94
158 115 95
159 113 106
155 112 88
159 115 98
155 112 91
157 112 92
157 114 89
159 114 96
156 113 96
158 113 99
156 112 93
155 112 91
155 111 94
157 114 90
155 112 91
159 115 100
158 114 97
157 114 97
155 112 90
158 113 99
151 109 85
157 112 95
157 113 95
153 109 91
151 107 81
158 113 96
155 110 93
151 107 79
154 109 93
155 111 93
154 110 86
154 109 89
151 107 85
149 104 79
146 102 79
139 97 65
108 61 12
104 53 8
106 57 12
109 59 12
104 54 14
108 58 14
110 58 18
109 59 11
107 58 13
111 60 20
110 59 19
110 60 11
114 64 21
118 67 23
115 65 21
115 64 18
118 67 21
125 73 26
122 72 25
116 67 20
118 68 19
126 74 31
124 74 28
123 73 28
125 80 22
125 106 0
132 109 0
133 115 0
134 120 0
135 118 0
139 126 0
139 125 0
142 129 0
143 132 0
142 130 0
141 129 0
142 131 0
142 128 0
140 129 0
144 134 0
143 135 0
146 135 0
146 138 0
146 138 0
146 137 0
146 139 0
147 138 0
151 143 0
145 137 0
150 143 0
151 145 0
150 144 0
151 145 0
152 146 0
150 144 0
150 144 0
150 144 0
150 146 0
150 145 0
151 145 0
148 143 0
150 144 0
152 146 0
152 146 0
151 147 0
150 145 0
149 144 0
151 148 0
152 147 0
155 150 0
152 149 0
152 147 0
154 149 0
154 150 0
156 152 0
152 147 0
151 149 0
153 149 0
153 150 0
154 150 0
152 148 0
153 149 0
153 149 0
155 150 0
154 151 0
152 149 0
151 147 0
153 149 0
153 149 0
153 150 0
153 150 0
153 150 0
152 148 0
152 149 0
153 149 0
153 149 0
154 150 0
155 151 0
154 152 0
154 150 0
154 149 0
154 151 0
154 150 0
154 151 0
154 150 0
155 150 0
156 151 0
154 150 0
154 151 0
154 151 0
156 152 0
155 152 0
153 150 0
154 151 0
156 153 0
155 151 0
155 151 0
155 152 0
154 152 0
152 150 0
156 152 0
156 153 0
154 150 0
155 151 0
153 151 0
154 151 0
155 153 0
155 151 0
154 151 0
155 152 0
154 151 0
156 152 0
154 151 0
156 153 0
155 153 0
155 152 0
156 153 0
155 153 0
156 177 0
156 176 0
155 176 0
154 175 0
156 177 0
154 174 0
155 176 0
155 175 0
156 176 0
155 176 0
156 176 0
155 176 0
154 174 0
154 176 0
154 174 0
155 176 0
156 176 0
155 175 0
154 175 0
155 176 0
154 175 0
155 176 0
154 175 0
154 176 0
154 174 0
155 175 0
154 174 0
153 172 0
155 175 0
153 174 0
154 175 0
154 174 0
155 175 0
156 176 0
154 175 0
154 174 0
154 173 0
154 174 0
154 175 0
155 175 0
154 175 0
154 175 0
154 173 0
155 176 0
155 176 0
152 171 0
152 172 0
154 174 0
153 172 0
153 172 0
152 172 0
152 171 0
153 173 0
154 174 0
151 167 0
152 171 0
152 172 0
151 171 0
152 170 0
154 171 0
151 169 0
152 173 0
151 171 0
151 169 0
151 168 0
151 170 0
151 168 0
149 167 0
152 169 0
152 172 0
151 171 0
151 169 0
152 170 0
150 169 0
153 173 0
150 169 0
150 165 0
148 164 0
147 161 0
149 165 0
148 165 0
149 164 0
150 165 0
147 162 0
149 166 0
147 158 0
148 164 0
146 158 0
146 160 0
146 160 0
149 162 0
145 159 0
146 159 0
145 158 0
145 157 0
146 158 0
145 155 0
146 158 0
141 151 0
141 148 0
140 148 0
143 150 0
142 148 0
139 143 0
138 143 0
136 137 0
139 145 0
135 134 0
134 134 0
136 135 0
131 128 0
131 130 0
120 107 0
120 96 37
120 85 49
131 93 68
116 81 45
120 84 50
119 83 48
118 83 48
116 80 51
118 83 42
118 84 42
110 76 34
113 79 43
110 74 40
117 80 53
111 77 27
107 74 29
103 69 27
111 75 41
110 76 32
109 74 39
108 74 24
108 74 26
112 88 18
140 143 20
149 133 64
148 106 82
152 110 90
153 111 95
150 108 79
149 107 80
152 109 90
152 109 90
153 110 93
155 112 95
157 113 92
151 108 86
156 111 94
161 116 100
158 113 93
153 111 88
151 109 85
153 110 91
155 112 91
154 111 90
154 112 90
155 112 89
154 111 89
154 112 90
156 112 95
156 112 92
157 113 96
159 115 98
159 115 96
160 116 106
155 112 90
155 113 93
160 115 102
157 113 94
158 114 99
156 113 84
156 113 93
158 114 101
158 115 98
158 114 95
158 114 97
158 113 96
158 114 94
161 116 106
153 111 84
161 116 103
161 116 104
159 115 97
154 110 87
155 112 89
157 114 91
159 115 99
158 114 100
159 115 103
158 114 90
159 115 99
158 115 102
155 112 89
154 111 90
158 114 98
157 113 96
159 115 101
154 111 90
159 115 102
159 115 102
156 113 94
153 111 86
159 114 101
162 116 104
155 112 95
157 114 97
158 115 93
155 112 90
158 115 99
161 116 103
158 115 88
158 114 99
157 113 91
157 112 91
155 111 93
156 113 91
158 114 97
161 116 106
154 111 85
154 111 86
159 114 102
156 112 95
154 112 81
158 113 92
158 114 98
161 115 103
159 115 99
157 112 95
154 110 87
157 113 92
160 115 99
158 113 91
159 114 97
155 111 89
160 115 103
157 112 101
151 109 83
158 113 99
155 111 94
158 113 103
156 112 94
156 110 88
153 110 93
157 112 99
155 111 97
158 114 92
153 109 90
154 109 91
157 111 91
159 113 95
156 111 93
156 112 91
150 106 78
149 106 78
151 106 88
150 106 78
150 106 88
147 104 77
148 102 80
143 113 56
131 109 11
117 76 16
107 59 9
110 59 16
110 59 12
107 57 13
107 56 12
105 56 10
108 59 13
113 63 18
113 63 15
111 61 16
110 60 11
116 66 18
115 66 18
113 63 20
116 67 21
120 71 23
119 68 21
125 73 25
120 71 17
116 67 23
121 70 26
122 84 21
126 105 0
127 106 0
124 101 0
133 112 0
132 115 0
140 124 0
137 120 0
138 122 0
142 126 0
140 126 0
143 132 0
140 127 0
144 130 0
146 134 0
141 128 0
142 129 0
141 128 0
140 128 0
146 136 0
148 141 0
149 142 0
148 141 0
144 133 0
149 140 0
149 142 0
149 142 0
148 139 0
147 138 0
148 140 0
148 141 0
152 146 0
153 147 0
150 143 0
150 144 0
149 143 0
151 145 0
149 143 0
150 142 0
152 147 0
150 144 0
152 147 0
150 145 0
151 147 0
149 142 0
152 148 0
152 148 0
152 146 0
151 147 0
153 147 0
153 146 0
151 147 0
153 149 0
154 149 0
149 142 0
153 146 0
152 147 0
153 149 0
153 149 0
151 147 0
152 148 0
152 144 0
152 147 0
153 149 0
153 149 0
152 146 0
157 153 0
153 148 0
153 148 0
152 146 0
154 150 0
154 151 0
154 151 0
154 149 0
151 146 0
155 152 0
154 151 0
156 152 0
154 150 0
154 152 0
154 151 0
154 151 0
153 151 0
154 150 0
154 150 0
155 152 0
154 152 0
156 152 0
153 150 0
155 151 0
154 151 0
156 151 0
154 151 0
155 152 0
155 152 0
156 151 0
154 150 0
156 152 0
154 151 0
155 151 0
156 153 0
155 152 0
154 151 0
152 149 0
155 151 0
154 150 0
154 152 0
154 152 0
156 152 0
156 153 0
154 151 0
154 151 0
156 152 0
156 153 0
154 151 0
155 176 0
156 175 0
154 175 0
156 176 0
157 177 0
155 175 0
153 175 0
153 174 0
155 176 0
154 175 0
155 176 0
154 174 0
156 176 0
154 175 0
156 176 0
152 172 0
154 172 0
154 174 0
156 175 0
153 174 0
154 175 0
154 175 0
154 175 0
154 174 0
152 171 0
154 174 0
154 174 0
155 175 0
153 175 0
154 175 0
155 176 0
154 174 0
155 175 0
153 174 0
153 173 0
153 173 0
153 174 0
152 171 0
153 173 0
151 172 0
151 171 0
153 174 0
155 174 0
154 174 0
154 174 0
153 173 0
152 171 0
151 171 0
152 171 0
153 173 0
151 171 0
151 170 0
151 170 0
154 175 0
149 167 0
152 172 0
152 171 0
150 168 0
151 170 0
153 173 0
153 171 0
151 172 0
152 171 0
151 169 0
152 171 0
150 167 0
151 170 0
151 170 0
151 168 0
148 165 0
151 169 0
148 163 0
151 168 0
150 168 0
148 163 0
148 165 0
149 165 0
149 168 0
150 168 0
149 163 0
151 169 0
148 161 0
148 164 0
147 161 0
143 151 0
147 160 0
149 165 0
148 164 0
143 153 0
147 162 0
144 153 0
147 161 0
143 155 0
146 160 0
145 156 0
144 156 0
142 150 0
144 153 0
140 147 0
146 158 0
140 146 0
142 150 0
142 150 0
137 141 0
140 149 0
139 142 0
133 131 0
134 135 0
126 121 0
123 121 0
128 121 0
126 118 0
120 112 0
115 100 0
114 97 28
115 85 33
121 84 46
116 80 41
121 85 49
117 80 47
122 85 56
118 81 52
120 83 53
117 82 43
111 76 34
110 76 32
114 79 36
113 77 35
108 75 20
115 81 49
111 75 36
102 68 27
105 70 27
107 74 23
119 109 20
139 143 12
138 148 0
145 143 45
151 107 90
149 107 82
151 108 86
152 109 84
153 110 97
152 110 92
159 115 103
156 112 103
154 111 88
155 111 89
151 108 88
153 112 91
154 111 88
154 110 89
158 114 97
155 112 96
154 110 95
151 109 81
159 115 95
155 112 87
160 115 101
156 112 94
152 110 85
158 114 99
156 113 95
153 110 86
157 113 94
153 110 89
155 112 92
157 113 95
160 115 101
161 116 103
160 115 103
158 114 100
155 112 91
156 112 96
155 112 93
157 114 88
154 109 88
154 111 87
158 115 96
158 114 101
155 112 90
157 113 94
159 114 96
156 112 93
160 116 101
160 116 103
156 112 98
160 115 95
160 115 99
161 115 103
152 109 81
158 113 91
159 115 98
157 113 94
158 114 96
154 111 93
156 113 86
159 115 95
161 116 101
157 113 90
154 112 88
156 112 88
158 114 94
161 116 107
155 112 94
157 113 96
158 114 98
155 112 89
157 113 95
159 116 101
159 114 94
155 112 87
157 113 96
156 113 89
159 115 100
159 116 103
159 115 96
159 115 101
158 113 97
153 111 81
153 110 80
157 113 97
158 114 103
160 116 104
156 112 95
160 115 104
158 114 97
153 112 82
155 112 93
154 111 87
159 113 99
158 113 103
159 115 96
156 113 94
158 114 102
155 111 87
155 111 90
159 115 101
155 112 87
158 114 94
154 112 88
158 113 93
155 111 89
154 110 96
158 114 101
155 112 88
150 107 86
159 114 96
154 109 90
154 110 90
154 109 92
155 112 90
153 110 85
145 101 70
151 107 87
157 112 91
151 108 84
153 109 86
150 106 80
146 100 76
150 105 78
145 126 33
142 129 0
134 117 0
126 97 9
106 62 11
115 65 13
107 58 13
101 54 11
115 64 21
108 59 11
115 63 19
112 61 15
112 62 17
115 64 15
112 61 17
115 65 20
112 61 16
127 74 29
116 67 21
118 68 16
116 66 21
120 71 22
123 80 25
118 85 14
120 96 0
123 100 0
126 105 0
130 111 0
133 112 0
135 117 0
134 115 0
133 115 0
134 117 0
135 120 0
138 124 0
137 120 0
145 135 0
142 130 0
140 125 0
144 134 0
141 129 0
144 133 0
146 137 0
144 133 0
145 137 0
143 135 0
148 139 0
144 133 0
149 141 0
146 135 0
144 134 0
147 140 0
147 138 0
148 141 0
148 141 0
151 144 0
152 144 0
152 146 0
149 143 0
149 144 0
150 144 0
149 142 0
152 146 0
148 142 0
150 142 0
154 148 0
151 145 0
151 144 0
150 143 0
151 145 0
149 144 0
151 146 0
149 146 0
150 146 0
152 147 0
151 146 0
151 147 0
150 144 0
151 145 0
150 145 0
151 147 0
150 143 0
150 146 0
154 151 0
153 149 0
151 147 0
152 147 0
154 149 0
153 148 0
152 147 0
154 150 0
152 148 0
152 146 0
154 151 0
153 149 0
153 149 0
153 149 0
154 149 0
153 150 0
155 151 0
154 151 0
154 151 0
155 152 0
155 152 0
154 149 0
153 150 0
156 151 0
154 150 0
152 149 0
154 151 0
153 151 0
154 151 0
153 150 0
153 150 0
152 149 0
154 151 0
154 152 0
155 152 0
156 152 0
154 151 0
154 151 0
155 152 0
154 150 0
154 150 0
154 150 0
156 152 0
155 152 0
155 152 0
153 149 0
155 153 0
155 152 0
152 149 0
155 152 0
155 152 0
155 151 0
155 152 0
154 151 0
155 152 0
157 152 0
157 177 0
154 174 0
155 176 0
154 175 0
155 176 0
154 174 0
152 174 0
155 175 0
153 174 0
154 175 0
154 174 0
154 175 0
153 174 0
153 174 0
155 175 0
153 174 0
154 174 0
155 175 0
155 176 0
152 173 0
154 174 0
155 175 0
154 173 0
154 173 0
155 176 0
154 175 0
155 175 0
156 175 0
154 173 0
152 173 0
152 171 0
154 175 0
153 173 0
153 174 0
151 172 0
153 173 0
154 173 0
153 174 0
152 171 0
155 175 0
154 174 0
154 173 0
153 173 0
155 176 0
150 169 0
153 172 0
153 173 0
154 175 0
153 174 0
152 170 0
154 174 0
150 168 0
152 170 0
150 167 0
151 170 0
152 171 0
152 171 0
153 174 0
151 171 0
152 169 0
151 169 0
149 168 0
149 167 0
151 171 0
152 172 0
149 168 0
153 171 0
151 170 0
150 167 0
153 173 0
149 166 0
151 169 0
147 164 0
151 167 0
149 167 0
152 170 0
150 167 0
149 164 0
147 165 0
149 165 0
150 166 0
148 164 0
149 165 0
148 165 0
150 167 0
146 160 0
146 160 0
144 156 0
147 161 0
144 160 0
143 158 0
145 158 0
147 164 0
143 151 0
139 147 0
142 152 0
141 151 0
141 151 0
147 159 0
144 152 0
142 152 0
134 134 0
138 145 0
132 133 0
141 148 0
135 137 0
139 145 0
134 133 0
133 131 0
131 129 0
123 118 0
128 125 0
121 112 0
120 115 0
124 118 0
108 96 0
104 82 12
114 83 29
112 77 33
114 78 39
117 81 50
109 76 38
112 78 38
107 72 29
113 77 41
110 75 30
116 80 38
113 77 36
113 77 33
106 69 17
105 71 28
114 85 27
124 112 27
124 120 21
142 149 0
139 145 0
144 151 0
141 150 14
148 111 78
148 107 83
147 105 81
148 105 84
155 112 93
152 110 83
153 111 92
155 111 93
156 112 96
153 111 92
149 107 79
155 111 94
156 112 94
155 111 93
157 114 98
153 111 89
157 113 95
156 113 95
158 114 96
154 110 89
154 111 95
157 112 98
156 113 91
161 116 105
161 117 106
158 115 98
155 112 91
154 111 93
158 114 97
155 112 90
153 110 86
156 113 90
154 112 81
162 117 106
158 114 95
153 111 81
157 113 96
152 110 85
158 114 97
155 112 88
157 113 93
155 111 89
157 113 100
155 113 90
153 111 78
158 114 97
155 112 87
151 109 88
158 114 98
157 113 98
159 116 101
154 111 90
153 109 87
158 115 96
157 113 89
154 111 84
155 112 88
154 110 85
160 116 103
156 113 86
158 113 95
157 114 95
150 107 82
158 113 96
161 116 105
158 114 89
157 113 91
156 112 87
158 113 93
151 109 85
160 115 103
155 112 90
155 111 89
156 112 87
158 114 101
160 114 104
156 112 97
156 112 95
161 116 103
156 112 95
153 109 85
153 111 86
155 111 94
154 110 86
160 114 103
156 112 95
155 112 90
159 114 95
156 112 94
155 112 95
156 112 97
157 113 96
159 114 103
160 115 103
159 114 102
161 116 105
156 112 96
158 114 99
155 111 91
156 112 91
154 112 84
155 112 95
157 112 95
156 111 95
156 112 98
153 110 85
160 113 100
156 111 90
156 113 92
157 112 95
150 107 85
155 111 93
156 111 93
157 111 91
152 107 81
156 111 94
151 107 81
154 109 93
156 111 100
151 107 84
153 108 85
146 101 70
148 104 77
144 132 0
141 126 0
142 124 0
140 122 0
133 114 0
118 83 6
108 61 9
110 61 11
106 58 14
109 59 13
112 63 12
115 64 17
109 61 16
114 64 15
117 68 18
115 66 16
118 67 23
120 70 22
115 66 19
118 66 21
117 69 20
108 74 10
108 78 6
117 94 0
117 92 0
121 98 0
125 101 0
132 111 0
131 113 0
137 118 0
130 108 0
134 117 0
137 122 0
132 114 0
138 123 0
134 119 0
142 128 0
140 128 0
143 132 0
142 130 0
141 130 0
141 128 0
142 131 0
141 129 0
145 136 0
148 139 0
145 135 0
141 129 0
147 137 0
147 139 0
149 141 0
142 135 0
145 134 0
145 137 0
147 140 0
147 140 0
148 141 0
149 143 0
148 141 0
148 140 0
148 139 0
148 141 0
151 146 0
150 144 0
148 141 0
148 142 0
152 147 0
150 143 0
149 143 0
151 146 0
150 142 0
151 145 0
150 144 0
153 150 0
153 150 0
153 147 0
152 147 0
152 147 0
151 146 0
150 144 0
152 148 0
151 145 0
150 144 0
151 148 0
154 149 0
150 146 0
154 150 0
154 150 0
153 148 0
151 147 0
152 147 0
152 147 0
152 147 0
154 150 0
154 149 0
152 148 0
152 146 0
153 150 0
151 147 0
152 147 0
153 149 0
155 152 0
153 149 0
152 149 0
153 150 0
154 150 0
154 149 0
152 147 0
153 149 0
152 150 0
154 150 0
154 150 0
155 153 0
152 148 0
152 148 0
155 150 0
155 152 0
154 150 0
155 152 0
155 152 0
155 151 0
153 150 0
154 151 0
154 150 0
154 151 0
156 151 0
154 150 0
156 152 0
154 151 0
154 151 0
153 150 0
155 152 0
153 150 0
154 149 0
155 152 0
155 152 0
154 150 0
154 151 0
155 152 0
155 175 0
155 176 0
155 176 0
154 174 0
155 175 0
156 176 0
153 174 0
153 175 0
155 174 0
155 175 0
154 175 0
155 175 0
153 173 0
154 175 0
155 176 0
154 175 0
155 176 0
153 173 0
153 174 0
154 174 0
152 173 0
154 173 0
154 174 0
154 175 0
155 175 0
152 171 0
154 173 0
153 174 0
152 171 0
154 172 0
152 172 0
155 174 0
155 176 0
153 172 0
151 171 0
153 173 0
153 172 0
154 173 0
152 171 0
155 175 0
154 174 0
153 173 0
154 172 0
152 171 0
154 173 0
153 172 0
152 172 0
152 172 0
151 171 0
153 174 0
152 172 0
152 171 0
151 171 0
152 174 0
154 172 0
151 170 0
152 171 0
153 172 0
151 169 0
150 170 0
152 171 0
151 168 0
151 170 0
152 171 0
151 169 0
153 171 0
150 167 0
149 166 0
149 168 0
151 169 0
149 168 0
147 163 0
149 163 0
149 165 0
146 161 0
150 167 0
151 168 0
144 160 0
149 165 0
148 163 0
151 169 0
150 168 0
144 159 0
149 163 0
148 161 0
146 160 0
146 157 0
146 162 0
149 163 0
142 152 0
142 151 0
144 157 0
144 155 0
143 151 0
144 156 0
140 147 0
144 151 0
139 146 0
142 151 0
139 145 0
139 144 0
136 137 0
137 143 0
137 142 0
133 133 0
134 137 0
135 138 0
131 133 0
134 135 0
128 126 0
133 132 0
123 118 0
117 104 0
118 110 0
113 105 0
113 105 0
112 105 0
107 95 0
97 77 12
103 74 30
112 83 32
114 79 40
111 75 39
111 77 34
112 78 43
110 75 26
113 77 35
107 74 25
108 77 36
111 91 20
122 106 16
129 130 0
126 121 0
130 129 0
135 141 0
139 142 0
141 148 0
144 154 0
146 123 67
149 108 86
153 109 94
153 109 98
152 109 85
152 110 84
152 110 90
154 111 95
150 108 89
156 113 94
154 112 87
152 109 84
154 111 86
154 111 90
151 109 81
153 110 87
159 114 100
155 111 90
156 112 95
156 113 97
157 112 94
156 112 91
155 112 92
155 112 93
156 112 96
157 113 92
156 113 92
159 114 99
157 113 102
159 114 99
158 114 96
160 115 101
156 112 93
160 116 100
150 108 82
157 114 100
160 115 100
159 115 99
154 111 88
155 111 90
157 113 93
159 114 99
158 114 91
156 113 91
155 111 94
156 113 93
154 111 88
158 114 97
160 116 102
154 112 87
155 112 93
155 111 85
156 111 94
157 113 90
159 115 103
159 114 96
155 112 88
155 112 89
160 115 97
157 113 91
153 110 89
158 114 100
156 112 91
156 114 90
158 114 99
156 112 96
157 114 91
154 112 86
157 113 94
156 113 94
157 114 98
156 112 91
157 113 96
156 112 94
156 113 88
158 113 98
155 112 94
157 113 93
154 112 95
152 110 81
157 114 97
155 110 87
155 112 90
155 111 90
155 112 88
157 112 94
153 111 90
157 113 95
159 114 99
157 112 96
154 112 91
157 112 93
159 114 100
153 110 81
157 113 95
156 114 90
153 110 85
154 111 86
154 109 90
156 112 98
156 112 89
154 110 82
154 111 88
159 115 97
154 111 89
153 110 92
159 113 96
157 111 94
156 111 92
156 112 90
153 110 85
152 109 81
152 108 82
153 109 90
151 107 82
149 104 77
152 108 86
155 109 89
147 103 78
143 100 64
146 103 72
146 103 76
147 113 63
143 130 0
140 126 0
135 118 0
139 121 0
131 114 0
133 114 0
127 101 0
118 88 8
120 83 11
110 64 9
111 62 14
109 62 16
112 64 11
117 66 19
111 62 11
111 63 15
116 65 22
115 68 16
112 73 17
100 68 0
105 75 0
102 76 0
120 98 0
119 98 0
118 94 0
117 92 0
122 99 0
128 107 0
125 104 0
127 104 0
132 114 0
137 119 0
138 123 0
134 118 0
138 124 0
136 118 0
137 120 0
132 117 0
137 121 0
145 132 0
139 124 0
141 128 0
143 134 0
145 136 0
147 139 0
147 132 0
142 131 0
147 140 0
144 132 0
147 137 0
146 138 0
147 140 0
151 143 0
148 139 0
149 143 0
147 140 0
147 137 0
148 142 0
149 141 0
150 144 0
149 139 0
145 138 0
150 146 0
151 145 0
149 142 0
150 144 0
149 143 0
148 143 0
151 146 0
149 143 0
150 143 0
152 148 0
151 144 0
150 144 0
151 145 0
152 146 0
149 144 0
152 147 0
150 143 0
151 146 0
152 147 0
153 148 0
150 144 0
151 144 0
150 145 0
152 148 0
150 144 0
154 148 0
150 145 0
153 149 0
149 144 0
152 149 0
152 148 0
153 148 0
154 150 0
152 147 0
154 149 0
153 149 0
152 150 0
154 150 0
153 148 0
153 149 0
153 148 0
152 149 0
152 148 0
152 147 0
154 151 0
153 149 0
153 149 0
154 149 0
154 151 0
153 149 0
154 150 0
154 151 0
154 149 0
155 151 0
156 152 0
153 151 0
155 152 0
154 151 0
155 151 0
154 150 0
154 150 0
153 150 0
154 149 0
155 152 0
154 151 0
153 150 0
154 150 0
155 152 0
154 150 0
154 151 0
155 152 0
155 151 0
153 151 0
155 152 0
156 152 0
154 151 0
155 152 0
155 176 0
156 177 0
156 175 0
154 175 0
155 175 0
156 176 0
154 175 0
156 176 0
155 175 0
155 175 0
153 175 0
153 174 0
154 176 0
155 177 0
155 176 0
153 173 0
155 176 0
153 173 0
155 174 0
152 172 0
154 175 0
153 173 0
155 175 0
153 173 0
152 171 0
153 172 0
153 173 0
151 171 0
153 173 0
153 173 0
153 172 0
153 173 0
154 173 0
150 170 0
151 171 0
153 174 0
153 174 0
155 175 0
152 172 0
152 172 0
152 170 0
151 168 0
152 171 0
153 173 0
153 172 0
151 170 0
153 173 0
152 173 0
151 171 0
151 171 0
153 170 0
154 174 0
155 175 0
151 171 0
151 170 0
152 173 0
150 168 0
151 167 0
151 169 0
147 165 0
150 166 0
152 170 0
150 166 0
149 168 0
149 166 0
148 162 0
151 168 0
150 167 0
148 164 0
148 166 0
149 164 0
150 167 0
149 168 0
149 163 0
150 166 0
149 164 0
152 169 0
148 167 0
147 163 0
146 159 0
148 164 0
148 163 0
146 160 0
146 162 0
143 156 0
146 162 0
146 161 0
145 157 0
148 161 0
146 158 0
146 158 0
144 159 0
141 152 0
147 158 0
147 160 0
143 153 0
143 152 0
143 153 0
141 146 0
142 152 0
137 143 0
139 145 0
139 146 0
132 134 0
134 130 0
133 136 0
125 123 0
129 129 0
131 128 0
132 130 0
131 128 0
123 115 0
123 116 0
122 115 0
122 122 0
121 117 0
111 100 0
116 108 0
113 108 0
105 96 0
99 81 0
94 81 0
99 86 0
98 80 0
97 73 11
111 95 0
104 91 0
119 113 0
115 105 0
122 119 0
122 120 0
127 127 0
130 127 0
136 141 0
142 149 0
140 147 0
139 148 0
141 151 0
144 146 42
149 107 82
150 108 90
151 108 86
152 109 90
150 107 86
158 114 96
155 112 93
156 113 93
153 111 88
153 110 93
151 108 89
157 113 94
155 112 88
157 113 92
155 111 96
158 114 95
157 113 100
154 110 87
156 114 91
154 111 93
155 112 98
152 109 82
157 114 94
156 112 87
157 113 95
156 113 94
155 112 87
157 113 95
157 113 94
158 114 104
157 114 102
159 115 99
158 113 98
156 113 96
153 110 89
158 112 98
156 113 93
153 111 85
157 113 94
156 113 98
156 112 101
155 112 85
157 113 94
158 114 94
155 112 89
158 114 99
155 112 90
153 110 89
154 112 82
156 113 91
155 111 89
155 112 89
157 112 91
158 114 96
153 110 81
155 112 91
157 113 94
155 111 88
157 112 96
156 112 90
161 116 98
160 115 94
158 113 97
155 111 90
156 112 99
157 113 95
155 110 89
157 112 91
157 113 100
156 112 95
159 115 95
157 114 91
158 115 95
156 113 95
157 114 90
153 110 85
154 111 86
158 113 98
154 111 85
154 112 86
157 112 97
155 112 86
154 111 89
159 115 97
153 111 89
158 113 93
158 114 99
158 113 91
156 113 96
157 112 93
158 114 102
155 112 88
155 111 89
156 112 91
156 112 90
153 110 85
158 113 96
154 111 90
157 113 97
156 112 91
157 112 96
152 109 87
155 112 87
159 114 102
156 111 85
158 114 98
154 109 91
153 109 88
155 111 94
157 111 95
154 108 89
152 108 85
156 110 88
154 108 90
152 107 85
151 107 83
152 109 88
152 108 86
152 106 87
148 104 77
146 101 74
145 128 31
143 130 0
144 129 0
139 122 0
135 115 0
136 121 0
130 108 0
130 106 0
121 99 0
127 101 0
118 91 0
118 94 0
104 72 2
114 85 12
106 72 6
108 76 10
104 73 8
96 68 0
100 71 0
102 78 0
113 85 0
104 78 0
113 88 0
117 87 0
118 92 0
121 96 0
114 81 0
126 102 0
125 103 0
127 104 0
132 112 0
128 106 0
135 116 0
134 117 0
135 121 0
138 123 0
137 121 0
133 117 0
141 125 0
139 126 0
143 132 0
138 124 0
141 128 0
141 129 0
142 130 0
141 128 0
139 128 0
144 133 0
144 133 0
145 135 0
148 139 0
146 136 0
142 133 0
143 134 0
148 139 0
147 138 0
150 141 0
147 139 0
147 140 0
149 142 0
150 144 0
149 142 0
149 142 0
146 138 0
150 142 0
149 143 0
150 143 0
147 141 0
150 142 0
150 143 0
151 144 0
150 144 0
150 145 0
153 147 0
151 147 0
151 146 0
151 147 0
150 143 0
153 149 0
151 146 0
153 148 0
151 146 0
152 148 0
152 147 0
152 146 0
151 146 0
151 144 0
153 148 0
152 147 0
153 149 0
151 144 0
151 146 0
150 146 0
152 147 0
149 145 0
153 148 0
153 149 0
152 148 0
152 147 0
154 149 0
153 149 0
154 149 0
152 148 0
153 150 0
154 150 0
152 146 0
155 151 0
153 148 0
151 148 0
151 146 0
154 151 0
154 149 0
151 147 0
154 150 0
153 149 0
153 149 0
152 148 0
152 149 0
155 150 0
152 147 0
154 151 0
153 149 0
153 149 0
153 150 0
154 151 0
153 150 0
154 151 0
153 148 0
154 151 0
155 152 0
154 152 0
154 150 0
151 147 0
156 151 0
154 152 0
155 151 0
156 153 0
155 152 0
155 152 0
154 150 0
156 176 0
155 175 0
152 174 0
155 176 0
155 175 0
156 176 0
154 175 0
155 176 0
154 175 0
153 174 0
155 175 0
153 175 0
153 175 0
154 174 0
153 173 0
153 174 0
155 175 0
155 176 0
153 174 0
152 173 0
152 172 0
154 175 0
153 172 0
155 174 0
152 174 0
153 173 0
154 174 0
154 174 0
153 172 0
152 172 0
153 173 0
152 170 0
152 172 0
150 169 0
153 173 0
154 172 0
153 173 0
151 170 0
152 172 0
152 171 0
153 172 0
151 171 0
153 172 0
150 169 0
154 172 0
152 171 0
152 171 0
152 171 0
153 173 0
150 169 0
151 169 0
150 168 0
153 173 0
151 171 0
149 168 0
150 168 0
150 170 0
149 166 0
151 170 0
150 169 0
152 169 0
153 174 0
150 168 0
148 165 0
151 170 0
151 168 0
151 169 0
148 165 0
150 166 0
148 165 0
151 168 0
151 169 0
146 160 0
148 165 0
149 164 0
147 163 0
146 162 0
148 161 0
146 161 0
145 158 0
146 161 0
147 163 0
144 155 0
146 162 0
144 159 0
146 164 0
146 159 0
144 156 0
144 154 0
143 155 0
144 158 0
145 156 0
142 154 0
142 151 0
142 153 0
140 149 0
142 147 0
138 143 0
142 152 0
137 146 0
134 138 0
135 138 0
134 138 0
135 135 0
137 138 0
132 137 0
134 137 0
125 121 0
128 127 0
127 124 0
131 129 0
126 122 0
125 119 0
121 113 0
124 116 0
123 117 0
108 96 0
112 103 0
110 95 0
108 96 0
104 91 0
106 92 0
100 87 0
104 95 0
106 92 0
115 104 0
118 110 0
110 93 0
115 103 0
121 117 0
127 123 0
124 118 0
133 134 0
138 141 0
141 149 0
144 151 0
147 160 0
142 150 0
143 153 0
150 116 74
146 104 75
148 107 82
152 110 84
153 109 83
147 106 80
152 110 89
154 110 91
154 111 91
155 111 92
151 108 85
152 111 81
155 111 85
155 112 88
158 114 94
155 111 84
156 113 98
154 111 97
156 112 94
156 113 94
157 113 90
155 112 90
153 110 84
155 112 89
156 112 93
155 112 94
152 109 85
153 110 76
156 113 94
156 112 96
152 110 84
158 114 97
157 113 94
156 112 89
158 114 98
156 113 91
159 114 96
157 113 95
154 110 85
159 115 95
159 114 98
155 111 100
158 114 93
154 111 87
155 113 87
155 111 93
154 111 94
158 113 100
157 113 99
158 113 93
160 115 97
156 112 94
155 112 91
154 111 94
156 113 95
156 111 88
158 114 98
158 114 101
152 110 86
155 111 90
157 114 98
156 113 93
154 110 91
156 112 94
156 113 94
158 113 96
156 112 93
159 114 99
160 115 99
157 113 96
159 114 94
152 110 80
151 109 81
155 112 88
156 113 89
158 114 91
158 113 95
155 112 90
157 113 90
155 112 90
157 112 87
155 112 90
153 110 87
157 112 93
155 112 89
155 112 89
154 113 85
152 109 85
156 112 90
153 110 85
157 113 95
154 111 96
155 111 89
157 112 95
157 113 96
157 113 95
152 109 81
157 112 94
154 111 90
155 110 88
150 105 83
157 112 93
153 109 83
157 113 94
152 109 83
152 109 86
148 105 79
153 109 81
154 110 86
151 107 82
152 107 86
153 109 91
148 105 80
157 112 102
151 108 81
154 109 91
151 106 86
148 104 83
149 104 79
149 104 77
143 105 64
145 135 0
147 137 0
143 131 0
140 128 0
138 123 0
136 120 0
136 118 0
123 100 0
126 103 0
120 94 0
115 91 0
123 98 0
118 92 0
108 81 0
105 78 0
114 89 0
110 84 0
112 86 0
103 71 0
104 71 0
109 84 0
107 76 0
111 82 0
108 75 0
127 106 0
125 102 0
130 108 0
120 91 0
130 110 0
127 106 0
127 109 0
130 108 0
129 108 0
134 117 0
139 122 0
132 112 0
138 124 0
136 119 0
143 130 0
137 119 0
138 123 0
138 124 0
143 129 0
140 127 0
139 127 0
143 134 0
142 129 0
143 132 0
145 135 0
143 133 0
146 136 0
148 140 0
150 142 0
145 133 0
144 133 0
145 137 0
143 133 0
146 137 0
147 141 0
151 146 0
148 141 0
147 137 0
149 140 0
148 141 0
146 140 0
147 139 0
149 141 0
148 143 0
151 143 0
150 144 0
149 143 0
149 143 0
147 140 0
149 143 0
150 142 0
146 139 0
150 143 0
153 147 0
152 147 0
152 146 0
150 145 0
150 145 0
151 144 0
150 144 0
152 146 0
152 147 0
152 148 0
151 147 0
151 145 0
151 145 0
151 147 0
154 150 0
152 147 0
152 147 0
150 146 0
153 148 0
151 148 0
153 147 0
150 146 0
152 145 0
153 148 0
154 149 0
153 149 0
152 146 0
154 149 0
153 148 0
153 148 0
152 146 0
152 148 0
152 148 0
154 150 0
154 151 0
153 150 0
153 151 0
153 149 0
152 149 0
152 148 0
152 149 0
154 151 0
152 148 0
155 152 0
153 149 0
154 150 0
153 149 0
155 151 0
155 150 0
154 150 0
154 150 0
155 151 0
153 150 0
153 149 0
155 152 0
156 151 0
153 150 0
153 150 0
154 150 0
153 149 0
154 151 0
154 150 0
154 151 0
155 175 0
154 175 0
154 175 0
154 175 0
154 174 0
156 176 0
154 175 0
154 175 0
154 175 0
153 174 0
154 174 0
154 176 0
154 174 0
154 175 0
154 174 0
152 172 0
153 172 0
154 174 0
153 173 0
153 173 0
154 175 0
154 174 0
155 174 0
152 171 0
153 173 0
152 171 0
155 175 0
153 173 0
153 174 0
153 171 0
152 172 0
153 172 0
153 171 0
153 174 0
151 171 0
151 170 0
152 171 0
153 172 0
152 172 0
152 173 0
152 171 0
151 171 0
151 169 0
151 171 0
153 174 0
151 168 0
151 171 0
150 167 0
152 170 0
152 170 0
152 170 0
149 168 0
152 171 0
151 169 0
151 170 0
151 169 0
149 166 0
151 171 0
151 169 0
150 168 0
151 170 0
151 168 0
150 167 0
151 170 0
148 166 0
149 168 0
150 167 0
148 165 0
148 164 0
150 167 0
151 170 0
150 168 0
149 166 0
148 164 0
145 160 0
144 157 0
147 160 0
146 161 0
145 160 0
144 157 0
149 164 0
148 163 0
145 157 0
145 159 0
144 156 0
146 159 0
147 163 0
144 156 0
142 152 0
145 153 0
141 152 0
144 156 0
143 153 0
140 148 0
142 151 0
141 151 0
138 147 0
137 146 0
141 148 0
140 147 0
135 140 0
138 145 0
131 136 0
132 132 0
133 135 0
135 137 0
134 134 0
126 125 0
129 131 0
129 129 0
126 121 0
126 122 0
129 127 0
117 112 0
118 110 0
119 113 0
121 116 0
118 109 0
113 104 0
116 112 0
112 97 0
117 109 0
110 98 0
110 101 0
108 89 0
117 108 0
117 108 0
119 114 0
122 117 0
121 117 0
125 121 0
131 133 0
135 137 0
132 135 0
138 146 0
135 142 0
142 153 0
143 154 0
145 158 0
146 143 47
147 104 86
151 109 88
148 106 76
148 106 79
152 110 85
147 104 79
156 112 96
150 108 85
157 113 100
150 109 81
157 114 96
154 110 88
154 111 89
153 110 86
153 110 90
153 109 92
156 113 93
153 110 89
157 112 98
154 112 86
156 112 91
153 109 86
157 113 95
153 110 85
151 108 89
156 112 86
152 110 84
157 113 94
156 113 93
155 112 90
154 111 87
154 111 88
155 111 87
157 114 94
152 109 86
158 114 96
156 112 94
158 113 94
158 114 89
154 110 94
158 113 96
156 113 93
153 111 85
156 112 88
158 113 97
155 111 91
156 111 91
154 111 84
154 111 87
155 112 89
154 111 84
156 113 88
157 112 99
157 113 97
156 112 90
156 112 87
156 113 96
155 112 97
157 115 95
158 114 99
162 116 98
156 111 88
159 115 98
154 111 90
159 114 98
154 111 89
155 111 88
155 111 84
158 114 99
155 111 88
156 113 90
158 114 100
156 113 88
156 112 89
155 112 87
154 112 91
152 109 86
157 112 96
159 115 100
157 113 96
158 112 94
156 112 89
156 113 88
156 113 101
156 112 95
152 109 85
161 114 102
150 107 84
158 113 98
155 111 87
157 113 93
156 113 93
160 114 99
155 111 94
156 112 93
156 111 91
156 112 88
155 112 88
152 109 80
153 110 86
152 110 86
155 110 93
153 110 84
157 113 98
152 109 80
157 112 87
156 111 94
152 107 90
153 109 86
155 112 93
156 111 92
152 108 81
153 108 88
150 106 86
152 108 90
158 112 94
148 106 72
147 104 73
145 101 68
146 125 43
143 132 0
146 136 0
143 130 0
135 118 0
137 119 0
136 120 0
132 113 0
125 107 0
137 120 0
121 94 0
117 97 0
116 90 0
115 86 0
115 87 0
109 83 0
114 83 0
119 95 0
118 94 0
111 87 0
107 80 0
115 90 0
116 89 0
119 95 0
119 95 0
115 86 0
121 95 0
132 111 0
127 102 0
129 109 0
131 111 0
132 112 0
133 115 0
130 109 0
134 115 0
136 122 0
133 116 0
137 119 0
139 124 0
138 123 0
143 131 0
138 121 0
141 128 0
141 128 0
138 125 0
142 130 0
139 124 0
140 128 0
143 133 0
144 131 0
142 132 0
142 131 0
144 134 0
148 139 0
146 137 0
145 136 0
150 141 0
145 134 0
147 140 0
150 143 0
145 135 0
147 139 0
148 139 0
149 140 0
150 143 0
149 141 0
150 142 0
147 141 0
147 141 0
150 143 0
149 142 0
149 142 0
149 141 0
147 140 0
152 143 0
149 142 0
150 144 0
147 139 0
148 140 0
151 146 0
152 147 0
149 143 0
150 144 0
151 145 0
149 145 0
153 149 0
150 145 0
152 147 0
153 148 0
153 148 0
151 146 0
152 147 0
150 144 0
151 146 0
154 149 0
150 146 0
150 145 0
153 149 0
149 144 0
153 148 0
150 146 0
153 148 0
154 149 0
151 146 0
154 149 0
153 149 0
153 147 0
151 147 0
154 150 0
154 151 0
153 148 0
151 147 0
156 150 0
152 147 0
153 149 0
153 149 0
153 150 0
153 148 0
153 149 0
153 149 0
154 149 0
154 150 0
155 151 0
154 150 0
153 149 0
152 150 0
153 151 0
155 151 0
154 149 0
152 148 0
154 150 0
156 152 0
154 150 0
154 151 0
154 150 0
154 149 0
152 149 0
154 150 0
152 148 0
154 151 0
155 151 0
155 174 0
151 172 0
153 173 0
154 175 0
153 173 0
155 175 0
152 173 0
153 175 0
153 175 0
154 175 0
155 176 0
156 175 0
153 174 0
155 175 0
153 174 0
151 172 0
153 175 0
154 174 0
154 174 0
154 175 0
153 173 0
154 173 0
153 174 0
152 172 0
152 171 0
153 173 0
154 173 0
154 173 0
153 172 0
154 174 0
151 171 0
152 171 0
150 169 0
152 170 0
152 171 0
153 172 0
151 170 0
154 173 0
151 170 0
153 173 0
152 171 0
154 175 0
150 168 0
153 173 0
148 167 0
153 172 0
153 172 0
149 167 0
150 169 0
151 171 0
152 172 0
152 170 0
150 168 0
150 168 0
152 170 0
148 167 0
150 166 0
151 171 0
151 170 0
149 166 0
151 168 0
147 165 0
148 163 0
151 169 0
151 168 0
150 168 0
151 169 0
151 168 0
148 164 0
149 164 0
148 166 0
147 164 0
151 170 0
149 166 0
148 163 0
147 162 0
147 165 0
147 162 0
149 164 0
148 163 0
149 163 0
144 158 0
146 160 0
144 155 0
143 155 0
143 157 0
148 162 0
143 155 0
147 163 0
145 159 0
144 154 0
142 155 0
146 160 0
140 150 0
143 153 0
136 144 0
141 149 0
143 154 0
138 146 0
140 148 0
141 150 0
138 146 0
137 141 0
134 140 0
136 142 0
133 137 0
135 138 0
128 128 0
123 121 0
128 129 0
123 117 0
119 113 0
125 119 0
126 123 0
125 123 0
110 102 0
122 117 0
116 110 0
108 94 0
113 102 0
112 106 0
116 108 0
111 100 0
114 107 0
121 114 0
120 115 0
118 111 0
118 111 0
129 130 0
124 121 0
123 120 0
134 137 0
132 135 0
135 137 0
140 148 0
142 153 0
144 157 0
141 155 0
146 162 0
147 159 12
146 108 67
145 104 73
149 107 84
148 106 85
155 112 93
150 107 85
152 110 88
151 109 88
150 106 85
150 108 87
151 109 84
153 110 91
155 111 91
151 107 89
156 112 91
154 111 93
153 110 88
153 110 89
151 109 80
155 111 90
159 115 100
155 111 91
154 111 89
160 114 104
156 113 91
158 114 90
159 114 97
158 113 92
155 111 89
157 113 96
156 113 91
155 112 96
155 110 89
156 113 86
157 112 94
156 113 93
157 112 91
158 114 101
157 113 94
159 114 101
155 112 86
156 112 87
159 114 98
155 111 82
153 111 86
156 112 94
157 113 101
153 110 81
154 110 88
157 113 99
158 114 96
158 114 94
155 112 93
157 114 97
159 114 96
154 111 88
157 113 94
157 113 93
158 113 99
159 114 103
155 111 89
157 112 93
152 109 82
159 114 98
157 113 95
155 112 91
157 113 93
158 113 95
158 114 95
158 113 97
157 113 93
155 112 89
158 113 96
156 111 91
155 111 94
155 111 93
157 114 93
160 115 103
155 112 89
156 113 96
155 112 91
153 110 81
157 113 94
151 107 82
153 110 86
153 110 87
161 116 98
156 112 91
156 112 95
155 112 84
155 112 87
155 111 86
153 109 90
156 114 91
151 108 78
154 110 91
157 112 91
154 111 85
153 110 82
152 109 81
153 109 84
155 111 88
155 111 91
152 108 81
155 110 93
154 110 93
151 109 81
151 108 80
151 109 83
153 108 90
156 111 89
156 110 91
152 108 85
151 107 81
149 106 78
147 102 74
150 106 80
148 103 71
150 106 79
147 136 0
145 133 0
143 129 0
146 136 0
142 129 0
140 124 0
132 112 0
134 116 0
128 109 0
124 104 0
129 110 0
124 99 0
118 93 0
118 95 0
117 93 0
115 87 0
110 83 0
113 81 0
116 89 0
115 91 0
118 95 0
113 91 0
114 89 0
116 88 0
121 95 0
121 98 0
126 101 0
121 98 0
127 103 0
122 99 0
125 102 0
130 110 0
132 110 0
134 116 0
131 112 0
136 121 0
134 119 0
136 119 0
137 123 0
137 123 0
134 119 0
140 126 0
139 124 0
141 129 0
143 131 0
145 133 0
141 128 0
140 129 0
141 129 0
143 132 0
144 133 0
141 126 0
142 132 0
144 133 0
145 136 0
147 138 0
143 132 0
145 135 0
150 141 0
148 140 0
146 137 0
147 137 0
148 139 0
149 142 0
148 139 0
150 140 0
148 143 0
149 141 0
147 141 0
151 144 0
152 145 0
146 139 0
149 143 0
149 142 0
150 143 0
149 142 0
147 141 0
149 144 0
151 145 0
151 145 0
152 147 0
149 143 0
147 141 0
148 141 0
151 146 0
151 146 0
151 146 0
149 142 0
151 144 0
151 147 0
150 145 0
151 146 0
147 141 0
151 145 0
151 142 0
151 147 0
151 145 0
150 145 0
152 148 0
153 148 0
152 147 0
153 148 0
150 144 0
153 148 0
155 150 0
150 144 0
151 146 0
153 147 0
151 146 0
153 150 0
152 146 0
153 149 0
152 148 0
154 149 0
153 149 0
155 150 0
150 146 0
152 146 0
155 149 0
154 150 0
153 148 0
152 148 0
153 149 0
154 151 0
154 150 0
155 151 0
152 148 0
152 148 0
154 150 0
154 150 0
153 150 0
154 150 0
154 149 0
152 149 0
156 151 0
153 149 0
154 150 0
153 149 0
155 151 0
154 150 0
156 151 0
154 174 0
154 174 0
156 176 0
152 172 0
155 176 0
153 173 0
153 173 0
153 174 0
154 174 0
152 172 0
154 175 0
154 175 0
154 175 0
154 174 0
153 172 0
151 172 0
153 174 0
155 176 0
153 173 0
151 171 0
153 174 0
153 173 0
154 173 0
152 173 0
153 174 0
152 172 0
150 170 0
151 169 0
153 171 0
153 172 0
151 169 0
152 170 0
153 174 0
151 170 0
150 169 0
152 172 0
154 174 0
152 171 0
153 172 0
153 171 0
151 170 0
152 171 0
150 168 0
151 171 0
149 167 0
149 166 0
150 169 0
151 169 0
152 170 0
150 169 0
151 169 0
150 166 0
147 162 0
152 169 0
148 165 0
152 172 0
151 168 0
150 166 0
149 166 0
150 168 0
151 169 0
148 164 0
150 169 0
149 165 0
149 166 0
148 165 0
151 167 0
147 163 0
146 163 0
147 162 0
148 165 0
149 166 0
150 168 0
145 161 0
147 165 0
146 161 0
145 161 0
146 161 0
148 162 0
147 162 0
144 157 0
144 159 0
144 157 0
147 159 0
143 157 0
145 157 0
143 154 0
142 155 0
142 151 0
144 157 0
146 159 0
140 149 0
139 149 0
140 146 0
140 150 0
139 148 0
139 146 0
140 147 0
140 148 0
138 145 0
137 145 0
138 146 0
139 146 0
135 139 0
133 136 0
134 138 0
124 119 0
130 131 0
132 137 0
132 132 0
127 127 0
123 122 0
126 125 0
133 133 0
125 123 0
122 119 0
122 115 0
113 108 0
122 115 0
112 104 0
118 111 0
112 104 0
115 109 0
120 116 0
115 106 0
121 117 0
121 119 0
123 124 0
131 132 0
127 127 0
129 131 0
130 132 0
133 136 0
134 139 0
143 153 0
144 154 0
143 155 0
138 147 0
146 160 0
152 172 0
154 146 55
148 105 85
150 108 92
152 109 84
148 107 75
151 109 81
153 109 91
148 108 81
151 109 81
151 110 81
155 111 93
156 112 97
150 108 81
151 108 80
155 112 93
152 109 89
152 109 87
154 111 87
153 110 86
153 109 80
155 111 87
156 113 90
154 111 86
156 112 90
153 110 91
158 113 93
151 109 82
156 112 92
153 111 81
158 114 102
155 111 87
156 113 91
155 110 90
158 113 95
158 113 96
155 111 95
156 112 94
156 112 97
156 112 100
156 113 97
156 113 89
154 111 87
159 115 102
155 112 85
154 111 87
156 112 86
156 111 90
153 111 84
156 113 90
157 113 95
156 112 88
155 112 94
155 111 87
157 113 89
154 112 87
156 112 89
157 112 95
158 113 93
150 108 80
157 114 96
159 114 100
160 114 105
156 112 93
155 111 91
159 115 101
154 111 89
154 110 80
156 113 86
158 115 90
154 111 89
153 110 87
151 108 81
155 112 86
156 112 97
154 110 86
156 112 87
155 112 91
154 110 93
154 111 89
155 112 84
156 112 87
158 114 90
158 114 93
156 111 94
156 113 90
154 110 86
159 114 101
154 111 88
156 111 94
157 113 91
155 112 93
158 114 96
154 110 88
156 111 88
151 108 80
156 113 95
155 112 93
154 110 86
156 113 88
151 106 78
153 110 82
153 109 84
155 111 84
150 106 84
152 109 89
153 110 91
148 105 78
153 109 88
153 109 84
152 108 83
154 109 92
155 110 92
152 109 85
152 108 86
152 106 83
152 107 90
146 101 71
148 104 74
156 145 52
153 149 0
148 139 0
143 132 0
142 132 0
140 126 0
136 121 0
134 115 0
133 113 0
132 115 0
129 107 0
120 99 0
126 102 0
122 102 0
124 103 0
120 95 0
112 83 0
117 91 0
117 91 0
119 91 0
118 92 0
109 80 0
118 96 0
117 92 0
119 95 0
122 101 0
124 103 0
125 100 0
130 106 0
127 109 0
124 103 0
129 108 0
129 107 0
130 112 0
131 108 0
129 112 0
131 114 0
137 123 0
137 120 0
135 120 0
139 126 0
133 118 0
138 123 0
140 129 0
141 128 0
137 125 0
143 132 0
141 128 0
141 128 0
141 126 0
140 127 0
147 138 0
142 132 0
145 138 0
146 137 0
142 131 0
142 130 0
144 135 0
144 135 0
146 136 0
140 125 0
144 133 0
145 134 0
145 136 0
145 136 0
147 141 0
146 139 0
145 137 0
147 138 0
149 142 0
148 139 0
149 141 0
144 135 0
147 140 0
146 139 0
148 141 0
149 142 0
150 145 0
149 141 0
146 138 0
150 141 0
152 147 0
152 144 0
151 145 0
150 142 0
148 142 0
150 145 0
150 142 0
150 145 0
150 145 0
151 146 0
150 145 0
153 148 0
151 145 0
152 145 0
152 146 0
147 141 0
149 141 0
152 146 0
152 148 0
151 146 0
152 146 0
148 142 0
152 148 0
153 148 0
152 148 0
152 147 0
152 148 0
153 148 0
152 146 0
153 149 0
154 150 0
153 148 0
151 145 0
152 148 0
150 146 0
153 147 0
153 148 0
153 149 0
152 148 0
150 146 0
154 150 0
154 150 0
152 149 0
153 150 0
152 148 0
152 147 0
152 148 0
154 149 0
153 149 0
153 148 0
154 150 0
154 150 0
154 150 0
153 149 0
153 149 0
152 149 0
155 151 0
153 150 0
153 150 0
155 152 0
153 150 0
156 176 0
154 175 0
153 172 0
153 172 0
152 171 0
153 172 0
153 173 0
154 175 0
154 174 0
154 174 0
156 176 0
154 174 0
153 172 0
153 173 0
154 174 0
153 171 0
151 173 0
154 174 0
154 174 0
153 174 0
151 169 0
151 170 0
152 173 0
152 171 0
150 169 0
153 172 0
154 174 0
153 171 0
153 173 0
151 170 0
151 171 0
153 173 0
151 172 0
152 172 0
153 173 0
154 174 0
153 170 0
152 171 0
152 171 0
151 169 0
152 172 0
152 170 0
151 169 0
152 171 0
151 169 0
151 170 0
150 170 0
150 168 0
150 168 0
150 167 0
150 168 0
150 169 0
149 167 0
148 166 0
149 167 0
149 166 0
150 169 0
150 168 0
148 164 0
149 168 0
149 166 0
150 166 0
150 169 0
151 168 0
150 167 0
147 165 0
150 168 0
150 166 0
147 165 0
148 166 0
144 161 0
149 166 0
148 163 0
147 161 0
146 158 0
147 161 0
145 158 0
147 165 0
145 160 0
146 159 0
143 156 0
149 164 0
147 163 0
147 162 0
145 159 0
143 156 0
143 152 0
144 156 0
142 152 0
139 150 0
139 151 0
144 158 0
143 153 0
144 156 0
140 148 0
139 146 0
137 142 0
140 148 0
136 142 0
137 141 0
132 134 0
136 140 0
138 144 0
135 139 0
132 133 0
128 129 0
135 139 0
134 135 0
133 134 0
132 133 0
128 129 0
119 113 0
124 123 0
126 125 0
132 134 0
123 123 0
119 113 0
122 117 0
127 126 0
120 116 0
113 106 0
114 105 0
117 110 0
121 116 0
119 115 0
124 118 0
124 119 0
119 116 0
126 126 0
128 129 0
127 131 0
135 140 0
132 133 0
136 141 0
136 144 0
141 154 0
141 155 0
146 160 0
148 162 0
164 185 0
168 183 33
149 110 76
146 105 78
146 105 76
152 108 86
152 109 88
152 109 83
152 109 87
148 106 84
157 113 100
150 108 81
154 111 87
153 110 94
155 112 89
156 112 93
152 109 91
154 110 93
154 112 88
156 112 91
151 109 76
153 111 91
156 112 95
153 109 91
157 113 94
155 112 86
155 110 93
152 109 83
157 113 90
157 114 90
154 111 94
157 113 98
152 109 85
159 114 100
156 113 86
160 115 98
156 112 95
155 112 84
156 112 93
155 111 89
155 112 87
156 113 90
154 111 84
156 113 91
162 116 105
156 112 97
155 111 86
156 113 93
154 111 87
158 113 98
154 111 87
154 110 87
155 112 90
154 111 86
157 114 90
155 112 87
154 111 86
154 110 84
156 113 89
154 112 93
157 113 90
156 112 88
155 112 94
156 112 94
153 111 80
154 110 89
154 111 91
154 111 88
154 111 89
152 109 86
154 110 88
156 113 84
155 112 89
151 108 79
157 113 96
154 111 88
156 112 93
156 113 96
155 112 89
157 112 96
156 112 95
156 112 90
152 109 82
153 110 88
152 109 86
155 112 88
153 109 82
154 109 90
153 110 80
152 110 85
154 110 87
156 111 91
157 113 98
156 112 95
157 112 97
157 112 97
153 110 79
152 108 87
160 115 101
154 110 91
152 110 85
154 110 86
154 109 87
151 108 81
151 107 87
151 107 86
152 108 88
150 107 83
153 108 85
153 109 85
151 107 78
151 107 86
151 107 85
153 109 95
150 107 83
150 106 79
149 105 77
145 101 69
144 100 69
164 177 28
160 166 0
147 140 0
147 136 0
145 134 0
139 124 0
145 135 0
141 127 0
132 116 0
133 115 0
129 110 0
131 114 0
120 97 0
124 99 0
122 98 0
122 100 0
119 95 0
114 90 0
126 103 0
114 88 0
123 100 0
121 96 0
120 96 0
122 97 0
118 94 0
124 102 0
122 97 0
120 96 0
126 105 0
128 107 0
124 102 0
123 101 0
130 111 0
127 102 0
131 115 0
132 113 0
134 117 0
136 117 0
130 111 0
135 121 0
135 122 0
139 125 0
135 120 0
137 122 0
142 129 0
144 133 0
139 126 0
143 131 0
141 128 0
137 123 0
141 128 0
138 125 0
143 130 0
145 133 0
143 131 0
144 134 0
142 130 0
142 129 0
145 133 0
145 137 0
141 128 0
145 137 0
143 134 0
147 138 0
146 136 0
144 136 0
146 135 0
148 141 0
147 140 0
147 140 0
146 137 0
148 142 0
151 146 0
148 142 0
150 142 0
150 141 0
146 137 0
150 141 0
150 144 0
147 140 0
148 141 0
149 143 0
148 142 0
153 148 0
147 140 0
151 145 0
149 143 0
148 139 0
152 147 0
147 140 0
150 144 0
148 141 0
148 141 0
152 147 0
150 146 0
149 142 0
147 141 0
154 148 0
151 147 0
151 147 0
152 147 0
151 143 0
152 147 0
153 150 0
151 145 0
153 148 0
152 148 0
152 148 0
152 148 0
151 145 0
153 149 0
151 147 0
153 149 0
153 150 0
153 148 0
150 146 0
152 149 0
153 149 0
153 149 0
151 147 0
153 147 0
155 151 0
154 148 0
153 149 0
153 149 0
150 144 0
153 150 0
155 151 0
154 150 0
152 149 0
154 149 0
154 150 0
154 150 0
153 148 0
153 149 0
153 150 0
152 150 0
152 149 0
153 150 0
153 150 0
154 150 0
155 151 0
154 174 0
155 175 0
153 174 0
155 175 0
153 174 0
154 174 0
153 173 0
152 173 0
153 173 0
152 173 0
152 172 0
153 174 0
154 175 0
153 172 0
152 172 0
155 173 0
152 173 0
154 174 0
153 171 0
152 172 0
153 173 0
153 174 0
152 173 0
155 174 0
152 173 0
152 172 0
149 167 0
152 172 0
152 172 0
149 168 0
150 169 0
152 172 0
153 173 0
151 171 0
150 171 0
154 175 0
151 170 0
152 171 0
150 166 0
152 170 0
151 170 0
152 171 0
150 168 0
152 171 0
152 172 0
150 169 0
149 166 0
150 171 0
151 170 0
152 169 0
151 171 0
150 170 0
151 169 0
151 171 0
153 171 0
145 161 0
150 169 0
150 167 0
151 169 0
147 165 0
149 166 0
151 170 0
152 169 0
147 163 0
148 162 0
148 166 0
149 166 0
149 167 0
148 162 0
150 168 0
147 163 0
148 164 0
147 162 0
146 160 0
146 161 0
144 157 0
147 162 0
146 160 0
146 162 0
144 157 0
140 153 0
145 159 0
143 157 0
143 154 0
140 151 0
144 157 0
148 162 0
136 142 0
143 154 0
143 155 0
141 148 0
143 154 0
140 152 0
139 148 0
141 152 0
132 134 0
136 144 0
137 144 0
142 151 0
131 133 0
135 140 0
137 144 0
139 145 0
133 138 0
138 146 0
133 134 0
135 139 0
129 129 0
131 133 0
126 122 0
122 119 0
121 118 0
125 123 0
126 126 0
129 130 0
123 118 0
125 121 0
119 113 0
127 126 0
119 114 0
122 122 0
116 112 0
122 118 0
129 128 0
121 116 0
125 126 0
125 127 0
124 121 0
129 132 0
130 130 0
134 136 0
125 125 0
127 129 0
141 149 0
137 146 0
145 160 0
140 149 0
148 162 0
155 175 0
172 196 0
171 195 0
151 136 57
147 105 85
144 103 71
147 105 71
150 108 84
156 113 97
150 107 82
149 106 82
147 105 82
154 111 89
153 111 81
153 109 93
153 109 93
154 111 93
157 112 93
150 109 74
153 110 87
155 111 91
151 109 86
153 110 86
155 112 84
156 112 92
150 108 79
151 110 85
155 111 91
155 112 91
152 109 82
155 112 86
158 114 95
154 111 92
155 111 88
153 110 89
152 110 84
156 113 91
158 113 95
155 111 89
157 113 94
155 112 85
154 110 88
152 109 81
157 114 95
156 112 94
159 114 96
159 115 102
155 112 81
153 110 85
153 111 82
155 111 88
160 115 97
154 112 80
154 111 84
154 110 85
152 109 85
158 114 96
157 114 86
157 113 89
154 110 91
156 112 93
157 113 89
153 110 80
156 112 85
158 113 95
154 110 82
156 113 88
158 114 90
158 113 93
158 114 96
152 109 79
155 111 93
154 110 84
154 112 81
152 110 84
154 111 88
153 110 89
156 113 93
159 113 99
156 111 93
156 113 95
154 111 82
154 111 86
154 110 87
154 111 84
156 112 97
154 111 90
156 112 91
153 110 83
158 113 95
152 110 84
152 108 78
150 106 87
157 112 93
157 111 90
153 110 82
150 107 83
157 114 91
155 111 88
155 111 87
150 108 85
151 108 80
153 108 93
154 110 88
154 109 90
150 108 88
155 111 89
151 107 82
150 106 82
151 107 82
156 112 93
154 111 86
150 107 79
151 107 88
149 104 81
152 106 89
149 105 73
150 106 76
146 102 86
156 142 52
171 192 0
173 194 0
156 158 0
144 136 0
141 129 0
139 124 0
135 119 0
136 121 0
137 120 0
129 111 0
125 104 0
129 111 0
129 110 0
128 107 0
117 93 0
129 109 0
121 99 0
120 96 0
122 101 0
119 94 0
117 92 0
116 94 0
117 91 0
115 90 0
121 97 0
126 102 0
124 103 0
125 101 0
124 104 0
126 107 0
128 108 0
128 109 0
134 120 0
133 113 0
130 113 0
129 109 0
132 115 0
139 125 0
134 117 0
136 121 0
137 121 0
137 120 0
138 124 0
135 118 0
137 123 0
142 129 0
139 124 0
139 125 0
144 131 0
136 121 0
143 131 0
143 131 0
145 134 0
146 134 0
141 130 0
143 133 0
143 134 0
142 132 0
146 137 0
147 138 0
148 140 0
148 139 0
143 133 0
147 137 0
148 138 0
147 140 0
149 142 0
149 141 0
147 136 0
146 136 0
145 136 0
149 143 0
147 141 0
145 137 0
149 142 0
150 141 0
146 136 0
148 140 0
152 147 0
147 138 0
146 138 0
149 141 0
150 143 0
153 148 0
150 145 0
148 141 0
148 140 0
149 141 0
149 141 0
149 143 0
152 146 0
150 145 0
149 142 0
151 145 0
153 147 0
149 144 0
148 142 0
152 146 0
152 146 0
151 145 0
152 147 0
149 143 0
152 146 0
150 143 0
148 142 0
152 147 0
152 146 0
154 149 0
151 145 0
152 147 0
151 147 0
153 149 0
153 148 0
152 148 0
154 149 0
150 146 0
152 148 0
152 148 0
152 148 0
151 146 0
151 147 0
151 146 0
151 146 0
152 148 0
152 149 0
151 146 0
152 149 0
153 149 0
153 149 0
153 150 0
153 149 0
152 147 0
154 150 0
155 150 0
155 152 0
154 150 0
154 151 0
153 149 0
153 150 0
153 149 0
154 150 0
154 150 0
154 175 0
153 173 0
154 174 0
155 175 0
152 172 0
151 171 0
153 174 0
153 173 0
154 174 0
152 171 0
154 173 0
152 172 0
155 175 0
152 171 0
154 175 0
153 172 0
154 174 0
153 173 0
153 172 0
152 171 0
152 172 0
154 174 0
154 174 0
154 174 0
151 171 0
152 171 0
152 172 0
154 174 0
149 168 0
151 172 0
150 168 0
149 166 0
151 171 0
154 174 0
151 170 0
152 172 0
151 170 0
150 169 0
149 169 0
151 171 0
149 168 0
151 169 0
148 164 0
149 167 0
148 165 0
149 167 0
150 168 0
151 169 0
150 166 0
149 168 0
149 168 0
152 171 0
149 167 0
147 165 0
149 167 0
150 168 0
148 167 0
150 168 0
149 166 0
148 164 0
151 168 0
148 166 0
148 164 0
149 167 0
150 168 0
148 165 0
148 163 0
148 165 0
145 157 0
146 162 0
146 161 0
149 164 0
146 161 0
147 163 0
144 157 0
145 162 0
143 157 0
146 162 0
145 161 0
144 156 0
145 157 0
147 162 0
145 162 0
142 156 0
141 150 0
139 149 0
143 156 0
139 149 0
141 153 0
138 149 0
142 153 0
141 153 0
144 154 0
139 148 0
137 143 0
140 150 0
137 147 0
138 146 0
135 139 0
133 138 0
132 138 0
133 134 0
133 138 0
137 143 0
138 143 0
133 136 0
133 135 0
131 134 0
131 134 0
127 128 0
126 126 0
127 125 0
127 124 0
126 125 0
125 121 0
120 116 0
119 113 0
127 127 0
121 117 0
124 121 0
127 128 0
124 121 0
118 113 0
124 123 0
121 120 0
118 116 0
132 136 0
131 132 0
129 128 0
127 131 0
129 133 0
135 142 0
134 141 0
136 140 0
137 145 0
142 155 0
143 156 0
152 171 0
170 193 0
170 192 0
170 194 0
167 182 37
146 104 76
151 108 78
150 108 83
153 110 90
153 109 92
152 109 82
152 108 82
149 107 80
149 107 81
151 108 82
151 107 89
149 107 83
153 110 86
155 111 97
152 108 89
151 107 79
157 113 94
153 109 82
155 111 95
161 116 106
154 111 84
161 115 99
152 109 87
153 110 81
156 111 86
155 113 89
156 112 93
158 114 94
157 112 97
150 109 78
155 111 93
156 113 86
156 112 88
156 111 88
160 115 102
156 112 90
155 111 90
155 112 88
157 114 87
155 112 86
154 111 81
155 111 91
151 109 80
154 110 88
154 110 86
155 112 85
156 111 98
155 111 86
155 111 91
153 111 84
157 112 93
156 112 96
157 114 97
154 110 88
158 114 93
158 112 97
157 113 93
153 110 86
155 112 88
150 108 86
155 111 87
151 108 82
155 111 87
156 112 86
157 113 94
158 114 94
156 112 96
156 112 88
152 111 81
152 109 82
155 112 88
157 113 93
155 112 85
155 111 96
157 113 96
154 112 82
155 112 88
155 111 88
151 109 84
153 110 82
155 111 86
154 111 88
153 109 84
155 111 87
154 110 86
151 109 78
152 109 82
153 109 81
153 110 81
157 112 95
156 112 91
153 110 84
151 109 79
150 107 81
154 111 80
153 108 87
155 112 88
152 108 85
156 112 90
154 109 84
150 107 78
147 105 79
152 108 91
153 110 87
150 106 77
153 109 81
153 108 85
153 109 92
149 106 74
147 102 77
151 108 82
150 105 85
148 104 74
148 104 76
142 99 61
166 178 29
170 193 0
171 193 0
172 190 0
151 146 0
143 132 0
140 129 0
144 129 0
138 125 0
135 116 0
134 117 0
131 113 0
126 107 0
124 100 0
128 108 0
133 112 0
121 99 0
121 98 0
120 95 0
125 103 0
123 101 0
121 99 0
124 104 0
128 106 0
121 99 0
125 104 0
127 106 0
128 106 0
126 104 0
129 105 0
128 105 0
124 105 0
129 111 0
132 114 0
127 106 0
131 112 0
133 113 0
133 117 0
128 112 0
135 120 0
129 110 0
135 121 0
144 132 0
137 124 0
137 121 0
134 122 0
137 123 0
138 125 0
142 132 0
143 129 0
141 128 0
145 134 0
141 130 0
143 133 0
145 132 0
143 130 0
144 134 0
146 135 0
147 137 0
143 132 0
144 135 0
145 137 0
141 130 0
143 132 0
140 130 0
144 135 0
147 138 0
145 136 0
147 140 0
146 134 0
147 138 0
149 141 0
149 140 0
148 139 0
146 136 0
148 142 0
150 141 0
150 143 0
145 137 0
147 141 0
148 140 0
147 138 0
149 142 0
148 139 0
148 141 0
147 140 0
152 146 0
151 145 0
149 141 0
149 143 0
150 143 0
151 145 0
150 144 0
155 149 0
151 146 0
147 140 0
151 146 0
150 141 0
150 145 0
150 145 0
152 145 0
148 141 0
149 144 0
150 145 0
151 147 0
151 145 0
150 143 0
151 145 0
149 143 0
151 145 0
151 146 0
151 145 0
152 147 0
154 150 0
150 145 0
152 148 0
151 147 0
152 148 0
153 148 0
152 148 0
154 148 0
154 150 0
148 142 0
152 147 0
153 149 0
151 146 0
152 148 0
156 152 0
154 150 0
150 146 0
153 149 0
154 149 0
152 149 0
154 150 0
154 150 0
152 148 0
153 149 0
154 149 0
155 150 0
153 149 0
153 149 0
153 150 0
154 150 0
153 173 0
153 174 0
151 171 0
155 175 0
154 174 0
154 175 0
154 174 0
153 174 0
155 175 0
153 174 0
152 173 0
152 171 0
153 173 0
153 173 0
151 171 0
153 173 0
154 173 0
153 173 0
151 171 0
153 174 0
152 172 0
153 173 0
152 171 0
153 172 0
152 172 0
151 168 0
151 170 0
150 169 0
152 171 0
154 173 0
150 169 0
151 171 0
151 171 0
151 170 0
151 172 0
151 170 0
151 170 0
153 173 0
150 168 0
151 171 0
151 171 0
154 173 0
150 169 0
152 170 0
147 165 0
149 166 0
149 168 0
151 171 0
149 169 0
150 167 0
147 165 0
151 170 0
151 168 0
151 169 0
149 163 0
148 165 0
148 165 0
152 171 0
152 171 0
149 166 0
148 166 0
149 165 0
150 167 0
148 165 0
149 167 0
146 162 0
146 161 0
147 162 0
145 161 0
144 157 0
147 161 0
145 157 0
147 161 0
146 163 0
145 159 0
143 156 0
143 156 0
144 160 0
144 159 0
146 159 0
142 154 0
146 162 0
142 152 0
145 156 0
142 153 0
143 159 0
143 156 0
143 159 0
144 158 0
144 155 0
141 150 0
141 153 0
136 143 0
138 146 0
143 155 0
143 154 0
140 151 0
138 144 0
132 138 0
137 145 0
135 137 0
137 141 0
134 138 0
136 144 0
132 137 0
129 129 0
136 141 0
133 138 0
132 134 0
135 138 0
127 132 0
125 127 0
132 136 0
124 121 0
124 123 0
128 126 0
123 118 0
121 118 0
127 130 0
125 121 0
125 125 0
123 122 0
115 108 0
120 116 0
126 127 0
127 128 0
128 130 0
127 126 0
131 136 0
128 129 0
134 141 0
136 145 0
138 147 0
142 151 0
145 159 0
144 159 0
146 162 0
169 190 0
170 191 0
169 191 0
171 193 0
167 190 0
155 145 60
140 99 64
140 100 74
147 106 72
153 109 86
149 105 88
146 105 71
155 112 84
152 110 86
150 108 82
156 111 88
149 107 84
152 108 89
154 110 87
152 109 89
152 109 87
156 112 91
149 108 73
155 112 91
152 109 83
150 107 82
158 113 94
157 112 98
157 112 90
149 108 76
158 113 96
156 112 91
151 109 79
152 109 84
155 111 86
155 112 93
156 111 91
158 115 100
151 109 81
158 113 96
154 110 88
157 113 93
156 113 93
155 111 94
151 109 79
152 109 85
157 112 95
153 110 90
156 112 91
155 112 90
158 115 91
153 110 81
157 113 94
156 112 87
154 110 87
155 113 85
155 111 88
150 107 81
151 109 76
156 112 88
154 111 81
155 111 85
157 113 94
153 110 85
155 111 86
153 111 80
155 111 94
156 111 90
154 110 90
156 111 95
154 110 88
155 111 90
159 113 98
157 111 97
153 110 84
154 109 89
156 112 95
157 113 93
155 111 90
154 112 84
156 111 87
155 110 88
154 110 85
157 113 94
156 112 99
158 113 95
153 111 84
147 105 75
158 114 95
154 111 88
154 109 87
154 111 88
156 111 93
152 109 83
152 109 83
155 111 93
153 110 85
153 109 84
159 113 100
155 111 94
155 110 91
155 110 88
154 110 84
153 108 87
151 109 83
147 105 77
150 107 82
157 113 96
155 110 88
150 107 86
147 104 74
154 110 80
151 107 77
154 110 89
145 102 63
147 103 70
153 107 89
149 105 76
143 98 66
157 142 55
169 187 0
169 188 0
172 191 0
169 189 0
168 187 0
148 144 0
142 129 0
140 124 0
138 124 0
135 120 0
129 107 0
130 112 0
128 108 0
129 107 0
127 106 0
127 107 0
128 108 0
121 97 0
125 102 0
126 104 0
123 103 0
123 101 0
121 97 0
120 94 0
117 95 0
123 103 0
121 99 0
129 110 0
131 112 0
130 108 0
127 108 0
130 111 0
129 109 0
132 115 0
133 116 0
134 120 0
135 119 0
141 126 0
137 122 0
133 115 0
133 114 0
139 123 0
131 111 0
134 118 0
142 127 0
139 128 0
143 132 0
141 127 0
135 121 0
139 123 0
137 125 0
138 125 0
140 129 0
143 132 0
142 128 0
142 132 0
144 134 0
142 131 0
142 131 0
147 138 0
146 138 0
145 137 0
146 138 0
143 131 0
142 131 0
140 129 0
143 133 0
147 139 0
143 131 0
146 137 0
144 133 0
148 140 0
144 134 0
144 134 0
146 138 0
144 134 0
150 144 0
150 143 0
146 138 0
146 140 0
149 142 0
146 138 0
149 141 0
147 140 0
146 138 0
151 143 0
147 141 0
146 139 0
149 141 0
149 143 0
147 139 0
150 145 0
150 144 0
150 141 0
151 145 0
151 146 0
149 144 0
149 143 0
149 142 0
148 142 0
153 147 0
150 144 0
151 147 0
150 145 0
150 145 0
151 145 0
147 142 0
151 146 0
150 144 0
151 145 0
150 144 0
150 144 0
152 148 0
152 146 0
151 146 0
153 148 0
153 148 0
153 147 0
154 149 0
151 145 0
154 149 0
153 148 0
154 149 0
152 147 0
154 149 0
153 146 0
152 147 0
151 146 0
152 147 0
150 145 0
154 149 0
153 149 0
154 151 0
152 147 0
153 148 0
153 149 0
153 149 0
154 150 0
151 148 0
154 150 0
154 149 0
153 150 0
153 150 0
154 175 0
153 173 0
154 174 0
152 173 0
152 173 0
151 172 0
152 172 0
153 173 0
153 173 0
154 173 0
153 173 0
153 173 0
155 175 0
150 170 0
154 174 0
151 171 0
153 173 0
152 172 0
152 171 0
153 173 0
151 172 0
152 171 0
151 170 0
150 168 0
152 171 0
152 171 0
149 167 0
150 169 0
151 170 0
152 171 0
150 169 0
151 170 0
150 168 0
150 169 0
151 171 0
150 168 0
150 171 0
154 174 0
150 170 0
149 166 0
151 169 0
150 170 0
151 169 0
150 169 0
149 166 0
149 168 0
151 168 0
150 170 0
150 167 0
150 170 0
150 168 0
149 167 0
151 168 0
149 165 0
148 163 0
146 159 0
149 165 0
147 161 0
148 165 0
151 167 0
149 168 0
148 163 0
145 163 0
148 165 0
147 164 0
145 161 0
145 161 0
143 159 0
148 165 0
148 164 0
144 159 0
148 164 0
146 159 0
145 158 0
144 160 0
141 155 0
145 159 0
142 154 0
140 152 0
142 155 0
142 156 0
144 160 0
143 157 0
142 156 0
141 154 0
141 151 0
138 147 0
142 153 0
140 153 0
141 151 0
140 148 0
145 155 0
140 151 0
138 143 0
139 147 0
136 143 0
139 151 0
137 144 0
136 145 0
133 140 0
136 143 0
133 137 0
133 137 0
134 142 0
124 127 0
131 134 0
131 134 0
135 142 0
127 127 0
126 124 0
127 131 0
129 130 0
125 122 0
131 132 0
127 130 0
131 132 0
125 121 0
125 123 0
123 121 0
118 118 0
127 128 0
112 106 0
128 126 0
120 117 0
122 119 0
124 125 0
124 127 0
121 118 0
131 135 0
132 138 0
133 137 0
135 140 0
133 139 0
137 147 0
141 152 0
147 162 0
166 187 0
168 189 0
170 191 0
171 192 0
166 185 0
170 189 0
166 181 24
144 106 70
144 102 74
147 105 80
152 110 81
146 104 72
143 102 64
148 107 77
153 111 84
146 105 78
150 108 78
153 110 87
151 109 85
154 110 87
150 108 79
153 110 84
148 106 70
154 111 88
152 109 82
155 111 93
150 107 85
155 112 86
153 110 85
151 109 85
155 110 87
158 114 98
155 111 88
152 108 81
151 110 78
155 111 90
155 111 91
153 110 88
153 111 88
156 111 86
158 114 97
153 110 84
152 109 80
157 113 95
154 111 87
153 109 88
153 109 84
154 110 85
155 111 87
153 110 86
155 112 90
152 110 74
155 112 87
154 110 87
156 111 91
160 115 99
153 110 82
155 111 88
157 112 95
156 111 96
156 113 98
154 110 87
155 112 80
155 112 89
151 109 78
156 112 82
157 113 91
156 112 90
155 112 88
156 112 93
156 113 91
151 109 82
156 112 96
157 113 91
154 109 89
155 111 94
155 111 91
159 114 95
154 112 88
155 110 91
151 108 79
154 110 84
153 111 79
155 111 93
151 108 80
158 111 91
156 111 91
154 111 88
152 110 81
155 111 84
154 110 87
157 113 89
154 112 79
155 111 87
155 110 86
153 110 95
154 110 88
156 111 95
153 108 84
153 109 78
151 108 79
148 105 77
150 107 78
154 109 85
152 109 80
154 109 90
154 111 88
154 109 91
151 108 87
153 109 88
152 109 79
149 106 74
144 101 69
148 104 85
151 105 88
153 109 93
149 104 79
147 102 73
146 102 77
143 102 52
167 179 31
169 189 0
172 193 0
173 194 0
170 188 0
170 193 0
165 179 0
149 141 0
141 129 0
138 124 0
135 119 0
139 123 0
133 115 0
128 108 0
134 117 0
125 104 0
128 110 0
125 102 0
130 113 0
127 104 0
124 105 0
120 101 0
126 106 0
116 91 0
133 114 0
122 98 0
127 104 0
126 109 0
126 105 0
127 107 0
126 106 0
121 100 0
130 111 0
129 110 0
121 102 0
130 113 0
137 122 0
131 114 0
136 120 0
135 120 0
143 129 0
132 115 0
138 123 0
133 116 0
138 123 0
138 125 0
145 132 0
136 122 0
138 124 0
142 129 0
139 124 0
140 125 0
139 125 0
137 124 0
143 131 0
143 128 0
141 127 0
145 137 0
142 132 0
145 133 0
142 130 0
147 140 0
141 132 0
145 136 0
144 134 0
142 133 0
144 133 0
146 136 0
148 140 0
147 139 0
146 138 0
143 133 0
147 137 0
147 139 0
145 135 0
146 137 0
148 141 0
146 135 0
146 136 0
146 138 0
150 143 0
150 142 0
146 138 0
146 137 0
149 143 0
149 142 0
148 140 0
147 139 0
151 142 0
152 145 0
150 144 0
147 139 0
149 141 0
149 141 0
150 143 0
149 143 0
150 144 0
151 145 0
150 144 0
149 140 0
151 146 0
150 143 0
149 143 0
153 146 0
150 144 0
149 144 0
150 143 0
150 143 0
152 144 0
151 145 0
151 144 0
150 144 0
152 146 0
149 143 0
151 143 0
155 149 0
152 147 0
150 145 0
152 146 0
151 145 0
153 149 0
151 146 0
155 151 0
154 148 0
152 147 0
151 145 0
153 148 0
153 148 0
150 147 0
152 146 0
153 149 0
150 145 0
152 146 0
154 150 0
153 149 0
155 150 0
151 148 0
155 151 0
153 148 0
153 149 0
153 149 0
154 149 0
154 149 0
153 149 0
152 174 0
153 173 0
153 174 0
152 171 0
155 175 0
153 173 0
154 174 0
154 174 0
154 174 0
153 173 0
151 170 0
152 172 0
154 174 0
151 171 0
151 170 0
151 170 0
153 173 0
154 173 0
153 173 0
151 171 0
151 171 0
154 173 0
152 172 0
152 171 0
153 173 0
151 172 0
151 170 0
150 170 0
150 169 0
152 172 0
152 171 0
151 169 0
152 170 0
152 170 0
151 169 0
150 169 0
151 171 0
151 171 0
149 168 0
150 170 0
149 169 0
151 169 0
147 165 0
150 168 0
149 166 0
150 169 0
150 167 0
148 167 0
147 162 0
149 164 0
148 164 0
147 164 0
147 163 0
147 165 0
152 171 0
149 167 0
147 163 0
148 165 0
143 160 0
146 161 0
148 165 0
149 166 0
148 165 0
146 162 0
148 164 0
146 160 0
143 159 0
143 157 0
146 161 0
146 161 0
145 161 0
145 160 0
147 164 0
143 157 0
143 156 0
144 157 0
146 162 0
143 158 0
142 155 0
142 155 0
143 157 0
144 159 0
142 153 0
142 149 0
140 150 0
137 146 0
142 156 0
138 150 0
141 150 0
138 149 0
141 151 0
141 151 0
138 148 0
131 140 0
136 146 0
141 151 0
139 150 0
132 135 0
135 144 0
135 140 0
130 137 0
134 141 0
132 138 0
133 138 0
134 139 0
129 132 0
133 138 0
133 136 0
132 137 0
124 126 0
126 127 0
127 125 0
130 131 0
123 126 0
125 125 0
121 119 0
125 125 0
124 123 0
129 132 0
128 128 0
123 122 0
127 130 0
122 121 0
126 127 0
128 131 0
123 118 0
125 128 0
130 131 0
129 133 0
132 138 0
124 125 0
134 142 0
143 155 0
140 152 0
144 159 0
163 182 0
169 188 0
169 190 0
167 188 0
167 189 0
171 191 0
171 192 0
170 193 0
156 145 61
146 105 75
141 100 69
148 106 81
151 109 85
150 107 80
149 107 80
147 105 72
153 110 88
151 109 81
149 108 75
151 108 83
152 109 82
152 109 85
152 109 84
154 111 86
150 108 80
154 110 85
153 110 92
149 107 73
153 110 83
153 109 87
153 110 87
155 111 87
149 108 75
153 110 85
153 109 87
154 110 83
154 111 89
156 112 89
154 111 91
154 111 85
150 107 76
155 112 88
160 116 95
152 110 84
154 111 88
152 109 85
152 109 86
153 110 86
148 106 68
155 111 90
156 111 95
155 112 88
154 112 85
151 108 79
154 111 85
156 112 94
156 111 91
157 112 91
155 111 89
152 108 80
154 110 86
154 111 87
151 108 78
149 107 80
155 111 87
153 110 85
154 110 85
155 112 85
156 113 94
156 111 98
154 111 86
159 113 98
149 106 74
154 111 82
154 110 85
156 112 90
151 108 80
154 110 86
152 109 87
152 109 78
155 112 85
155 111 91
156 113 91
153 110 88
149 107 79
155 110 94
150 108 75
156 112 89
156 113 95
149 107 72
156 113 87
156 112 89
154 110 88
154 110 87
153 108 85
151 107 83
152 109 85
151 107 84
156 112 88
151 109 75
152 108 84
153 110 85
152 109 87
153 109 91
158 113 93
153 110 84
154 110 85
150 107 75
152 106 86
150 107 84
151 107 81
153 109 85
148 106 79
146 102 72
150 104 80
148 103 77
151 108 71
147 104 76
145 101 76
143 97 73
157 150 50
170 189 0
170 190 0
167 185 0
169 190 0
169 189 0
170 191 0
169 188 0
159 167 0
142 131 0
139 125 0
133 116 0
137 122 0
134 115 0
134 117 0
134 117 0
132 115 0
126 104 0
133 117 0
128 106 0
125 103 0
129 106 0
129 109 0
124 102 0
125 105 0
127 107 0
126 105 0
126 104 0
123 102 0
126 106 0
126 104 0
122 104 0
125 105 0
123 99 0
132 115 0
131 114 0
128 107 0
131 111 0
130 113 0
132 116 0
133 114 0
133 117 0
136 120 0
135 121 0
137 124 0
128 111 0
138 126 0
135 119 0
144 133 0
143 131 0
134 117 0
139 126 0
144 133 0
141 127 0
140 127 0
143 133 0
138 127 0
143 132 0
145 134 0
139 125 0
142 130 0
141 129 0
141 129 0
145 136 0
147 137 0
142 129 0
142 131 0
147 138 0
146 134 0
144 134 0
146 138 0
147 139 0
147 139 0
143 133 0
144 134 0
142 132 0
147 137 0
149 143 0
146 136 0
149 143 0
147 139 0
146 139 0
146 136 0
151 145 0
147 138 0
148 140 0
149 142 0
146 138 0
147 140 0
147 138 0
149 141 0
149 141 0
150 144 0
149 142 0
151 144 0
147 139 0
150 143 0
150 143 0
149 144 0
148 141 0
148 141 0
149 144 0
149 143 0
147 138 0
149 140 0
149 142 0
150 144 0
147 141 0
150 145 0
150 143 0
151 144 0
149 142 0
152 146 0
152 147 0
150 144 0
149 144 0
153 146 0
151 146 0
152 146 0
152 146 0
150 146 0
152 146 0
152 146 0
153 148 0
154 149 0
152 146 0
153 150 0
152 148 0
152 146 0
153 149 0
152 146 0
152 148 0
151 146 0
153 149 0
152 146 0
153 149 0
151 147 0
154 150 0
154 150 0
153 149 0
151 147 0
154 151 0
153 149 0
153 150 0
152 148 0
151 171 0
150 170 0
153 172 0
152 172 0
152 172 0
152 173 0
153 172 0
150 169 0
153 172 0
152 171 0
153 173 0
150 169 0
152 171 0
151 172 0
151 170 0
151 170 0
151 171 0
151 171 0
152 170 0
151 170 0
150 171 0
152 172 0
152 173 0
151 169 0
152 170 0
153 173 0
151 171 0
149 168 0
151 171 0
149 169 0
149 168 0
151 171 0
150 169 0
150 170 0
153 172 0
153 170 0
148 166 0
150 169 0
152 171 0
150 168 0
150 168 0
154 173 0
148 166 0
153 172 0
147 165 0
150 169 0
151 169 0
148 165 0
146 164 0
146 161 0
148 165 0
148 164 0
145 162 0
146 164 0
149 168 0
150 167 0
151 169 0
148 166 0
146 162 0
147 163 0
148 165 0
148 166 0
149 166 0
146 159 0
146 164 0
146 162 0
151 168 0
149 164 0
143 156 0
143 158 0
143 158 0
142 158 0
144 158 0
143 156 0
148 164 0
138 151 0
145 159 0
142 155 0
143 155 0
145 160 0
145 158 0
141 155 0
142 153 0
141 152 0
142 154 0
142 156 0
140 150 0
142 156 0
142 154 0
138 146 0
141 148 0
141 153 0
137 146 0
140 150 0
136 147 0
134 141 0
137 146 0
142 151 0
138 145 0
132 138 0
134 140 0
133 143 0
132 139 0
131 136 0
132 136 0
127 127 0
129 129 0
129 131 0
131 133 0
128 128 0
131 134 0
128 131 0
125 123 0
123 123 0
128 128 0
121 119 0
127 129 0
127 130 0
125 125 0
121 118 0
124 126 0
124 125 0
126 129 0
127 127 0
129 136 0
125 125 0
130 132 0
127 127 0
130 137 0
128 133 0
138 147 0
139 147 0
142 152 0
143 154 0
163 180 0
169 191 0
168 189 0
168 188 0
166 185 0
167 187 0
170 192 0
167 189 0
167 186 0
170 191 0
145 113 64
147 105 74
140 100 69
146 104 73
149 108 80
151 108 73
149 107 79
151 108 78
148 105 76
153 108 89
151 109 88
151 108 83
155 112 85
151 109 84
151 109 80
151 109 87
153 110 84
152 110 81
153 110 85
152 109 79
154 110 90
154 110 94
153 109 88
154 110 85
154 112 89
154 111 88
153 109 87
158 115 95
155 110 90
151 108 79
152 109 74
154 110 81
155 112 86
154 110 88
153 109 86
154 111 85
157 112 97
158 113 91
149 107 75
156 112 91
157 112 95
148 106 76
152 109 80
155 111 88
155 112 86
154 110 84
155 110 94
154 110 84
159 114 96
151 108 80
152 110 79
154 111 87
157 113 88
156 113 80
155 112 91
152 108 85
149 107 70
155 110 94
152 108 85
150 108 75
157 112 93
152 110 81
152 109 82
156 112 91
157 113 93
153 110 81
152 109 86
159 113 99
151 109 78
153 109 88
150 108 78
155 112 85
154 112 87
152 109 81
156 111 95
155 111 87
155 111 86
153 110 89
154 111 85
152 109 85
153 109 84
152 108 86
154 110 87
152 109 85
154 109 90
155 111 87
153 108 86
148 105 75
151 109 81
155 111 95
153 109 85
152 108 85
155 109 96
150 107 83
149 106 76
150 107 77
152 108 79
146 104 76
152 107 84
154 110 84
148 104 79
152 109 86
150 106 79
147 104 81
147 103 73
150 106 79
142 99 62
152 106 79
146 102 76
143 101 70
149 115 70
164 179 0
170 191 0
167 185 0
168 188 0
168 185 0
172 192 0
170 187 0
169 185 0
168 189 0
158 164 0
141 131 0
135 123 0
130 114 0
132 116 0
131 114 0
135 117 0
127 103 0
131 110 0
125 105 0
125 105 0
118 95 0
121 96 0
131 113 0
125 105 0
124 102 0
132 113 0
123 105 0
121 99 0
129 106 0
129 109 0
129 109 0
124 101 0
125 105 0
130 110 0
129 111 0
129 112 0
129 110 0
128 111 0
131 115 0
131 113 0
134 116 0
132 113 0
128 109 0
133 118 0
137 123 0
132 116 0
137 121 0
136 122 0
136 122 0
137 124 0
141 128 0
135 121 0
142 129 0
137 124 0
141 130 0
137 124 0
142 132 0
144 132 0
145 134 0
144 135 0
142 130 0
144 134 0
144 132 0
143 130 0
144 134 0
141 132 0
146 135 0
142 132 0
142 132 0
144 132 0
145 136 0
144 135 0
144 137 0
144 132 0
144 134 0
146 138 0
147 138 0
146 137 0
144 134 0
145 135 0
144 136 0
146 139 0
149 141 0
144 138 0
148 138 0
148 140 0
149 142 0
148 141 0
150 143 0
148 139 0
150 142 0
149 143 0
149 143 0
150 144 0
146 137 0
147 141 0
149 142 0
146 137 0
147 138 0
149 142 0
150 143 0
147 140 0
150 145 0
150 144 0
148 141 0
153 145 0
152 145 0
150 143 0
151 143 0
152 146 0
149 142 0
151 143 0
152 146 0
150 144 0
151 144 0
152 146 0
150 143 0
153 149 0
149 143 0
150 142 0
150 143 0
151 145 0
152 146 0
151 145 0
150 144 0
152 146 0
152 146 0
153 146 0
152 146 0
153 146 0
152 147 0
152 147 0
153 146 0
152 148 0
153 147 0
153 149 0
152 147 0
153 148 0
152 147 0
154 149 0
152 147 0
153 149 0
153 149 0
153 149 0
154 150 0
153 173 0
153 174 0
153 172 0
153 173 0
153 173 0
152 171 0
154 174 0
153 173 0
152 172 0
151 170 0
152 173 0
150 169 0
151 172 0
153 172 0
150 169 0
153 174 0
150 169 0
152 172 0
150 171 0
152 172 0
150 169 0
154 174 0
149 167 0
152 172 0
149 168 0
151 170 0
152 171 0
149 169 0
148 166 0
151 171 0
151 171 0
150 169 0
152 171 0
149 168 0
148 165 0
146 162 0
148 167 0
149 166 0
146 163 0
148 168 0
147 164 0
152 169 0
150 168 0
152 171 0
145 163 0
147 164 0
148 166 0
150 169 0
152 171 0
148 167 0
151 169 0
150 167 0
148 165 0
150 169 0
149 166 0
149 166 0
149 167 0
146 160 0
151 168 0
144 158 0
147 162 0
149 165 0
149 166 0
149 166 0
150 164 0
148 163 0
141 156 0
145 160 0
146 162 0
149 165 0
144 158 0
140 153 0
146 162 0
145 160 0
143 156 0
144 157 0
143 154 0
142 155 0
144 159 0
144 157 0
143 156 0
140 151 0
144 156 0
141 151 0
143 156 0
143 157 0
136 145 0
141 153 0
138 147 0
138 144 0
142 154 0
141 152 0
141 151 0
136 145 0
136 143 0
135 145 0
134 142 0
137 147 0
134 141 0
133 143 0
134 140 0
136 145 0
135 142 0
134 141 0
131 135 0
133 140 0
131 133 0
131 134 0
128 128 0
128 130 0
121 122 0
134 139 0
129 134 0
127 131 0
125 126 0
127 128 0
127 128 0
120 115 0
122 122 0
124 127 0
122 122 0
129 130 0
123 125 0
124 126 0
126 126 0
129 135 0
132 135 0
132 137 0
131 138 0
130 135 0
134 144 0
139 148 0
142 153 0
158 177 0
171 192 0
170 191 0
163 184 0
168 188 0
167 188 0
166 187 0
166 184 0
168 188 0
170 188 0
170 191 0
164 176 26
141 100 69
144 102 70
146 105 68
142 101 68
148 107 69
152 109 84
154 111 89
149 106 82
153 111 85
150 108 83
151 106 82
149 107 78
150 108 80
157 113 96
149 106 81
155 111 86
150 108 79
153 109 85
157 113 95
155 112 84
154 111 90
152 109 80
153 109 82
150 109 81
150 109 80
154 110 91
155 111 88
151 109 76
151 110 84
152 110 80
154 110 90
153 109 80
152 108 88
157 111 93
155 111 88
155 112 95
154 110 86
153 110 87
152 108 75
155 112 89
156 112 89
154 111 81
152 108 86
154 111 89
155 112 84
154 112 89
153 110 84
152 110 81
154 112 82
156 112 91
153 110 90
155 111 90
153 109 81
153 110 86
153 111 79
153 110 76
156 112 88
158 113 93
151 108 84
153 109 88
154 110 87
155 112 86
153 110 81
154 110 85
153 110 78
150 106 78
154 110 86
151 109 85
153 109 81
151 107 84
155 111 91
154 109 89
154 110 86
153 109 85
157 112 98
152 108 84
157 113 90
155 112 86
158 113 93
156 112 96
153 110 85
151 108 79
154 109 91
152 109 78
157 113 94
151 107 74
149 107 78
153 109 88
153 110 84
153 110 85
153 109 83
154 110 85
149 106 74
155 112 86
153 109 79
153 110 85
151 106 79
151 107 86
150 106 75
148 105 73
153 109 85
149 107 79
149 106 73
149 106 76
145 101 70
151 107 84
145 102 69
144 101 64
144 99 74
160 163 40
168 186 0
170 190 0
166 184 0
168 185 0
167 182 0
169 186 0
171 190 0
169 186 0
169 187 0
167 183 0
155 160 0
139 123 0
136 119 0
131 113 0
135 119 0
136 117 0
132 114 0
130 110 0
128 109 0
128 108 0
126 105 0
120 98 0
121 98 0
124 102 0
126 102 0
126 105 0
126 104 0
128 108 0
119 96 0
124 103 0
123 99 0
127 110 0
118 94 0
131 111 0
131 111 0
129 110 0
133 115 0
127 108 0
136 120 0
132 116 0
131 113 0
137 122 0
132 118 0
138 121 0
131 115 0
135 118 0
135 120 0
140 126 0
139 126 0
141 128 0
141 129 0
135 121 0
138 123 0
135 116 0
143 129 0
139 125 0
140 123 0
143 133 0
142 129 0
140 126 0
141 125 0
142 129 0
140 126 0
143 130 0
143 131 0
145 135 0
145 136 0
142 131 0
142 130 0
142 131 0
144 133 0
145 136 0
147 138 0
146 137 0
144 133 0
146 138 0
146 134 0
145 136 0
149 141 0
146 137 0
146 138 0
146 137 0
143 134 0
148 139 0
148 139 0
144 134 0
148 141 0
149 142 0
147 138 0
151 142 0
147 138 0
149 142 0
149 141 0
147 140 0
147 140 0
148 140 0
147 139 0
150 143 0
149 143 0
150 144 0
149 142 0
147 140 0
149 143 0
150 143 0
150 145 0
151 144 0
150 142 0
148 141 0
148 141 0
149 143 0
150 142 0
151 145 0
150 144 0
151 144 0
150 144 0
150 145 0
150 145 0
149 143 0
149 144 0
151 145 0
151 145 0
152 146 0
152 146 0
149 144 0
153 148 0
153 148 0
154 149 0
151 146 0
149 144 0
151 147 0
151 147 0
151 145 0
152 146 0
151 147 0
153 146 0
150 144 0
151 145 0
151 147 0
153 149 0
152 148 0
154 150 0
153 148 0
151 147 0
154 150 0
152 149 0
152 172 0
154 173 0
152 172 0
153 173 0
154 173 0
152 172 0
152 173 0
153 173 0
151 170 0
151 169 0
151 171 0
150 171 0
151 170 0
151 171 0
154 174 0
150 169 0
149 169 0
149 168 0
151 171 0
153 173 0
151 171 0
151 170 0
153 172 0
148 167 0
152 172 0
148 165 0
150 169 0
152 173 0
151 171 0
147 164 0
151 170 0
150 167 0
152 171 0
150 168 0
151 169 0
149 166 0
150 167 0
147 164 0
150 169 0
150 167 0
151 171 0
148 167 0
151 170 0
150 168 0
150 169 0
147 162 0
148 167 0
151 169 0
148 166 0
144 160 0
146 164 0
150 168 0
149 165 0
148 164 0
146 161 0
145 161 0
147 164 0
148 166 0
149 167 0
142 159 0
145 160 0
146 161 0
148 165 0
148 166 0
144 161 0
147 162 0
141 155 0
142 158 0
143 159 0
142 155 0
144 158 0
142 158 0
147 164 0
142 156 0
142 157 0
144 159 0
143 157 0
142 153 0
144 158 0
144 159 0
139 153 0
143 157 0
143 156 0
138 150 0
142 153 0
140 153 0
141 152 0
143 155 0
136 145 0
137 149 0
144 157 0
135 144 0
135 143 0
144 154 0
142 154 0
135 142 0
129 136 0
132 137 0
133 140 0
139 146 0
132 139 0
134 138 0
137 145 0
131 135 0
134 140 0
131 138 0
129 131 0
124 127 0
126 130 0
127 130 0
129 136 0
131 133 0
130 138 0
123 128 0
124 123 0
125 122 0
125 125 0
126 127 0
132 137 0
128 131 0
121 124 0
130 134 0
131 131 0
124 123 0
126 127 0
127 132 0
135 141 0
131 137 0
131 139 0
141 149 0
138 149 0
144 158 0
155 173 0
172 194 0
166 185 0
169 190 0
169 188 0
167 185 0
169 190 0
168 188 0
167 186 0
165 184 0
164 182 0
168 188 0
163 180 0
156 145 57
145 105 67
147 105 72
147 105 80
147 106 72
149 106 80
148 107 74
151 107 86
147 105 72
153 110 84
149 107 80
154 110 87
152 109 85
149 107 83
148 106 73
149 106 64
152 109 91
154 110 90
152 109 76
153 111 86
153 110 82
153 108 87
149 107 71
156 112 86
155 111 87
151 108 84
153 111 86
152 108 86
156 111 90
155 112 93
154 110 90
151 108 82
156 112 82
152 109 82
153 109 81
151 108 82
156 111 90
152 109 82
156 112 85
155 112 89
155 111 90
153 110 85
151 107 82
154 111 84
156 111 89
150 108 84
154 112 88
151 108 79
151 108 85
153 110 82
154 112 82
152 110 82
151 107 80
152 109 84
153 110 88
157 111 89
157 112 88
154 110 88
150 108 79
152 110 75
152 109 84
155 110 89
153 110 89
155 110 87
156 111 91
155 112 88
152 109 76
152 108 83
149 106 79
154 109 86
155 111 89
151 109 79
152 109 76
155 111 85
150 106 79
156 113 89
152 109 79
153 109 82
156 111 90
151 108 78
154 111 88
151 108 82
155 111 88
150 107 79
152 108 87
150 106 82
156 112 93
153 109 86
152 108 83
152 108 81
153 108 86
152 110 81
152 109 88
149 106 78
150 106 80
150 107 71
149 106 77
153 108 86
152 108 88
154 111 86
152 106 85
149 105 72
150 106 78
147 103 76
152 108 81
151 105 82
146 104 73
146 103 76
153 142 51
167 186 0
167 181 0
165 180 0
166 183 0
166 183 0
164 179 0
164 179 0
169 186 0
169 187 0
168 185 0
164 178 0
166 180 0
156 159 0
141 130 0
135 122 0
135 122 0
131 115 0
132 116 0
133 115 0
126 109 0
131 110 0
128 110 0
125 102 0
123 101 0
123 101 0
129 110 0
127 107 0
128 106 0
125 105 0
125 104 0
126 105 0
127 108 0
127 107 0
131 112 0
128 106 0
129 109 0
123 100 0
135 119 0
132 117 0
128 110 0
134 117 0
132 114 0
133 115 0
130 113 0
133 115 0
130 115 0
137 120 0
134 118 0
137 120 0
138 122 0
135 120 0
137 123 0
136 123 0
135 120 0
145 133 0
140 129 0
140 127 0
142 129 0
141 127 0
135 119 0
141 130 0
136 122 0
141 126 0
137 122 0
141 132 0
144 131 0
144 134 0
137 125 0
142 129 0
142 129 0
143 130 0
145 136 0
141 127 0
144 134 0
148 138 0
146 137 0
146 136 0
145 135 0
145 136 0
144 136 0
145 136 0
144 133 0
148 139 0
147 139 0
148 138 0
145 136 0
147 138 0
146 138 0
147 139 0
150 141 0
150 145 0
147 138 0
146 137 0
147 138 0
148 141 0
151 143 0
149 142 0
150 142 0
146 137 0
149 142 0
150 142 0
148 140 0
148 140 0
149 141 0
151 144 0
150 144 0
151 146 0
152 146 0
149 142 0
151 145 0
152 146 0
150 142 0
149 143 0
152 145 0
154 149 0
151 145 0
149 142 0
150 142 0
152 145 0
152 146 0
150 145 0
149 144 0
151 145 0
153 147 0
155 149 0
153 148 0
150 145 0
150 144 0
151 146 0
150 143 0
152 147 0
151 144 0
152 146 0
153 148 0
152 146 0
151 147 0
150 143 0
152 148 0
150 146 0
153 147 0
154 148 0
151 146 0
152 147 0
154 151 0
153 149 0
151 146 0
155 175 0
151 172 0
153 174 0
152 172 0
153 174 0
152 172 0
154 174 0
155 174 0
152 172 0
149 169 0
152 172 0
152 173 0
152 172 0
153 172 0
151 171 0
153 171 0
150 171 0
153 172 0
148 167 0
152 172 0
151 169 0
152 171 0
150 170 0
148 166 0
149 167 0
151 168 0
151 172 0
151 168 0
149 168 0
151 168 0
150 169 0
150 168 0
148 166 0
148 167 0
150 168 0
147 164 0
149 167 0
149 167 0
148 165 0
150 168 0
149 168 0
148 165 0
148 168 0
149 168 0
149 168 0
151 168 0
150 168 0
146 163 0
147 162 0
145 161 0
149 168 0
148 162 0
144 160 0
148 164 0
148 166 0
147 161 0
147 161 0
146 161 0
144 160 0
147 163 0
146 162 0
147 164 0
146 162 0
142 156 0
148 164 0
146 162 0
145 159 0
145 159 0
144 158 0
143 159 0
144 160 0
145 158 0
144 157 0
146 161 0
143 156 0
145 160 0
143 158 0
143 157 0
143 156 0
141 152 0
145 159 0
144 156 0
143 156 0
141 154 0
139 152 0
144 156 0
135 146 0
140 151 0
140 149 0
136 146 0
139 149 0
132 141 0
137 149 0
137 146 0
132 137 0
139 148 0
132 137 0
134 140 0
137 146 0
134 141 0
131 136 0
134 137 0
136 142 0
136 140 0
132 136 0
133 138 0
133 138 0
129 133 0
125 129 0
129 135 0
123 123 0
129 132 0
122 124 0
125 127 0
126 129 0
126 127 0
123 123 0
129 131 0
128 127 0
119 116 0
126 126 0
122 121 0
132 136 0
127 132 0
126 127 0
130 135 0
131 138 0
134 143 0
129 137 0
134 143 0
141 152 0
151 164 0
168 188 0
167 189 0
165 184 0
168 190 0
166 185 0
167 186 0
165 185 0
167 187 0
168 187 0
165 184 0
166 187 0
163 184 0
167 186 0
162 177 18
144 113 63
142 101 69
146 105 76
143 102 62
147 105 73
147 105 74
147 103 78
154 110 89
154 111 91
150 108 76
146 104 76
147 106 70
152 108 82
152 109 83
153 111 82
155 111 90
147 105 67
154 110 85
151 108 86
151 108 82
152 109 74
149 107 67
150 108 79
152 108 87
149 107 77
150 107 75
156 111 86
151 108 89
151 108 81
155 111 84
156 112 88
150 107 82
153 110 91
152 110 83
153 109 82
149 107 78
153 109 84
155 111 82
152 109 89
152 108 79
151 109 80
154 109 87
156 111 87
153 110 84
151 109 78
149 107 85
154 109 87
154 111 86
154 111 87
152 109 88
155 112 88
151 109 81
155 111 94
154 110 85
156 112 87
151 109 75
153 110 81
150 109 75
153 110 84
151 107 76
154 110 85
153 109 76
155 111 90
156 112 91
154 110 82
154 110 82
153 110 85
155 112 91
151 109 75
150 107 79
153 110 86
156 111 88
153 109 88
153 109 79
154 110 95
155 110 87
159 114 98
152 109 85
155 110 87
153 108 88
155 112 86
152 109 87
153 109 89
146 104 70
153 110 79
155 111 93
153 108 87
152 108 85
151 108 77
155 112 91
150 106 82
152 108 80
150 105 79
149 107 73
153 109 85
148 105 72
151 108 79
145 102 70
152 109 81
150 106 76
149 105 77
149 105 81
146 101 72
147 103 72
145 102 63
142 97 69
146 106 66
164 175 19
167 183 0
161 177 0
166 178 0
164 179 0
166 181 0
166 177 0
167 184 0
161 172 0
166 181 0
169 184 0
169 184 0
166 184 0
169 188 0
152 154 0
138 126 0
134 117 0
129 113 0
131 112 0
126 108 0
128 108 0
125 104 0
126 106 0
121 100 0
120 99 0
129 108 0
120 93 0
126 109 0
126 106 0
133 113 0
124 104 0
134 116 0
128 109 0
126 105 0
129 110 0
127 106 0
133 116 0
126 106 0
133 117 0
129 112 0
131 113 0
129 112 0
135 117 0
132 113 0
132 115 0
134 118 0
133 118 0
140 125 0
129 111 0
136 118 0
133 117 0
139 126 0
137 122 0
140 126 0
139 124 0
137 126 0
138 125 0
135 121 0
141 126 0
136 122 0
139 126 0
134 119 0
143 129 0
141 127 0
139 125 0
144 131 0
142 129 0
145 134 0
142 129 0
145 134 0
141 131 0
136 122 0
147 136 0
145 134 0
142 132 0
144 135 0
146 134 0
148 140 0
149 139 0
145 135 0
142 131 0
147 139 0
147 135 0
146 137 0
146 135 0
141 131 0
145 136 0
145 136 0
146 137 0
147 138 0
148 141 0
149 140 0
144 134 0
149 140 0
151 144 0
148 141 0
146 140 0
149 141 0
150 145 0
148 137 0
148 139 0
149 143 0
149 142 0
149 142 0
150 141 0
148 139 0
150 144 0
151 145 0
150 145 0
150 142 0
150 143 0
152 145 0
150 144 0
150 144 0
151 144 0
153 147 0
153 149 0
151 146 0
148 142 0
148 142 0
152 146 0
153 148 0
149 144 0
149 145 0
151 144 0
151 146 0
152 147 0
150 144 0
150 144 0
152 146 0
151 144 0
152 145 0
151 146 0
155 150 0
154 149 0
155 147 0
152 148 0
152 146 0
153 148 0
152 148 0
152 147 0
152 146 0
152 147 0
153 150 0
152 148 0
152 147 0
152 148 0
153 173 0
152 171 0
152 172 0
153 173 0
153 172 0
152 172 0
152 173 0
154 174 0
154 173 0
150 168 0
152 171 0
150 169 0
150 170 0
152 172 0
152 171 0
153 173 0
153 173 0
151 170 0
152 172 0
151 170 0
149 168 0
150 169 0
149 166 0
148 166 0
152 169 0
150 168 0
149 166 0
150 168 0
152 170 0
150 170 0
150 169 0
151 167 0
150 167 0
148 165 0
150 166 0
153 172 0
149 167 0
146 163 0
147 165 0
148 166 0
146 163 0
148 167 0
150 167 0
151 169 0
147 164 0
152 169 0
150 167 0
145 162 0
148 165 0
150 166 0
147 165 0
148 165 0
148 167 0
146 161 0
146 163 0
146 160 0
146 162 0
147 163 0
148 164 0
145 158 0
148 165 0
148 163 0
147 164 0
143 156 0
145 161 0
143 157 0
142 157 0
146 161 0
145 161 0
142 156 0
145 159 0
144 158 0
145 159 0
143 155 0
147 161 0
143 157 0
141 154 0
142 155 0
145 157 0
143 157 0
137 148 0
138 149 0
137 148 0
137 149 0
141 155 0
143 155 0
138 146 0
133 140 0
137 147 0
139 148 0
139 149 0
136 146 0
137 146 0
134 140 0
128 133 0
134 141 0
134 141 0
136 141 0
133 140 0
139 148 0
131 137 0
128 133 0
131 138 0
129 134 0
133 140 0
133 135 0
126 128 0
135 142 0
127 131 0
126 128 0
122 125 0
130 137 0
123 127 0
130 134 0
127 129 0
123 124 0
130 133 0
126 131 0
125 128 0
123 124 0
124 123 0
126 131 0
124 126 0
126 130 0
128 134 0
128 131 0
133 138 0
128 130 0
131 138 0
135 147 0
156 173 0
163 182 0
162 180 0
168 187 0
164 183 0
163 181 0
170 190 0
166 186 0
166 184 0
165 183 0
165 182 0
166 186 0
164 181 0
163 179 0
164 184 0
162 179 0
161 164 41
142 101 75
144 103 62
145 104 67
147 105 69
149 106 80
146 103 76
153 108 90
150 108 78
153 110 81
152 108 85
151 108 84
150 108 84
151 109 76
148 105 76
150 107 89
147 105 70
146 105 75
151 108 81
154 111 93
155 111 88
155 110 87
155 113 87
153 110 81
149 107 77
151 107 79
151 108 82
151 109 85
155 111 87
155 110 91
153 110 85
154 112 87
155 111 93
153 111 86
157 113 94
155 111 85
154 110 80
151 109 79
154 110 85
147 107 75
154 111 88
156 112 87
151 108 81
158 113 93
150 107 76
154 110 84
153 108 86
151 108 84
154 111 87
151 109 81
149 108 72
151 108 78
156 111 95
159 113 101
155 111 87
149 107 80
156 111 93
152 108 78
150 107 72
153 111 80
155 111 84
152 108 82
154 111 85
153 110 81
150 107 75
149 107 71
156 111 87
153 109 80
151 109 82
153 110 81
153 110 85
149 105 76
149 106 78
157 111 95
152 108 78
152 108 85
150 107 74
153 109 85
152 109 82
154 111 86
152 108 80
152 107 82
154 109 90
151 106 77
153 109 86
153 109 85
155 111 90
150 105 77
150 107 73
151 107 80
149 107 76
151 108 78
152 108 85
150 105 79
151 107 75
148 104 67
148 105 75
149 105 75
154 111 79
149 105 79
152 106 84
146 104 70
145 102 68
146 102 72
143 100 68
138 96 57
152 149 31
165 179 0
163 174 0
166 180 0
165 182 0
164 177 0
162 174 0
159 171 0
167 182 0
164 178 0
165 178 0
164 177 0
166 181 0
163 175 0
163 172 0
167 184 0
154 157 0
141 129 0
136 117 0
131 113 0
129 111 0
127 106 0
119 94 0
118 98 0
127 107 0
121 101 0
128 109 0
120 97 0
125 103 0
132 113 0
130 110 0
129 111 0
127 108 0
131 113 0
131 113 0
125 106 0
130 110 0
125 108 0
131 115 0
131 113 0
127 109 0
134 118 0
133 117 0
133 115 0
133 117 0
132 114 0
130 112 0
137 122 0
132 114 0
135 120 0
138 123 0
138 124 0
136 121 0
138 121 0
138 122 0
130 114 0
141 128 0
132 119 0
140 125 0
143 131 0
135 121 0
140 129 0
141 129 0
137 123 0
139 125 0
138 128 0
139 124 0
139 125 0
144 133 0
142 130 0
145 134 0
140 130 0
137 126 0
146 137 0
140 126 0
142 132 0
145 135 0
145 135 0
147 137 0
148 139 0
148 137 0
145 135 0
145 133 0
148 138 0
146 138 0
147 140 0
146 138 0
145 137 0
150 142 0
146 136 0
142 134 0
145 135 0
150 139 0
144 135 0
147 138 0
148 142 0
144 132 0
148 141 0
147 139 0
145 139 0
148 139 0
151 143 0
150 141 0
148 140 0
151 143 0
149 140 0
151 146 0
150 143 0
149 142 0
149 141 0
149 142 0
149 143 0
149 143 0
150 143 0
150 144 0
148 139 0
150 143 0
151 144 0
149 144 0
150 142 0
149 142 0
152 145 0
150 145 0
153 145 0
149 143 0
152 147 0
147 140 0
152 145 0
154 148 0
150 144 0
150 145 0
150 143 0
151 146 0
152 146 0
151 147 0
150 143 0
152 147 0
149 142 0
150 146 0
151 145 0
151 145 0
152 147 0
151 146 0
153 148 0
151 145 0
154 149 0
153 149 0
150 146 0
153 172 0
151 170 0
153 174 0
152 172 0
152 171 0
153 174 0
152 172 0
152 172 0
155 174 0
153 173 0
154 173 0
153 172 0
150 170 0
151 171 0
150 169 0
151 170 0
151 170 0
152 172 0
148 167 0
152 171 0
147 166 0
150 170 0
151 169 0
150 169 0
151 170 0
147 165 0
151 169 0
151 169 0
150 169 0
151 168 0
150 168 0
150 168 0
151 169 0
152 171 0
148 167 0
151 169 0
148 166 0
148 164 0
149 166 0
149 166 0
152 170 0
149 166 0
150 168 0
148 166 0
151 169 0
149 167 0
149 167 0
146 164 0
147 163 0
147 163 0
145 162 0
145 159 0
148 166 0
146 162 0
146 160 0
147 163 0
147 164 0
146 162 0
150 168 0
148 163 0
145 161 0
144 159 0
144 157 0
143 159 0
143 159 0
141 155 0
143 157 0
143 158 0
143 154 0
143 156 0
144 161 0
145 159 0
143 160 0
145 160 0
140 153 0
143 159 0
138 147 0
138 151 0
137 148 0
140 148 0
139 151 0
138 148 0
135 145 0
139 153 0
142 153 0
140 151 0
136 145 0
139 150 0
134 143 0
139 148 0
131 135 0
134 141 0
130 133 0
134 144 0
134 144 0
134 140 0
136 144 0
135 143 0
130 137 0
139 146 0
136 141 0
133 138 0
132 137 0
130 134 0
136 142 0
135 142 0
130 136 0
128 131 0
130 132 0
127 132 0
131 136 0
121 122 0
124 127 0
121 123 0
124 125 0
126 129 0
120 122 0
125 124 0
128 133 0
131 135 0
124 126 0
130 133 0
121 120 0
125 128 0
133 140 0
127 132 0
134 143 0
132 139 0
133 142 0
161 176 0
164 181 0
165 184 0
167 186 0
164 182 0
165 182 0
165 186 0
164 181 0
167 185 0
165 183 0
162 179 0
164 182 0
161 176 0
165 182 0
159 175 0
162 179 0
164 178 0
165 183 0
146 137 46
143 101 71
140 99 63
138 98 65
141 100 62
149 107 78
150 107 78
143 103 66
149 107 72
147 106 65
151 109 82
151 108 79
150 107 72
148 106 79
151 107 86
150 106 84
150 107 79
154 110 86
150 108 80
152 108 80
151 108 81
146 106 67
153 109 81
149 106 75
148 106 71
150 107 76
149 107 80
158 113 89
153 110 89
152 108 82
152 109 80
156 112 90
150 109 75
155 111 79
150 108 70
157 112 90
151 107 79
154 110 89
151 109 76
152 108 81
148 106 78
152 110 82
151 109 80
152 110 84
150 106 76
153 110 84
154 111 85
155 112 90
155 111 87
153 108 86
154 110 91
155 112 80
155 111 80
151 109 81
153 110 87
151 109 80
153 109 80
150 108 75
152 109 81
153 109 80
153 111 79
150 106 81
154 110 86
151 107 75
155 110 82
154 109 85
154 111 89
153 109 80
155 111 88
153 110 85
149 106 70
153 109 79
152 108 79
150 106 81
156 112 91
153 110 84
152 109 74
155 111 91
150 107 85
149 107 71
151 107 79
146 106 67
155 111 87
154 110 88
152 107 83
146 103 71
152 107 82
149 105 72
153 110 85
151 107 82
154 110 81
152 109 84
152 107 81
144 101 62
152 107 85
148 104 80
146 100 75
147 105 74
149 105 79
144 99 68
152 107 85
144 102 66
144 100 69
146 102 74
148 134 38
161 172 0
164 177 0
164 179 0
164 178 0
165 177 0
165 178 0
169 183 0
166 180 0
162 177 0
159 170 0
163 176 0
161 172 0
161 175 0
165 179 0
165 179 0
164 179 0
165 179 0
158 165 0
138 120 0
132 115 0
127 108 0
125 105 0
129 108 0
121 100 0
133 114 0
130 111 0
125 104 0
126 105 0
123 103 0
119 96 0
119 96 0
127 109 0
127 104 0
129 111 0
122 102 0
125 103 0
126 107 0
129 111 0
131 114 0
128 109 0
127 107 0
128 108 0
129 113 0
132 111 0
133 117 0
133 116 0
133 115 0
132 117 0
136 120 0
133 115 0
131 113 0
132 118 0
132 117 0
132 119 0
138 124 0
134 116 0
137 126 0
134 118 0
141 128 0
140 126 0
139 126 0
140 126 0
143 131 0
139 125 0
141 128 0
139 124 0
138 124 0
144 134 0
142 129 0
137 124 0
143 132 0
138 124 0
144 133 0
145 133 0
143 133 0
146 136 0
145 133 0
142 132 0
143 130 0
148 137 0
142 129 0
144 133 0
146 136 0
142 132 0
145 137 0
146 136 0
146 137 0
146 136 0
147 137 0
145 136 0
145 136 0
149 140 0
149 139 0
143 134 0
145 136 0
143 133 0
145 135 0
148 138 0
149 139 0
147 139 0
148 140 0
147 138 0
150 143 0
148 140 0
147 138 0
146 139 0
149 142 0
149 143 0
147 139 0
149 142 0
149 142 0
148 141 0
149 143 0
150 143 0
147 140 0
151 144 0
150 144 0
148 141 0
152 145 0
149 139 0
153 147 0
153 148 0
150 145 0
152 148 0
151 142 0
151 144 0
149 142 0
149 144 0
153 147 0
152 145 0
152 146 0
154 149 0
152 146 0
150 144 0
151 144 0
152 148 0
151 145 0
150 144 0
152 147 0
151 143 0
152 147 0
151 146 0
149 144 0
150 145 0
150 145 0
153 149 0
151 147 0
153 148 0
153 174 0
150 171 0
150 171 0
152 173 0
152 173 0
152 173 0
150 170 0
148 168 0
151 170 0
151 170 0
150 171 0
153 172 0
152 170 0
152 171 0
150 168 0
153 172 0
153 171 0
150 169 0
150 170 0
152 171 0
151 170 0
147 163 0
148 168 0
148 167 0
150 169 0
150 169 0
148 168 0
150 168 0
151 171 0
148 167 0
149 169 0
151 168 0
149 168 0
148 166 0
149 167 0
149 168 0
151 170 0
146 164 0
146 162 0
148 167 0
151 170 0
147 164 0
143 158 0
147 165 0
147 165 0
143 158 0
149 165 0
141 155 0
147 163 0
147 163 0
147 164 0
147 163 0
148 165 0
148 166 0
148 166 0
147 164 0
146 163 0
148 164 0
147 163 0
148 162 0
146 165 0
146 161 0
145 161 0
143 155 0
144 158 0
141 154 0
141 156 0
141 155 0
141 155 0
146 162 0
146 162 0
144 159 0
143 157 0
142 155 0
140 151 0
140 152 0
144 158 0
145 158 0
141 156 0
142 155 0
143 157 0
144 157 0
142 156 0
136 146 0
137 148 0
136 148 0
139 151 0
134 142 0
136 145 0
140 148 0
135 143 0
138 150 0
136 146 0
132 139 0
137 145 0
135 143 0
136 144 0
136 146 0
130 137 0
133 140 0
136 146 0
138 146 0
126 131 0
133 139 0
128 133 0
133 141 0
130 134 0
128 132 0
127 129 0
123 125 0
122 124 0
129 134 0
127 129 0
122 121 0
123 127 0
127 129 0
126 130 0
119 119 0
122 121 0
127 132 0
122 124 0
129 135 0
126 130 0
125 131 0
131 136 0
129 134 0
138 149 0
142 153 0
159 175 0
164 182 0
159 177 0
164 182 0
161 178 0
157 172 0
167 185 0
161 178 0
161 178 0
160 177 0
163 179 0
161 177 0
161 179 0
165 182 0
162 178 0
158 173 0
164 183 0
163 181 0
158 172 0
158 172 0
146 126 52
139 98 61
148 106 75
147 104 73
149 106 73
150 108 81
147 104 75
147 105 75
147 104 72
145 103 69
151 107 81
148 105 76
151 108 79
151 109 81
149 105 82
152 109 90
150 106 83
151 110 80
151 106 82
151 109 87
152 109 82
158 114 90
154 110 89
156 111 90
152 108 79
149 107 76
150 106 74
156 110 93
150 108 85
150 108 79
150 107 75
153 109 85
154 109 87
155 112 87
152 109 84
156 112 93
153 110 88
156 112 86
154 111 85
150 106 81
151 108 86
148 105 76
152 109 81
151 106 78
155 111 87
155 111 88
156 112 84
149 106 80
156 111 88
151 109 78
152 108 84
152 109 80
151 107 79
155 111 88
149 105 75
156 112 91
154 110 84
151 107 79
157 112 91
151 107 85
152 108 82
149 106 79
152 108 81
153 107 89
152 110 82
152 108 84
149 106 75
155 110 90
157 112 91
156 113 89
151 108 74
150 107 74
149 107 81
153 108 80
150 107 78
151 107 80
150 106 74
146 105 67
152 110 81
149 106 75
154 109 88
147 106 65
149 106 72
150 106 79
151 108 81
150 106 78
148 105 78
151 107 81
148 104 70
144 103 64
147 105 73
151 107 84
149 106 71
148 104 70
149 106 76
147 103 68
145 102 63
146 102 70
143 100 64
144 101 63
146 101 77
142 98 61
146 115 59
164 174 0
164 175 0
163 174 0
164 172 0
161 173 0
158 168 0
163 176 0
160 171 0
164 174 0
163 177 0
164 177 0
163 175 0
161 173 0
164 175 0
165 178 0
163 176 0
163 175 0
163 176 0
166 179 0
160 169 0
140 127 0
130 111 0
126 107 0
124 103 0
128 112 0
128 108 0
128 109 0
122 97 0
126 103 0
126 103 0
128 106 0
128 108 0
128 108 0
126 104 0
129 107 0
123 99 0
125 103 0
121 103 0
126 108 0
124 103 0
127 106 0
131 113 0
132 117 0
126 105 0
131 114 0
131 113 0
126 104 0
132 114 0
132 114 0
133 117 0
137 120 0
135 118 0
134 117 0
133 114 0
139 123 0
133 117 0
136 120 0
142 128 0
137 121 0
139 125 0
138 123 0
139 125 0
140 124 0
134 119 0
135 119 0
139 128 0
135 124 0
141 126 0
139 126 0
139 125 0
139 127 0
143 134 0
141 125 0
139 126 0
144 133 0
144 135 0
143 133 0
142 131 0
142 128 0
142 129 0
144 133 0
143 132 0
148 138 0
143 130 0
144 135 0
143 133 0
144 134 0
145 135 0
142 129 0
143 132 0
149 140 0
145 135 0
148 141 0
146 138 0
148 138 0
149 141 0
146 134 0
146 135 0
150 143 0
145 137 0
149 142 0
150 142 0
148 138 0
146 137 0
149 143 0
146 136 0
147 139 0
149 142 0
149 140 0
149 142 0
148 140 0
150 143 0
148 140 0
146 137 0
150 143 0
148 141 0
148 139 0
151 145 0
149 143 0
150 144 0
150 144 0
152 145 0
149 142 0
149 143 0
145 136 0
150 145 0
151 145 0
147 141 0
152 146 0
149 144 0
153 147 0
153 149 0
150 144 0
150 144 0
151 145 0
151 147 0
152 145 0
150 145 0
151 144 0
151 144 0
151 145 0
151 146 0
151 145 0
151 145 0
153 148 0
151 146 0
154 148 0
152 147 0
151 147 0
152 172 0
150 169 0
152 173 0
151 172 0
149 170 0
150 170 0
152 172 0
150 168 0
151 170 0
148 167 0
151 170 0
151 171 0
152 173 0
150 169 0
148 167 0
151 169 0
151 168 0
149 169 0
150 169 0
151 170 0
150 168 0
150 170 0
152 170 0
153 171 0
151 170 0
151 170 0
151 169 0
151 169 0
148 167 0
148 167 0
149 169 0
148 165 0
149 167 0
150 169 0
150 166 0
150 168 0
149 168 0
149 167 0
146 161 0
150 169 0
148 165 0
149 167 0
146 165 0
149 167 0
148 162 0
151 170 0
148 166 0
148 166 0
149 166 0
142 158 0
145 161 0
147 164 0
143 158 0
147 164 0
143 159 0
146 161 0
144 160 0
145 159 0
145 161 0
148 164 0
144 157 0
147 163 0
146 163 0
140 154 0
147 162 0
145 160 0
142 156 0
140 153 0
142 155 0
145 160 0
144 159 0
143 155 0
143 156 0
137 147 0
142 153 0
139 151 0
143 155 0
139 149 0
142 155 0
135 147 0
139 148 0
138 146 0
140 151 0
136 144 0
136 149 0
139 148 0
140 150 0
136 147 0
141 152 0
138 148 0
134 141 0
134 144 0
139 148 0
135 142 0
132 138 0
131 134 0
129 134 0
130 134 0
136 144 0
124 128 0
125 127 0
127 133 0
127 131 0
128 134 0
133 141 0
124 127 0
126 131 0
131 137 0
125 123 0
130 135 0
132 139 0
125 127 0
128 133 0
128 130 0
126 128 0
127 132 0
121 125 0
128 133 0
127 128 0
125 128 0
121 122 0
127 130 0
135 141 0
122 125 0
131 140 0
127 134 0
140 150 0
159 176 0
162 178 0
162 180 0
162 182 0
157 173 0
159 172 0
164 181 0
159 174 0
160 177 0
163 180 0
157 171 0
158 172 0
163 178 0
160 175 0
159 177 0
160 174 0
163 180 0
160 175 0
162 177 0
160 175 0
158 172 0
159 167 23
142 107 65
142 100 68
143 100 71
151 107 77
150 107 77
150 107 82
143 102 61
145 105 67
150 108 81
150 107 78
145 103 72
148 105 81
147 106 65
146 103 72
153 109 84
151 108 79
149 107 79
150 107 71
149 106 82
150 107 72
152 108 87
150 107 76
148 106 77
155 110 82
147 105 75
147 103 78
151 108 72
151 109 81
152 110 82
154 110 87
155 111 87
150 108 75
155 111 90
151 109 74
152 108 81
155 111 87
149 105 85
153 110 87
151 107 80
152 108 80
154 111 84
151 108 84
154 111 85
152 108 80
150 107 79
153 109 87
153 109 86
147 104 80
154 110 87
151 108 86
152 109 79
157 113 95
152 109 76
152 109 80
155 113 88
148 105 75
150 108 76
150 108 75
149 106 76
150 108 78
151 108 82
151 109 79
152 109 80
155 111 91
151 107 76
153 110 81
150 108 76
153 108 87
151 108 78
152 110 78
155 110 80
150 108 79
150 108 78
154 109 88
156 112 88
151 108 80
148 105 76
151 107 75
151 108 75
150 105 75
152 108 86
155 111 82
145 103 67
155 111 87
146 102 71
149 106 79
148 105 79
149 107 72
150 107 74
150 107 74
152 108 87
152 108 74
150 106 81
148 104 76
147 103 73
146 103 71
144 102 74
144 101 68
139 96 62
145 102 75
141 99 59
157 161 19
157 169 0
160 168 0
167 179 0
159 167 0
162 172 0
164 174 0
163 175 0
161 171 0
160 167 0
159 167 0
162 170 0
161 171 0
162 173 0
160 167 0
164 176 0
164 175 0
163 175 0
168 184 0
165 176 0
164 177 0
159 167 0
148 139 0
134 114 0
125 104 0
136 118 0
131 116 0
128 108 0
128 103 0
127 106 0
125 101 0
123 102 0
121 101 0
122 101 0
126 105 0
126 105 0
127 106 0
128 108 0
121 100 0
127 107 0
128 110 0
120 98 0
127 111 0
124 105 0
126 108 0
124 105 0
131 114 0
126 109 0
131 111 0
134 117 0
128 110 0
133 114 0
131 114 0
137 120 0
135 120 0
132 115 0
131 112 0
132 115 0
137 122 0
134 119 0
140 129 0
134 118 0
137 120 0
137 120 0
135 120 0
141 125 0
137 122 0
136 120 0
144 131 0
141 129 0
138 123 0
141 126 0
140 128 0
139 126 0
139 125 0
144 132 0
138 124 0
143 132 0
143 132 0
141 126 0
144 133 0
147 137 0
142 129 0
143 133 0
143 132 0
142 131 0
142 131 0
148 138 0
146 136 0
145 134 0
148 139 0
149 142 0
142 131 0
143 132 0
148 140 0
145 135 0
147 139 0
143 135 0
149 140 0
147 138 0
148 141 0
146 138 0
145 135 0
148 139 0
148 138 0
147 138 0
147 139 0
147 138 0
149 141 0
148 141 0
151 143 0
152 143 0
147 137 0
150 143 0
149 142 0
147 138 0
150 143 0
149 140 0
148 142 0
149 143 0
148 139 0
153 147 0
151 144 0
149 141 0
151 146 0
152 145 0
151 144 0
151 143 0
152 146 0
151 145 0
150 143 0
150 144 0
151 144 0
154 148 0
150 143 0
151 145 0
150 143 0
153 148 0
154 148 0
151 145 0
150 144 0
150 146 0
152 145 0
151 145 0
152 146 0
153 148 0
151 145 0
154 148 0
153 147 0
153 148 0
154 174 0
153 173 0
153 173 0
151 171 0
153 173 0
153 173 0
152 171 0
152 172 0
152 171 0
152 170 0
147 166 0
151 171 0
151 170 0
152 172 0
151 171 0
150 169 0
150 168 0
152 172 0
150 170 0
149 166 0
148 168 0
149 168 0
152 170 0
149 168 0
151 169 0
148 164 0
149 167 0
151 170 0
146 167 0
148 166 0
149 167 0
147 165 0
150 169 0
149 167 0
146 164 0
151 169 0
146 165 0
152 169 0
146 162 0
148 165 0
147 163 0
147 163 0
146 163 0
147 164 0
148 165 0
148 165 0
145 160 0
145 160 0
147 163 0
142 156 0
143 157 0
145 161 0
145 159 0
145 162 0
145 161 0
145 162 0
147 162 0
147 162 0
147 161 0
147 162 0
144 157 0
144 159 0
142 157 0
143 156 0
143 158 0
143 160 0
141 154 0
142 156 0
140 154 0
142 157 0
143 157 0
142 156 0
139 151 0
138 151 0
141 154 0
143 157 0
142 155 0
141 152 0
140 154 0
138 148 0
138 149 0
140 154 0
141 152 0
138 147 0
138 150 0
137 148 0
142 155 0
136 145 0
137 148 0
138 148 0
134 141 0
140 149 0
140 153 0
139 150 0
133 141 0
137 147 0
131 135 0
132 138 0
129 134 0
137 145 0
128 134 0
128 134 0
129 135 0
132 137 0
130 134 0
132 135 0
122 123 0
127 131 0
132 137 0
126 131 0
126 132 0
128 130 0
121 125 0
121 124 0
124 129 0
120 120 0
128 134 0
124 126 0
121 125 0
124 126 0
124 128 0
129 134 0
124 128 0
129 135 0
131 140 0
140 151 0
161 179 0
162 181 0
162 180 0
159 175 0
163 179 0
161 179 0
163 180 0
163 177 0
160 174 0
156 170 0
158 174 0
160 176 0
161 174 0
161 178 0
161 178 0
161 177 0
162 179 0
158 174 0
159 174 0
158 173 0
158 174 0
158 171 0
155 165 0
148 148 31
141 100 68
140 99 58
142 101 69
146 104 73
145 103 74
146 104 72
151 108 81
144 103 70
147 105 72
147 107 71
151 108 75
150 107 80
146 103 71
152 107 87
149 106 75
145 103 67
149 106 79
157 112 90
154 109 84
147 105 66
152 109 85
152 110 80
154 110 85
151 108 80
151 108 82
152 109 86
157 113 95
150 107 72
152 107 84
150 106 78
152 109 85
150 108 76
152 108 82
153 109 84
155 110 89
152 109 78
152 109 76
152 109 81
152 108 78
153 110 82
152 108 76
151 108 82
154 109 85
150 108 75
151 108 76
153 110 79
150 107 70
156 110 93
148 107 79
150 108 75
152 108 87
157 112 90
149 107 70
154 110 87
150 108 84
155 111 86
148 105 76
150 106 71
155 111 91
151 108 78
150 108 74
153 109 84
155 111 91
150 107 78
150 108 75
151 108 85
149 108 71
147 104 70
149 105 82
152 108 81
152 108 87
152 108 81
150 107 68
149 105 76
150 108 76
150 106 76
154 109 82
154 110 82
152 107 85
147 104 66
151 107 84
150 107 79
149 107 79
152 108 78
151 106 78
153 108 86
150 105 80
150 107 75
151 106 76
149 106 78
147 104 72
149 106 83
150 106 75
149 105 80
150 106 77
148 102 74
142 98 67
146 102 67
133 92 47
157 159 37
157 165 0
157 164 0
163 172 0
158 167 0
166 175 0
161 168 0
160 169 0
160 168 0
158 165 0
160 166 0
158 166 0
161 172 0
158 168 0
161 173 0
160 170 0
160 170 0
155 161 0
156 161 0
161 171 0
160 169 0
162 171 0
161 173 0
156 165 0
142 133 0
131 113 0
130 110 0
127 108 0
129 109 0
127 108 0
128 108 0
122 100 0
125 105 0
129 108 0
122 99 0
128 109 0
124 104 0
117 97 0
128 109 0
129 110 0
129 111 0
131 114 0
121 101 0
125 105 0
120 99 0
128 107 0
130 111 0
133 116 0
134 116 0
133 116 0
133 115 0
131 115 0
131 113 0
134 117 0
135 118 0
134 117 0
137 124 0
133 115 0
127 111 0
137 122 0
134 118 0
138 124 0
139 126 0
140 126 0
135 119 0
138 124 0
137 122 0
139 123 0
137 122 0
137 124 0
138 124 0
140 127 0
141 128 0
141 130 0
138 124 0
141 128 0
137 125 0
140 124 0
138 124 0
139 127 0
143 132 0
141 129 0
142 129 0
148 138 0
145 135 0
148 139 0
144 134 0
145 135 0
141 129 0
142 130 0
145 135 0
145 133 0
147 136 0
142 131 0
147 137 0
147 138 0
145 134 0
147 140 0
147 138 0
149 139 0
146 135 0
145 136 0
142 131 0
145 131 0
147 136 0
150 142 0
149 141 0
147 136 0
147 138 0
152 144 0
148 141 0
150 141 0
148 137 0
144 133 0
146 137 0
147 139 0
150 141 0
149 143 0
147 138 0
148 143 0
147 138 0
151 143 0
149 141 0
150 141 0
149 141 0
151 142 0
150 143 0
150 141 0
146 140 0
151 145 0
149 141 0
152 146 0
150 142 0
152 145 0
150 144 0
150 144 0
149 143 0
151 145 0
149 141 0
151 145 0
150 143 0
151 144 0
151 143 0
151 144 0
153 148 0
151 145 0
150 143 0
151 146 0
151 146 0
153 147 0
153 147 0
152 172 0
152 173 0
150 171 0
149 168 0
152 172 0
151 169 0
151 171 0
150 170 0
150 171 0
149 168 0
152 172 0
149 168 0
151 171 0
150 169 0
150 169 0
151 170 0
153 173 0
149 168 0
152 171 0
149 168 0
150 169 0
149 168 0
150 170 0
146 163 0
146 163 0
149 166 0
152 171 0
149 168 0
150 168 0
150 168 0
148 166 0
145 162 0
150 169 0
146 163 0
148 165 0
150 167 0
146 164 0
147 163 0
149 167 0
146 164 0
147 162 0
147 163 0
148 166 0
145 162 0
147 163 0
144 161 0
147 163 0
146 162 0
146 161 0
146 162 0
146 159 0
142 159 0
145 162 0
149 165 0
145 161 0
142 155 0
142 155 0
145 160 0
144 158 0
144 160 0
145 161 0
143 158 0
144 157 0
140 155 0
142 158 0
141 155 0
144 158 0
145 159 0
141 155 0
147 162 0
140 153 0
144 156 0
142 156 0
134 142 0
144 155 0
139 149 0
140 153 0
145 159 0
138 150 0
141 155 0
140 149 0
141 154 0
135 146 0
138 149 0
141 153 0
141 152 0
138 147 0
135 144 0
131 138 0
137 147 0
133 142 0
134 141 0
132 141 0
132 141 0
127 135 0
135 143 0
130 134 0
133 139 0
133 140 0
131 139 0
131 137 0
131 138 0
127 131 0
131 135 0
127 132 0
130 136 0
127 131 0
134 141 0
128 130 0
129 132 0
121 124 0
130 137 0
130 136 0
123 123 0
128 132 0
122 126 0
119 123 0
125 127 0
124 129 0
129 133 0
128 136 0
124 126 0
131 136 0
129 136 0
147 160 0
155 169 0
159 176 0
157 173 0
160 173 0
159 174 0
161 179 0
160 176 0
156 171 0
160 174 0
157 172 0
158 168 0
158 173 0
160 172 0
159 174 0
155 167 0
159 174 0
157 171 0
156 168 0
158 171 0
156 170 0
153 165 0
155 166 0
154 166 0
157 170 0
156 166 0
148 146 28
137 97 55
140 100 57
146 104 73
150 107 79
146 104 65
143 101 71
146 103 73
153 109 77
153 109 88
147 106 67
146 104 72
152 107 82
151 108 85
148 106 71
148 104 79
146 104 68
153 108 86
150 106 80
148 105 78
152 109 82
149 106 72
149 106 78
148 106 76
156 112 89
153 109 86
148 105 72
151 109 74
150 106 81
153 109 82
156 111 95
154 110 90
150 107 72
154 109 90
153 109 80
150 106 81
150 107 74
153 109 87
149 108 76
152 107 84
152 109 76
151 108 78
153 110 84
151 106 75
154 111 85
147 106 74
154 110 85
148 104 68
153 108 84
155 111 90
154 109 87
154 110 87
151 109 82
155 110 90
151 108 78
154 109 84
151 107 81
154 110 86
155 110 87
152 107 87
149 107 78
152 109 78
155 111 88
154 110 82
150 108 74
152 109 79
148 106 78
149 107 72
150 106 79
155 110 95
150 106 80
153 109 76
153 108 81
150 106 79
149 105 79
148 105 71
151 107 78
153 109 80
153 109 84
148 104 80
149 106 76
152 107 79
155 111 88
148 105 70
150 106 75
141 98 70
151 107 79
151 107 80
150 105 84
147 103 67
150 105 74
150 107 76
147 104 71
145 102 70
145 99 73
144 100 69
136 93 59
139 97 51
153 152 31
148 152 0
161 170 0
161 169 0
156 163 0
155 161 0
154 160 0
156 164 0
157 163 0
157 165 0
157 163 0
154 161 0
158 166 0
158 168 0
160 170 0
157 164 0
159 169 0
154 159 0
155 162 0
159 170 0
162 169 0
156 165 0
162 173 0
160 167 0
161 170 0
162 171 0
147 145 0
130 112 0
126 105 0
125 104 0
123 100 0
125 104 0
118 93 0
125 105 0
124 103 0
123 101 0
118 95 0
124 101 0
128 108 0
123 104 0
124 101 0
125 104 0
129 112 0
132 113 0
125 106 0
131 114 0
132 112 0
129 109 0
131 113 0
130 110 0
131 112 0
135 120 0
131 113 0
135 117 0
134 117 0
136 118 0
132 113 0
134 114 0
134 117 0
130 113 0
136 119 0
134 117 0
139 124 0
140 124 0
132 115 0
134 118 0
138 122 0
137 122 0
141 127 0
141 126 0
143 129 0
140 127 0
138 125 0
142 128 0
138 123 0
140 126 0
135 118 0
140 127 0
141 128 0
137 121 0
138 126 0
145 134 0
143 131 0
142 130 0
145 135 0
144 131 0
139 128 0
146 135 0
145 135 0
140 128 0
145 132 0
145 135 0
144 132 0
146 133 0
147 137 0
144 132 0
141 132 0
144 133 0
145 132 0
144 134 0
146 135 0
147 138 0
145 137 0
146 138 0
147 137 0
145 135 0
149 141 0
147 139 0
147 136 0
143 134 0
146 137 0
146 137 0
149 141 0
146 137 0
147 138 0
148 140 0
147 138 0
150 144 0
149 142 0
147 139 0
148 139 0
148 140 0
149 141 0
149 143 0
149 142 0
150 142 0
148 140 0
149 142 0
150 143 0
150 144 0
147 139 0
151 142 0
150 142 0
151 144 0
151 145 0
152 145 0
150 143 0
149 144 0
151 146 0
149 142 0
152 147 0
152 147 0
152 145 0
151 145 0
150 144 0
152 146 0
150 144 0
153 146 0
151 145 0
152 146 0
152 146 0
153 147 0
152 173 0
149 170 0
152 172 0
149 168 0
152 171 0
149 168 0
150 169 0
152 171 0
150 170 0
150 169 0
152 172 0
148 168 0
150 170 0
152 172 0
150 170 0
152 171 0
150 169 0
150 169 0
149 167 0
153 171 0
152 171 0
151 170 0
152 172 0
145 163 0
150 169 0
146 163 0
148 167 0
149 166 0
148 166 0
147 164 0
149 167 0
149 166 0
149 168 0
148 166 0
148 167 0
148 165 0
146 161 0
147 165 0
150 167 0
148 165 0
148 165 0
147 162 0
148 164 0
146 163 0
146 163 0
144 159 0
145 160 0
148 164 0
147 163 0
145 162 0
147 163 0
145 162 0
144 159 0
147 162 0
143 158 0
146 162 0
145 160 0
146 162 0
142 157 0
145 159 0
143 158 0
143 157 0
143 159 0
138 152 0
139 155 0
140 152 0
144 159 0
138 151 0
138 151 0
141 154 0
142 157 0
141 155 0
144 156 0
132 143 0
144 159 0
137 149 0
141 154 0
139 151 0
139 152 0
137 146 0
138 149 0
138 149 0
142 152 0
137 148 0
138 149 0
139 151 0
138 146 0
133 140 0
139 150 0
133 144 0
134 143 0
133 143 0
136 145 0
137 146 0
136 146 0
134 141 0
133 141 0
133 140 0
128 133 0
133 138 0
126 129 0
143 153 0
123 126 0
131 136 0
127 130 0
133 137 0
129 134 0
126 129 0
119 119 0
125 129 0
124 130 0
129 134 0
117 118 0
125 126 0
118 122 0
117 117 0
126 127 0
127 130 0
120 123 0
125 132 0
129 136 0
128 137 0
131 140 0
153 170 0
156 173 0
160 177 0
158 173 0
158 173 0
155 168 0
158 173 0
155 167 0
155 168 0
153 166 0
155 170 0
157 169 0
160 172 0
158 172 0
153 166 0
154 168 0
156 169 0
150 162 0
154 164 0
154 163 0
154 166 0
158 173 0
152 163 0
159 173 0
156 164 0
156 169 0
156 166 0
158 169 0
143 136 37
140 99 50
143 102 66
150 107 74
146 104 71
147 104 70
146 104 75
149 107 69
148 105 75
148 105 82
145 102 73
145 103 76
146 105 74
145 102 66
147 104 83
147 104 74
150 107 81
150 108 77
151 108 82
150 106 78
155 110 85
150 107 77
144 101 64
144 102 70
150 107 78
151 108 82
151 108 78
154 110 88
150 107 72
152 108 85
155 110 85
148 105 74
152 108 84
153 109 82
149 107 71
154 111 80
145 103 65
151 107 76
154 110 84
151 107 81
153 109 81
151 109 76
150 108 80
153 109 85
154 110 84
146 103 65
147 104 78
153 108 90
151 107 80
151 108 80
147 104 71
153 110 82
145 104 64
155 112 80
152 109 84
151 108 76
151 108 81
148 106 75
150 108 74
151 108 82
151 110 75
149 104 76
154 111 82
153 109 86
152 108 81
149 107 71
147 104 67
152 107 81
151 107 81
150 107 84
154 109 78
152 109 82
151 108 81
148 105 78
152 108 85
148 105 78
148 106 76
152 108 80
150 107 78
150 106 80
150 105 78
147 103 71
154 109 85
146 103 72
149 106 76
149 105 77
147 104 74
146 103 76
149 105 78
145 102 72
148 104 81
150 107 81
148 103 76
146 101 69
140 96 63
145 100 72
145 124 40
154 155 0
157 162 0
154 161 0
153 157 0
159 167 0
157 165 0
156 159 0
154 160 0
155 161 0
155 160 0
158 164 0
153 160 0
157 162 0
156 164 0
157 161 0
150 150 0
155 161 0
159 167 0
158 166 0
155 156 0
156 159 0
156 164 0
158 167 0
154 160 0
159 167 0
160 168 0
153 157 0
152 154 0
136 120 0
122 103 0
122 102 0
125 106 0
125 104 0
127 108 0
125 104 0
121 100 0
122 101 0
128 110 0
118 96 0
124 104 0
125 108 0
125 106 0
123 101 0
128 107 0
126 105 0
131 112 0
127 106 0
129 111 0
127 107 0
126 107 0
134 118 0
128 111 0
131 112 0
129 107 0
129 113 0
134 116 0
131 113 0
132 114 0
134 119 0
137 120 0
129 110 0
129 111 0
132 116 0
138 122 0
138 126 0
142 128 0
139 123 0
139 123 0
138 122 0
134 117 0
140 127 0
143 129 0
139 125 0
139 126 0
136 124 0
138 124 0
141 128 0
138 125 0
140 129 0
143 129 0
141 130 0
140 126 0
135 123 0
141 130 0
143 129 0
143 132 0
144 133 0
138 125 0
143 133 0
143 131 0
146 135 0
144 134 0
143 132 0
144 131 0
140 128 0
144 134 0
145 135 0
147 135 0
144 134 0
146 139 0
148 139 0
145 133 0
144 134 0
146 135 0
146 136 0
147 137 0
147 139 0
148 137 0
148 141 0
146 137 0
148 137 0
146 135 0
148 138 0
150 143 0
147 137 0
149 141 0
148 139 0
150 142 0
149 141 0
146 137 0
147 137 0
149 142 0
146 137 0
150 142 0
150 144 0
148 141 0
147 138 0
152 145 0
150 143 0
152 145 0
150 143 0
149 141 0
151 145 0
148 139 0
150 142 0
150 141 0
151 143 0
151 145 0
149 142 0
146 141 0
151 145 0
152 145 0
150 144 0
152 146 0
149 142 0
150 143 0
151 145 0
148 142 0
149 142 0
150 144 0
150 145 0
151 146 0
152 171 0
154 174 0
151 171 0
151 171 0
150 168 0
151 170 0
152 171 0
150 169 0
152 171 0
152 173 0
151 171 0
150 168 0
152 171 0
148 166 0
149 169 0
149 167 0
150 167 0
150 169 0
151 170 0
148 166 0
152 171 0
148 166 0
150 167 0
148 168 0
150 168 0
149 167 0
150 169 0
149 168 0
147 166 0
148 166 0
148 168 0
148 164 0
149 165 0
148 165 0
150 168 0
149 167 0
144 160 0
148 166 0
147 163 0
149 166 0
147 164 0
146 164 0
145 162 0
147 164 0
148 165 0
148 166 0
146 163 0
148 164 0
143 158 0
145 161 0
147 164 0
144 160 0
144 160 0
145 160 0
144 161 0
140 151 0
143 157 0
143 157 0
146 162 0
143 158 0
147 164 0
144 158 0
141 154 0
142 155 0
142 155 0
142 156 0
144 160 0
137 150 0
144 157 0
140 153 0
142 157 0
141 155 0
140 151 0
144 158 0
141 154 0
141 154 0
144 156 0
140 151 0
139 149 0
137 147 0
141 155 0
135 145 0
132 142 0
139 147 0
136 143 0
133 144 0
129 138 0
134 142 0
135 146 0
131 136 0
130 137 0
133 141 0
135 145 0
128 137 0
135 144 0
134 144 0
128 133 0
130 134 0
129 135 0
130 133 0
128 133 0
128 134 0
128 129 0
130 133 0
131 138 0
129 136 0
125 131 0
128 132 0
124 129 0
124 128 0
121 123 0
120 125 0
122 123 0
123 127 0
125 126 0
127 131 0
122 125 0
129 135 0
124 128 0
122 129 0
128 135 0
142 155 0
154 169 0
157 172 0
157 171 0
162 179 0
152 166 0
152 165 0
157 170 0
151 164 0
159 174 0
157 169 0
156 172 0
152 164 0
154 168 0
154 166 0
158 172 0
149 163 0
161 174 0
158 171 0
155 167 0
155 166 0
158 167 0
157 170 0
154 165 0
153 166 0
152 159 0
151 159 0
148 157 0
151 160 0
153 162 0
152 163 0
144 132 34
141 98 62
142 101 66
143 100 64
146 103 72
146 105 59
150 108 79
143 100 71
148 104 76
145 103 70
148 105 71
148 106 76
148 106 76
149 106 67
151 107 81
149 106 75
150 107 80
153 109 80
151 108 76
151 109 78
148 105 78
151 108 78
149 107 75
149 107 75
150 106 81
147 104 70
150 107 75
154 110 88
149 106 72
150 107 82
150 107 74
147 104 78
150 107 79
155 110 86
151 107 81
153 110 85
151 108 78
151 108 78
151 107 81
151 107 80
150 107 78
147 103 71
151 108 82
150 107 80
149 105 78
149 107 75
150 107 75
150 106 76
153 109 78
152 108 82
152 107 88
155 112 82
152 108 82
145 101 67
147 107 65
156 112 86
156 113 87
150 105 86
150 106 75
153 109 85
153 111 82
151 107 75
148 105 79
152 108 82
148 105 75
150 106 85
147 105 68
145 102 72
150 108 72
148 104 74
148 105 72
151 108 79
150 107 74
148 105 78
149 105 79
149 106 71
151 108 76
149 107 68
153 109 85
148 105 75
146 104 64
151 107 78
146 103 74
152 109 82
146 101 68
147 103 76
146 104 73
148 104 74
146 102 64
145 100 75
142 100 62
143 100 64
143 100 64
140 97 56
147 129 44
153 157 0
152 157 0
154 159 0
156 161 0
157 164 0
153 158 0
150 152 0
157 162 0
152 158 0
157 162 0
153 157 0
155 159 0
147 147 0
152 156 0
149 150 0
155 161 0
159 163 0
153 156 0
151 152 0
156 161 0
159 165 0
153 157 0
159 164 0
156 160 0
152 155 0
152 151 0
160 166 0
149 150 0
148 148 0
158 163 0
139 128 0
125 104 0
124 104 0
126 107 0
125 104 0
123 104 0
119 96 0
123 101 0
124 103 0
114 87 0
121 96 0
123 101 0
133 112 0
121 99 0
121 100 0
122 101 0
123 102 0
125 104 0
125 105 0
126 105 0
132 113 0
126 106 0
135 116 0
129 111 0
130 108 0
132 113 0
130 111 0
136 120 0
131 114 0
134 117 0
132 115 0
132 116 0
136 116 0
136 122 0
136 122 0
137 123 0
137 124 0
139 125 0
140 124 0
139 121 0
139 126 0
140 126 0
138 123 0
135 119 0
136 122 0
134 117 0
136 121 0
137 122 0
139 127 0
143 129 0
139 122 0
142 130 0
138 124 0
143 132 0
142 130 0
144 132 0
139 126 0
145 134 0
141 128 0
148 139 0
143 130 0
145 135 0
145 135 0
144 133 0
142 130 0
143 131 0
143 132 0
146 136 0
140 129 0
146 137 0
144 134 0
144 132 0
150 140 0
143 133 0
143 134 0
147 139 0
148 139 0
146 136 0
146 137 0
145 134 0
149 142 0
147 139 0
150 142 0
146 138 0
148 140 0
146 138 0
145 137 0
146 137 0
148 140 0
146 137 0
149 141 0
147 138 0
147 138 0
149 139 0
146 139 0
151 142 0
150 143 0
149 140 0
148 139 0
148 142 0
149 142 0
150 143 0
149 141 0
150 143 0
148 141 0
151 142 0
148 141 0
150 143 0
151 146 0
149 143 0
151 143 0
150 144 0
147 140 0
150 143 0
152 144 0
152 145 0
152 147 0
149 141 0
151 144 0
150 144 0
148 143 0
151 145 0
151 145 0
151 170 0
151 171 0
150 168 0
151 171 0
151 171 0
151 170 0
151 171 0
149 169 0
151 170 0
151 170 0
149 169 0
151 171 0
151 169 0
148 167 0
149 168 0
148 167 0
149 167 0
150 167 0
151 170 0
148 168 0
146 164 0
148 166 0
146 164 0
151 170 0
149 166 0
147 164 0
151 169 0
141 158 0
145 164 0
146 163 0
150 168 0
149 166 0
148 164 0
148 166 0
150 166 0
146 162 0
147 162 0
148 165 0
147 162 0
149 164 0
148 164 0
148 163 0
146 163 0
145 160 0
145 161 0
146 163 0
144 161 0
147 164 0
146 160 0
148 167 0
148 164 0
143 158 0
145 161 0
145 162 0
147 164 0
145 160 0
146 164 0
143 156 0
142 156 0
144 158 0
146 159 0
144 158 0
145 162 0
140 152 0
144 159 0
143 157 0
141 154 0
144 156 0
145 159 0
140 156 0
139 153 0
142 156 0
139 150 0
138 149 0
137 149 0
142 153 0
138 150 0
136 149 0
138 148 0
137 147 0
137 146 0
137 148 0
136 145 0
134 145 0
136 145 0
136 145 0
133 140 0
134 144 0
134 143 0
138 148 0
138 148 0
133 140 0
132 136 0
133 142 0
133 142 0
129 134 0
127 132 0
126 128 0
132 139 0
127 133 0
120 121 0
132 137 0
127 131 0
125 129 0
126 133 0
126 132 0
120 122 0
118 119 0
129 136 0
122 124 0
122 127 0
126 132 0
119 120 0
123 125 0
117 116 0
115 117 0
125 130 0
125 130 0
125 135 0
132 139 0
141 153 0
152 167 0
155 168 0
158 171 0
151 163 0
146 159 0
150 163 0
156 172 0
152 165 0
151 162 0
152 164 0
153 166 0
151 165 0
154 166 0
153 164 0
150 160 0
153 164 0
156 169 0
154 167 0
152 164 0
149 158 0
154 166 0
149 158 0
154 165 0
148 154 0
154 163 0
154 166 0
151 162 0
156 167 0
146 151 0
152 161 0
150 159 0
153 163 0
145 127 42
145 102 67
143 102 70
144 100 66
147 104 80
141 99 65
146 104 71
143 103 67
144 102 70
147 105 72
148 105 71
149 107 82
148 106 76
150 107 82
146 104 59
147 107 67
150 106 76
151 108 85
147 104 75
150 106 80
151 108 84
151 108 81
152 108 87
152 109 84
151 108 79
151 108 79
154 109 90
149 107 74
150 107 82
148 106 78
152 107 84
150 107 76
152 109 72
152 109 85
149 106 74
150 107 76
153 110 76
153 110 79
150 106 79
148 106 72
150 108 75
149 104 76
149 106 74
152 110 80
155 111 80
151 109 78
151 109 79
149 105 76
150 106 81
152 109 75
151 107 79
147 106 67
150 106 82
150 107 75
149 108 71
147 105 68
150 108 82
150 106 78
150 105 79
150 106 70
148 103 72
150 107 79
152 109 82
150 107 79
148 105 80
149 106 79
151 108 75
148 105 74
152 108 79
149 106 72
151 108 76
149 105 71
148 106 71
148 106 75
148 104 78
151 107 80
148 106 76
149 107 80
149 105 74
146 104 74
148 104 77
145 102 71
144 101 65
144 100 73
148 104 78
151 106 81
147 102 74
147 103 63
143 98 63
145 101 71
143 99 67
138 95 58
143 127 44
143 142 0
158 164 0
153 157 0
154 161 0
152 156 0
153 155 0
156 162 0
155 158 0
149 151 0
150 154 0
155 158 0
149 149 0
155 160 0
155 161 0
156 163 0
153 158 0
153 157 0
153 155 0
152 157 0
157 162 0
153 156 0
149 151 0
147 145 0
154 157 0
153 154 0
152 154 0
143 140 0
157 159 0
150 152 0
158 162 0
156 159 0
156 162 0
145 142 0
133 117 0
126 105 0
122 101 0
125 102 0
126 104 0
123 100 0
120 97 0
123 103 0
124 103 0
123 101 0
121 99 0
122 100 0
124 104 0
128 109 0
124 102 0
126 108 0
129 111 0
128 107 0
126 105 0
127 106 0
131 112 0
129 107 0
133 113 0
132 113 0
131 116 0
127 107 0
133 116 0
133 117 0
135 117 0
138 121 0
136 122 0
135 117 0
139 125 0
129 113 0
140 124 0
135 120 0
137 122 0
138 123 0
136 120 0
139 127 0
139 125 0
138 122 0
138 123 0
141 129 0
140 124 0
140 125 0
139 127 0
139 125 0
142 128 0
140 125 0
143 129 0
144 131 0
141 125 0
135 120 0
141 128 0
144 131 0
141 128 0
143 131 0
141 128 0
138 127 0
143 131 0
142 133 0
144 133 0
145 133 0
141 128 0
145 134 0
142 130 0
144 129 0
142 130 0
144 134 0
144 131 0
144 135 0
147 138 0
144 132 0
145 135 0
144 132 0
145 134 0
144 133 0
148 137 0
147 136 0
146 137 0
145 136 0
147 137 0
147 139 0
146 136 0
145 136 0
145 137 0
147 140 0
146 138 0
147 140 0
148 141 0
149 140 0
150 142 0
148 140 0
147 139 0
150 142 0
148 139 0
147 138 0
151 143 0
148 141 0
150 141 0
150 143 0
150 141 0
150 142 0
150 143 0
149 141 0
149 142 0
148 141 0
150 142 0
151 143 0
149 143 0
149 142 0
152 146 0
151 145 0
151 144 0
153 147 0
151 145 0
149 142 0
150 143 0
150 144 0
150 144 0
151 170 0
153 172 0
154 173 0
150 169 0
152 172 0
150 170 0
152 171 0
149 168 0
152 171 0
150 169 0
148 168 0
151 170 0
147 165 0
153 171 0
150 170 0
150 168 0
151 170 0
151 169 0
149 168 0
149 168 0
148 166 0
146 164 0
146 165 0
148 167 0
149 168 0
150 167 0
149 168 0
149 168 0
148 166 0
148 166 0
149 167 0
147 165 0
148 165 0
151 170 0
147 165 0
150 168 0
143 160 0
147 164 0
145 164 0
146 162 0
146 165 0
147 164 0
146 162 0
147 163 0
149 166 0
147 163 0
146 162 0
145 160 0
143 158 0
144 160 0
146 161 0
145 160 0
144 161 0
143 159 0
145 162 0
147 161 0
146 163 0
146 160 0
141 155 0
142 155 0
141 157 0
140 157 0
145 159 0
142 158 0
141 154 0
140 151 0
140 153 0
140 154 0
139 151 0
138 151 0
138 152 0
140 154 0
144 155 0
141 153 0
139 152 0
143 156 0
138 150 0
139 150 0
140 150 0
143 155 0
144 158 0
138 149 0
133 142 0
137 146 0
136 147 0
139 151 0
136 143 0
133 144 0
135 144 0
134 144 0
133 140 0
129 136 0
136 144 0
131 138 0
132 139 0
129 133 0
127 133 0
132 139 0
131 136 0
125 131 0
125 129 0
127 131 0
123 127 0
124 129 0
127 132 0
125 131 0
128 131 0
122 125 0
117 120 0
126 129 0
117 117 0
120 126 0
119 119 0
119 120 0
124 128 0
120 124 0
122 127 0
124 129 0
137 148 0
151 164 0
155 166 0
150 162 0
156 171 0
147 160 0
153 167 0
154 166 0
148 156 0
149 159 0
153 162 0
147 157 0
152 165 0
153 164 0
149 158 0
156 170 0
156 167 0
148 157 0
152 162 0
151 161 0
150 162 0
151 163 0
146 156 0
153 164 0
152 164 0
144 152 0
149 158 0
147 153 0
149 155 0
147 154 0
151 160 0
148 155 0
143 148 0
152 162 0
142 149 0
148 153 0
146 133 37
142 100 66
141 100 62
144 102 68
139 98 62
150 109 81
145 103 65
148 107 74
152 108 80
141 100 65
149 106 81
146 102 72
150 106 80
149 106 76
146 104 72
147 105 72
149 106 77
146 103 71
153 108 80
149 107 72
154 111 86
152 109 79
149 106 79
151 107 79
150 107 79
148 106 76
151 109 79
148 105 72
149 105 72
146 105 75
149 106 72
151 109 79
153 110 84
151 108 81
151 108 87
146 103 71
146 104 71
149 107 75
149 106 75
152 108 76
149 105 71
148 106 70
152 109 76
148 105 68
147 105 71
151 108 71
147 106 65
155 110 86
151 109 80
153 109 76
153 108 75
154 109 86
153 109 88
153 110 84
150 106 76
148 104 79
150 107 74
153 109 82
151 108 80
153 109 86
150 106 76
153 110 76
150 107 75
154 110 85
148 106 70
147 104 67
144 101 64
150 106 75
149 107 70
145 102 66
150 106 84
150 106 80
149 105 74
152 107 84
145 101 65
148 106 75
148 104 71
148 104 78
149 107 75
147 105 79
144 102 62
148 104 78
143 101 61
146 102 67
146 103 70
149 104 74
147 104 69
143 99 70
144 99 62
138 95 61
139 121 37
147 146 0
148 149 0
148 147 0
146 145 0
151 153 0
151 151 0
151 152 0
149 148 0
147 147 0
153 156 0
152 152 0
150 152 0
155 159 0
150 151 0
151 154 0
152 151 0
151 152 0
156 156 0
153 155 0
152 153 0
153 156 0
152 158 0
151 150 0
149 150 0
146 144 0
151 152 0
150 150 0
151 155 0
157 160 0
153 157 0
155 159 0
153 157 0
150 150 0
154 157 0
150 150 0
133 121 0
122 102 0
121 98 0
126 104 0
118 95 0
120 99 0
124 106 0
123 101 0
118 97 0
119 95 0
122 100 0
116 92 0
129 111 0
127 107 0
122 102 0
125 103 0
128 109 0
129 107 0
123 103 0
123 103 0
130 112 0
131 113 0
128 107 0
128 108 0
128 109 0
132 114 0
133 115 0
132 114 0
133 115 0
135 117 0
132 112 0
134 120 0
135 121 0
129 108 0
138 120 0
136 122 0
139 124 0
136 119 0
137 123 0
134 116 0
139 123 0
137 121 0
136 121 0
134 118 0
141 127 0
144 132 0
139 127 0
141 129 0
142 127 0
141 128 0
139 125 0
135 123 0
144 132 0
138 124 0
144 134 0
139 126 0
144 133 0
143 129 0
141 125 0
142 130 0
144 134 0
147 135 0
141 130 0
144 134 0
146 133 0
143 131 0
143 132 0
145 133 0
143 131 0
143 133 0
143 132 0
146 136 0
144 133 0
144 132 0
143 131 0
144 135 0
147 138 0
145 135 0
141 132 0
148 139 0
150 139 0
147 137 0
146 136 0
145 135 0
147 137 0
149 139 0
146 138 0
148 140 0
151 144 0
144 135 0
150 142 0
144 132 0
149 140 0
150 140 0
148 140 0
153 145 0
145 137 0
147 139 0
152 144 0
146 137 0
146 138 0
149 143 0
151 145 0
150 142 0
149 141 0
152 146 0
152 144 0
149 142 0
151 143 0
152 145 0
149 141 0
151 144 0
152 145 0
151 144 0
152 145 0
150 144 0
152 144 0
150 144 0
152 146 0
150 144 0
150 169 0
152 172 0
151 170 0
152 171 0
150 169 0
151 171 0
150 168 0
150 170 0
151 171 0
150 168 0
149 168 0
147 167 0
150 169 0
149 167 0
148 166 0
149 168 0
149 167 0
151 169 0
149 168 0
150 169 0
150 169 0
150 168 0
151 168 0
149 168 0
150 169 0
145 162 0
149 168 0
146 164 0
148 166 0
149 167 0
147 164 0
149 166 0
149 165 0
143 161 0
150 167 0
147 165 0
144 160 0
146 161 0
144 159 0
148 165 0
144 161 0
146 164 0
145 161 0
144 161 0
146 162 0
149 165 0
143 157 0
147 163 0
144 159 0
148 165 0
144 159 0
146 161 0
141 153 0
146 161 0
143 157 0
146 161 0
144 160 0
145 160 0
144 158 0
141 155 0
145 159 0
146 163 0
142 157 0
144 157 0
144 160 0
137 151 0
140 152 0
141 157 0
138 150 0
138 152 0
137 150 0
139 152 0
144 159 0
140 152 0
136 149 0
136 147 0
136 147 0
134 147 0
138 149 0
137 147 0
136 145 0
137 151 0
135 144 0
137 148 0
128 134 0
140 149 0
135 145 0
136 146 0
134 143 0
133 144 0
127 135 0
130 133 0
122 129 0
132 141 0
128 137 0
126 133 0
129 136 0
121 127 0
128 137 0
126 132 0
127 134 0
121 124 0
131 137 0
123 125 0
123 126 0
128 133 0
120 126 0
130 134 0
118 119 0
124 128 0
123 127 0
124 128 0
119 121 0
119 122 0
117 120 0
118 123 0
130 138 0
144 155 0
151 165 0
151 165 0
141 149 0
143 150 0
147 159 0
153 165 0
152 164 0
148 155 0
144 155 0
150 161 0
146 156 0
153 165 0
141 151 0
150 159 0
152 160 0
149 160 0
147 156 0
152 162 0
153 162 0
156 170 0
148 157 0
151 160 0
142 149 0
147 157 0
144 150 0
144 147 0
146 155 0
151 159 0
151 157 0
148 153 0
148 156 0
153 162 0
155 163 0
147 156 0
144 147 0
149 152 0
152 163 0
140 129 27
141 98 65
143 100 62
144 101 66
139 98 62
146 103 76
146 104 67
145 102 75
147 105 72
147 105 70
148 104 82
147 104 72
150 106 78
149 107 79
150 106 75
146 104 70
144 102 60
145 103 72
149 107 79
153 110 86
148 105 68
148 107 80
149 105 76
149 106 72
143 101 69
152 109 76
147 103 75
144 101 67
147 104 70
154 109 88
148 105 72
152 108 78
148 104 71
151 107 81
153 108 84
154 110 91
151 107 81
149 106 81
150 106 74
147 105 72
148 106 72
148 105 74
149 105 72
150 108 76
150 107 72
147 104 70
150 106 74
149 104 76
151 107 81
151 110 78
154 111 82
149 105 76
149 106 70
155 110 84
152 109 79
147 104 75
152 108 85
152 109 80
152 108 82
146 103 68
150 106 78
147 104 68
150 108 80
150 107 78
150 107 81
154 109 84
149 106 65
147 104 75
147 104 70
147 105 68
148 104 73
146 102 70
144 102 64
147 103 67
149 106 72
145 103 65
149 105 81
150 106 74
146 103 70
145 101 65
149 105 80
146 102 70
145 101 61
145 102 71
143 99 55
146 102 70
141 96 67
142 98 65
143 126 40
149 148 0
143 138 0
157 161 0
153 156 0
150 152 0
144 142 0
149 152 0
153 156 0
144 144 0
147 146 0
148 148 0
155 161 0
150 154 0
149 146 0
151 152 0
145 143 0
154 158 0
151 153 0
148 148 0
147 148 0
150 149 0
148 150 0
146 147 0
150 153 0
148 149 0
151 153 0
151 153 0
153 155 0
152 156 0
151 149 0
152 153 0
135 127 0
147 146 0
150 152 0
145 146 0
149 148 0
154 154 0
147 145 0
127 110 0
127 107 0
119 95 0
123 102 0
120 94 0
112 86 0
121 101 0
122 97 0
125 104 0
117 95 0
124 102 0
129 109 0
128 109 0
125 105 0
126 105 0
124 104 0
127 106 0
130 110 0
130 111 0
132 113 0
129 111 0
125 105 0
130 112 0
130 112 0
132 112 0
130 112 0
133 116 0
131 111 0
122 101 0
137 122 0
133 116 0
131 113 0
139 123 0
130 109 0
132 114 0
136 120 0
134 116 0
140 126 0
137 121 0
135 120 0
137 121 0
135 121 0
134 120 0
137 123 0
138 121 0
136 121 0
133 117 0
141 128 0
136 121 0
141 127 0
141 126 0
144 131 0
146 134 0
141 129 0
140 127 0
141 129 0
139 123 0
137 124 0
145 132 0
136 122 0
144 132 0
142 130 0
145 134 0
138 126 0
140 127 0
142 131 0
143 132 0
140 127 0
143 134 0
143 135 0
140 126 0
143 135 0
149 139 0
145 136 0
145 135 0
144 133 0
149 141 0
146 135 0
146 136 0
147 140 0
140 127 0
148 139 0
145 133 0
147 140 0
149 139 0
147 137 0
147 139 0
150 140 0
148 138 0
148 138 0
143 132 0
146 135 0
150 142 0
151 144 0
147 139 0
146 140 0
146 138 0
147 139 0
147 138 0
147 137 0
150 141 0
149 140 0
150 143 0
149 141 0
147 139 0
148 142 0
149 141 0
151 144 0
149 143 0
150 144 0
148 140 0
148 140 0
150 144 0
151 144 0
151 144 0
151 145 0
152 143 0
152 146 0
151 171 0
153 172 0
150 169 0
150 168 0
150 169 0
151 171 0
149 168 0
152 172 0
149 168 0
150 169 0
147 165 0
150 169 0
149 168 0
149 168 0
148 169 0
147 165 0
149 167 0
150 168 0
153 170 0
148 166 0
144 162 0
150 168 0
149 168 0
146 164 0
147 165 0
146 164 0
148 166 0
148 165 0
147 163 0
145 162 0
149 167 0
145 165 0
146 161 0
148 166 0
146 164 0
144 160 0
148 166 0
147 164 0
150 169 0
144 160 0
145 162 0
144 159 0
147 164 0
145 161 0
145 163 0
143 159 0
146 161 0
145 160 0
142 157 0
143 159 0
147 165 0
140 156 0
145 161 0
147 164 0
140 153 0
144 159 0
142 159 0
138 152 0
146 163 0
140 152 0
140 155 0
138 149 0
142 157 0
140 151 0
141 155 0
142 157 0
140 151 0
139 152 0
137 151 0
138 150 0
140 153 0
140 152 0
132 143 0
139 150 0
136 147 0
141 152 0
135 146 0
136 147 0
132 140 0
133 141 0
141 154 0
132 143 0
137 150 0
132 141 0
138 149 0
136 145 0
130 137 0
129 133 0
131 139 0
133 143 0
130 138 0
126 131 0
129 137 0
132 140 0
127 133 0
131 139 0
129 134 0
126 133 0
131 138 0
125 131 0
122 127 0
121 125 0
123 128 0
118 120 0
123 127 0
118 120 0
113 112 0
119 124 0
114 118 0
125 130 0
116 120 0
123 126 0
119 122 0
113 117 0
121 128 0
132 141 0
142 153 0
139 150 0
148 160 0
144 154 0
146 159 0
142 153 0
143 153 0
149 158 0
144 150 0
146 158 0
147 157 0
150 160 0
149 157 0
146 152 0
145 154 0
149 157 0
141 146 0
152 162 0
152 160 0
152 159 0
152 160 0
147 155 0
147 156 0
150 159 0
146 151 0
155 167 0
152 162 0
149 159 0
147 154 0
141 144 0
147 155 0
150 159 0
148 156 0
149 156 0
152 158 0
142 143 0
148 152 0
143 144 0
151 156 0
149 154 0
146 135 44
143 102 65
142 99 66
142 100 54
141 98 66
147 104 68
144 102 65
149 105 77
145 104 73
144 103 68
149 106 80
145 103 67
144 101 68
146 104 75
148 105 71
151 108 74
146 104 65
148 105 72
150 107 76
147 104 71
148 106 72
151 107 79
148 104 76
150 105 72
151 108 76
151 108 76
146 103 65
149 106 75
145 103 64
151 109 74
151 107 78
147 105 74
149 106 74
149 107 76
147 103 70
147 104 68
154 110 84
153 110 80
148 106 70
148 103 78
152 107 82
148 103 75
146 103 67
145 103 67
150 108 70
147 104 72
153 109 81
151 106 72
148 105 78
149 108 72
147 105 72
148 103 75
147 105 62
144 101 56
151 107 80
150 106 76
154 111 85
151 108 79
150 105 82
144 101 68
143 104 59
151 107 79
146 103 64
147 105 70
149 105 79
147 104 72
146 104 71
147 103 74
149 106 75
149 105 72
148 105 71
153 107 80
146 104 73
148 105 70
143 100 57
148 102 72
146 101 71
145 103 67
146 102 66
146 104 57
143 100 64
144 101 63
139 97 56
144 101 73
143 98 64
136 92 61
143 127 44
149 146 0
146 146 0
147 146 0
150 152 0
146 143 0
143 144 0
149 149 0
145 144 0
140 141 0
153 154 0
147 145 0
144 142 0
154 157 0
144 140 0
147 149 0
148 150 0
148 148 0
150 150 0
152 153 0
144 137 0
146 140 0
144 142 0
149 149 0
145 145 0
146 144 0
149 150 0
148 144 0
146 144 0
149 146 0
140 136 0
140 140 0
142 140 0
143 140 0
145 144 0
145 141 0
145 143 0
140 135 0
141 138 0
142 138 0
144 140 0
136 127 0
117 95 0
125 104 0
113 87 0
117 93 0
119 96 0
116 93 0
114 88 0
125 104 0
126 104 0
126 105 0
123 100 0
121 98 0
117 94 0
121 101 0
128 106 0
125 107 0
127 107 0
125 104 0
128 107 0
130 110 0
129 107 0
132 113 0
129 111 0
136 117 0
133 117 0
127 111 0
134 117 0
130 110 0
135 119 0
136 119 0
137 120 0
134 119 0
138 123 0
134 118 0
136 119 0
138 124 0
137 121 0
137 123 0
135 118 0
135 117 0
136 121 0
138 125 0
141 128 0
134 116 0
141 128 0
139 123 0
139 125 0
145 133 0
142 130 0
143 129 0
144 133 0
144 132 0
140 127 0
140 128 0
134 121 0
140 124 0
140 127 0
142 131 0
140 127 0
144 132 0
144 133 0
143 131 0
144 135 0
140 127 0
144 133 0
146 135 0
144 134 0
145 134 0
146 133 0
144 133 0
146 137 0
146 135 0
143 133 0
146 135 0
148 139 0
148 138 0
146 134 0
146 136 0
148 136 0
142 131 0
148 138 0
149 139 0
149 141 0
149 140 0
146 137 0
146 138 0
147 138 0
146 135 0
147 138 0
148 139 0
149 141 0
147 138 0
149 140 0
150 141 0
148 138 0
151 144 0
147 137 0
148 141 0
149 141 0
148 140 0
149 141 0
150 143 0
148 140 0
152 143 0
149 142 0
146 137 0
152 146 0
150 142 0
150 142 0
149 140 0
150 142 0
150 143 0
149 142 0
151 145 0
151 145 0
149 142 0
151 170 0
153 172 0
151 172 0
148 167 0
151 169 0
148 167 0
149 167 0
153 172 0
149 168 0
147 165 0
147 167 0
152 170 0
146 164 0
151 169 0
151 169 0
148 166 0
150 168 0
148 167 0
149 167 0
149 167 0
150 167 0
148 164 0
148 166 0
147 163 0
149 167 0
148 165 0
148 165 0
147 164 0
142 159 0
144 162 0
146 165 0
148 166 0
148 165 0
147 165 0
143 159 0
147 165 0
146 164 0
145 161 0
148 165 0
145 163 0
143 160 0
145 161 0
143 159 0
142 158 0
144 161 0
144 160 0
147 163 0
143 158 0
142 157 0
145 161 0
143 159 0
142 157 0
146 162 0
143 158 0
145 160 0
144 160 0
141 156 0
138 151 0
143 155 0
144 158 0
140 154 0
139 151 0
141 154 0
140 153 0
141 153 0
139 152 0
136 148 0
142 155 0
142 155 0
136 147 0
141 153 0
139 152 0
140 152 0
135 144 0
133 143 0
141 152 0
128 138 0
138 150 0
137 149 0
132 144 0
134 145 0
135 145 0
128 136 0
132 139 0
130 139 0
140 152 0
127 135 0
130 140 0
123 131 0
130 138 0
130 139 0
135 143 0
127 134 0
129 138 0
134 142 0
123 128 0
124 128 0
121 124 0
119 121 0
120 127 0
124 130 0
131 139 0
122 127 0
116 120 0
117 120 0
118 123 0
118 121 0
125 131 0
114 117 0
110 113 0
119 123 0
118 122 0
119 123 0
132 138 0
140 151 0
142 153 0
146 157 0
143 154 0
144 154 0
135 144 0
138 147 0
143 154 0
139 149 0
144 151 0
144 151 0
150 159 0
144 150 0
142 153 0
146 152 0
143 150 0
149 159 0
143 147 0
147 151 0
145 153 0
151 160 0
152 161 0
144 153 0
145 153 0
149 156 0
143 143 0
148 154 0
138 139 0
151 159 0
139 139 0
147 156 0
144 149 0
150 156 0
153 163 0
149 153 0
142 143 0
144 148 0
145 148 0
148 156 0
146 151 0
144 147 0
147 150 0
151 155 0
145 140 19
138 99 54
138 97 57
145 103 67
144 102 62
145 103 65
148 105 68
145 103 69
148 105 73
147 104 70
142 99 61
148 105 68
148 105 72
147 103 79
146 103 72
149 106 75
148 105 71
147 106 71
150 108 75
147 105 74
149 106 71
147 105 70
146 103 72
149 107 71
148 105 75
149 106 74
146 103 75
148 104 74
147 104 68
151 107 78
145 102 64
153 109 79
145 103 61
148 105 70
152 108 80
149 106 72
151 107 81
149 105 76
147 105 70
144 102 62
151 108 72
148 106 67
153 108 81
143 99 68
152 107 88
149 106 74
154 111 85
146 103 64
146 102 68
146 103 68
148 106 70
149 106 74
148 106 79
149 107 72
153 108 80
150 106 78
148 103 76
152 108 78
151 106 80
149 105 70
144 101 65
145 102 64
149 105 75
149 105 71
145 101 74
147 103 71
144 101 65
145 103 57
140 98 52
147 104 69
149 104 76
148 103 74
149 106 79
146 102 70
144 101 67
145 100 72
142 99 71
141 98 54
144 100 68
145 102 55
146 102 75
144 100 63
142 97 64
137 99 50
141 127 37
150 148 0
151 154 0
148 148 0
141 137 0
146 142 0
148 149 0
142 143 0
142 140 0
148 148 0
143 142 0
146 140 0
138 130 0
149 152 0
150 153 0
151 155 0
145 144 0
138 132 0
145 143 0
146 145 0
144 141 0
148 147 0
142 139 0
144 143 0
145 143 0
145 140 0
149 146 0
143 140 0
142 136 0
147 147 0
143 138 0
142 137 0
143 140 0
138 136 0
146 142 0
137 130 0
138 132 0
141 138 0
144 141 0
143 142 0
132 125 0
142 137 0
140 138 0
139 134 0
131 115 0
120 96 0
115 91 0
120 96 0
124 103 0
117 95 0
122 98 0
116 89 0
123 102 0
119 98 0
115 93 0
123 101 0
122 101 0
124 100 0
122 102 0
124 102 0
129 111 0
122 102 0
126 105 0
127 109 0
131 113 0
131 113 0
129 111 0
127 108 0
134 117 0
132 112 0
131 114 0
133 114 0
133 116 0
131 112 0
134 115 0
131 114 0
133 115 0
135 118 0
132 116 0
141 127 0
136 122 0
132 114 0
139 125 0
135 120 0
137 122 0
135 118 0
143 133 0
138 124 0
138 124 0
141 128 0
140 126 0
139 126 0
138 124 0
132 116 0
142 125 0
141 127 0
140 126 0
140 126 0
142 128 0
142 126 0
138 122 0
141 128 0
141 130 0
140 127 0
143 132 0
146 133 0
143 133 0
145 135 0
145 134 0
145 134 0
140 128 0
145 133 0
142 129 0
141 129 0
145 132 0
145 134 0
145 135 0
142 131 0
146 135 0
149 138 0
147 138 0
144 133 0
148 136 0
145 134 0
143 132 0
145 133 0
146 137 0
148 139 0
149 140 0
147 139 0
146 136 0
146 135 0
150 142 0
148 141 0
149 141 0
149 141 0
147 138 0
149 141 0
149 141 0
148 140 0
146 138 0
151 140 0
144 134 0
150 142 0
151 142 0
149 139 0
152 145 0
149 141 0
149 142 0
152 144 0
151 144 0
150 143 0
148 140 0
151 144 0
150 142 0
153 146 0
148 139 0
152 146 0
152 146 0
149 168 0
152 170 0
148 168 0
152 172 0
151 172 0
151 170 0
149 169 0
150 170 0
149 166 0
153 171 0
151 170 0
150 168 0
148 167 0
148 166 0
148 167 0
150 169 0
149 167 0
149 167 0
148 166 0
150 169 0
148 166 0
148 166 0
149 167 0
145 163 0
148 165 0
145 162 0
148 167 0
147 165 0
150 169 0
146 163 0
149 165 0
150 168 0
147 164 0
146 163 0
149 167 0
147 163 0
145 161 0
145 162 0
145 162 0
146 164 0
146 162 0
144 158 0
141 156 0
146 162 0
144 160 0
142 157 0
143 159 0
146 161 0
147 164 0
143 158 0
144 158 0
140 154 0
144 159 0
147 162 0
139 155 0
138 154 0
142 158 0
143 157 0
140 154 0
139 154 0
138 151 0
138 153 0
140 152 0
138 149 0
140 153 0
141 156 0
143 158 0
141 155 0
143 156 0
141 153 0
136 149 0
135 146 0
135 146 0
133 145 0
132 143 0
132 143 0
137 149 0
136 145 0
132 141 0
139 151 0
135 145 0
135 144 0
132 142 0
128 137 0
129 139 0
132 140 0
131 141 0
128 131 0
131 139 0
128 135 0
126 131 0
128 135 0
128 135 0
128 133 0
123 129 0
125 128 0
122 127 0
126 132 0
125 132 0
126 131 0
122 125 0
118 124 0
122 127 0
116 117 0
118 126 0
117 121 0
122 129 0
114 119 0
116 120 0
111 115 0
115 120 0
119 128 0
140 150 0
132 140 0
139 150 0
140 150 0
139 149 0
138 147 0
140 150 0
145 153 0
143 152 0
149 160 0
141 150 0
144 151 0
136 140 0
137 146 0
147 158 0
138 147 0
145 152 0
139 145 0
140 144 0
138 143 0
150 161 0
148 157 0
142 147 0
141 145 0
145 151 0
143 150 0
142 148 0
154 164 0
144 148 0
146 151 0
142 144 0
146 149 0
147 151 0
152 160 0
142 144 0
145 149 0
146 150 0
147 152 0
141 144 0
147 151 0
139 139 0
147 149 0
141 138 0
139 140 0
146 146 0
154 157 0
137 130 27
140 104 48
141 98 65
147 103 73
143 100 62
143 100 72
142 99 68
143 101 59
146 104 76
146 104 76
144 101 65
144 100 73
154 110 86
145 102 71
147 103 68
142 101 65
150 106 78
151 106 75
146 103 70
148 105 68
148 104 67
146 104 61
149 107 71
148 105 72
145 103 68
147 103 74
145 103 68
146 103 65
148 102 78
147 104 75
149 105 76
144 102 72
148 107 70
146 103 75
146 102 71
145 103 72
149 107 75
149 106 74
147 104 74
148 105 71
149 106 71
153 109 85
147 104 75
148 105 64
147 106 70
148 104 72
148 106 72
147 103 78
146 103 75
150 107 76
149 106 78
150 105 78
149 106 67
147 105 71
151 106 79
153 109 80
151 106 81
148 104 70
145 102 67
148 104 70
151 107 85
148 105 70
147 105 70
147 103 74
145 103 68
144 101 71
145 103 65
143 101 65
147 103 72
141 96 64
145 100 71
149 104 74
140 97 54
145 101 76
144 103 62
145 100 68
144 100 64
135 91 50
141 98 54
143 100 56
142 99 59
140 109 44
139 124 34
147 145 0
142 137 0
145 147 0
144 142 0
146 147 0
151 153 0
141 141 0
151 150 0
147 145 0
144 140 0
144 141 0
147 148 0
148 145 0
148 149 0
146 143 0
142 141 0
139 132 0
143 138 0
146 147 0
142 138 0
145 142 0
145 144 0
141 136 0
146 145 0
143 137 0
143 139 0
143 139 0
144 144 0
141 139 0
148 147 0
141 139 0
143 138 0
144 141 0
145 144 0
139 134 0
145 141 0
141 136 0
147 146 0
138 131 0
138 132 0
151 148 0
140 137 0
134 128 0
140 136 0
133 126 0
139 136 0
132 117 0
117 96 0
116 95 0
119 96 0
116 91 0
118 94 0
122 100 0
114 91 0
119 95 0
114 92 0
120 97 0
127 106 0
126 107 0
126 107 0
122 100 0
124 101 0
121 101 0
129 109 0
126 105 0
122 100 0
128 108 0
127 107 0
126 109 0
131 116 0
131 111 0
134 117 0
134 116 0
134 117 0
129 108 0
129 110 0
132 116 0
134 116 0
136 119 0
137 121 0
141 126 0
138 121 0
138 120 0
132 115 0
135 119 0
142 126 0
139 123 0
137 122 0
135 122 0
140 124 0
142 129 0
136 120 0
137 122 0
141 128 0
141 126 0
139 125 0
137 123 0
145 131 0
135 120 0
137 123 0
143 130 0
140 128 0
142 130 0
138 124 0
142 131 0
140 126 0
146 132 0
143 130 0
143 130 0
145 134 0
144 132 0
147 135 0
144 134 0
144 131 0
143 132 0
146 135 0
145 134 0
146 135 0
145 135 0
145 135 0
148 138 0
146 136 0
147 136 0
144 132 0
147 137 0
148 137 0
144 134 0
146 134 0
147 138 0
147 138 0
149 140 0
148 138 0
147 136 0
149 139 0
148 141 0
147 138 0
151 143 0
150 142 0
150 141 0
150 143 0
145 134 0
151 143 0
150 141 0
150 143 0
148 139 0
146 137 0
149 140 0
147 139 0
148 141 0
150 142 0
151 146 0
149 141 0
153 145 0
147 139 0
151 145 0
151 144 0
150 142 0
152 145 0
151 144 0
150 170 0
150 168 0
151 170 0
151 169 0
151 171 0
148 167 0
150 169 0
151 170 0
152 172 0
151 169 0
148 165 0
148 166 0
147 167 0
151 170 0
151 170 0
151 168 0
148 167 0
148 167 0
149 167 0
147 165 0
149 167 0
147 165 0
148 167 0
147 166 0
150 168 0
144 162 0
148 166 0
145 162 0
146 161 0
146 163 0
144 160 0
145 162 0
145 162 0
149 166 0
144 161 0
142 159 0
145 163 0
148 165 0
140 155 0
146 163 0
142 157 0
144 161 0
142 158 0
147 164 0
142 157 0
145 161 0
144 160 0
146 164 0
143 158 0
144 158 0
144 158 0
142 156 0
147 162 0
141 155 0
145 160 0
139 155 0
142 156 0
140 154 0
143 157 0
142 155 0
142 154 0
144 159 0
143 158 0
136 148 0
136 148 0
141 154 0
137 150 0
137 151 0
141 154 0
145 159 0
135 147 0
136 147 0
135 146 0
135 146 0
133 143 0
137 151 0
127 136 0
134 144 0
135 146 0
130 139 0
134 142 0
134 144 0
123 128 0
131 142 0
131 140 0
133 144 0
135 144 0
128 135 0
129 135 0
128 134 0
127 135 0
126 130 0
123 130 0
128 135 0
128 134 0
130 138 0
124 131 0
126 133 0
129 134 0
119 126 0
124 129 0
124 129 0
121 126 0
117 120 0
113 115 0
115 118 0
111 116 0
120 123 0
115 119 0
118 123 0
136 146 0
133 142 0
135 145 0
138 147 0
133 142 0
136 145 0
133 140 0
133 141 0
138 145 0
139 149 0
134 140 0
136 141 0
138 144 0
143 151 0
144 154 0
141 148 0
140 147 0
142 148 0
137 142 0
139 145 0
147 154 0
143 148 0
140 145 0
143 147 0
141 144 0
141 143 0
148 155 0
141 146 0
140 140 0
143 148 0
141 146 0
143 152 0
139 142 0
146 151 0
147 153 0
148 156 0
144 147 0
151 159 0
142 147 0
145 150 0
144 149 0
147 154 0
146 150 0
146 151 0
150 152 0
145 148 0
146 149 0
142 138 0
138 139 0
139 134 14
143 120 50
136 95 52
138 96 56
138 93 56
144 102 68
142 99 68
145 103 57
141 100 57
139 97 64
142 100 62
140 98 54
147 103 68
142 99 68
144 100 68
144 102 65
142 100 65
143 101 57
142 100 54
148 104 70
146 102 70
146 104 60
144 102 64
148 105 76
148 106 68
150 106 75
152 108 81
145 102 69
151 107 79
148 105 71
149 106 67
152 108 87
144 102 67
145 103 65
149 108 76
147 104 74
149 105 78
143 102 61
147 103 71
149 106 76
146 103 74
148 105 65
149 107 70
151 107 71
149 107 67
147 104 70
150 106 71
146 104 72
147 104 68
148 104 74
149 106 65
150 107 78
147 104 65
148 105 74
147 104 68
149 104 79
150 106 71
146 101 75
144 101 61
146 103 61
147 103 75
146 104 65
151 106 79
142 99 61
150 105 82
149 104 76
143 99 72
143 98 59
146 103 70
145 101 70
146 101 72
147 103 68
146 103 68
142 99 61
144 100 71
142 99 57
140 97 61
138 95 56
145 100 66
132 102 37
134 124 14
135 132 0
139 135 0
142 136 0
144 138 0
150 149 0
146 141 0
141 134 0
144 139 0
149 147 0
151 152 0
141 140 0
142 134 0
149 149 0
146 146 0
144 143 0
145 143 0
146 143 0
144 143 0
148 146 0
139 135 0
142 138 0
148 148 0
146 143 0
143 137 0
143 139 0
148 144 0
147 146 0
143 139 0
143 138 0
143 139 0
143 139 0
134 128 0
141 136 0
142 133 0
138 133 0
143 139 0
139 132 0
147 143 0
140 133 0
137 131 0
140 135 0
140 134 0
135 128 0
138 133 0
133 126 0
139 131 0
141 139 0
138 135 0
132 123 0
122 105 0
114 91 0
114 89 0
115 91 0
114 90 0
124 102 0
117 95 0
124 102 0
114 90 0
127 110 0
122 100 0
123 100 0
120 98 0
120 98 0
127 108 0
126 107 0
129 108 0
121 99 0
132 113 0
123 102 0
128 108 0
130 112 0
128 108 0
129 110 0
133 113 0
126 108 0
131 111 0
129 113 0
128 109 0
131 111 0
135 119 0
132 113 0
134 118 0
134 116 0
134 115 0
130 112 0
134 114 0
131 116 0
138 124 0
136 121 0
136 120 0
137 121 0
137 121 0
136 121 0
141 128 0
141 126 0
139 125 0
140 125 0
137 121 0
139 124 0
138 123 0
140 126 0
136 123 0
144 131 0
143 129 0
141 128 0
138 125 0
145 133 0
144 131 0
144 132 0
139 127 0
143 130 0
143 131 0
144 131 0
142 128 0
143 131 0
148 137 0
145 133 0
146 136 0
144 135 0
148 138 0
146 136 0
142 130 0
143 132 0
144 133 0
149 138 0
146 137 0
145 135 0
144 134 0
146 133 0
145 134 0
147 138 0
147 139 0
152 142 0
147 135 0
148 140 0
146 135 0
154 144 0
148 136 0
149 141 0
146 137 0
146 135 0
148 140 0
152 143 0
150 142 0
149 140 0
149 141 0
149 141 0
148 138 0
152 144 0
146 136 0
150 142 0
152 146 0
150 145 0
151 144 0
148 141 0
147 140 0
149 141 0
152 145 0
153 145 0
153 147 0
154 173 0
151 170 0
148 168 0
150 168 0
152 171 0
151 169 0
148 167 0
147 167 0
150 169 0
148 167 0
146 164 0
149 167 0
149 168 0
148 166 0
150 169 0
145 164 0
149 168 0
145 163 0
152 171 0
148 165 0
149 168 0
146 165 0
147 165 0
147 165 0
147 165 0
149 168 0
148 166 0
149 166 0
145 161 0
146 163 0
148 165 0
147 163 0
144 161 0
146 163 0
145 161 0
145 163 0
150 167 0
143 160 0
147 164 0
147 163 0
145 161 0
142 157 0
140 155 0
142 156 0
144 160 0
144 160 0
142 158 0
144 160 0
142 158 0
143 160 0
141 157 0
141 155 0
138 151 0
141 153 0
143 158 0
141 156 0
139 154 0
141 155 0
139 153 0
143 159 0
139 150 0
140 154 0
137 150 0
140 154 0
141 154 0
135 146 0
133 146 0
138 152 0
138 149 0
133 144 0
134 146 0
137 148 0
133 145 0
140 152 0
137 149 0
137 148 0
136 149 0
136 149 0
131 142 0
134 145 0
131 140 0
133 142 0
129 138 0
132 141 0
131 140 0
130 139 0
125 134 0
125 130 0
126 134 0
127 134 0
126 131 0
126 134 0
118 122 0
119 123 0
125 131 0
126 132 0
125 132 0
121 125 0
126 134 0
120 125 0
120 125 0
115 118 0
117 120 0
118 124 0
119 125 0
113 118 0
115 120 0
122 128 0
140 149 0
131 137 0
125 134 0
130 139 0
129 134 0
134 141 0
128 132 0
132 139 0
136 142 0
137 143 0
139 147 0
133 142 0
142 149 0
133 139 0
129 134 0
141 149 0
138 145 0
140 147 0
144 153 0
138 140 0
137 142 0
147 153 0
142 148 0
134 136 0
145 149 0
144 149 0
150 160 0
139 144 0
137 141 0
148 152 0
135 135 0
145 151 0
150 156 0
139 140 0
141 145 0
143 148 0
149 157 0
144 150 0
151 157 0
145 150 0
141 145 0
148 154 0
150 155 0
137 138 0
148 151 0
143 143 0
147 151 0
138 137 0
146 148 0
144 146 0
142 141 0
145 145 0
139 139 0
144 129 34
136 95 52
137 96 44
145 104 70
141 99 63
139 98 50
143 100 70
143 100 64
141 100 57
148 105 74
143 99 62
146 102 75
147 104 68
146 103 64
141 98 56
144 103 62
147 103 70
141 98 68
146 103 68
148 106 65
148 104 71
144 102 70
146 102 78
142 100 59
146 103 70
144 102 68
143 100 68
146 102 71
145 101 74
141 98 65
149 106 72
150 107 74
144 101 72
147 104 70
146 103 71
146 102 64
151 107 79
149 107 75
149 104 76
147 103 71
144 101 64
146 101 75
150 106 81
145 103 57
151 106 74
146 105 59
145 102 59
147 104 68
146 103 70
149 104 76
147 103 72
146 103 76
147 103 65
151 107 74
143 100 65
148 106 70
147 104 72
142 100 57
145 102 67
142 98 68
145 102 64
146 103 70
149 104 74
145 102 61
147 105 75
148 103 74
143 99 68
147 104 65
142 99 67
140 97 59
143 99 65
144 101 67
143 100 67
142 98 62
133 92 38
132 91 48
140 126 14
139 130 0
140 134 0
139 136 0
142 138 0
148 149 0
142 136 0
145 140 0
144 143 0
136 132 0
137 130 0
149 149 0
139 133 0
140 133 0
136 131 0
132 121 0
146 145 0
144 143 0
143 139 0
146 144 0
140 140 0
139 135 0
147 142 0
139 135 0
147 145 0
144 143 0
138 137 0
137 125 0
143 136 0
146 141 0
137 129 0
141 136 0
141 136 0
138 133 0
134 126 0
143 138 0
140 136 0
138 133 0
145 139 0
137 131 0
134 122 0
135 128 0
137 133 0
135 130 0
144 140 0
137 131 0
136 128 0
136 129 0
134 126 0
132 124 0
132 123 0
128 119 0
130 121 0
126 115 0
123 110 0
106 81 0
109 85 0
111 90 0
109 84 0
115 91 0
119 96 0
118 99 0
116 93 0
124 101 0
123 100 0
116 92 0
123 103 0
127 106 0
127 104 0
124 104 0
127 108 0
124 105 0
128 106 0
126 105 0
129 110 0
129 109 0
126 105 0
124 104 0
132 116 0
130 112 0
132 112 0
132 112 0
137 121 0
141 125 0
135 119 0
134 118 0
133 114 0
137 123 0
133 115 0
137 121 0
137 122 0
134 117 0
128 111 0
138 123 0
139 124 0
139 125 0
138 124 0
138 123 0
138 123 0
140 125 0
138 124 0
134 117 0
141 124 0
141 127 0
136 121 0
143 129 0
139 124 0
144 131 0
142 129 0
145 134 0
139 126 0
143 129 0
138 123 0
142 130 0
144 132 0
143 132 0
145 133 0
143 131 0
141 129 0
145 133 0
145 133 0
140 128 0
147 136 0
143 133 0
142 128 0
145 133 0
143 130 0
145 134 0
143 130 0
147 136 0
145 135 0
144 133 0
144 133 0
145 134 0
146 136 0
145 133 0
146 135 0
146 137 0
150 140 0
148 139 0
148 136 0
148 139 0
150 140 0
148 137 0
151 141 0
149 140 0
150 140 0
145 135 0
151 142 0
150 140 0
149 139 0
150 139 0
146 136 0
148 141 0
150 143 0
151 142 0
148 140 0
151 145 0
148 140 0
150 141 0
150 143 0
153 147 0
152 144 0
152 171 0
151 170 0
151 170 0
149 167 0
150 169 0
152 172 0
149 168 0
151 171 0
151 169 0
148 166 0
150 168 0
147 167 0
150 169 0
149 168 0
150 168 0
147 166 0
150 167 0
146 164 0
149 167 0
146 163 0
148 166 0
148 167 0
146 164 0
148 167 0
148 167 0
143 160 0
149 166 0
151 168 0
146 163 0
146 163 0
147 165 0
142 158 0
147 163 0
145 161 0
144 160 0
145 162 0
147 164 0
145 160 0
147 164 0
142 158 0
142 158 0
144 159 0
145 160 0
141 158 0
142 157 0
137 152 0
143 160 0
139 153 0
144 160 0
142 157 0
139 154 0
144 159 0
139 154 0
144 159 0
139 152 0
140 155 0
137 149 0
137 150 0
142 155 0
139 151 0
136 149 0
142 157 0
141 153 0
135 148 0
136 148 0
134 145 0
138 150 0
136 150 0
135 147 0
136 146 0
134 145 0
137 151 0
133 143 0
132 145 0
133 144 0
133 144 0
134 143 0
138 150 0
132 141 0
133 144 0
130 140 0
135 147 0
127 136 0
127 133 0
129 137 0
132 141 0
127 132 0
120 128 0
126 136 0
123 131 0
123 130 0
122 126 0
120 122 0
121 127 0
117 122 0
127 134 0
124 131 0
121 127 0
118 124 0
117 122 0
114 117 0
110 116 0
116 123 0
113 121 0
108 112 0
119 127 0
128 137 0
116 121 0
132 139 0
130 137 0
131 139 0
135 142 0
136 146 0
126 134 0
126 132 0
131 133 0
128 130 0
132 137 0
138 147 0
137 143 0
135 139 0
140 145 0
139 147 0
138 144 0
137 143 0
137 141 0
136 139 0
139 144 0
145 149 0
136 140 0
142 150 0
145 152 0
136 139 0
142 146 0
136 136 0
143 147 0
137 139 0
137 143 0
142 147 0
141 143 0
145 149 0
150 158 0
141 145 0
137 141 0
145 146 0
145 150 0
144 149 0
150 157 0
139 139 0
147 149 0
143 144 0
144 149 0
135 135 0
140 138 0
137 140 0
144 147 0
143 146 0
149 150 0
140 137 0
131 127 0
131 122 0
143 142 0
139 135 19
134 106 42
134 92 50
140 97 56
135 94 42
145 102 65
141 97 56
143 99 61
142 99 65
142 102 57
143 100 68
146 101 64
143 100 67
145 102 65
145 102 67
146 103 68
144 102 62
151 107 76
143 100 65
145 102 71
145 102 74
150 106 72
145 102 62
145 102 65
147 104 68
149 105 72
142 99 67
150 106 80
145 101 67
148 104 71
148 105 70
147 105 62
147 102 71
144 102 62
142 99 64
146 103 70
150 105 76
149 105 70
148 105 70
147 103 70
147 104 70
141 99 62
145 101 72
146 102 67
152 108 75
146 102 67
146 103 68
144 102 56
144 101 65
148 103 67
147 103 65
148 103 76
146 103 62
148 102 72
148 104 70
148 105 74
143 101 62
145 101 74
143 101 62
142 98 62
145 101 68
150 105 76
143 100 68
146 101 70
139 95 59
142 99 67
145 101 64
140 97 54
139 96 61
141 97 65
140 97 64
138 95 57
137 96 57
141 106 61
139 131 14
133 121 0
139 132 0
140 135 0
140 131 0
141 137 0
146 146 0
136 127 0
145 144 0
145 141 0
135 128 0
140 134 0
146 144 0
144 145 0
140 138 0
139 133 0
132 123 0
139 133 0
144 142 0
142 137 0
146 141 0
143 142 0
142 136 0
139 131 0
140 134 0
137 131 0
140 131 0
148 147 0
145 142 0
138 133 0
142 135 0
137 127 0
145 140 0
135 129 0
138 128 0
133 126 0
138 131 0
138 128 0
139 132 0
142 138 0
134 126 0
130 120 0
141 137 0
135 126 0
134 125 0
134 125 0
139 133 0
135 123 0
132 123 0
133 127 0
133 127 0
128 117 0
129 117 0
127 118 0
122 114 0
132 124 0
133 126 0
124 110 0
117 96 0
110 87 0
104 79 0
108 84 0
120 98 0
115 92 0
118 95 0
117 94 0
123 101 0
121 98 0
120 96 0
123 102 0
128 108 0
123 101 0
128 106 0
124 103 0
120 98 0
124 106 0
119 97 0
130 110 0
132 113 0
129 109 0
131 109 0
130 111 0
127 108 0
129 111 0
134 114 0
133 116 0
133 117 0
130 113 0
133 118 0
134 118 0
137 120 0
132 115 0
134 115 0
135 121 0
139 123 0
135 119 0
135 119 0
134 117 0
135 120 0
135 117 0
136 121 0
143 129 0
139 123 0
137 121 0
137 122 0
141 127 0
135 120 0
141 129 0
134 117 0
139 126 0
139 124 0
141 128 0
140 126 0
139 127 0
143 130 0
142 130 0
142 129 0
144 133 0
143 129 0
144 132 0
145 134 0
141 128 0
143 131 0
146 135 0
144 131 0
146 134 0
145 133 0
143 131 0
143 132 0
144 132 0
147 136 0
144 132 0
144 135 0
146 134 0
145 134 0
147 136 0
146 137 0
151 140 0
150 140 0
147 138 0
147 136 0
146 134 0
149 139 0
147 137 0
147 136 0
149 140 0
146 136 0
146 136 0
148 139 0
150 140 0
147 137 0
150 141 0
151 144 0
147 137 0
149 141 0
150 142 0
150 143 0
149 140 0
151 143 0
150 144 0
149 142 0
150 142 0
148 140 0
153 145 0
153 172 0
151 170 0
151 171 0
150 170 0
150 170 0
148 167 0
148 167 0
148 168 0
149 168 0
151 171 0
148 166 0
148 167 0
148 167 0
146 164 0
149 167 0
148 166 0
150 167 0
149 167 0
148 165 0
145 164 0
147 165 0
146 164 0
148 166 0
146 164 0
148 166 0
147 165 0
146 163 0
145 161 0
146 162 0
145 163 0
147 164 0
143 158 0
145 162 0
144 160 0
138 154 0
148 165 0
148 164 0
140 156 0
142 157 0
144 160 0
142 156 0
141 156 0
144 160 0
143 157 0
140 155 0
141 156 0
143 159 0
140 155 0
135 147 0
144 160 0
147 163 0
142 156 0
143 156 0
143 159 0
142 157 0
138 152 0
134 146 0
141 155 0
141 155 0
139 154 0
143 157 0
139 153 0
138 152 0
137 149 0
137 150 0
138 151 0
138 149 0
130 139 0
136 147 0
137 148 0
130 138 0
129 140 0
131 141 0
139 149 0
130 136 0
139 151 0
129 141 0
129 139 0
138 151 0
131 140 0
131 141 0
131 138 0
129 138 0
129 138 0
124 131 0
125 133 0
130 139 0
128 138 0
123 130 0
123 127 0
128 136 0
127 134 0
120 123 0
120 125 0
116 121 0
117 121 0
115 119 0
116 120 0
113 118 0
113 119 0
107 110 0
103 107 0
109 116 0
120 126 0
128 136 0
119 126 0
127 134 0
129 135 0
127 133 0
127 133 0
125 131 0
126 132 0
135 143 0
129 135 0
129 135 0
129 133 0
134 139 0
130 134 0
134 141 0
129 132 0
133 140 0
139 146 0
143 148 0
138 142 0
135 139 0
141 144 0
139 143 0
140 146 0
138 141 0
142 148 0
138 142 0
142 145 0
141 145 0
137 138 0
145 150 0
145 150 0
145 146 0
141 144 0
142 143 0
146 152 0
136 138 0
147 152 0
140 142 0
145 150 0
138 140 0
148 151 0
140 139 0
147 147 0
139 141 0
139 140 0
140 140 0
135 136 0
141 139 0
146 147 0
140 140 0
132 125 0
138 138 0
142 143 0
153 159 0
138 135 0
132 130 0
139 137 0
136 129 0
128 121 0
132 111 31
136 97 59
140 96 57
143 99 65
135 92 57
143 102 65
140 99 60
144 102 62
145 103 65
145 102 64
141 100 56
142 99 62
143 101 59
149 105 74
146 102 70
144 100 67
151 107 76
147 103 75
143 100 62
149 105 78
148 104 76
145 101 70
146 102 65
148 105 64
146 102 72
146 103 68
150 107 75
146 102 67
143 99 67
141 99 59
144 101 64
149 106 70
150 106 82
146 103 67
147 104 65
143 101 61
146 103 65
143 99 62
150 105 76
147 104 67
149 106 78
144 102 59
146 102 67
144 103 71
147 104 72
146 103 68
145 101 71
145 103 72
145 101 56
147 103 68
143 100 65
144 101 59
146 101 67
145 101 75
148 104 74
141 98 62
147 103 78
145 102 65
144 100 61
147 102 72
141 99 54
144 100 66
141 98 61
137 94 62
141 98 66
139 95 57
136 92 65
140 96 67
142 98 58
133 90 46
138 113 42
131 125 0
135 126 0
143 133 0
139 134 0
139 133 0
144 139 0
135 128 0
139 135 0
143 134 0
138 134 0
140 134 0
141 137 0
136 129 0
137 131 0
134 129 0
140 139 0
136 131 0
140 133 0
139 133 0
142 138 0
145 142 0
144 138 0
140 134 0
143 139 0
134 128 0
146 141 0
143 138 0
139 133 0
147 142 0
142 140 0
140 134 0
145 142 0
134 128 0
137 132 0
136 132 0
132 123 0
135 128 0
145 140 0
140 134 0
138 131 0
131 122 0
135 126 0
132 120 0
131 124 0
127 117 0
137 130 0
135 125 0
134 124 0
135 129 0
128 119 0
131 122 0
125 112 0
125 113 0
127 114 0
131 119 0
119 108 0
128 119 0
117 105 0
128 119 0
128 118 0
111 93 0
113 90 0
109 85 0
109 88 0
109 86 0
113 89 0
120 97 0
122 100 0
113 90 0
120 99 0
123 102 0
121 97 0
120 100 0
125 107 0
125 106 0
121 99 0
126 103 0
123 103 0
124 103 0
126 104 0
122 102 0
122 102 0
131 110 0
129 109 0
128 109 0
133 116 0
135 119 0
129 110 0
133 114 0
133 116 0
130 109 0
138 120 0
134 116 0
134 116 0
136 120 0
131 114 0
134 117 0
135 119 0
136 119 0
137 123 0
138 122 0
137 121 0
138 125 0
139 125 0
142 127 0
137 121 0
142 126 0
141 126 0
139 123 0
140 124 0
142 129 0
142 127 0
143 130 0
140 126 0
138 125 0
139 126 0
137 123 0
141 128 0
144 131 0
141 128 0
146 134 0
142 129 0
142 130 0
143 131 0
143 130 0
143 131 0
142 130 0
144 130 0
147 135 0
140 125 0
144 133 0
144 133 0
146 133 0
148 136 0
146 133 0
146 135 0
144 134 0
143 133 0
145 135 0
145 134 0
146 135 0
147 137 0
146 135 0
146 136 0
149 139 0
147 136 0
148 139 0
148 139 0
141 131 0
147 138 0
150 142 0
149 141 0
146 137 0
150 141 0
147 138 0
151 143 0
150 141 0
151 144 0
149 140 0
150 141 0
151 144 0
152 142 0
150 143 0
150 141 0
151 144 0
152 171 0
149 169 0
152 170 0
149 169 0
148 166 0
148 168 0
150 169 0
151 171 0
148 167 0
145 164 0
150 169 0
148 167 0
149 167 0
148 165 0
148 166 0
147 164 0
150 169 0
146 161 0
149 166 0
146 163 0
147 164 0
150 167 0
145 161 0
148 165 0
141 157 0
144 161 0
144 161 0
147 164 0
146 163 0
141 155 0
145 161 0
146 163 0
141 156 0
144 161 0
145 162 0
143 160 0
143 159 0
147 165 0
143 161 0
144 159 0
139 153 0
141 156 0
145 161 0
142 157 0
139 154 0
141 156 0
145 160 0
146 162 0
141 155 0
140 155 0
139 152 0
138 153 0
139 153 0
143 157 0
137 152 0
136 148 0
140 153 0
133 146 0
137 150 0
138 151 0
135 146 0
136 148 0
140 155 0
138 152 0
133 142 0
137 149 0
136 148 0
135 147 0
134 146 0
136 147 0
137 149 0
128 140 0
131 142 0
127 137 0
130 139 0
135 146 0
132 144 0
126 135 0
131 142 0
136 147 0
128 137 0
126 135 0
125 132 0
134 143 0
123 132 0
126 132 0
124 129 0
120 127 0
124 131 0
119 126 0
118 124 0
118 124 0
121 128 0
116 124 0
110 116 0
114 117 0
113 116 0
114 117 0
113 118 0
105 109 0
121 128 0
121 127 0
117 124 0
127 135 0
131 141 0
129 136 0
118 125 0
116 119 0
129 136 0
120 124 0
123 131 0
130 136 0
132 138 0
124 128 0
124 128 0
132 137 0
135 140 0
137 142 0
132 139 0
134 140 0
122 123 0
141 150 0
132 136 0
131 132 0
141 144 0
139 144 0
134 136 0
146 153 0
141 145 0
135 137 0
137 142 0
133 136 0
141 145 0
138 139 0
148 154 0
139 137 0
138 142 0
135 137 0
135 136 0
138 135 0
144 147 0
145 152 0
140 142 0
139 142 0
148 154 0
137 138 0
137 137 0
144 147 0
138 135 0
144 146 0
143 147 0
137 135 0
136 137 0
146 153 0
134 129 0
140 138 0
140 141 0
132 127 0
141 140 0
130 123 0
138 135 0
134 129 0
135 129 0
133 129 0
132 125 0
129 119 14
130 101 42
136 93 56
140 98 60
147 102 74
143 101 64
143 100 61
140 99 59
137 93 62
145 103 65
145 101 67
143 99 64
147 103 72
142 100 56
143 97 70
144 101 71
140 98 56
142 100 59
143 102 61
144 101 67
139 95 62
144 102 54
148 105 70
148 104 74
153 109 81
146 103 67
147 104 61
147 104 74
139 96 65
141 98 59
146 103 56
142 100 59
147 104 68
145 102 70
148 104 67
138 97 70
144 102 65
150 104 76
144 100 64
145 101 71
150 108 74
147 104 74
150 105 74
145 101 72
145 103 68
146 102 65
144 101 65
147 105 65
144 99 64
143 99 59
145 102 56
144 102 61
143 100 62
144 101 65
146 102 67
143 99 67
144 100 67
142 99 61
144 101 64
142 99 59
143 99 61
142 98 67
142 98 68
144 100 71
132 89 54
140 95 50
141 96 62
134 106 31
131 115 0
131 116 0
136 127 0
139 131 0
133 122 0
140 135 0
137 129 0
135 127 0
134 126 0
138 131 0
142 137 0
145 141 0
135 128 0
145 144 0
141 137 0
140 135 0
137 128 0
136 126 0
138 130 0
140 132 0
141 136 0
143 142 0
143 140 0
134 128 0
142 138 0
137 129 0
140 135 0
145 144 0
142 137 0
140 134 0
141 138 0
144 137 0
139 133 0
142 137 0
143 140 0
138 133 0
135 130 0
135 129 0
134 126 0
133 124 0
135 128 0
138 132 0
129 119 0
128 117 0
136 129 0
129 119 0
131 122 0
137 130 0
128 117 0
139 129 0
131 121 0
130 119 0
126 116 0
133 126 0
134 126 0
124 111 0
122 108 0
130 121 0
119 106 0
120 110 0
118 106 0
115 105 0
123 111 0
116 105 0
111 95 0
101 82 0
104 79 0
108 83 0
104 80 0
108 83 0
114 91 0
109 84 0
118 95 0
115 93 0
115 90 0
122 101 0
129 108 0
125 103 0
117 94 0
123 102 0
133 114 0
129 110 0
128 108 0
128 108 0
128 108 0
131 111 0
129 109 0
130 110 0
134 115 0
130 110 0
129 110 0
134 116 0
129 111 0
127 106 0
138 122 0
133 115 0
135 119 0
135 118 0
131 112 0
137 120 0
137 119 0
136 122 0
131 113 0
138 123 0
135 118 0
143 128 0
138 122 0
136 120 0
138 122 0
139 123 0
138 121 0
138 123 0
139 124 0
140 125 0
140 125 0
139 125 0
140 128 0
143 129 0
147 136 0
143 131 0
142 129 0
147 133 0
143 130 0
138 122 0
143 130 0
138 124 0
140 127 0
141 128 0
143 130 0
143 132 0
141 126 0
142 130 0
142 130 0
147 135 0
147 136 0
147 134 0
145 132 0
146 136 0
145 135 0
149 137 0
146 134 0
144 132 0
149 138 0
146 134 0
142 130 0
147 137 0
145 135 0
146 136 0
146 134 0
147 137 0
147 135 0
147 138 0
148 139 0
149 138 0
148 138 0
148 137 0
148 139 0
147 138 0
150 142 0
149 140 0
149 141 0
151 142 0
150 144 0
152 145 0
151 145 0
153 148 0
160 164 0
169 192 0
163 184 0
154 175 0
150 170 0
152 172 0
148 167 0
147 165 0
147 166 0
148 167 0
149 167 0
150 169 0
150 169 0
149 168 0
147 165 0
148 166 0
149 167 0
146 165 0
147 165 0
147 165 0
148 166 0
144 162 0
141 156 0
147 164 0
142 158 0
144 161 0
148 164 0
149 166 0
142 160 0
144 162 0
140 154 0
143 159 0
144 161 0
144 160 0
145 161 0
143 159 0
144 160 0
141 157 0
137 151 0
141 156 0
143 159 0
145 161 0
142 157 0
144 161 0
138 151 0
143 158 0
138 153 0
135 147 0
141 156 0
140 155 0
141 155 0
142 156 0
139 154 0
134 148 0
137 150 0
138 152 0
134 148 0
140 152 0
138 151 0
141 155 0
131 142 0
136 148 0
136 150 0
136 147 0
132 146 0
134 144 0
132 144 0
131 142 0
141 154 0
128 140 0
128 137 0
131 141 0
131 142 0
135 147 0
133 143 0
126 135 0
129 140 0
133 143 0
135 147 0
125 134 0
127 135 0
125 133 0
128 138 0
121 127 0
120 128 0
122 130 0
118 126 0
119 127 0
124 131 0
118 125 0
117 123 0
121 130 0
120 129 0
110 115 0
114 124 0
110 116 0
113 119 0
111 118 0
112 118 0
112 119 0
121 128 0
118 124 0
126 134 0
115 120 0
120 130 0
122 130 0
124 130 0
115 120 0
124 130 0
128 137 0
130 134 0
128 134 0
125 130 0
131 139 0
133 140 0
133 139 0
130 133 0
130 133 0
131 136 0
139 146 0
139 145 0
128 130 0
129 133 0
133 134 0
132 132 0
126 123 0
139 143 0
140 147 0
139 142 0
143 146 0
137 140 0
133 134 0
140 143 0
136 137 0
148 155 0
133 138 0
138 139 0
144 150 0
143 145 0
141 144 0
136 139 0
143 147 0
144 148 0
137 140 0
140 140 0
142 143 0
134 129 0
143 143 0
142 143 0
143 143 0
138 139 0
140 143 0
137 138 0
147 152 0
140 137 0
138 133 0
139 141 0
133 132 0
136 132 0
134 129 0
140 135 0
133 129 0
137 137 0
134 126 0
130 119 0
126 119 0
135 131 0
132 127 0
130 120 0
140 107 50
132 90 59
132 90 52
138 95 56
145 102 70
142 101 57
138 96 57
138 97 59
144 103 71
144 101 64
142 99 59
142 99 67
146 102 64
142 98 57
143 100 61
143 100 65
145 102 67
142 99 67
145 102 70
148 104 76
144 101 62
144 101 65
143 99 62
145 102 72
144 102 61
145 102 56
144 102 62
142 99 68
146 102 67
147 104 61
143 101 57
145 102 67
148 103 72
147 103 71
146 103 68
144 101 62
143 99 67
143 100 68
141 99 54
140 99 54
142 100 64
147 103 65
144 101 67
145 102 62
139 97 54
147 103 70
148 103 75
146 103 76
142 99 56
139 96 52
139 96 64
145 100 66
139 98 59
143 98 70
147 104 65
139 96 50
143 100 65
137 95 48
141 97 57
137 93 52
141 97 64
137 93 56
130 94 47
132 116 24
138 128 0
128 113 0
130 116 0
133 118 0
137 130 0
133 122 0
142 139 0
136 127 0
133 122 0
138 130 0
131 119 0
143 141 0
138 128 0
133 121 0
134 126 0
142 136 0
139 132 0
137 129 0
140 135 0
141 135 0
134 127 0
139 134 0
139 136 0
139 133 0
141 136 0
141 137 0
140 132 0
134 127 0
141 134 0
137 129 0
147 144 0
136 127 0
138 134 0
137 130 0
137 130 0
141 138 0
140 134 0
133 124 0
138 128 0
141 135 0
136 127 0
138 132 0
134 123 0
134 125 0
137 127 0
137 128 0
133 125 0
130 119 0
129 122 0
132 125 0
138 129 0
135 125 0
128 116 0
130 119 0
133 123 0
118 107 0
127 117 0
125 113 0
128 119 0
123 111 0
113 100 0
124 115 0
120 105 0
116 100 0
114 99 0
115 100 0
107 92 0
113 99 0
113 98 0
105 87 0
106 82 0
108 87 0
112 88 0
107 84 0
114 90 0
120 97 0
116 93 0
124 104 0
123 103 0
119 96 0
115 93 0
124 105 0
125 104 0
126 106 0
128 105 0
128 109 0
128 107 0
125 107 0
131 110 0
127 109 0
130 111 0
130 111 0
130 112 0
135 116 0
133 117 0
129 110 0
125 105 0
131 113 0
128 110 0
136 119 0
131 112 0
131 113 0
136 121 0
133 117 0
137 121 0
135 118 0
137 120 0
130 113 0
139 127 0
137 121 0
133 116 0
138 125 0
137 120 0
140 126 0
138 121 0
141 129 0
140 124 0
146 133 0
140 124 0
139 124 0
141 128 0
146 131 0
132 115 0
142 130 0
142 129 0
139 124 0
143 130 0
141 126 0
145 133 0
141 126 0
144 132 0
145 133 0
147 133 0
143 130 0
141 127 0
145 134 0
143 130 0
143 130 0
142 130 0
143 130 0
147 135 0
143 131 0
146 135 0
145 134 0
145 133 0
147 135 0
144 133 0
151 140 0
145 134 0
147 136 0
148 138 0
147 137 0
149 139 0
149 140 0
146 137 0
146 135 0
151 144 0
147 138 0
149 142 0
148 139 0
151 143 0
152 145 0
150 144 0
152 147 0
156 157 0
163 177 0
171 192 0
173 195 0
172 195 0
170 193 0
171 194 0
169 191 0
160 181 0
157 177 0
149 169 0
150 170 0
151 170 0
149 167 0
149 168 0
148 168 0
149 168 0
149 166 0
150 169 0
149 167 0
148 165 0
147 165 0
147 163 0
149 167 0
144 162 0
144 161 0
145 162 0
145 162 0
147 164 0
144 161 0
146 162 0
144 161 0
145 163 0
139 154 0
144 162 0
143 158 0
145 161 0
142 158 0
146 163 0
142 156 0
143 161 0
138 154 0
144 159 0
139 154 0
137 151 0
143 160 0
140 154 0
143 158 0
143 158 0
139 155 0
141 156 0
138 152 0
135 148 0
136 148 0
141 156 0
137 150 0
139 154 0
140 153 0
134 147 0
135 146 0
134 146 0
133 144 0
135 149 0
138 151 0
139 153 0
137 149 0
138 152 0
133 146 0
136 149 0
135 147 0
131 142 0
135 147 0
130 140 0
129 141 0
128 139 0
133 145 0
126 136 0
133 145 0
128 137 0
128 139 0
133 143 0
127 138 0
122 131 0
125 134 0
120 126 0
126 134 0
119 126 0
122 128 0
124 130 0
124 133 0
117 124 0
119 126 0
119 126 0
116 123 0
109 115 0
109 115 0
113 118 0
98 103 0
102 108 0
110 119 0
118 126 0
111 118 0
104 106 0
125 134 0
114 121 0
110 115 0
117 123 0
117 122 0
123 127 0
127 135 0
119 121 0
126 129 0
126 130 0
126 129 0
134 139 0
125 128 0
130 132 0
130 133 0
133 137 0
133 138 0
129 132 0
134 137 0
136 138 0
138 144 0
138 144 0
144 152 0
135 139 0
135 137 0
139 141 0
142 146 0
140 145 0
136 141 0
144 150 0
140 144 0
140 142 0
134 134 0
137 139 0
132 133 0
134 135 0
142 147 0
142 145 0
135 138 0
145 152 0
141 142 0
137 139 0
145 148 0
131 130 0
136 135 0
137 137 0
137 138 0
136 137 0
135 135 0
146 149 0
142 141 0
144 143 0
137 139 0
140 139 0
136 131 0
136 132 0
138 135 0
138 139 0
130 122 0
135 131 0
135 132 0
143 144 0
134 127 0
136 134 0
133 126 0
129 122 0
135 130 0
130 123 0
129 121 0
129 119 0
132 116 28
131 93 42
129 87 50
140 96 65
140 97 59
140 98 58
137 95 48
143 100 59
141 98 59
140 97 67
141 98 57
142 98 64
139 95 61
140 97 59
145 100 72
144 102 65
145 102 67
141 97 62
142 95 71
142 99 62
143 100 67
142 98 68
142 99 59
144 100 70
142 100 64
139 97 57
144 101 61
141 97 57
144 100 57
144 101 65
146 103 70
143 99 68
138 95 54
142 99 68
142 100 56
146 103 59
147 102 67
152 107 80
141 97 56
141 99 61
145 102 62
144 101 65
145 102 64
140 96 56
145 102 67
143 99 62
139 97 56
150 104 80
138 96 52
144 100 67
141 97 61
137 94 61
139 94 59
135 94 46
136 92 48
139 94 64
139 96 57
136 93 52
136 92 56
138 94 64
131 108 19
119 101 0
130 120 0
128 111 0
130 113 0
137 127 0
127 109 0
135 125 0
133 123 0
145 140 0
138 130 0
132 123 0
138 131 0
138 133 0
139 132 0
137 125 0
139 132 0
131 119 0
147 142 0
138 134 0
142 137 0
147 149 0
139 135 0
135 123 0
135 129 0
142 139 0
148 148 0
149 147 0
142 138 0
135 128 0
143 139 0
142 140 0
134 121 0
143 138 0
136 128 0
140 135 0
140 136 0
144 142 0
140 133 0
139 138 0
143 136 0
139 134 0
142 136 0
139 127 0
137 127 0
133 126 0
130 119 0
138 129 0
135 123 0
134 124 0
135 132 0
131 121 0
132 123 0
134 125 0
131 120 0
137 129 0
126 112 0
136 128 0
127 116 0
123 112 0
121 111 0
124 111 0
132 123 0
130 120 0
117 105 0
117 105 0
124 114 0
115 102 0
120 108 0
117 104 0
117 104 0
106 91 0
119 107 0
108 94 0
109 91 0
106 87 0
104 77 0
116 93 0
115 94 0
111 88 0
117 96 0
114 89 0
117 96 0
121 98 0
121 100 0
121 101 0
125 104 0
120 99 0
117 95 0
130 111 0
127 106 0
127 108 0
129 109 0
129 111 0
125 105 0
133 116 0
131 114 0
130 111 0
128 108 0
127 107 0
128 109 0
136 119 0
133 117 0
134 115 0
133 115 0
133 117 0
136 118 0
135 117 0
134 116 0
135 118 0
140 125 0
137 121 0
134 118 0
139 125 0
137 123 0
140 124 0
137 121 0
132 117 0
141 126 0
139 124 0
138 123 0
136 120 0
138 124 0
138 124 0
139 124 0
141 126 0
145 130 0
141 129 0
136 122 0
137 123 0
138 125 0
144 130 0
141 129 0
145 133 0
143 132 0
141 127 0
141 127 0
145 132 0
143 131 0
144 133 0
148 137 0
142 132 0
144 132 0
145 134 0
144 132 0
145 133 0
142 131 0
147 135 0
143 132 0
146 136 0
143 130 0
149 139 0
144 133 0
147 136 0
148 136 0
146 137 0
148 138 0
148 138 0
150 141 0
146 138 0
151 143 0
151 144 0
150 142 0
153 146 0
155 153 0
163 173 0
169 186 0
169 188 0
171 193 0
171 190 0
171 192 0
169 191 0
170 192 0
172 196 0
168 190 0
171 193 0
171 194 0
167 190 0
164 185 0
155 175 0
150 170 0
148 168 0
150 168 0
148 166 0
148 167 0
147 165 0
146 165 0
147 166 0
143 161 0
148 165 0
147 163 0
145 162 0
148 165 0
145 162 0
146 164 0
146 164 0
144 161 0
140 157 0
143 160 0
143 160 0
143 159 0
142 157 0
144 161 0
138 153 0
143 157 0
145 160 0
143 159 0
142 156 0
140 154 0
136 151 0
144 159 0
142 158 0
141 156 0
139 153 0
143 159 0
140 155 0
140 153 0
145 160 0
143 158 0
139 153 0
140 155 0
136 149 0
139 154 0
142 157 0
139 154 0
133 147 0
133 146 0
140 153 0
133 148 0
142 154 0
132 145 0
132 145 0
132 145 0
133 144 0
133 146 0
128 138 0
128 137 0
135 145 0
135 145 0
128 139 0
131 143 0
132 141 0
126 135 0
126 135 0
120 129 0
127 139 0
127 137 0
126 136 0
120 129 0
121 129 0
121 129 0
122 130 0
120 129 0
119 127 0
115 123 0
121 130 0
116 122 0
115 121 0
112 119 0
111 117 0
111 116 0
102 107 0
95 101 0
116 123 0
107 114 0
119 125 0
111 117 0
112 117 0
119 125 0
116 121 0
116 122 0
120 127 0
120 126 0
115 120 0
129 135 0
119 125 0
118 120 0
131 137 0
130 134 0
126 131 0
122 124 0
127 130 0
133 139 0
126 129 0
134 138 0
139 144 0
135 138 0
134 135 0
133 139 0
134 136 0
134 135 0
139 144 0
127 130 0
136 138 0
134 136 0
143 148 0
141 144 0
136 137 0
144 149 0
132 136 0
143 149 0
138 140 0
134 131 0
134 135 0
138 140 0
140 145 0
141 144 0
139 143 0
139 143 0
137 139 0
137 134 0
143 148 0
143 144 0
138 138 0
133 130 0
142 144 0
142 142 0
140 141 0
139 139 0
134 133 0
141 142 0
139 136 0
140 137 0
134 130 0
133 128 0
138 134 0
143 143 0
132 124 0
132 125 0
134 131 0
131 121 0
137 133 0
132 126 0
138 135 0
135 129 0
133 129 0
135 126 0
128 120 0
126 118 0
124 114 0
131 124 0
131 122 0
131 118 31
129 96 34
134 93 52
137 95 59
138 95 57
139 96 57
140 99 46
140 98 61
141 98 61
141 99 64
136 94 52
141 99 64
144 100 68
143 101 57
144 100 62
139 94 65
141 98 56
141 100 56
133 92 39
146 101 71
142 97 62
140 99 61
143 101 64
148 105 64
145 101 68
145 101 70
148 105 68
144 101 61
145 103 61
144 101 62
140 98 54
142 100 65
144 101 64
143 98 65
145 101 65
146 104 68
142 99 54
145 103 67
143 102 59
141 97 59
140 97 56
138 96 50
141 96 68
137 94 56
142 97 59
140 97 52
137 92 52
144 99 57
140 95 56
138 93 52
143 99 57
136 92 50
138 94 57
137 95 48
138 92 61
132 96 39
125 95 28
132 116 0
124 108 0
119 100 0
122 109 0
132 123 0
128 118 0
129 120 0
129 117 0
129 116 0
143 136 0
129 118 0
133 124 0
138 131 0
140 133 0
141 136 0
138 130 0
140 132 0
142 138 0
137 129 0
134 124 0
137 130 0
140 134 0
139 133 0
142 133 0
139 132 0
142 138 0
144 144 0
149 143 0
140 137 0
141 137 0
141 138 0
143 139 0
128 113 0
138 131 0
140 136 0
141 134 0
145 141 0
140 134 0
144 140 0
138 135 0
136 128 0
147 144 0
141 142 0
146 140 0
134 126 0
133 123 0
139 132 0
137 131 0
138 135 0
136 131 0
138 129 0
128 115 0
135 126 0
139 133 0
135 126 0
136 129 0
124 111 0
130 120 0
128 116 0
136 127 0
124 113 0
124 111 0
128 119 0
121 109 0
129 123 0
125 114 0
120 106 0
116 103 0
118 103 0
112 96 0
122 109 0
118 104 0
111 98 0
112 97 0
114 98 0
112 96 0
108 94 0
107 93 0
104 86 0
107 89 0
102 81 0
110 90 0
114 93 0
115 93 0
112 89 0
117 97 0
119 97 0
117 96 0
123 102 0
119 96 0
119 97 0
126 109 0
128 110 0
126 105 0
126 108 0
127 108 0
124 103 0
131 112 0
124 104 0
129 111 0
128 109 0
133 115 0
130 113 0
133 115 0
133 116 0
139 122 0
132 113 0
130 112 0
133 114 0
131 115 0
138 123 0
131 114 0
133 117 0
126 109 0
139 122 0
140 124 0
135 118 0
137 121 0
139 123 0
144 129 0
134 120 0
140 125 0
139 124 0
139 126 0
145 130 0
138 123 0
145 131 0
140 127 0
140 126 0
139 124 0
140 127 0
141 127 0
143 131 0
144 132 0
141 127 0
143 130 0
141 130 0
144 134 0
146 133 0
140 126 0
142 131 0
145 132 0
144 131 0
146 132 0
144 133 0
146 135 0
151 140 0
145 134 0
146 134 0
147 136 0
147 137 0
143 132 0
145 133 0
149 138 0
148 137 0
151 141 0
151 141 0
147 136 0
146 134 0
148 138 0
153 144 0
148 140 0
156 154 0
158 165 0
166 182 0
172 193 0
170 190 0
171 191 0
171 193 0
172 193 0
172 190 0
170 192 0
172 194 0
171 193 0
170 192 0
170 193 0
170 193 0
172 195 0
171 193 0
170 191 0
169 192 0
169 191 0
165 185 0
156 176 0
153 171 0
151 170 0
148 165 0
147 165 0
147 164 0
148 167 0
142 159 0
149 167 0
147 165 0
144 161 0
144 161 0
142 158 0
146 162 0
149 166 0
143 160 0
144 161 0
142 158 0
143 159 0
141 156 0
142 159 0
142 159 0
140 155 0
143 159 0
138 152 0
143 160 0
143 158 0
143 159 0
144 159 0
141 155 0
141 157 0
140 155 0
141 155 0
143 157 0
134 148 0
139 154 0
134 148 0
137 152 0
131 145 0
139 153 0
134 147 0
137 151 0
138 153 0
135 148 0
131 144 0
135 149 0
133 148 0
136 148 0
133 146 0
133 146 0
132 145 0
130 141 0
135 148 0
129 141 0
127 138 0
125 136 0
133 145 0
126 136 0
131 142 0
119 127 0
130 141 0
126 135 0
125 135 0
128 140 0
119 125 0
118 124 0
123 133 0
120 130 0
118 126 0
117 127 0
115 123 0
110 117 0
109 117 0
109 114 0
114 122 0
111 118 0
109 115 0
103 111 0
104 112 0
105 112 0
113 119 0
120 127 0
116 122 0
118 126 0
114 120 0
117 124 0
115 120 0
117 124 0
125 132 0
119 124 0
127 131 0
119 122 0
119 122 0
128 134 0
121 125 0
126 126 0
117 121 0
128 133 0
133 138 0
127 129 0
133 138 0
129 134 0
132 133 0
128 130 0
135 137 0
134 136 0
132 133 0
141 144 0
134 136 0
132 134 0
131 134 0
138 141 0
142 146 0
140 143 0
140 144 0
139 143 0
135 136 0
136 136 0
140 142 0
140 143 0
146 151 0
139 142 0
147 155 0
140 141 0
141 143 0
142 147 0
135 134 0
140 141 0
141 142 0
136 135 0
146 145 0
143 148 0
139 143 0
133 131 0
140 138 0
144 144 0
143 148 0
137 133 0
142 143 0
134 130 0
134 134 0
133 126 0
141 141 0
139 138 0
124 116 0
140 138 0
135 132 0
130 119 0
131 121 0
135 132 0
130 124 0
131 125 0
136 131 0
130 123 0
128 122 0
130 120 0
140 134 0
126 113 0
121 109 0
133 121 0
123 113 0
123 116 0
121 100 14
127 92 42
134 94 42
139 96 56
143 100 61
138 93 48
134 93 62
129 88 52
135 93 52
138 95 50
135 93 52
134 91 46
143 101 65
146 102 67
142 99 59
139 95 54
139 98 48
139 95 57
139 96 62
139 95 59
144 102 68
141 97 65
140 96 59
141 96 57
144 100 67
141 99 56
143 100 64
142 99 56
139 96 56
143 100 65
145 103 61
138 94 61
137 93 56
139 95 48
143 100 64
145 102 54
144 100 54
140 95 61
140 97 52
141 97 50
137 97 46
144 101 61
140 98 52
137 95 59
142 97 59
134 92 54
133 89 44
135 91 57
138 95 61
135 93 52
137 93 59
125 91 50
125 106 0
125 111 0
123 107 0
125 109 0
126 118 0
135 122 0
128 116 0
130 122 0
140 132 0
135 124 0
136 127 0
139 134 0
133 120 0
130 115 0
135 122 0
137 130 0
131 121 0
133 124 0
136 127 0
139 135 0
139 133 0
141 133 0
133 123 0
131 121 0
135 124 0
137 130 0
139 136 0
143 141 0
137 128 0
144 140 0
137 129 0
138 135 0
140 139 0
147 145 0
137 130 0
139 134 0
143 139 0
142 138 0
141 132 0
141 134 0
149 151 0
135 129 0
136 132 0
147 143 0
142 139 0
141 133 0
135 127 0
137 129 0
140 134 0
140 134 0
139 136 0
140 128 0
140 134 0
132 124 0
140 136 0
137 131 0
136 129 0
130 121 0
135 125 0
134 124 0
128 117 0
132 122 0
131 121 0
128 117 0
130 119 0
125 114 0
120 105 0
127 116 0
125 115 0
127 114 0
124 115 0
128 118 0
116 105 0
118 106 0
117 106 0
124 111 0
124 111 0
113 98 0
111 99 0
110 97 0
113 99 0
120 111 0
100 85 0
106 90 0
112 95 0
103 83 0
106 83 0
104 80 0
113 91 0
114 92 0
112 90 0
107 84 0
116 95 0
118 97 0
113 91 0
121 98 0
120 97 0
126 106 0
119 99 0
120 98 0
130 113 0
121 101 0
128 108 0
124 104 0
131 112 0
126 107 0
133 115 0
128 108 0
131 112 0
132 113 0
129 111 0
129 111 0
129 110 0
131 112 0
136 118 0
132 116 0
137 120 0
137 119 0
136 118 0
134 118 0
135 119 0
141 125 0
140 124 0
134 118 0
141 126 0
139 121 0
135 119 0
140 125 0
140 125 0
144 129 0
136 121 0
140 127 0
138 122 0
136 121 0
135 120 0
138 124 0
137 121 0
142 129 0
145 133 0
141 128 0
145 133 0
140 127 0
143 129 0
144 129 0
145 133 0
144 132 0
147 135 0
147 135 0
143 129 0
147 135 0
145 132 0
148 137 0
148 138 0
147 135 0
146 132 0
142 131 0
145 134 0
148 135 0
148 136 0
151 142 0
148 139 0
155 152 0
159 161 0
164 174 0
170 189 0
172 190 0
171 191 0
169 187 0
172 192 0
169 185 0
171 191 0
172 192 0
171 192 0
171 191 0
171 191 0
169 191 0
172 195 0
171 193 0
169 191 0
173 195 0
172 194 0
173 195 0
170 193 0
169 191 0
171 193 0
169 191 0
171 193 0
171 193 0
166 189 0
162 183 0
158 178 0
150 169 0
149 167 0
152 169 0
143 159 0
144 160 0
147 164 0
144 161 0
146 163 0
148 165 0
143 159 0
145 162 0
147 164 0
144 161 0
148 165 0
143 159 0
145 163 0
143 159 0
146 163 0
144 159 0
143 159 0
133 148 0
139 154 0
141 157 0
138 153 0
143 156 0
138 153 0
136 150 0
135 149 0
139 153 0
136 151 0
133 147 0
137 150 0
137 151 0
137 152 0
138 152 0
135 150 0
138 153 0
132 144 0
134 145 0
135 148 0
131 143 0
134 147 0
132 145 0
131 143 0
133 144 0
133 142 0
128 140 0
134 147 0
132 143 0
127 139 0
126 138 0
124 133 0
118 126 0
123 134 0
127 137 0
130 143 0
128 140 0
120 129 0
119 128 0
120 130 0
120 128 0
114 123 0
114 123 0
116 124 0
115 124 0
109 116 0
107 116 0
105 114 0
108 116 0
108 115 0
112 119 0
109 116 0
112 119 0
104 110 0
114 122 0
113 120 0
119 126 0
111 116 0
115 121 0
118 122 0
117 123 0
121 126 0
118 124 0
122 126 0
120 126 0
119 120 0
121 127 0
121 125 0
128 134 0
133 140 0
128 133 0
130 137 0
127 129 0
126 129 0
134 141 0
137 143 0
130 132 0
141 146 0
134 140 0
142 149 0
140 143 0
136 137 0
133 138 0
137 137 0
139 140 0
132 136 0
137 138 0
144 149 0
127 127 0
142 147 0
134 134 0
140 145 0
139 142 0
140 143 0
133 133 0
144 151 0
141 144 0
141 144 0
138 140 0
136 137 0
145 149 0
149 153 0
135 135 0
144 149 0
150 153 0
139 140 0
129 124 0
136 135 0
136 136 0
136 140 0
141 140 0
137 133 0
137 137 0
132 128 0
135 132 0
141 140 0
133 129 0
136 132 0
136 135 0
139 140 0
131 122 0
144 145 0
137 133 0
141 140 0
135 133 0
137 133 0
131 122 0
128 120 0
131 127 0
125 114 0
123 115 0
132 122 0
127 117 0
122 112 0
125 113 0
126 118 0
122 108 0
120 106 0
125 115 0
119 103 14
121 98 24
131 92 54
134 90 52
134 90 54
126 86 46
144 100 61
137 93 59
135 93 46
139 95 57
135 93 52
135 93 46
139 96 62
136 93 57
134 93 42
137 93 52
142 98 65
141 96 61
139 98 59
141 97 56
142 100 59
138 96 56
138 93 59
140 97 59
137 95 54
138 96 56
140 96 57
140 97 61
137 94 42
136 95 54
141 98 56
142 97 67
143 101 61
139 96 58
141 96 61
139 96 57
137 94 52
141 98 56
129 86 48
136 93 56
138 94 50
136 91 42
136 94 56
131 87 39
136 93 44
132 89 50
131 90 57
120 93 19
125 106 14
122 108 0
120 108 0
125 109 0
121 106 0
122 108 0
126 111 0
123 110 0
130 119 0
135 119 0
128 115 0
123 112 0
133 121 0
135 122 0
134 124 0
129 111 0
137 127 0
130 120 0
137 127 0
132 122 0
138 128 0
139 135 0
140 134 0
139 132 0
134 127 0
138 130 0
133 126 0
139 134 0
138 129 0
137 129 0
142 137 0
137 126 0
143 138 0
140 134 0
142 139 0
139 136 0
139 134 0
146 147 0
140 136 0
135 128 0
147 148 0
142 141 0
144 135 0
140 134 0
145 143 0
138 127 0
141 134 0
132 123 0
136 130 0
140 136 0
140 133 0
129 120 0
134 125 0
134 126 0
134 123 0
137 131 0
139 130 0
137 129 0
134 127 0
135 126 0
133 125 0
132 122 0
134 126 0
131 125 0
135 128 0
137 126 0
134 127 0
136 129 0
128 117 0
126 114 0
119 104 0
120 109 0
133 126 0
138 132 0
128 118 0
121 109 0
128 117 0
118 104 0
116 102 0
115 105 0
117 105 0
112 98 0
129 122 0
116 104 0
119 107 0
112 97 0
111 96 0
105 93 0
100 85 0
103 89 0
113 97 0
106 89 0
105 83 0
111 89 0
113 91 0
106 83 0
112 88 0
116 92 0
118 95 0
113 91 0
122 102 0
118 98 0
120 100 0
120 97 0
123 102 0
120 99 0
126 106 0
123 101 0
133 116 0
130 113 0
130 111 0
131 114 0
132 114 0
129 111 0
134 117 0
128 110 0
132 116 0
135 118 0
137 121 0
130 113 0
131 115 0
135 116 0
132 115 0
136 120 0
139 124 0
140 125 0
139 122 0
137 121 0
136 118 0
137 121 0
141 128 0
142 126 0
137 122 0
140 126 0
140 125 0
139 123 0
141 127 0
140 126 0
138 123 0
139 126 0
143 129 0
143 131 0
144 130 0
138 123 0
144 130 0
140 126 0
143 131 0
144 132 0
145 132 0
144 132 0
144 128 0
146 135 0
144 131 0
145 134 0
144 130 0
145 134 0
147 139 0
149 137 0
146 135 0
150 146 0
156 159 0
163 173 0
169 185 0
171 191 0
169 187 0
167 184 0
170 188 0
170 188 0
170 186 0
171 191 0
170 187 0
169 187 0
171 191 0
171 191 0
171 189 0
170 190 0
171 192 0
173 194 0
171 193 0
168 190 0
170 192 0
170 193 0
168 191 0
170 192 0
166 189 0
171 193 0
171 193 0
169 191 0
169 191 0
170 192 0
168 190 0
167 190 0
170 191 0
167 190 0
168 189 0
160 181 0
158 178 0
152 171 0
152 170 0
147 166 0
146 163 0
144 162 0
142 159 0
143 159 0
144 160 0
142 159 0
136 152 0
142 158 0
140 155 0
142 157 0
145 162 0
138 154 0
142 157 0
140 154 0
137 152 0
139 154 0
135 150 0
138 153 0
142 156 0
135 150 0
136 150 0
138 153 0
132 146 0
141 156 0
138 153 0
135 150 0
137 151 0
133 145 0
133 147 0
129 141 0
130 141 0
137 151 0
130 143 0
135 148 0
124 135 0
136 150 0
125 135 0
134 147 0
128 142 0
127 139 0
129 140 0
130 142 0
135 147 0
126 137 0
132 143 0
123 134 0
123 133 0
125 137 0
119 130 0
117 126 0
121 128 0
112 120 0
120 130 0
108 117 0
114 124 0
114 124 0
110 117 0
107 115 0
114 122 0
110 118 0
120 129 0
105 114 0
120 129 0
109 116 0
108 115 0
113 120 0
112 119 0
108 115 0
119 126 0
114 122 0
118 124 0
114 120 0
119 125 0
111 115 0
124 127 0
122 127 0
123 128 0
135 142 0
133 139 0
126 131 0
126 130 0
140 146 0
124 127 0
126 129 0
128 130 0
128 134 0
136 142 0
132 135 0
128 130 0
137 143 0
134 140 0
140 146 0
143 148 0
129 128 0
137 140 0
140 146 0
136 140 0
132 133 0
142 145 0
143 151 0
137 141 0
135 135 0
151 159 0
143 148 0
142 147 0
139 142 0
139 141 0
141 143 0
145 150 0
143 148 0
137 141 0
143 149 0
142 145 0
141 142 0
141 146 0
137 141 0
144 151 0
139 141 0
143 146 0
140 140 0
132 125 0
137 135 0
146 149 0
147 149 0
144 144 0
145 146 0
139 137 0
142 144 0
140 138 0
139 138 0
138 138 0
137 133 0
138 136 0
140 137 0
135 134 0
132 125 0
135 130 0
134 131 0
130 122 0
127 115 0
133 126 0
133 127 0
124 116 0
132 125 0
127 115 0
134 128 0
121 108 0
133 127 0
113 96 0
122 108 0
125 112 0
114 97 0
115 98 0
122 112 0
115 100 0
114 93 14
117 90 14
128 87 42
131 89 52
133 90 52
131 89 42
138 92 59
140 95 64
137 94 57
138 96 54
142 98 61
138 95 50
140 97 64
137 94 48
134 91 56
138 94 56
139 95 61
135 91 54
137 93 44
137 94 46
140 96 61
138 96 46
143 98 61
143 100 61
136 93 48
138 95 54
134 93 44
138 95 52
142 98 56
134 91 39
138 93 54
140 96 50
136 93 52
139 94 52
133 89 48
137 94 56
134 90 52
134 92 50
137 93 64
136 92 52
128 91 50
118 89 28
124 106 14
119 99 0
113 92 0
118 99 0
121 102 0
122 109 0
126 113 0
128 115 0
125 109 0
127 118 0
122 109 0
126 112 0
138 130 0
128 114 0
125 114 0
135 123 0
136 130 0
135 123 0
142 133 0
135 128 0
144 140 0
127 110 0
138 129 0
133 121 0
134 127 0
141 135 0
128 116 0
141 133 0
135 128 0
141 135 0
130 122 0
135 125 0
131 124 0
146 138 0
137 130 0
143 141 0
143 138 0
144 140 0
148 145 0
138 129 0
137 130 0
134 128 0
145 144 0
140 135 0
142 140 0
142 139 0
142 137 0
135 131 0
143 141 0
145 143 0
139 132 0
137 128 0
137 132 0
140 134 0
143 137 0
137 132 0
136 128 0
143 139 0
139 131 0
135 128 0
137 129 0
135 127 0
138 129 0
136 127 0
138 132 0
132 123 0
130 116 0
135 130 0
131 123 0
134 123 0
136 127 0
134 124 0
132 120 0
125 116 0
126 118 0
121 105 0
125 113 0
127 118 0
125 117 0
123 110 0
129 122 0
117 105 0
117 99 0
111 96 0
121 111 0
116 101 0
109 93 0
123 111 0
115 102 0
117 103 0
121 111 0
113 99 0
102 88 0
113 101 0
112 99 0
116 105 0
113 102 0
114 99 0
113 97 0
108 92 0
112 90 0
111 88 0
114 92 0
115 94 0
121 101 0
123 104 0
124 106 0
125 106 0
126 106 0
125 103 0
127 108 0
127 105 0
126 109 0
124 106 0
127 108 0
119 101 0
124 105 0
127 108 0
130 112 0
132 113 0
131 112 0
130 111 0
132 114 0
132 112 0
131 113 0
131 113 0
135 119 0
139 124 0
133 115 0
136 119 0
138 122 0
135 120 0
133 116 0
132 116 0
140 125 0
137 123 0
139 123 0
133 117 0
141 127 0
141 128 0
140 128 0
143 128 0
142 128 0
141 127 0
139 126 0
141 127 0
145 132 0
144 132 0
146 132 0
139 126 0
148 135 0
143 130 0
142 131 0
141 129 0
141 126 0
145 132 0
144 131 0
149 140 0
153 147 0
155 157 0
157 163 0
165 179 0
171 188 0
170 188 0
167 186 0
170 188 0
170 188 0
171 188 0
170 187 0
170 189 0
170 187 0
170 186 0
172 191 0
169 188 0
171 189 0
170 189 0
169 186 0
170 189 0
166 183 0
171 190 0
170 193 0
169 191 0
169 192 0
169 191 0
168 190 0
169 192 0
169 192 0
168 190 0
167 189 0
170 192 0
167 189 0
167 189 0
169 191 0
169 191 0
166 187 0
169 190 0
167 188 0
168 189 0
168 190 0
166 188 0
166 187 0
162 182 0
162 184 0
159 179 0
157 176 0
154 172 0
149 167 0
146 163 0
144 161 0
141 158 0
144 160 0
141 158 0
142 157 0
142 158 0
141 157 0
141 157 0
137 153 0
145 162 0
140 155 0
140 156 0
139 155 0
141 156 0
143 157 0
137 152 0
138 152 0
139 154 0
132 145 0
137 150 0
138 152 0
132 145 0
137 151 0
127 139 0
133 146 0
131 144 0
134 148 0
125 138 0
127 140 0
131 144 0
127 138 0
125 137 0
125 137 0
119 130 0
135 147 0
124 135 0
123 134 0
122 133 0
126 136 0
122 133 0
122 131 0
114 124 0
117 127 0
113 122 0
118 128 0
110 120 0
118 126 0
112 122 0
109 119 0
118 129 0
117 126 0
112 121 0
115 123 0
120 130 0
113 121 0
109 118 0
116 125 0
103 109 0
109 115 0
110 117 0
115 120 0
112 117 0
120 127 0
118 126 0
113 120 0
117 123 0
127 134 0
125 131 0
127 135 0
129 134 0
127 133 0
128 133 0
126 130 0
131 132 0
125 129 0
127 131 0
129 135 0
136 142 0
137 145 0
128 133 0
129 134 0
135 138 0
138 144 0
141 148 0
138 138 0
143 150 0
133 136 0
138 140 0
136 138 0
137 139 0
139 143 0
137 141 0
135 138 0
144 149 0
144 149 0
140 143 0
135 136 0
133 132 0
136 137 0
137 138 0
139 139 0
141 146 0
140 143 0
146 150 0
140 145 0
132 131 0
143 147 0
137 138 0
145 152 0
138 139 0
133 132 0
137 137 0
144 147 0
134 136 0
145 150 0
142 143 0
138 138 0
143 141 0
140 138 0
140 141 0
141 144 0
145 146 0
141 138 0
134 131 0
137 136 0
137 134 0
136 134 0
139 138 0
130 123 0
128 120 0
127 117 0
133 126 0
121 111 0
134 130 0
132 123 0
136 132 0
131 124 0
135 127 0
135 129 0
122 115 0
129 123 0
123 112 0
130 121 0
130 124 0
117 101 0
112 93 0
120 109 0
120 110 0
115 103 0
118 103 0
117 104 0
112 102 0
119 111 0
113 93 14
122 98 24
124 88 34
126 82 39
133 88 46
133 90 50
136 92 59
132 91 42
137 94 57
135 91 57
135 92 50
139 94 54
140 95 64
137 94 50
132 90 48
131 88 48
138 93 59
142 98 61
140 96 57
134 91 70
139 96 54
133 89 44
134 91 52
139 95 50
139 94 61
135 92 52
138 94 48
139 93 62
132 89 42
134 93 50
131 89 44
136 90 50
130 85 44
126 88 34
120 87 37
113 87 24
114 88 14
112 97 0
115 98 0
106 79 0
111 93 0
106 83 0
124 110 0
120 107 0
128 113 0
120 106 0
122 107 0
124 109 0
124 107 0
131 121 0
133 121 0
124 111 0
130 119 0
127 113 0
131 120 0
134 121 0
134 124 0
138 127 0
139 133 0
137 127 0
139 129 0
135 127 0
135 125 0
141 131 0
140 129 0
136 131 0
140 130 0
134 124 0
132 123 0
134 129 0
143 142 0
131 124 0
136 126 0
133 122 0
143 139 0
139 130 0
143 137 0
144 139 0
142 140 0
140 133 0
131 122 0
142 143 0
148 146 0
140 135 0
146 144 0
142 141 0
141 137 0
134 131 0
154 153 0
138 131 0
144 139 0
138 133 0
139 132 0
136 123 0
142 138 0
139 130 0
134 125 0
134 125 0
139 131 0
143 140 0
136 130 0
134 126 0
135 131 0
134 125 0
138 133 0
135 126 0
136 132 0
128 116 0
135 128 0
135 124 0
131 124 0
130 121 0
125 112 0
124 111 0
135 127 0
132 125 0
121 110 0
124 112 0
119 107 0
119 105 0
125 113 0
125 113 0
129 120 0
117 103 0
117 107 0
115 105 0
116 103 0
107 90 0
111 98 0
115 103 0
114 102 0
122 111 0
106 93 0
115 106 0
109 95 0
115 102 0
109 95 0
108 95 0
118 107 0
108 93 0
106 90 0
112 99 0
108 88 0
119 105 0
112 92 0
104 81 0
118 96 0
114 91 0
117 97 0
117 98 0
121 101 0
123 103 0
122 102 0
124 103 0
131 113 0
132 112 0
129 111 0
127 107 0
125 106 0
128 108 0
128 109 0
132 113 0
128 108 0
132 113 0
127 108 0
127 108 0
137 119 0
131 114 0
137 118 0
136 119 0
134 117 0
134 118 0
136 120 0
135 119 0
141 126 0
139 122 0
136 120 0
145 131 0
140 125 0
134 118 0
137 123 0
137 121 0
138 121 0
140 125 0
144 131 0
144 131 0
141 127 0
141 125 0
143 131 0
146 132 0
148 138 0
148 139 0
151 148 0
153 153 0
161 171 0
165 175 0
167 183 0
167 181 0
165 180 0
171 187 0
167 183 0
169 184 0
169 188 0
168 185 0
171 186 0
169 184 0
167 186 0
170 187 0
164 178 0
168 185 0
171 189 0
169 187 0
172 192 0
171 188 0
170 187 0
169 186 0
169 186 0
169 188 0
169 187 0
171 193 0
170 192 0
171 193 0
169 192 0
168 191 0
167 190 0
166 188 0
166 187 0
167 189 0
168 190 0
168 189 0
166 188 0
167 188 0
167 187 0
168 189 0
169 191 0
166 187 0
169 192 0
167 188 0
169 190 0
168 188 0
167 188 0
166 186 0
164 184 0
165 185 0
164 185 0
163 183 0
163 184 0
160 179 0
159 177 0
154 173 0
152 170 0
150 168 0
145 162 0
141 157 0
141 157 0
137 152 0
143 159 0
139 154 0
134 149 0
137 151 0
142 157 0
133 147 0
135 150 0
137 151 0
134 148 0
134 148 0
130 144 0
129 142 0
129 143 0
127 140 0
125 138 0
131 143 0
134 146 0
129 142 0
129 141 0
128 141 0
126 138 0
129 141 0
124 135 0
121 132 0
120 130 0
121 131 0
116 127 0
120 131 0
116 128 0
118 129 0
118 129 0
120 131 0
119 129 0
124 135 0
112 121 0
121 132 0
125 136 0
124 133 0
113 123 0
119 130 0
110 117 0
115 125 0
113 121 0
114 123 0
122 131 0
110 118 0
113 122 0
119 127 0
120 128 0
111 119 0
122 130 0
122 130 0
120 127 0
120 125 0
113 118 0
128 136 0
129 137 0
123 128 0
127 133 0
126 132 0
128 133 0
117 121 0
129 135 0
136 146 0
124 130 0
135 142 0
131 134 0
138 144 0
135 139 0
137 144 0
133 137 0
136 143 0
128 128 0
137 141 0
138 141 0
137 142 0
134 136 0
145 153 0
142 148 0
146 152 0
137 142 0
134 137 0
139 144 0
138 142 0
137 138 0
137 138 0
138 142 0
141 143 0
136 136 0
141 146 0
139 140 0
138 142 0
143 145 0
147 154 0
139 139 0
143 150 0
139 141 0
140 144 0
138 141 0
135 136 0
139 141 0
143 144 0
136 135 0
146 153 0
139 139 0
137 136 0
138 139 0
141 140 0
134 130 0
138 138 0
139 140 0
134 129 0
136 134 0
140 136 0
137 134 0
138 134 0
140 138 0
139 137 0
141 141 0
140 135 0
136 132 0
139 139 0
132 129 0
131 125 0
128 115 0
136 132 0
133 128 0
131 124 0
134 123 0
129 124 0
121 108 0
127 114 0
128 119 0
127 117 0
121 107 0
125 107 0
130 120 0
125 115 0
126 112 0
119 107 0
121 107 0
114 102 0
125 117 0
112 99 0
114 103 0
105 90 0
116 100 0
106 86 0
117 102 19
107 76 31
125 91 46
116 78 34
130 89 37
130 87 37
132 89 50
134 90 57
134 91 48
132 89 46
134 91 46
139 95 61
134 90 50
135 91 54
140 96 42
132 88 48
134 91 42
134 90 50
128 85 46
136 92 59
135 92 50
132 86 42
125 81 39
136 93 52
128 89 37
125 91 31
119 84 24
109 85 24
105 85 19
105 84 0
114 98 0
107 91 0
105 85 0
113 101 0
122 107 0
117 104 0
114 92 0
118 101 0
114 93 0
132 123 0
126 110 0
119 100 0
128 115 0
116 93 0
130 116 0
123 108 0
119 103 0
132 122 0
134 125 0
131 116 0
131 118 0
130 117 0
136 130 0
132 119 0
122 109 0
131 122 0
133 122 0
142 136 0
138 132 0
136 125 0
145 139 0
134 124 0
135 126 0
137 134 0
137 131 0
140 136 0
136 130 0
139 132 0
130 117 0
132 120 0
138 134 0
141 136 0
138 133 0
142 136 0
138 127 0
137 130 0
144 139 0
141 138 0
148 149 0
142 136 0
145 145 0
138 132 0
141 136 0
147 142 0
141 134 0
139 133 0
146 146 0
140 139 0
142 138 0
142 140 0
144 141 0
142 139 0
136 130 0
141 137 0
133 125 0
141 141 0
138 133 0
140 136 0
139 133 0
139 131 0
140 132 0
140 134 0
138 131 0
138 133 0
138 130 0
139 131 0
133 125 0
133 126 0
133 124 0
133 125 0
129 118 0
139 131 0
126 115 0
128 119 0
129 121 0
123 109 0
135 126 0
125 113 0
128 123 0
123 113 0
126 115 0
121 109 0
118 104 0
121 109 0
113 98 0
119 107 0
125 115 0
124 114 0
114 101 0
124 113 0
111 98 0
117 105 0
114 103 0
114 103 0
119 109 0
116 104 0
108 98 0
122 109 0
119 108 0
121 113 0
118 105 0
118 109 0
129 119 0
118 104 0
120 106 0
119 106 0
117 99 0
127 113 0
121 103 0
126 106 0
117 96 0
126 108 0
116 93 0
129 110 0
126 105 0
125 106 0
124 106 0
126 107 0
127 109 0
134 117 0
127 108 0
131 113 0
131 112 0
131 114 0
131 113 0
139 123 0
137 119 0
134 116 0
136 118 0
134 118 0
137 121 0
139 122 0
139 122 0
136 120 0
138 120 0
136 120 0
135 119 0
139 124 0
142 128 0
147 139 0
148 139 0
147 143 0
152 150 0
147 145 0
158 163 0
163 173 0
163 172 0
165 179 0
168 183 0
163 174 0
165 180 0
166 180 0
168 183 0
167 181 0
167 181 0
167 179 0
166 181 0
167 181 0
168 183 0
164 177 0
169 184 0
170 184 0
169 185 0
169 186 0
170 187 0
169 185 0
166 183 0
170 187 0
168 186 0
171 190 0
166 184 0
171 188 0
170 189 0
168 187 0
170 189 0
169 190 0
169 191 0
168 191 0
170 191 0
167 188 0
167 189 0
166 188 0
170 192 0
167 188 0
168 190 0
167 188 0
169 191 0
170 190 0
168 189 0
167 188 0
173 194 0
169 189 0
166 186 0
166 188 0
170 190 0
162 183 0
165 185 0
164 185 0
167 188 0
165 186 0
164 186 0
165 184 0
164 184 0
161 181 0
164 183 0
163 183 0
165 185 0
164 183 0
160 180 0
156 175 0
161 180 0
157 176 0
160 178 0
151 168 0
148 164 0
150 166 0
152 168 0
152 168 0
149 165 0
145 161 0
140 155 0
142 157 0
140 154 0
141 156 0
133 147 0
130 142 0
140 154 0
140 155 0
136 149 0
136 150 0
135 148 0
144 158 0
127 141 0
134 147 0
133 145 0
136 149 0
134 148 0
133 146 0
139 152 0
131 143 0
132 145 0
126 137 0
125 137 0
124 136 0
127 138 0
119 129 0
121 131 0
122 132 0
119 129 0
119 128 0
118 128 0
124 134 0
118 127 0
116 124 0
114 122 0
122 132 0
120 130 0
112 119 0
117 125 0
125 135 0
122 130 0
120 127 0
124 132 0
117 123 0
118 125 0
121 128 0
129 137 0
133 139 0
115 120 0
125 130 0
121 127 0
133 141 0
130 136 0
129 131 0
132 139 0
133 138 0
131 136 0
125 127 0
139 146 0
139 143 0
127 129 0
127 130 0
136 141 0
139 141 0
138 146 0
141 146 0
137 143 0
138 143 0
132 132 0
134 137 0
140 143 0
145 149 0
138 141 0
137 139 0
138 142 0
141 146 0
143 146 0
139 146 0
140 144 0
142 147 0
141 146 0
143 147 0
137 140 0
139 139 0
143 145 0
143 145 0
132 130 0
141 149 0
144 147 0
142 148 0
138 143 0
140 143 0
139 142 0
139 141 0
142 145 0
143 146 0
139 140 0
133 128 0
140 140 0
135 134 0
137 135 0
138 132 0
137 136 0
139 135 0
142 142 0
140 140 0
140 140 0
134 135 0
139 139 0
137 137 0
135 126 0
138 137 0
138 136 0
133 130 0
138 136 0
127 119 0
137 134 0
138 135 0
135 134 0
131 127 0
129 119 0
130 124 0
132 122 0
126 115 0
128 117 0
124 113 0
126 111 0
123 114 0
121 108 0
121 107 0
124 112 0
107 97 0
120 108 0
116 101 0
117 104 0
106 87 0
111 96 0
117 97 0
113 98 0
119 109 0
107 92 0
106 87 0
108 87 0
98 80 0
105 92 0
97 76 14
102 73 19
107 84 14
115 92 31
115 85 24
111 84 34
125 90 48
123 81 52
118 86 37
121 89 37
127 96 31
120 85 37
113 81 24
111 78 37
112 79 31
118 92 28
106 78 24
95 69 24
100 81 0
101 82 0
101 83 0
104 83 0
109 92 0
109 91 0
105 87 0
111 94 0
99 79 0
109 93 0
105 84 0
120 103 0
119 99 0
113 99 0
116 100 0
109 88 0
120 106 0
124 109 0
125 112 0
122 107 0
121 100 0
130 120 0
123 110 0
126 114 0
131 121 0
131 115 0
131 119 0
127 112 0
132 119 0
135 127 0
140 131 0
124 111 0
133 119 0
143 140 0
139 132 0
135 121 0
133 122 0
135 128 0
143 136 0
138 132 0
136 127 0
145 144 0
135 128 0
134 127 0
142 140 0
142 142 0
144 140 0
139 134 0
137 129 0
135 128 0
131 122 0
141 135 0
134 121 0
142 140 0
139 131 0
144 143 0
143 143 0
146 143 0
140 130 0
140 137 0
142 143 0
143 137 0
140 135 0
140 136 0
145 142 0
144 141 0
143 139 0
143 137 0
138 134 0
132 124 0
134 127 0
135 128 0
144 143 0
141 135 0
139 133 0
138 129 0
141 134 0
143 138 0
150 150 0
146 141 0
137 129 0
138 132 0
137 131 0
138 132 0
132 123 0
135 125 0
137 132 0
136 128 0
132 128 0
131 123 0
129 120 0
134 126 0
128 118 0
131 124 0
130 120 0
125 112 0
127 115 0
132 123 0
134 126 0
128 121 0
128 120 0
123 111 0
130 118 0
117 105 0
114 103 0
109 93 0
112 101 0
118 108 0
122 110 0
121 112 0
118 107 0
117 107 0
126 117 0
116 103 0
123 115 0
122 114 0
116 106 0
123 111 0
121 112 0
118 108 0
120 111 0
122 112 0
122 112 0
131 123 0
126 117 0
124 117 0
126 119 0
132 126 0
128 119 0
127 115 0
134 125 0
137 130 0
131 124 0
132 121 0
134 124 0
139 130 0
133 121 0
130 117 0
135 123 0
129 114 0
137 127 0
138 126 0
141 129 0
137 128 0
144 138 0
140 129 0
146 140 0
145 137 0
150 148 0
153 151 0
145 142 0
154 155 0
154 157 0
160 164 0
156 161 0
164 174 0
161 170 0
164 174 0
161 167 0
161 170 0
162 172 0
164 173 0
167 178 0
167 180 0
163 174 0
165 175 0
163 173 0
168 181 0
171 184 0
165 177 0
169 182 0
167 178 0
165 179 0
167 179 0
165 178 0
165 177 0
170 187 0
169 186 0
169 186 0
168 184 0
168 183 0
167 179 0
169 187 0
170 187 0
171 186 0
167 185 0
168 183 0
171 189 0
169 186 0
168 184 0
168 186 0
168 188 0
168 190 0
168 190 0
167 188 0
167 188 0
166 188 0
168 190 0
169 190 0
171 192 0
168 190 0
167 190 0
170 191 0
165 187 0
168 188 0
169 191 0
165 186 0
164 185 0
165 186 0
162 183 0
167 187 0
168 188 0
163 183 0
167 188 0
168 188 0
163 184 0
163 183 0
165 185 0
162 180 0
169 188 0
163 182 0
164 184 0
161 179 0
161 181 0
159 178 0
163 181 0
159 176 0
158 176 0
160 177 0
158 175 0
160 178 0
159 177 0
153 170 0
158 175 0
155 171 0
156 173 0
157 173 0
155 172 0
158 174 0
150 166 0
154 170 0
149 165 0
151 167 0
149 164 0
148 163 0
144 158 0
143 158 0
139 153 0
140 154 0
134 147 0
147 160 0
141 155 0
134 146 0
133 146 0
133 145 0
139 153 0
130 143 0
135 148 0
131 143 0
127 139 0
125 137 0
125 134 0
126 136 0
119 130 0
123 133 0
122 133 0
119 129 0
120 127 0
123 133 0
117 125 0
117 127 0
122 131 0
125 132 0
116 122 0
124 131 0
120 127 0
129 137 0
126 135 0
120 127 0
127 136 0
133 141 0
129 134 0
127 133 0
122 126 0
122 126 0
130 136 0
131 138 0
129 132 0
138 145 0
139 149 0
126 129 0
137 143 0
135 138 0
141 150 0
142 151 0
138 143 0
135 140 0
143 149 0
141 146 0
137 144 0
140 145 0
136 139 0
137 145 0
134 138 0
136 138 0
143 150 0
139 141 0
138 145 0
132 136 0
141 144 0
141 149 0
141 147 0
136 138 0
145 151 0
148 153 0
146 151 0
141 143 0
144 149 0
141 144 0
143 147 0
139 140 0
144 147 0
136 140 0
138 140 0
146 152 0
148 153 0
136 135 0
140 143 0
148 151 0
142 145 0
138 138 0
143 150 0
136 137 0
146 149 0
147 149 0
141 142 0
140 139 0
136 133 0
138 134 0
133 132 0
137 134 0
141 140 0
135 131 0
135 132 0
136 133 0
143 141 0
141 141 0
145 144 0
135 130 0
136 136 0
137 134 0
135 130 0
139 136 0
124 117 0
130 125 0
132 123 0
128 119 0
137 130 0
126 113 0
126 112 0
131 121 0
129 117 0
129 120 0
130 125 0
120 110 0
119 104 0
125 114 0
117 101 0
115 97 0
128 115 0
121 109 0
113 96 0
116 103 0
113 96 0
112 98 0
115 104 0
117 105 0
102 84 0
107 97 0
108 93 0
108 92 0
110 90 0
103 89 0
100 85 0
99 84 0
103 88 0
105 90 0
86 59 0
97 76 0
92 73 0
99 81 0
106 89 0
101 91 0
89 69 0
99 85 0
103 89 0
110 96 0
109 94 0
97 79 0
105 85 0
107 99 0
97 75 0
118 111 0
104 86 0
113 96 0
105 86 0
111 94 0
101 81 0
109 88 0
116 102 0
111 92 0
114 100 0
122 103 0
127 115 0
123 108 0
124 110 0
123 102 0
128 114 0
123 102 0
123 106 0
127 112 0
117 102 0
119 98 0
122 105 0
135 123 0
126 115 0
126 111 0
134 127 0
136 126 0
141 133 0
132 121 0
130 121 0
135 123 0
136 124 0
137 131 0
141 137 0
134 123 0
136 128 0
135 122 0
132 125 0
138 134 0
141 135 0
142 137 0
140 132 0
150 147 0
136 132 0
142 137 0
141 133 0
142 137 0
137 129 0
135 126 0
144 140 0
137 134 0
140 136 0
138 131 0
142 137 0
143 138 0
142 140 0
144 141 0
141 139 0
138 132 0
142 137 0
136 130 0
145 142 0
142 141 0
145 140 0
138 133 0
140 137 0
133 124 0
139 133 0
136 129 0
135 130 0
142 136 0
142 137 0
141 135 0
140 135 0
135 130 0
135 128 0
134 125 0
140 136 0
135 129 0
142 138 0
138 134 0
138 131 0
133 125 0
140 135 0
144 140 0
137 130 0
134 126 0
136 130 0
135 127 0
133 127 0
137 130 0
130 117 0
127 118 0
136 131 0
126 117 0
129 120 0
131 121 0
131 121 0
123 110 0
134 126 0
126 115 0
124 113 0
122 109 0
131 125 0
118 107 0
123 112 0
121 112 0
123 113 0
120 107 0
124 113 0
122 114 0
122 111 0
121 110 0
118 109 0
114 105 0
128 119 0
120 111 0
122 111 0
122 110 0
119 108 0
122 113 0
126 115 0
126 120 0
134 126 0
134 127 0
134 129 0
129 121 0
129 124 0
144 143 0
139 135 0
138 133 0
145 144 0
139 136 0
146 144 0
140 139 0
142 141 0
145 143 0
145 144 0
146 145 0
146 146 0
147 146 0
151 155 0
149 152 0
156 159 0
151 152 0
154 157 0
154 158 0
150 152 0
161 168 0
158 165 0
157 160 0
160 166 0
156 160 0
158 166 0
157 164 0
162 170 0
161 169 0
162 171 0
163 174 0
165 175 0
166 176 0
156 161 0
165 177 0
163 175 0
166 178 0
167 181 0
162 173 0
165 177 0
166 176 0
166 179 0
164 177 0
170 184 0
169 181 0
163 177 0
170 185 0
168 183 0
163 177 0
168 186 0
166 182 0
169 183 0
171 185 0
166 180 0
170 186 0
167 184 0
170 186 0
169 184 0
169 187 0
170 187 0
170 187 0
167 184 0
169 190 0
169 190 0
170 191 0
168 189 0
167 189 0
168 189 0
168 190 0
165 186 0
168 189 0
165 186 0
166 188 0
165 186 0
167 188 0
167 188 0
166 187 0
164 185 0
162 182 0
165 185 0
164 185 0
164 185 0
166 185 0
164 183 0
160 179 0
163 183 0
161 181 0
165 184 0
161 180 0
162 181 0
159 178 0
155 174 0
156 175 0
163 181 0
160 179 0
157 175 0
159 177 0
159 177 0
158 176 0
154 172 0
153 169 0
149 165 0
153 170 0
153 169 0
153 170 0
150 166 0
148 165 0
149 165 0
151 167 0
149 165 0
150 167 0
141 156 0
145 160 0
143 157 0
148 164 0
147 162 0
142 157 0
149 163 0
141 156 0
138 151 0
138 152 0
132 144 0
140 152 0
132 145 0
135 148 0
142 156 0
129 141 0
136 148 0
130 141 0
131 141 0
124 134 0
134 145 0
129 139 0
123 133 0
126 137 0
125 135 0
124 134 0
124 132 0
122 131 0
120 130 0
127 136 0
124 133 0
116 122 0
128 138 0
123 131 0
130 139 0
124 131 0
133 143 0
132 141 0
131 137 0
137 146 0
124 130 0
127 134 0
125 131 0
129 135 0
129 134 0
127 133 0
133 140 0
140 147 0
139 143 0
135 140 0
128 132 0
138 146 0
124 125 0
138 144 0
134 137 0
139 144 0
138 143 0
132 137 0
133 135 0
140 144 0
140 145 0
138 143 0
140 143 0
144 151 0
136 140 0
142 144 0
144 151 0
140 147 0
134 135 0
143 148 0
142 146 0
145 149 0
139 142 0
143 148 0
137 140 0
143 149 0
140 144 0
146 151 0
144 150 0
145 148 0
134 138 0
145 151 0
147 153 0
141 144 0
142 147 0
143 145 0
145 148 0
138 137 0
141 143 0
133 135 0
134 130 0
139 140 0
134 132 0
144 148 0
138 133 0
144 147 0
144 148 0
141 143 0
141 142 0
143 142 0
138 132 0
140 137 0
134 135 0
139 135 0
133 132 0
139 137 0
139 137 0
140 136 0
141 137 0
137 132 0
124 111 0
133 127 0
131 125 0
126 116 0
142 136 0
128 119 0
139 134 0
133 128 0
134 125 0
122 108 0
124 113 0
121 111 0
130 120 0
127 115 0
127 120 0
118 104 0
118 107 0
125 112 0
116 107 0
119 103 0
124 115 0
115 101 0
112 98 0
116 103 0
117 96 0
109 88 0
122 106 0
101 82 0
118 107 0
112 97 0
108 91 0
97 70 0
105 86 0
100 85 0
112 98 0
104 85 0
102 87 0
99 80 0
104 86 0
97 71 0
107 91 0
104 82 0
105 88 0
101 84 0
103 86 0
109 91 0
97 78 0
106 88 0
103 80 0
106 92 0
113 98 0
113 94 0
114 95 0
112 90 0
114 96 0
112 94 0
115 102 0
121 108 0
101 79 0
129 119 0
112 97 0
124 109 0
126 110 0
120 104 0
127 117 0
128 110 0
126 113 0
126 109 0
131 121 0
128 113 0
129 116 0
129 114 0
127 116 0
127 114 0
135 124 0
133 122 0
142 139 0
132 120 0
137 127 0
139 128 0
140 133 0
129 113 0
133 120 0
133 120 0
135 125 0
135 126 0
137 125 0
138 131 0
139 137 0
135 127 0
135 131 0
140 133 0
138 132 0
137 131 0
137 129 0
137 129 0
142 138 0
129 119 0
142 141 0
143 143 0
145 141 0
142 140 0
142 137 0
144 140 0
145 144 0
143 142 0
142 137 0
135 129 0
144 139 0
148 148 0
145 142 0
141 136 0
143 142 0
144 140 0
135 128 0
146 145 0
139 134 0
144 141 0
142 140 0
143 138 0
141 135 0
140 134 0
138 129 0
142 138 0
143 141 0
142 141 0
135 127 0
136 129 0
135 127 0
143 133 0
143 136 0
140 139 0
136 130 0
134 126 0
143 143 0
136 130 0
140 131 0
141 137 0
133 126 0
136 128 0
134 127 0
132 124 0
137 130 0
137 127 0
141 136 0
129 121 0
139 133 0
135 127 0
131 123 0
121 111 0
132 126 0
126 119 0
126 114 0
130 120 0
128 117 0
129 120 0
125 118 0
125 117 0
121 110 0
123 111 0
128 118 0
126 116 0
115 102 0
115 103 0
121 113 0
125 114 0
128 122 0
125 116 0
134 126 0
126 116 0
129 120 0
126 116 0
123 114 0
122 112 0
125 115 0
121 109 0
132 123 0
126 116 0
132 126 0
137 132 0
139 138 0
132 124 0
132 127 0
138 134 0
137 133 0
136 131 0
139 130 0
147 147 0
146 144 0
144 144 0
149 150 0
147 148 0
151 153 0
156 160 0
155 159 0
151 153 0
157 161 0
149 151 0
158 161 0
155 160 0
158 163 0
155 163 0
158 162 0
158 164 0
157 163 0
160 165 0
160 168 0
154 158 0
159 166 0
156 162 0
165 175 0
161 169 0
159 165 0
163 174 0
162 172 0
163 175 0
159 167 0
166 178 0
164 175 0
167 178 0
165 179 0
164 173 0
165 176 0
168 182 0
161 175 0
163 179 0
167 182 0
168 181 0
166 179 0
167 182 0
166 182 0
166 181 0
169 185 0
166 181 0
165 182 0
168 181 0
170 186 0
167 182 0
171 187 0
166 182 0
168 185 0
168 189 0
168 189 0
170 191 0
169 191 0
171 192 0
166 188 0
169 191 0
168 188 0
167 189 0
164 185 0
167 188 0
166 186 0
165 186 0
167 188 0
168 188 0
164 184 0
164 183 0
166 186 0
160 180 0
165 186 0
164 183 0
162 181 0
167 186 0
157 176 0
160 179 0
162 181 0
163 182 0
165 183 0
161 179 0
159 176 0
163 182 0
162 180 0
158 176 0
158 174 0
158 173 0
159 177 0
157 176 0
154 172 0
155 172 0
155 173 0
157 175 0
154 171 0
157 174 0
149 165 0
152 169 0
149 165 0
150 166 0
146 162 0
152 167 0
143 157 0
149 164 0
146 160 0
133 146 0
146 161 0
140 154 0
141 154 0
144 159 0
143 157 0
137 151 0
140 153 0
132 144 0
134 145 0
129 142 0
135 147 0
133 145 0
138 150 0
136 149 0
134 146 0
133 144 0
130 142 0
132 143 0
131 141 0
132 143 0
131 140 0
128 139 0
134 144 0
135 145 0
123 134 0
127 137 0
134 144 0
130 140 0
133 142 0
133 142 0
128 138 0
128 137 0
135 143 0
138 146 0
130 135 0
129 136 0
138 143 0
132 139 0
135 142 0
135 143 0
130 135 0
136 142 0
135 142 0
135 142 0
131 135 0
134 139 0
140 146 0
137 146 0
136 143 0
138 145 0
136 143 0
136 139 0
142 150 0
139 142 0
143 146 0
143 152 0
146 154 0
143 150 0
141 148 0
151 159 0
141 145 0
138 140 0
140 143 0
140 140 0
144 151 0
146 153 0
140 144 0
141 144 0
142 147 0
147 154 0
144 149 0
143 147 0
146 147 0
143 148 0
140 141 0
148 156 0
145 149 0
141 143 0
146 151 0
141 144 0
136 137 0
137 136 0
143 145 0
143 144 0
147 150 0
145 150 0
146 153 0
147 150 0
135 131 0
149 149 0
142 142 0
134 132 0
138 141 0
140 139 0
151 154 0
135 135 0
140 141 0
143 144 0
142 139 0
136 131 0
142 141 0
140 138 0
147 146 0
138 138 0
137 133 0
135 129 0
137 132 0
134 124 0
140 136 0
130 122 0
136 132 0
132 123 0
131 124 0
132 125 0
128 118 0
122 110 0
125 116 0
119 106 0
129 122 0
131 121 0
121 108 0
133 124 0
120 105 0
135 127 0
126 115 0
124 110 0
124 111 0
114 99 0
115 98 0
123 112 0
117 100 0
121 105 0
117 101 0
110 96 0
113 97 0
113 99 0
112 97 0
105 88 0
109 94 0
102 78 0
111 95 0
112 93 0
107 95 0
101 72 0
112 91 0
102 82 0
105 91 0
117 103 0
104 92 0
96 79 0
102 82 0
94 71 0
111 91 0
112 94 0
108 92 0
106 88 0
102 81 0
120 101 0
114 97 0
113 93 0
111 98 0
123 105 0
119 108 0
116 100 0
118 100 0
120 108 0
115 94 0
120 106 0
119 103 0
121 100 0
127 117 0
121 107 0
125 107 0
131 123 0
125 111 0
128 115 0
128 118 0
132 120 0
131 115 0
129 117 0
131 122 0
132 120 0
127 111 0
133 123 0
139 130 0
133 123 0
138 129 0
125 117 0
135 128 0
135 127 0
133 128 0
137 128 0
139 128 0
141 136 0
137 132 0
139 133 0
136 125 0
135 126 0
137 124 0
141 137 0
148 145 0
138 131 0
138 131 0
137 132 0
139 136 0
146 145 0
140 138 0
146 144 0
136 129 0
142 138 0
147 147 0
142 134 0
146 148 0
141 138 0
143 140 0
145 142 0
141 137 0
144 141 0
143 136 0
149 151 0
141 138 0
147 146 0
144 143 0
149 152 0
144 141 0
144 143 0
143 140 0
141 136 0
141 130 0
132 120 0
141 140 0
143 139 0
138 129 0
140 133 0
144 143 0
144 140 0
139 133 0
140 134 0
136 130 0
137 131 0
135 129 0
138 131 0
137 132 0
145 141 0
136 133 0
135 129 0
140 136 0
144 139 0
140 135 0
137 132 0
129 118 0
134 127 0
136 130 0
133 125 0
128 116 0
138 133 0
133 127 0
134 128 0
128 118 0
133 125 0
131 127 0
126 116 0
124 119 0
130 124 0
130 123 0
128 119 0
128 121 0
127 122 0
125 115 0
129 121 0
128 119 0
123 114 0
129 122 0
128 119 0
131 121 0
128 122 0
126 116 0
123 115 0
131 125 0
131 123 0
134 125 0
138 132 0
133 126 0
135 129 0
137 133 0
142 139 0
132 124 0
133 127 0
139 132 0
139 136 0
137 131 0
141 139 0
142 139 0
144 142 0
148 148 0
141 136 0
145 143 0
151 152 0
155 156 0
148 146 0
144 143 0
155 157 0
153 157 0
150 150 0
152 155 0
150 152 0
151 153 0
155 157 0
156 160 0
157 161 0
159 166 0
159 164 0
158 163 0
155 158 0
158 163 0
157 163 0
160 167 0
159 165 0
165 175 0
158 166 0
162 169 0
161 170 0
162 171 0
163 172 0
161 170 0
167 179 0
166 179 0
166 175 0
162 173 0
165 178 0
167 179 0
168 181 0
164 177 0
162 173 0
167 182 0
167 181 0
167 181 0
168 181 0
167 181 0
166 179 0
170 186 0
168 185 0
168 183 0
168 185 0
166 179 0
167 181 0
170 187 0
171 192 0
167 188 0
169 190 0
166 186 0
169 191 0
169 189 0
167 187 0
168 189 0
164 184 0
166 187 0
167 188 0
170 191 0
167 188 0
164 183 0
167 188 0
166 186 0
162 182 0
165 185 0
160 178 0
163 183 0
162 181 0
160 180 0
163 182 0
164 183 0
156 175 0
164 183 0
160 178 0
162 181 0
162 182 0
156 174 0
160 178 0
158 175 0
156 173 0
159 175 0
154 172 0
155 172 0
163 180 0
154 171 0
155 172 0
150 167 0
153 169 0
154 171 0
149 165 0
154 170 0
153 169 0
153 169 0
145 161 0
149 165 0
150 164 0
148 163 0
147 162 0
143 157 0
145 159 0
145 160 0
138 151 0
149 164 0
132 145 0
135 148 0
133 145 0
139 152 0
139 153 0
128 141 0
137 151 0
133 144 0
139 151 0
129 140 0
128 136 0
137 149 0
130 142 0
126 137 0
129 140 0
133 145 0
131 142 0
127 136 0
131 142 0
130 139 0
130 141 0
129 138 0
129 138 0
141 151 0
134 143 0
125 132 0
129 135 0
129 137 0
135 145 0
133 141 0
138 148 0
130 138 0
143 150 0
137 145 0
139 147 0
144 154 0
144 153 0
135 142 0
134 137 0
134 139 0
144 152 0
132 138 0
136 142 0
143 151 0
130 131 0
138 144 0
133 138 0
141 148 0
137 142 0
139 144 0
140 143 0
148 157 0
140 144 0
141 144 0
143 148 0
145 153 0
143 148 0
143 151 0
136 138 0
134 135 0
141 144 0
147 149 0
142 145 0
142 149 0
140 144 0
140 145 0
143 149 0
138 137 0
146 149 0
143 148 0
143 147 0
142 148 0
147 151 0
138 141 0
141 143 0
145 145 0
150 154 0
137 137 0
138 140 0
139 139 0
145 146 0
138 138 0
138 138 0
141 144 0
136 132 0
138 137 0
147 148 0
141 137 0
143 147 0
140 138 0
138 137 0
141 139 0
132 127 0
139 137 0
134 132 0
139 133 0
141 140 0
137 134 0
135 130 0
139 140 0
127 117 0
131 125 0
137 135 0
138 136 0
130 122 0
144 145 0
132 125 0
133 124 0
135 131 0
139 134 0
135 126 0
130 117 0
125 112 0
129 116 0
125 113 0
136 129 0
124 110 0
132 121 0
121 114 0
126 113 0
124 110 0
124 113 0
130 111 0
119 110 0
123 112 0
119 104 0
121 108 0
125 117 0
114 100 0
116 101 0
123 115 0
118 105 0
116 98 0
113 92 0
121 108 0
119 104 0
108 91 0
107 93 0
111 98 0
116 96 0
102 79 0
107 92 0
112 96 0
111 91 0
108 88 0
118 108 0
116 99 0
99 81 0
114 102 0
98 77 0
116 98 0
107 85 0
111 88 0
118 101 0
111 92 0
128 119 0
110 93 0
114 93 0
114 101 0
122 107 0
111 91 0
116 98 0
108 90 0
127 112 0
119 100 0
122 108 0
129 118 0
126 114 0
133 124 0
124 109 0
128 111 0
135 128 0
120 104 0
141 138 0
135 125 0
136 128 0
136 129 0
131 121 0
136 127 0
139 131 0
139 130 0
136 128 0
130 116 0
133 122 0
131 120 0
129 113 0
142 134 0
139 132 0
140 136 0
138 129 0
135 124 0
140 135 0
142 139 0
141 135 0
142 137 0
139 129 0
137 131 0
139 136 0
145 144 0
139 134 0
150 153 0
143 137 0
148 147 0
135 130 0
144 146 0
142 135 0
136 129 0
143 141 0
139 132 0
147 144 0
147 144 0
144 140 0
143 140 0
145 142 0
141 140 0
147 147 0
148 151 0
149 148 0
148 150 0
143 142 0
149 146 0
149 147 0
139 135 0
146 144 0
149 147 0
141 136 0
141 139 0
150 149 0
140 135 0
150 149 0
140 131 0
139 135 0
143 141 0
143 138 0
146 145 0
143 140 0
139 134 0
146 144 0
140 136 0
142 137 0
140 131 0
136 127 0
140 137 0
136 131 0
140 135 0
141 136 0
136 131 0
135 128 0
134 129 0
133 125 0
141 138 0
136 129 0
132 126 0
129 120 0
123 114 0
131 124 0
138 131 0
127 117 0
128 120 0
135 130 0
134 125 0
133 126 0
131 124 0
134 127 0
133 127 0
128 119 0
128 119 0
125 114 0
138 134 0
131 124 0
127 119 0
123 112 0
131 125 0
128 118 0
130 122 0
125 117 0
134 128 0
127 117 0
129 123 0
136 133 0
133 126 0
136 130 0
135 131 0
140 138 0
128 118 0
136 130 0
137 133 0
142 140 0
141 136 0
135 129 0
144 140 0
138 133 0
145 142 0
147 149 0
138 134 0
145 144 0
149 150 0
146 143 0
149 151 0
154 156 0
156 158 0
148 150 0
151 152 0
154 159 0
154 156 0
160 165 0
158 163 0
160 165 0
155 161 0
157 162 0
159 166 0
157 162 0
154 158 0
158 163 0
159 167 0
158 163 0
162 169 0
160 167 0
161 167 0
160 170 0
157 165 0
166 176 0
160 167 0
167 178 0
163 173 0
161 172 0
164 176 0
166 180 0
164 178 0
166 178 0
167 180 0
167 181 0
165 179 0
163 175 0
166 180 0
165 178 0
165 180 0
168 180 0
167 183 0
166 180 0
168 186 0
170 187 0
168 185 0
170 186 0
168 190 0
163 185 0
165 187 0
166 187 0
166 187 0
169 189 0
166 188 0
170 190 0
166 186 0
168 188 0
165 185 0
162 183 0
163 184 0
165 184 0
164 184 0
164 184 0
162 181 0
166 185 0
159 178 0
161 180 0
163 183 0
159 177 0
162 182 0
163 182 0
154 171 0
163 182 0
155 173 0
159 177 0
163 183 0
156 174 0
159 177 0
160 177 0
152 170 0
152 169 0
155 171 0
157 173 0
152 169 0
147 163 0
153 170 0
148 164 0
151 166 0
146 162 0
149 165 0
145 159 0
149 165 0
148 163 0
146 161 0
149 164 0
147 161 0
143 158 0
142 157 0
145 160 0
140 154 0
140 153 0
139 153 0
132 145 0
141 155 0
133 145 0
134 147 0
136 149 0
133 146 0
136 147 0
135 147 0
138 151 0
135 148 0
135 148 0
131 143 0
131 143 0
135 146 0
136 147 0
130 139 0
132 141 0
136 147 0
136 146 0
131 141 0
132 142 0
128 137 0
133 141 0
139 148 0
137 146 0
136 146 0
128 137 0
144 155 0
140 150 0
134 144 0
139 146 0
134 144 0
133 141 0
136 146 0
138 145 0
134 140 0
141 151 0
146 155 0
149 161 0
136 141 0
140 148 0
142 147 0
139 145 0
145 156 0
140 148 0
143 148 0
148 157 0
142 147 0
141 149 0
141 149 0
144 148 0
145 150 0
144 152 0
146 153 0
142 148 0
149 159 0
140 145 0
138 140 0
145 150 0
142 148 0
141 147 0
143 149 0
145 150 0
143 148 0
142 145 0
145 151 0
144 152 0
140 139 0
147 156 0
141 142 0
145 149 0
144 145 0
140 144 0
149 153 0
144 144 0
142 148 0
145 148 0
144 148 0
146 149 0
140 141 0
143 148 0
142 144 0
140 141 0
144 149 0
139 140 0
145 150 0
140 142 0
141 142 0
146 150 0
148 152 0
143 142 0
145 148 0
141 138 0
144 140 0
142 142 0
140 137 0
139 138 0
134 128 0
139 139 0
139 137 0
137 132 0
144 141 0
131 123 0
135 129 0
139 136 0
136 131 0
133 122 0
139 134 0
137 132 0
134 130 0
128 119 0
132 122 0
133 129 0
136 129 0
131 121 0
135 127 0
128 118 0
126 115 0
124 112 0
133 126 0
121 104 0
122 110 0
122 109 0
125 116 0
120 107 0
125 115 0
125 111 0
123 110 0
128 117 0
118 100 0
120 109 0
121 104 0
123 110 0
109 93 0
115 99 0
120 106 0
118 100 0
108 88 0
113 104 0
107 87 0
118 107 0
114 96 0
113 99 0
115 103 0
112 100 0
110 96 0
114 93 0
112 93 0
115 98 0
116 102 0
106 89 0
105 84 0
110 93 0
114 98 0
117 99 0
119 100 0
111 90 0
126 116 0
119 99 0
110 89 0
114 93 0
121 103 0
118 100 0
119 106 0
120 103 0
124 106 0
122 109 0
125 111 0
128 117 0
121 105 0
128 119 0
130 115 0
130 120 0
134 124 0
123 107 0
128 112 0
138 133 0
132 123 0
127 116 0
130 120 0
131 123 0
138 123 0
126 119 0
132 120 0
135 126 0
143 133 0
136 127 0
143 137 0
137 132 0
138 130 0
137 132 0
148 146 0
139 133 0
139 130 0
141 136 0
146 145 0
137 129 0
143 141 0
141 136 0
142 140 0
143 138 0
144 139 0
140 134 0
141 137 0
141 136 0
141 140 0
143 140 0
143 137 0
141 136 0
147 150 0
144 142 0
137 130 0
146 145 0
145 142 0
139 136 0
141 135 0
143 140 0
141 138 0
142 142 0
144 142 0
145 141 0
136 133 0
146 148 0
142 139 0
142 137 0
147 147 0
147 148 0
144 143 0
145 142 0
140 137 0
145 140 0
140 136 0
145 142 0
146 146 0
145 144 0
147 146 0
141 136 0
153 156 0
140 136 0
140 137 0
140 139 0
141 133 0
139 133 0
141 138 0
140 136 0
143 136 0
147 145 0
139 136 0
138 133 0
136 127 0
140 134 0
137 133 0
130 126 0
143 138 0
135 128 0
138 137 0
141 136 0
126 115 0
135 127 0
133 124 0
136 129 0
136 129 0
133 127 0
130 122 0
135 130 0
129 121 0
127 116 0
137 133 0
133 126 0
130 123 0
134 130 0
131 121 0
135 131 0
136 133 0
134 129 0
131 125 0
132 126 0
127 119 0
137 131 0
133 126 0
126 119 0
135 129 0
133 126 0
143 139 0
138 132 0
139 133 0
137 130 0
141 137 0
147 145 0
145 142 0
138 135 0
142 138 0
146 142 0
145 144 0
144 144 0
146 144 0
141 139 0
149 148 0
149 149 0
149 150 0
153 152 0
147 146 0
149 148 0
159 165 0
154 156 0
151 154 0
152 155 0
156 158 0
154 156 0
161 170 0
163 170 0
150 156 0
153 158 0
159 163 0
161 168 0
158 166 0
157 164 0
161 167 0
162 170 0
162 175 0
162 170 0
160 166 0
161 172 0
161 170 0
163 175 0
159 170 0
163 172 0
164 175 0
162 172 0
158 169 0
163 174 0
165 176 0
166 176 0
166 180 0
167 179 0
164 177 0
167 179 0
167 180 0
168 181 0
165 180 0
167 182 0
169 185 0
167 182 0
167 182 0
164 177 0
168 189 0
169 189 0
167 188 0
166 187 0
165 185 0
165 186 0
167 187 0
164 184 0
167 187 0
166 187 0
165 185 0
165 185 0
164 185 0
163 182 0
162 181 0
160 180 0
165 185 0
165 184 0
164 183 0
161 181 0
157 176 0
163 181 0
159 178 0
164 183 0
158 177 0
158 176 0
157 176 0
154 172 0
164 181 0
158 175 0
158 176 0
158 175 0
159 176 0
157 174 0
158 175 0
152 168 0
155 172 0
154 171 0
148 163 0
152 168 0
151 168 0
152 169 0
147 163 0
148 163 0
152 167 0
145 160 0
146 161 0
144 158 0
148 163 0
144 159 0
149 164 0
141 154 0
139 152 0
140 153 0
141 154 0
146 161 0
137 151 0
140 153 0
145 159 0
137 150 0
138 151 0
140 153 0
137 149 0
139 152 0
140 153 0
134 146 0
131 142 0
130 141 0
137 150 0
131 142 0
136 146 0
126 134 0
136 145 0
133 144 0
135 145 0
134 143 0
137 149 0
135 144 0
135 143 0
128 135 0
142 153 0
141 150 0
140 150 0
134 143 0
141 149 0
142 152 0
130 134 0
138 147 0
142 147 0
143 152 0
135 141 0
139 148 0
131 135 0
140 149 0
142 147 0
141 148 0
141 147 0
145 152 0
143 152 0
143 152 0
140 147 0
138 140 0
141 147 0
145 152 0
141 147 0
143 151 0
143 148 0
137 143 0
142 148 0
145 151 0
146 154 0
144 149 0
141 143 0
140 144 0
145 147 0
147 151 0
144 150 0
146 153 0
143 148 0
148 152 0
144 148 0
139 144 0
144 148 0
150 157 0
145 152 0
145 149 0
151 158 0
146 151 0
145 148 0
141 142 0
151 158 0
144 146 0
145 152 0
144 149 0
143 144 0
140 145 0
139 143 0
139 141 0
146 149 0
144 151 0
140 145 0
143 146 0
144 146 0
142 145 0
149 154 0
135 129 0
135 134 0
139 138 0
138 138 0
138 137 0
139 135 0
145 147 0
133 130 0
134 131 0
145 145 0
135 132 0
145 145 0
137 136 0
133 125 0
143 141 0
137 131 0
138 133 0
137 131 0
135 124 0
129 117 0
136 128 0
133 125 0
132 125 0
137 136 0
136 127 0
134 125 0
128 117 0
132 123 0
133 125 0
125 116 0
126 114 0
130 114 0
128 117 0
125 114 0
124 112 0
121 112 0
124 113 0
130 120 0
128 115 0
119 101 0
125 115 0
131 120 0
114 94 0
119 104 0
122 110 0
118 105 0
117 104 0
122 108 0
121 109 0
110 97 0
120 107 0
111 99 0
116 103 0
109 95 0
123 111 0
109 91 0
116 100 0
112 95 0
125 115 0
112 95 0
120 106 0
119 103 0
124 110 0
111 91 0
123 111 0
111 89 0
113 97 0
127 111 0
127 118 0
126 116 0
112 94 0
125 109 0
127 114 0
121 109 0
123 110 0
124 108 0
137 128 0
136 125 0
137 124 0
123 106 0
128 116 0
134 119 0
133 123 0
132 117 0
139 128 0
132 121 0
132 124 0
134 124 0
132 121 0
138 127 0
139 130 0
143 139 0
136 127 0
141 136 0
134 124 0
138 129 0
136 127 0
139 127 0
141 134 0
137 131 0
137 127 0
140 134 0
135 125 0
141 132 0
141 136 0
134 125 0
142 140 0
142 137 0
138 132 0
136 129 0
136 130 0
139 130 0
136 125 0
143 140 0
143 140 0
147 146 0
147 146 0
141 137 0
136 132 0
141 138 0
144 141 0
148 145 0
144 143 0
143 139 0
145 147 0
143 139 0
146 146 0
137 135 0
145 144 0
145 144 0
146 149 0
137 129 0
145 142 0
139 134 0
145 144 0
142 137 0
152 153 0
138 131 0
142 138 0
145 146 0
138 134 0
146 143 0
143 140 0
150 151 0
143 143 0
144 142 0
146 144 0
145 142 0
147 146 0
143 140 0
140 133 0
146 145 0
147 147 0
145 144 0
138 129 0
143 140 0
145 141 0
144 143 0
142 138 0
137 129 0
141 139 0
141 137 0
144 142 0
141 138 0
145 143 0
136 132 0
141 137 0
138 135 0
137 131 0
141 136 0
134 125 0
133 127 0
138 134 0
128 121 0
133 125 0
133 126 0
135 129 0
140 135 0
133 128 0
140 137 0
135 127 0
131 122 0
136 131 0
133 126 0
137 131 0
130 123 0
129 123 0
140 138 0
135 129 0
132 123 0
142 136 0
144 141 0
132 126 0
133 126 0
142 138 0
141 138 0
135 127 0
140 137 0
140 137 0
139 134 0
142 138 0
146 143 0
143 139 0
141 134 0
147 147 0
142 138 0
142 138 0
147 147 0
147 147 0
141 138 0
141 138 0
146 148 0
152 152 0
152 154 0
154 158 0
155 158 0
153 154 0
155 159 0
155 158 0
155 158 0
154 159 0
160 167 0
155 159 0
155 158 0
155 159 0
162 168 0
161 168 0
159 163 0
163 172 0
160 169 0
164 175 0
156 162 0
158 165 0
163 172 0
161 169 0
165 177 0
159 165 0
164 171 0
163 172 0
166 177 0
164 174 0
163 174 0
164 176 0
160 171 0
165 176 0
161 171 0
167 178 0
166 180 0
168 182 0
172 187 0
166 178 0
167 180 0
167 180 0
164 178 0
164 177 0
165 187 0
167 189 0
166 187 0
167 187 0
163 183 0
166 186 0
165 185 0
167 187 0
157 177 0
163 183 0
163 184 0
166 186 0
165 184 0
161 182 0
163 183 0
164 183 0
164 183 0
162 180 0
159 179 0
159 178 0
163 182 0
157 175 0
157 176 0
166 185 0
162 181 0
162 181 0
159 176 0
156 174 0
160 179 0
158 176 0
157 174 0
156 173 0
159 175 0
151 168 0
150 166 0
154 172 0
151 167 0
148 163 0
152 167 0
149 165 0
147 162 0
146 161 0
150 166 0
147 163 0
150 166 0
146 161 0
137 152 0
144 160 0
147 161 0
149 163 0
144 159 0
142 157 0
147 162 0
140 155 0
140 153 0
139 152 0
146 160 0
141 155 0
132 144 0
137 150 0
133 146 0
139 152 0
135 146 0
139 151 0
136 148 0
139 152 0
138 152 0
139 151 0
134 145 0
138 150 0
138 150 0
137 147 0
137 146 0
132 141 0
129 138 0
133 142 0
136 147 0
141 151 0
140 150 0
141 151 0
138 147 0
144 157 0
136 145 0
135 145 0
143 153 0
130 134 0
138 145 0
137 143 0
142 150 0
141 147 0
141 150 0
144 155 0
144 154 0
136 142 0
141 147 0
140 150 0
144 153 0
144 154 0
136 140 0
146 156 0
144 152 0
142 150 0
144 152 0
137 140 0
146 155 0
139 144 0
143 147 0
143 148 0
140 145 0
141 148 0
145 152 0
146 153 0
138 143 0
146 153 0
150 163 0
146 151 0
152 162 0
144 148 0
146 155 0
142 148 0
145 147 0
153 160 0
147 152 0
148 151 0
149 154 0
141 141 0
147 152 0
144 147 0
149 159 0
143 146 0
143 144 0
148 155 0
149 154 0
146 151 0
139 137 0
149 149 0
145 149 0
148 150 0
142 142 0
148 150 0
149 152 0
141 143 0
138 135 0
142 144 0
143 141 0
142 144 0
141 141 0
134 135 0
145 145 0
142 143 0
144 141 0
136 132 0
137 133 0
137 133 0
146 148 0
137 131 0
141 140 0
132 121 0
135 132 0
137 132 0
135 128 0
135 124 0
136 130 0
134 128 0
138 132 0
139 136 0
136 129 0
139 136 0
133 123 0
132 122 0
135 127 0
131 119 0
129 120 0
127 119 0
130 121 0
137 132 0
135 125 0
125 115 0
131 118 0
131 120 0
128 114 0
133 126 0
136 128 0
127 115 0
126 118 0
127 118 0
127 119 0
125 108 0
130 117 0
126 108 0
113 98 0
114 98 0
129 115 0
115 101 0
115 99 0
122 113 0
123 113 0
119 108 0
121 109 0
115 98 0
121 110 0
126 110 0
123 107 0
121 111 0
123 108 0
116 100 0
129 117 0
111 93 0
120 106 0
124 110 0
121 104 0
123 104 0
116 101 0
131 123 0
122 106 0
128 118 0
119 101 0
126 117 0
122 105 0
121 105 0
128 117 0
132 120 0
118 100 0
123 110 0
127 113 0
129 116 0
134 127 0
135 125 0
130 118 0
141 135 0
129 116 0
131 120 0
133 123 0
135 127 0
136 127 0
131 114 0
129 116 0
143 133 0
140 133 0
141 135 0
135 128 0
144 137 0
139 132 0
135 125 0
148 147 0
138 133 0
139 137 0
140 135 0
147 146 0
147 143 0
137 129 0
144 138 0
144 141 0
139 134 0
140 133 0
141 135 0
143 140 0
142 138 0
137 134 0
150 150 0
141 139 0
140 136 0
141 138 0
142 134 0
144 144 0
145 144 0
152 153 0
146 145 0
144 143 0
149 148 0
141 138 0
138 134 0
150 152 0
152 155 0
146 145 0
149 151 0
152 153 0
141 138 0
151 150 0
135 128 0
144 142 0
141 138 0
143 142 0
144 138 0
143 141 0
151 149 0
143 142 0
152 153 0
146 142 0
144 142 0
146 146 0
152 153 0
144 141 0
140 132 0
151 152 0
139 135 0
143 137 0
133 126 0
145 140 0
140 138 0
137 127 0
144 141 0
142 139 0
147 145 0
134 125 0
145 141 0
142 137 0
147 145 0
136 131 0
144 140 0
140 135 0
136 131 0
141 135 0
147 145 0
135 128 0
137 134 0
138 135 0
140 135 0
137 130 0
140 135 0
136 131 0
138 135 0
138 134 0
133 124 0
139 134 0
140 134 0
130 124 0
138 136 0
132 121 0
127 116 0
138 135 0
131 126 0
131 126 0
137 133 0
136 131 0
138 134 0
148 147 0
141 139 0
130 123 0
146 145 0
136 132 0
140 137 0
141 137 0
136 132 0
137 132 0
141 138 0
143 141 0
141 140 0
144 143 0
145 145 0
141 138 0
145 144 0
145 143 0
150 151 0
148 147 0
150 151 0
146 146 0
153 152 0
150 149 0
146 145 0
153 156 0
148 149 0
154 157 0
151 154 0
154 158 0
159 166 0
159 165 0
155 158 0
157 160 0
158 162 0
155 161 0
156 163 0
156 160 0
162 167 0
161 167 0
159 166 0
157 165 0
161 170 0
160 167 0
161 171 0
161 169 0
162 172 0
165 178 0
162 170 0
162 172 0
164 175 0
161 171 0
165 177 0
163 174 0
166 177 0
167 180 0
163 177 0
165 176 0
165 177 0
163 177 0
167 181 0
165 176 0
168 184 0
168 180 0
164 177 0
167 187 0
166 187 0
163 184 0
168 188 0
163 184 0
162 183 0
162 181 0
161 181 0
163 183 0
168 187 0
165 185 0
166 186 0
161 181 0
162 182 0
166 185 0
158 177 0
167 186 0
163 182 0
162 181 0
164 183 0
160 179 0
159 177 0
159 177 0
161 178 0
159 177 0
158 176 0
155 172 0
159 177 0
152 169 0
158 176 0
149 166 0
156 173 0
155 173 0
149 166 0
155 171 0
153 170 0
147 163 0
150 166 0
152 168 0
153 169 0
153 170 0
155 171 0
149 164 0
146 162 0
143 157 0
145 159 0
144 158 0
153 169 0
149 165 0
138 151 0
147 162 0
130 143 0
139 153 0
149 164 0
143 157 0
141 154 0
135 148 0
133 145 0
142 155 0
134 147 0
139 151 0
137 150 0
129 140 0
136 146 0
133 144 0
135 146 0
140 151 0
138 151 0
147 160 0
137 149 0
139 149 0
140 149 0
138 149 0
141 152 0
136 146 0
139 150 0
139 150 0
139 147 0
142 153 0
140 149 0
140 150 0
141 150 0
139 149 0
144 154 0
144 152 0
143 151 0
146 157 0
149 160 0
146 155 0
140 152 0
145 153 0
140 149 0
147 159 0
144 151 0
141 149 0
148 158 0
145 152 0
144 151 0
145 153 0
141 148 0
146 155 0
148 160 0
140 145 0
140 145 0
141 147 0
145 154 0
143 148 0
142 147 0
148 153 0
144 150 0
142 147 0
147 154 0
142 146 0
138 144 0
143 146 0
148 153 0
146 148 0
154 162 0
141 144 0
142 148 0
140 146 0
147 153 0
144 149 0
141 147 0
143 148 0
146 151 0
144 147 0
147 151 0
151 156 0
141 143 0
145 150 0
143 148 0
145 152 0
142 141 0
148 152 0
140 139 0
142 142 0
148 149 0
141 147 0
152 159 0
137 138 0
146 147 0
140 141 0
140 142 0
147 148 0
139 140 0
142 140 0
145 146 0
142 144 0
135 131 0
143 141 0
142 138 0
145 146 0
140 137 0
144 144 0
136 132 0
137 133 0
139 134 0
143 137 0
136 132 0
137 131 0
133 127 0
140 134 0
131 126 0
138 136 0
132 122 0
130 124 0
137 131 0
135 123 0
133 126 0
128 120 0
136 131 0
132 124 0
131 121 0
132 125 0
130 119 0
135 128 0
134 124 0
134 126 0
136 130 0
134 124 0
125 111 0
121 105 0
125 112 0
131 123 0
125 119 0
130 119 0
124 109 0
132 122 0
123 109 0
121 108 0
118 107 0
115 98 0
127 119 0
127 119 0
130 120 0
122 109 0
123 106 0
120 108 0
127 117 0
117 98 0
119 103 0
124 111 0
125 111 0
129 112 0
118 103 0
127 111 0
128 115 0
127 114 0
121 103 0
129 116 0
125 108 0
129 119 0
124 106 0
124 112 0
132 121 0
123 111 0
128 118 0
130 116 0
137 129 0
132 120 0
128 110 0
130 112 0
132 120 0
140 134 0
141 131 0
125 114 0
133 118 0
138 128 0
135 127 0
137 128 0
139 131 0
133 121 0
139 126 0
138 125 0
135 130 0
147 149 0
139 132 0
140 135 0
130 119 0
137 132 0
132 118 0
136 128 0
139 130 0
140 137 0
142 141 0
143 136 0
135 127 0
139 127 0
142 131 0
137 129 0
139 130 0
146 143 0
143 140 0
136 134 0
143 136 0
145 142 0
141 134 0
143 143 0
143 143 0
147 145 0
146 143 0
143 142 0
141 137 0
143 138 0
146 142 0
148 149 0
143 143 0
148 150 0
147 146 0
148 145 0
143 145 0
151 149 0
147 149 0
143 140 0
144 137 0
150 148 0
147 145 0
146 145 0
145 144 0
140 135 0
146 147 0
148 151 0
143 136 0
140 137 0
142 138 0
143 136 0
147 148 0
150 153 0
143 135 0
144 146 0
142 137 0
145 145 0
144 142 0
146 144 0
140 134 0
137 130 0
146 147 0
138 132 0
145 143 0
137 134 0
147 145 0
147 148 0
143 142 0
142 140 0
139 136 0
146 146 0
141 136 0
145 142 0
142 136 0
138 133 0
143 139 0
135 124 0
138 133 0
141 136 0
140 137 0
144 140 0
149 146 0
138 132 0
143 141 0
140 137 0
139 137 0
143 138 0
143 139 0
144 143 0
138 133 0
138 133 0
139 135 0
131 123 0
142 137 0
138 131 0
144 142 0
141 137 0
141 137 0
137 133 0
143 140 0
142 139 0
145 145 0
138 133 0
146 145 0
145 142 0
140 134 0
149 150 0
145 141 0
147 146 0
143 144 0
131 125 0
145 144 0
144 143 0
138 134 0
152 153 0
147 147 0
150 150 0
148 151 0
147 147 0
150 150 0
147 146 0
149 148 0
153 158 0
147 145 0
147 147 0
156 161 0
156 157 0
154 158 0
155 158 0
156 158 0
153 157 0
156 161 0
155 157 0
154 159 0
157 160 0
155 160 0
156 162 0
161 168 0
159 165 0
158 166 0
160 166 0
159 166 0
162 172 0
163 170 0
164 174 0
165 175 0
163 172 0
160 169 0
164 171 0
164 174 0
163 174 0
166 177 0
166 177 0
163 174 0
165 175 0
165 177 0
166 180 0
167 180 0
166 180 0
165 176 0
167 180 0
165 177 0
163 176 0
164 175 0
166 186 0
169 190 0
165 185 0
165 185 0
162 182 0
165 185 0
166 186 0
166 185 0
164 184 0
159 178 0
162 182 0
163 183 0
161 180 0
163 181 0
159 178 0
162 180 0
161 179 0
160 177 0
158 176 0
161 179 0
158 177 0
157 176 0
161 179 0
153 171 0
158 176 0
159 178 0
160 177 0
158 175 0
158 175 0
156 173 0
157 174 0
152 169 0
158 176 0
149 165 0
150 167 0
147 163 0
151 167 0
152 167 0
150 166 0
152 167 0
146 160 0
145 161 0
145 159 0
142 156 0
149 163 0
144 159 0
152 167 0
148 162 0
148 162 0
141 155 0
144 158 0
144 160 0
142 156 0
143 157 0
144 157 0
146 160 0
143 155 0
142 154 0
142 156 0
131 142 0
137 149 0
140 152 0
140 153 0
133 144 0
136 148 0
137 149 0
139 150 0
141 152 0
140 151 0
141 153 0
141 152 0
137 147 0
137 149 0
144 157 0
142 152 0
140 151 0
133 143 0
147 157 0
142 153 0
140 152 0
136 145 0
135 143 0
143 152 0
137 144 0
143 150 0
139 147 0
133 140 0
134 143 0
145 154 0
141 148 0
149 159 0
141 150 0
142 148 0
145 155 0
143 151 0
144 151 0
145 154 0
147 155 0
144 152 0
143 150 0
148 154 0
148 157 0
148 156 0
149 157 0
149 157 0
139 146 0
149 161 0
148 154 0
145 155 0
149 157 0
147 156 0
147 155 0
144 152 0
144 150 0
142 149 0
146 153 0
143 149 0
144 149 0
144 151 0
150 157 0
145 153 0
150 157 0
144 148 0
149 157 0
148 154 0
143 149 0
142 144 0
141 142 0
149 155 0
151 156 0
143 150 0
143 146 0
144 145 0
143 143 0
142 145 0
143 148 0
147 150 0
146 147 0
146 151 0
145 148 0
145 149 0
147 151 0
143 145 0
147 150 0
142 142 0
147 147 0
142 138 0
146 150 0
148 148 0
142 144 0
137 133 0
143 141 0
135 129 0
140 139 0
134 131 0
135 128 0
138 135 0
140 141 0
135 131 0
145 149 0
142 138 0
140 136 0
140 134 0
133 131 0
141 136 0
132 125 0
141 138 0
134 126 0
134 131 0
135 126 0
134 123 0
135 127 0
130 121 0
134 129 0
123 114 0
128 115 0
127 113 0
135 130 0
135 126 0
133 127 0
135 128 0
126 114 0
132 120 0
137 128 0
132 121 0
124 112 0
129 120 0
129 119 0
129 120 0
129 118 0
131 127 0
125 108 0
126 113 0
126 109 0
117 104 0
128 115 0
125 109 0
125 110 0
126 112 0
120 103 0
130 120 0
123 111 0
119 104 0
123 103 0
124 113 0
125 111 0
122 106 0
119 107 0
127 115 0
121 101 0
127 113 0
129 119 0
136 129 0
127 115 0
134 124 0
131 122 0
125 108 0
123 109 0
137 131 0
127 112 0
130 120 0
129 116 0
127 115 0
132 119 0
130 114 0
133 124 0
136 129 0
134 125 0
137 130 0
128 118 0
134 123 0
135 127 0
137 127 0
135 126 0
136 126 0
136 129 0
137 123 0
139 126 0
133 121 0
138 125 0
128 118 0
134 121 0
136 127 0
139 135 0
143 138 0
140 134 0
142 140 0
142 137 0
148 146 0
146 144 0
140 133 0
142 138 0
144 140 0
141 134 0
145 146 0
143 137 0
140 138 0
145 143 0
147 146 0
148 148 0
142 139 0
147 146 0
144 145 0
151 154 0
145 145 0
138 130 0
147 142 0
136 128 0
143 140 0
143 138 0
143 140 0
148 148 0
141 137 0
145 144 0
142 137 0
150 151 0
145 144 0
147 145 0
146 147 0
141 136 0
151 150 0
145 148 0
150 152 0
147 147 0
146 146 0
145 142 0
151 153 0
151 157 0
151 153 0
142 141 0
140 132 0
141 137 0
149 150 0
143 142 0
149 151 0
150 152 0
147 149 0
150 149 0
142 138 0
144 145 0
148 149 0
151 150 0
137 130 0
141 139 0
151 152 0
147 145 0
144 139 0
146 145 0
140 133 0
146 143 0
146 144 0
143 138 0
148 152 0
141 134 0
139 136 0
143 142 0
145 140 0
142 141 0
144 141 0
143 143 0
138 134 0
136 134 0
140 138 0
142 142 0
139 134 0
137 131 0
139 137 0
138 130 0
136 131 0
141 136 0
140 137 0
145 142 0
142 137 0
140 134 0
138 131 0
141 137 0
138 130 0
143 138 0
142 140 0
133 127 0
142 138 0
140 136 0
145 145 0
142 141 0
141 138 0
142 138 0
138 134 0
131 125 0
145 143 0
143 142 0
146 145 0
143 141 0
146 146 0
148 148 0
154 155 0
148 147 0
142 139 0
148 149 0
153 153 0
153 154 0
145 144 0
150 151 0
149 149 0
158 162 0
156 159 0
153 155 0
149 152 0
154 158 0
155 157 0
155 161 0
155 159 0
154 157 0
160 165 0
165 174 0
157 162 0
164 171 0
158 165 0
161 167 0
158 164 0
159 168 0
160 168 0
156 165 0
161 169 0
158 166 0
164 172 0
163 173 0
161 170 0
164 172 0
165 173 0
164 176 0
166 177 0
164 175 0
163 176 0
161 170 0
166 176 0
162 173 0
164 175 0
166 181 0
166 181 0
166 180 0
164 184 0
166 186 0
165 185 0
165 185 0
164 183 0
166 186 0
162 181 0
167 186 0
163 182 0
165 185 0
163 182 0
162 183 0
164 182 0
163 182 0
163 182 0
162 180 0
165 183 0
161 180 0
150 168 0
159 177 0
157 175 0
159 177 0
158 176 0
159 177 0
157 175 0
155 172 0
155 172 0
159 177 0
151 167 0
155 173 0
158 175 0
154 170 0
157 174 0
149 164 0
154 170 0
157 175 0
147 163 0
155 172 0
143 158 0
150 166 0
149 164 0
145 161 0
148 163 0
149 165 0
143 156 0
150 166 0
146 162 0
147 162 0
141 156 0
143 158 0
134 147 0
147 162 0
144 160 0
148 163 0
144 159 0
137 150 0
146 159 0
141 154 0
135 147 0
138 150 0
145 159 0
144 156 0
136 150 0
140 152 0
139 149 0
145 159 0
142 154 0
139 147 0
141 151 0
137 147 0
144 154 0
138 148 0
139 147 0
139 147 0
146 155 0
139 149 0
143 153 0
147 158 0
137 145 0
140 147 0
138 145 0
149 161 0
142 152 0
146 157 0
146 157 0
142 150 0
144 155 0
136 142 0
138 148 0
146 155 0
145 155 0
146 154 0
141 148 0
142 149 0
151 160 0
148 157 0
143 149 0
143 152 0
141 149 0
147 154 0
143 150 0
150 157 0
149 156 0
150 161 0
143 147 0
147 152 0
149 159 0
145 150 0
148 154 0
145 151 0
147 155 0
148 156 0
146 154 0
144 148 0
144 149 0
144 148 0
142 147 0
142 148 0
147 154 0
149 157 0
147 155 0
140 144 0
149 157 0
144 152 0
147 151 0
143 145 0
144 151 0
147 151 0
151 155 0
145 151 0
147 149 0
148 151 0
142 142 0
139 140 0
144 148 0
152 163 0
142 144 0
143 146 0
140 145 0
149 156 0
143 145 0
144 144 0
149 149 0
142 140 0
141 140 0
145 150 0
143 144 0
149 153 0
147 148 0
140 139 0
138 133 0
147 149 0
145 147 0
143 143 0
145 146 0
138 137 0
139 134 0
139 135 0
139 134 0
141 139 0
137 132 0
136 129 0
135 128 0
143 139 0
141 140 0
133 127 0
134 124 0
137 128 0
141 138 0
136 131 0
134 124 0
132 125 0
137 134 0
129 119 0
132 125 0
134 127 0
132 123 0
129 119 0
137 131 0
129 123 0
129 119 0
136 125 0
137 127 0
131 116 0
139 131 0
130 115 0
130 120 0
122 109 0
134 125 0
125 113 0
131 119 0
122 109 0
134 123 0
140 132 0
127 115 0
136 126 0
128 117 0
124 110 0
130 120 0
124 110 0
130 117 0
116 101 0
127 113 0
123 109 0
134 122 0
134 124 0
128 115 0
125 111 0
132 123 0
123 101 0
119 100 0
131 113 0
129 117 0
136 130 0
127 112 0
128 116 0
131 124 0
132 119 0
135 122 0
130 116 0
134 126 0
128 117 0
139 126 0
136 126 0
141 133 0
134 122 0
133 125 0
140 135 0
131 122 0
140 128 0
139 131 0
136 129 0
136 124 0
140 130 0
139 129 0
139 131 0
141 131 0
139 134 0
138 130 0
136 130 0
140 130 0
138 135 0
138 134 0
147 143 0
141 133 0
146 141 0
138 130 0
139 131 0
141 136 0
138 135 0
143 139 0
147 150 0
141 136 0
145 143 0
148 149 0
142 136 0
148 149 0
142 140 0
140 135 0
146 145 0
141 139 0
144 145 0
150 150 0
142 144 0
141 137 0
140 134 0
146 143 0
142 140 0
145 142 0
144 144 0
144 143 0
145 145 0
144 142 0
149 151 0
147 144 0
148 146 0
142 139 0
149 146 0
155 160 0
148 145 0
145 145 0
145 142 0
146 146 0
152 153 0
147 145 0
145 144 0
149 150 0
141 136 0
144 144 0
140 138 0
149 148 0
146 144 0
142 142 0
146 146 0
147 146 0
145 142 0
140 138 0
148 144 0
144 138 0
148 150 0
144 143 0
146 145 0
144 143 0
149 150 0
143 143 0
146 144 0
145 142 0
145 142 0
146 146 0
150 148 0
134 128 0
141 139 0
140 132 0
140 134 0
142 138 0
144 140 0
140 133 0
145 142 0
141 139 0
144 138 0
145 143 0
144 140 0
148 147 0
141 135 0
149 147 0
144 143 0
146 146 0
141 135 0
139 135 0
141 140 0
145 141 0
139 135 0
138 133 0
141 136 0
143 137 0
141 137 0
148 148 0
146 143 0
144 144 0
141 137 0
143 142 0
146 145 0
140 131 0
138 137 0
145 144 0
144 142 0
148 149 0
146 146 0
140 137 0
146 145 0
147 148 0
147 145 0
148 148 0
139 137 0
149 151 0
153 153 0
152 154 0
153 152 0
149 149 0
149 150 0
143 143 0
149 147 0
155 158 0
150 151 0
155 157 0
159 164 0
151 153 0
153 159 0
155 157 0
155 156 0
153 155 0
157 160 0
157 163 0
156 161 0
158 163 0
160 168 0
153 157 0
155 162 0
159 163 0
156 161 0
161 170 0
160 170 0
160 168 0
162 170 0
162 173 0
163 171 0
158 168 0
161 171 0
163 171 0
164 172 0
162 174 0
165 175 0
159 168 0
163 174 0
167 183 0
162 173 0
163 173 0
160 169 0
166 178 0
165 177 0
166 188 0
164 186 0
164 183 0
163 183 0
166 186 0
164 184 0
162 180 0
163 183 0
161 180 0
164 183 0
163 182 0
163 182 0
156 175 0
160 178 0
161 178 0
161 180 0
157 175 0
158 177 0
158 176 0
157 175 0
157 175 0
156 174 0
151 168 0
159 177 0
154 170 0
150 167 0
159 177 0
159 175 0
157 174 0
146 162 0
157 174 0
153 168 0
151 167 0
150 167 0
157 173 0
158 174 0
152 168 0
151 167 0
150 167 0
153 169 0
152 168 0
149 163 0
146 161 0
147 161 0
146 161 0
145 159 0
144 158 0
139 153 0
146 159 0
152 167 0
147 161 0
144 157 0
148 162 0
142 155 0
146 160 0
147 162 0
142 155 0
141 154 0
146 159 0
137 148 0
139 149 0
139 152 0
143 155 0
152 167 0
145 159 0
142 153 0
143 154 0
148 159 0
145 157 0
144 156 0
146 157 0
145 158 0
139 149 0
133 143 0
143 154 0
145 155 0
148 156 0
148 160 0
136 144 0
143 153 0
145 156 0
140 147 0
142 152 0
141 149 0
145 154 0
147 159 0
145 158 0
147 156 0
145 150 0
151 160 0
144 152 0
143 151 0
144 153 0
148 157 0
145 151 0
151 160 0
146 154 0
149 157 0
146 155 0
149 159 0
145 153 0
146 155 0
144 153 0
144 149 0
149 159 0
144 149 0
154 163 0
147 158 0
145 154 0
155 165 0
148 156 0
143 146 0
149 155 0
149 156 0
149 156 0
148 155 0
144 149 0
147 154 0
150 157 0
145 151 0
149 154 0
150 155 0
149 154 0
145 151 0
145 149 0
151 158 0
150 157 0
141 144 0
151 157 0
146 153 0
143 147 0
145 147 0
146 151 0
149 156 0
149 154 0
144 141 0
144 146 0
147 153 0
144 145 0
142 145 0
143 139 0
147 148 0
145 148 0
145 147 0
148 152 0
144 146 0
144 144 0
146 150 0
148 151 0
143 143 0
138 137 0
144 145 0
136 133 0
140 136 0
145 146 0
145 145 0
133 125 0
140 139 0
148 148 0
140 136 0
138 136 0
136 128 0
131 125 0
147 152 0
136 130 0
138 135 0
143 139 0
138 135 0
140 136 0
131 121 0
136 126 0
131 122 0
138 131 0
138 129 0
134 122 0
139 135 0
134 122 0
133 124 0
141 136 0
134 128 0
139 129 0
139 133 0
122 111 0
134 128 0
139 132 0
131 121 0
131 121 0
130 120 0
134 125 0
127 115 0
126 119 0
127 111 0
130 120 0
135 126 0
128 113 0
125 118 0
132 121 0
137 128 0
130 122 0
130 122 0
127 111 0
129 118 0
128 114 0
127 115 0
132 124 0
131 122 0
129 115 0
135 124 0
126 107 0
126 114 0
138 130 0
138 130 0
129 121 0
128 115 0
129 117 0
132 119 0
130 118 0
129 118 0
133 122 0
129 114 0
133 121 0
134 125 0
132 124 0
133 121 0
128 116 0
133 122 0
137 126 0
138 132 0
135 123 0
139 135 0
132 119 0
138 128 0
139 132 0
137 127 0
139 136 0
144 138 0
143 138 0
141 135 0
132 119 0
135 128 0
137 131 0
143 136 0
143 137 0
142 138 0
142 139 0
142 140 0
139 134 0
139 130 0
139 137 0
138 134 0
143 133 0
140 132 0
143 141 0
145 138 0
144 138 0
135 130 0
144 138 0
149 148 0
143 137 0
135 128 0
141 137 0
149 149 0
141 133 0
145 141 0
149 149 0
150 149 0
142 142 0
146 146 0
151 155 0
148 143 0
144 141 0
139 136 0
149 150 0
151 152 0
148 147 0
143 141 0
154 157 0
149 150 0
148 148 0
145 142 0
151 154 0
152 155 0
148 148 0
149 150 0
149 151 0
145 148 0
146 146 0
143 139 0
147 147 0
147 147 0
142 138 0
146 149 0
148 149 0
145 147 0
142 136 0
148 151 0
152 156 0
144 142 0
140 137 0
148 149 0
147 146 0
148 149 0
143 139 0
147 148 0
147 145 0
144 141 0
147 146 0
150 147 0
150 150 0
147 147 0
147 147 0
147 147 0
148 147 0
145 146 0
143 140 0
145 145 0
150 151 0
139 133 0
147 145 0
148 146 0
146 145 0
143 142 0
140 134 0
139 133 0
141 139 0
141 137 0
142 140 0
143 141 0
148 146 0
141 134 0
142 142 0
143 140 0
139 134 0
149 146 0
147 148 0
141 138 0
142 141 0
141 137 0
143 141 0
145 145 0
143 140 0
144 142 0
147 145 0
144 142 0
144 140 0
133 125 0
145 142 0
144 144 0
144 143 0
149 148 0
149 151 0
151 153 0
138 134 0
154 157 0
148 149 0
149 148 0
152 152 0
145 146 0
146 143 0
151 153 0
155 155 0
152 154 0
152 153 0
153 154 0
155 160 0
156 160 0
161 166 0
150 150 0
151 155 0
154 157 0
153 155 0
155 158 0
156 160 0
162 168 0
160 167 0
164 173 0
157 162 0
159 165 0
159 166 0
159 165 0
157 166 0
156 162 0
158 165 0
161 168 0
160 165 0
161 171 0
160 167 0
162 172 0
162 170 0
166 178 0
162 171 0
163 172 0
162 173 0
162 173 0
164 174 0
158 166 0
163 174 0
164 175 0
169 181 0
166 179 0
167 186 0
165 184 0
164 184 0
165 185 0
158 178 0
165 185 0
161 181 0
162 181 0
157 177 0
163 181 0
161 180 0
162 181 0
159 178 0
161 179 0
160 179 0
162 181 0
165 184 0
160 179 0
155 172 0
166 185 0
157 175 0
157 174 0
155 173 0
153 170 0
152 169 0
161 179 0
153 170 0
155 172 0
159 177 0
155 172 0
151 166 0
153 170 0
153 170 0
158 175 0
152 168 0
151 167 0
153 169 0
145 161 0
151 166 0
145 160 0
149 165 0
153 166 0
151 165 0
148 163 0
145 159 0
150 163 0
153 169 0
152 167 0
146 160 0
141 154 0
143 157 0
146 159 0
144 158 0
144 156 0
142 154 0
138 150 0
146 159 0
144 157 0
148 162 0
145 158 0
147 161 0
143 156 0
143 155 0
132 141 0
143 155 0
142 156 0
149 160 0
144 157 0
143 155 0
143 152 0
144 155 0
150 164 0
150 162 0
139 149 0
143 153 0
149 158 0
148 160 0
141 150 0
150 161 0
142 151 0
146 157 0
149 158 0
143 152 0
149 158 0
136 144 0
142 152 0
147 158 0
146 155 0
146 155 0
143 154 0
148 155 0
145 152 0
149 157 0
141 148 0
147 157 0
154 165 0
150 160 0
146 154 0
142 146 0
146 156 0
149 158 0
152 162 0
149 158 0
145 154 0
149 158 0
151 162 0
144 153 0
148 155 0
139 145 0
151 161 0
145 153 0
150 156 0
147 155 0
144 151 0
155 164 0
147 155 0
153 161 0
145 150 0
148 155 0
149 156 0
150 156 0
151 161 0
146 155 0
147 155 0
143 144 0
147 152 0
147 154 0
153 160 0
149 154 0
148 153 0
150 156 0
146 152 0
153 162 0
152 159 0
145 148 0
147 150 0
145 147 0
146 150 0
146 151 0
149 151 0
144 144 0
146 151 0
141 138 0
140 136 0
149 150 0
140 142 0
146 152 0
144 141 0
142 141 0
134 132 0
144 147 0
140 138 0
144 144 0
141 140 0
142 141 0
142 140 0
142 143 0
144 144 0
140 137 0
140 139 0
141 141 0
140 136 0
137 131 0
139 134 0
136 131 0
136 130 0
140 134 0
138 129 0
136 132 0
141 134 0
136 130 0
137 131 0
132 123 0
144 141 0
140 134 0
132 121 0
132 125 0
142 138 0
132 120 0
132 122 0
134 123 0
136 130 0
136 130 0
138 134 0
138 132 0
124 110 0
131 123 0
132 120 0
124 109 0
135 129 0
128 118 0
129 118 0
131 120 0
125 106 0
127 113 0
124 110 0
124 106 0
127 113 0
128 117 0
127 120 0
133 126 0
129 119 0
129 119 0
125 110 0
126 112 0
133 122 0
127 111 0
131 117 0
130 116 0
125 111 0
125 111 0
138 132 0
129 115 0
138 128 0
138 135 0
130 122 0
135 127 0
131 117 0
128 118 0
137 126 0
132 122 0
132 122 0
135 123 0
136 127 0
130 119 0
136 130 0
132 119 0
139 134 0
135 124 0
137 127 0
144 135 0
134 123 0
139 128 0
137 128 0
140 133 0
144 140 0
145 141 0
140 133 0
142 136 0
145 140 0
142 136 0
139 131 0
138 128 0
145 140 0
141 136 0
138 127 0
144 139 0
142 131 0
142 138 0
142 138 0
144 138 0
147 144 0
145 140 0
147 145 0
149 153 0
146 146 0
144 142 0
152 149 0
151 151 0
146 147 0
144 143 0
146 146 0
151 151 0
148 147 0
150 152 0
152 156 0
148 149 0
148 147 0
146 143 0
147 147 0
150 155 0
146 143 0
151 151 0
152 154 0
153 157 0
147 150 0
147 151 0
149 146 0
150 153 0
141 135 0
151 153 0
147 149 0
149 150 0
149 149 0
146 148 0
144 145 0
148 146 0
154 156 0
146 145 0
151 152 0
145 143 0
151 154 0
144 142 0
148 150 0
146 149 0
146 143 0
145 145 0
151 149 0
152 153 0
155 157 0
150 150 0
147 147 0
146 144 0
147 146 0
141 138 0
147 147 0
147 144 0
148 146 0
147 146 0
145 144 0
150 151 0
151 149 0
148 149 0
146 149 0
143 139 0
146 144 0
140 136 0
144 141 0
146 144 0
147 144 0
145 147 0
146 145 0
146 146 0
148 146 0
144 140 0
150 153 0
147 141 0
138 132 0
140 136 0
144 142 0
142 141 0
149 149 0
149 148 0
150 148 0
145 145 0
141 138 0
152 150 0
144 141 0
148 149 0
145 143 0
142 137 0
145 144 0
142 140 0
137 132 0
150 150 0
139 132 0
143 143 0
147 146 0
148 152 0
142 141 0
144 143 0
144 142 0
144 141 0
148 149 0
152 153 0
152 151 0
152 152 0
152 154 0
150 150 0
151 152 0
151 153 0
151 152 0
153 156 0
152 154 0
155 161 0
152 154 0
152 153 0
149 149 0
155 159 0
149 150 0
157 161 0
154 158 0
156 162 0
153 154 0
157 164 0
152 154 0
160 165 0
162 169 0
155 161 0
157 160 0
161 169 0
161 168 0
157 164 0
162 168 0
162 170 0
160 167 0
159 168 0
161 170 0
162 171 0
160 169 0
162 171 0
164 174 0
163 175 0
167 177 0
162 172 0
164 174 0
161 171 0
157 165 0
165 176 0
164 173 0
162 182 0
162 182 0
162 182 0
160 178 0
164 184 0
166 185 0
164 184 0
166 185 0
162 180 0
158 177 0
162 182 0
157 175 0
161 179 0
163 181 0
159 178 0
157 174 0
157 174 0
162 181 0
159 177 0
155 172 0
154 172 0
153 171 0
158 176 0
159 176 0
158 176 0
152 169 0
154 170 0
157 173 0
150 165 0
153 170 0
147 163 0
152 168 0
148 164 0
152 168 0
155 171 0
148 163 0
151 166 0
151 167 0
153 169 0
155 170 0
148 163 0
149 164 0
150 165 0
147 161 0
149 163 0
146 161 0
147 162 0
152 166 0
149 163 0
145 159 0
145 160 0
137 149 0
150 164 0
143 156 0
144 159 0
142 156 0
142 155 0
146 161 0
152 167 0
147 162 0
147 161 0
143 157 0
146 156 0
147 161 0
143 154 0
142 153 0
151 163 0
147 162 0
154 167 0
143 154 0
145 156 0
144 156 0
144 155 0
144 151 0
148 160 0
147 156 0
147 157 0
148 160 0
147 159 0
137 147 0
146 158 0
147 158 0
146 155 0
144 155 0
144 155 0
151 162 0
143 152 0
151 161 0
148 159 0
147 156 0
145 156 0
143 151 0
141 148 0
147 153 0
145 149 0
144 151 0
147 158 0
151 162 0
139 144 0
155 161 0
143 149 0
149 158 0
150 160 0
147 155 0
145 150 0
145 154 0
146 152 0
147 153 0
151 159 0
150 157 0
151 159 0
152 161 0
151 156 0
153 164 0
149 157 0
147 152 0
148 154 0
147 151 0
146 152 0
155 165 0
145 147 0
143 146 0
146 149 0
148 152 0
146 153 0
149 155 0
149 156 0
151 157 0
142 144 0
143 147 0
145 147 0
149 154 0
147 152 0
148 151 0
148 154 0
141 144 0
144 148 0
139 142 0
147 151 0
142 143 0
142 141 0
149 153 0
150 158 0
145 145 0
147 148 0
145 147 0
139 138 0
146 150 0
147 150 0
144 145 0
144 142 0
142 142 0
143 144 0
139 136 0
143 137 0
147 148 0
138 129 0
137 139 0
146 147 0
139 138 0
145 142 0
138 129 0
141 139 0
139 137 0
139 134 0
136 127 0
139 132 0
134 127 0
138 131 0
140 136 0
140 138 0
141 134 0
143 142 0
138 132 0
134 126 0
142 140 0
132 128 0
134 130 0
140 132 0
139 133 0
133 121 0
137 129 0
136 127 0
131 120 0
127 110 0
131 121 0
128 117 0
131 116 0
137 131 0
135 128 0
131 124 0
141 135 0
129 114 0
129 117 0
133 125 0
133 118 0
130 119 0
128 120 0
132 124 0
128 119 0
134 121 0
125 116 0
132 126 0
125 111 0
135 128 0
135 127 0
133 122 0
130 119 0
138 127 0
129 115 0
132 125 0
135 126 0
131 122 0
137 128 0
138 129 0
131 120 0
135 125 0
133 122 0
136 118 0
135 128 0
133 121 0
135 122 0
140 128 0
137 126 0
139 133 0
126 109 0
138 131 0
137 130 0
139 135 0
136 126 0
137 126 0
140 132 0
135 125 0
133 118 0
146 139 0
142 139 0
142 133 0
144 140 0
136 129 0
138 129 0
141 135 0
140 130 0
136 126 0
137 130 0
143 142 0
142 137 0
141 134 0
142 142 0
138 130 0
144 145 0
142 137 0
144 141 0
151 151 0
142 139 0
149 148 0
140 132 0
138 134 0
147 145 0
141 137 0
149 149 0
154 153 0
148 149 0
149 151 0
143 145 0
148 147 0
146 142 0
146 143 0
145 146 0
144 144 0
143 141 0
148 145 0
154 155 0
153 159 0
144 144 0
148 146 0
142 141 0
151 154 0
144 143 0
147 146 0
151 159 0
145 147 0
147 148 0
146 145 0
147 146 0
144 145 0
146 147 0
153 154 0
148 146 0
144 145 0
152 154 0
148 150 0
144 143 0
147 147 0
153 155 0
147 148 0
145 144 0
145 143 0
152 156 0
149 152 0
149 152 0
151 152 0
150 153 0
150 150 0
147 147 0
148 148 0
148 146 0
147 144 0
154 158 0
144 143 0
152 152 0
139 135 0
147 147 0
146 142 0
140 135 0
146 146 0
158 162 0
144 145 0
148 147 0
150 146 0
144 143 0
142 140 0
144 143 0
150 149 0
143 141 0
145 143 0
155 158 0
140 137 0
148 146 0
146 139 0
147 145 0
146 146 0
147 146 0
140 135 0
148 150 0
148 146 0
148 148 0
140 137 0
147 147 0
143 142 0
146 145 0
141 136 0
146 144 0
146 147 0
146 143 0
147 145 0
143 140 0
152 154 0
142 139 0
144 144 0
142 143 0
151 153 0
148 146 0
148 146 0
146 146 0
153 158 0
151 151 0
151 153 0
152 153 0
152 153 0
152 154 0
148 150 0
150 152 0
153 154 0
147 148 0
150 151 0
154 157 0
153 158 0
153 156 0
153 156 0
152 155 0
159 163 0
146 146 0
153 157 0
155 161 0
157 164 0
151 155 0
155 159 0
158 164 0
158 164 0
155 161 0
158 165 0
154 159 0
160 167 0
158 164 0
161 169 0
159 167 0
160 168 0
161 169 0
160 169 0
163 171 0
163 172 0
164 175 0
158 168 0
162 170 0
166 176 0
162 174 0
168 181 0
167 178 0
165 176 0
167 179 0
163 183 0
166 186 0
162 183 0
160 179 0
161 180 0
165 183 0
160 178 0
155 173 0
157 176 0
160 178 0
159 177 0
164 182 0
157 175 0
155 174 0
160 179 0
164 182 0
160 177 0
160 178 0
158 175 0
159 176 0
158 175 0
159 177 0
156 172 0
156 172 0
155 173 0
156 172 0
151 168 0
152 168 0
157 174 0
155 172 0
152 168 0
157 175 0
152 167 0
150 166 0
156 172 0
149 163 0
147 162 0
148 162 0
155 170 0
151 169 0
145 160 0
152 168 0
149 163 0
150 164 0
148 162 0
149 164 0
143 157 0
147 159 0
149 163 0
141 154 0
153 167 0
149 163 0
143 154 0
151 165 0
149 164 0
150 163 0
148 160 0
148 160 0
147 159 0
149 161 0
146 158 0
155 166 0
148 161 0
150 164 0
141 151 0
147 159 0
147 160 0
153 167 0
149 161 0
152 164 0
145 157 0
149 163 0
146 155 0
148 158 0
146 154 0
155 168 0
147 158 0
150 160 0
151 161 0
141 150 0
145 153 0
143 154 0
146 152 0
147 159 0
153 165 0
148 159 0
144 153 0
147 156 0
143 152 0
151 162 0
144 152 0
147 155 0
154 164 0
156 166 0
149 158 0
151 158 0
152 165 0
148 158 0
148 158 0
144 154 0
142 149 0
142 148 0
149 156 0
142 147 0
144 151 0
150 159 0
148 157 0
147 150 0
148 155 0
152 160 0
148 153 0
153 162 0
146 155 0
149 155 0
147 154 0
152 161 0
156 167 0
148 155 0
150 158 0
145 151 0
150 157 0
144 149 0
149 157 0
150 157 0
152 160 0
149 153 0
151 159 0
139 138 0
143 145 0
150 154 0
142 146 0
150 156 0
145 146 0
148 154 0
153 160 0
140 143 0
146 149 0
148 153 0
147 146 0
154 161 0
146 150 0
150 155 0
145 148 0
140 139 0
152 155 0
149 150 0
143 145 0
145 147 0
142 143 0
143 142 0
143 143 0
148 150 0
148 150 0
142 141 0
142 144 0
145 144 0
146 146 0
149 153 0
140 137 0
141 138 0
150 150 0
142 142 0
144 143 0
138 136 0
141 135 0
138 129 0
143 140 0
140 135 0
136 130 0
139 135 0
141 133 0
139 133 0
139 131 0
144 138 0
138 135 0
139 136 0
129 118 0
143 139 0
128 113 0
133 121 0
138 130 0
130 119 0
139 132 0
134 129 0
133 125 0
134 125 0
133 122 0
135 128 0
132 123 0
129 120 0
137 128 0
137 132 0
132 119 0
130 119 0
133 123 0
140 129 0
139 127 0
129 119 0
133 120 0
136 131 0
129 117 0
133 123 0
135 127 0
132 125 0
126 115 0
128 114 0
135 128 0
132 121 0
136 128 0
132 120 0
127 119 0
135 124 0
135 128 0
141 134 0
135 121 0
130 120 0
133 122 0
133 119 0
130 119 0
142 133 0
135 122 0
139 132 0
133 129 0
142 132 0
140 132 0
133 122 0
140 131 0
142 137 0
137 128 0
148 145 0
134 121 0
146 144 0
139 133 0
142 138 0
144 137 0
142 140 0
145 138 0
143 138 0
131 117 0
138 132 0
149 146 0
139 134 0
146 144 0
144 140 0
146 141 0
142 134 0
143 135 0
141 135 0
142 136 0
145 143 0
149 151 0
143 141 0
147 149 0
154 154 0
146 147 0
146 145 0
150 155 0
138 134 0
149 150 0
149 150 0
144 142 0
144 135 0
150 153 0
149 151 0
147 147 0
150 156 0
141 139 0
145 145 0
149 150 0
149 148 0
145 143 0
142 138 0
140 134 0
147 148 0
143 141 0
144 141 0
149 151 0
150 150 0
151 151 0
151 151 0
142 141 0
147 147 0
149 147 0
153 154 0
148 149 0
142 142 0
151 155 0
141 136 0
151 151 0
151 152 0
147 143 0
149 147 0
145 144 0
152 156 0
147 146 0
143 142 0
152 153 0
147 148 0
148 155 0
150 155 0
148 150 0
154 157 0
149 151 0
152 156 0
148 149 0
154 159 0
147 147 0
147 148 0
147 146 0
153 151 0
144 144 0
146 144 0
148 146 0
142 139 0
149 145 0
143 142 0
147 145 0
147 143 0
148 147 0
148 146 0
143 138 0
147 145 0
148 144 0
152 154 0
147 144 0
141 137 0
141 136 0
146 146 0
150 151 0
147 147 0
144 140 0
144 143 0
146 146 0
146 145 0
146 147 0
143 141 0
145 144 0
152 155 0
142 140 0
146 145 0
142 144 0
141 136 0
148 146 0
145 144 0
141 138 0
146 146 0
144 143 0
146 146 0
145 143 0
144 141 0
143 139 0
152 153 0
153 153 0
147 148 0
154 157 0
149 149 0
144 144 0
151 151 0
145 145 0
148 148 0
150 152 0
152 154 0
155 158 0
151 151 0
154 157 0
150 153 0
156 159 0
157 161 0
152 155 0
151 153 0
152 154 0
157 162 0
153 154 0
154 157 0
154 160 0
157 163 0
155 160 0
160 166 0
156 162 0
155 159 0
159 168 0
158 167 0
158 165 0
158 165 0
162 168 0
159 167 0
158 165 0
164 172 0
163 172 0
162 173 0
158 166 0
163 172 0
156 163 0
159 165 0
166 177 0
162 168 0
164 174 0
166 175 0
166 177 0
162 171 0
166 186 0
161 180 0
160 180 0
159 178 0
159 177 0
164 183 0
161 180 0
156 175 0
161 179 0
161 179 0
159 177 0
156 174 0
158 176 0
158 176 0
160 177 0
166 183 0
154 171 0
157 175 0
158 175 0
158 175 0
157 175 0
157 174 0
157 174 0
156 173 0
154 172 0
159 177 0
155 171 0
146 162 0
158 173 0
148 162 0
151 168 0
156 172 0
151 166 0
153 169 0
151 166 0
148 164 0
153 170 0
149 166 0
147 163 0
154 171 0
153 168 0
151 166 0
149 162 0
153 169 0
153 167 0
155 168 0
149 163 0
149 163 0
144 156 0
147 162 0
143 156 0
145 158 0
145 158 0
151 164 0
146 160 0
145 158 0
141 154 0
148 162 0
152 166 0
152 165 0
144 155 0
148 159 0
145 159 0
149 162 0
145 157 0
148 161 0
148 158 0
149 158 0
142 154 0
149 162 0
140 149 0
147 158 0
136 147 0
148 161 0
152 167 0
144 151 0
147 159 0
149 160 0
146 158 0
153 165 0
145 155 0
156 167 0
152 163 0
149 158 0
143 151 0
145 152 0
147 158 0
142 149 0
146 153 0
151 164 0
142 150 0
143 150 0
157 170 0
153 163 0
150 164 0
151 161 0
146 153 0
152 163 0
144 151 0
144 149 0
152 163 0
151 162 0
148 155 0
145 152 0
148 151 0
152 163 0
153 164 0
148 156 0
145 150 0
148 156 0
146 153 0
154 163 0
155 164 0
145 152 0
150 156 0
146 154 0
150 155 0
141 148 0
148 153 0
145 152 0
143 145 0
149 157 0
147 156 0
148 156 0
146 148 0
149 156 0
148 153 0
147 149 0
149 153 0
152 156 0
148 152 0
149 155 0
149 154 0
148 155 0
145 144 0
150 156 0
149 153 0
144 149 0
143 148 0
145 148 0
148 151 0
154 159 0
149 157 0
144 146 0
145 150 0
141 142 0
149 154 0
143 144 0
148 152 0
152 159 0
142 142 0
144 143 0
138 133 0
143 141 0
150 148 0
150 149 0
148 146 0
142 139 0
142 138 0
148 147 0
139 137 0
144 142 0
144 139 0
143 142 0
140 139 0
141 133 0
139 137 0
138 130 0
141 135 0
138 129 0
142 138 0
134 124 0
140 135 0
141 139 0
135 127 0
140 138 0
135 135 0
131 120 0
139 129 0
139 134 0
136 132 0
139 132 0
133 129 0
143 139 0
134 126 0
137 130 0
133 127 0
140 131 0
133 128 0
134 126 0
133 122 0
135 126 0
134 119 0
133 119 0
137 128 0
138 131 0
142 135 0
135 125 0
132 122 0
141 134 0
132 122 0
139 131 0
123 109 0
141 131 0
135 125 0
136 129 0
130 118 0
131 119 0
135 122 0
130 121 0
129 117 0
145 137 0
141 136 0
140 134 0
137 128 0
140 130 0
139 134 0
134 123 0
142 131 0
135 130 0
131 121 0
141 133 0
138 130 0
141 132 0
138 128 0
142 135 0
138 132 0
137 127 0
141 134 0
139 133 0
139 127 0
142 135 0
144 138 0
141 137 0
141 136 0
145 139 0
144 139 0
142 139 0
144 143 0
144 142 0
142 133 0
146 143 0
141 138 0
144 138 0
148 144 0
147 143 0
149 149 0
141 137 0
148 146 0
151 152 0
138 131 0
147 149 0
141 134 0
148 151 0
145 142 0
143 138 0
151 155 0
149 153 0
146 144 0
149 148 0
150 154 0
143 145 0
149 149 0
144 141 0
149 150 0
148 148 0
146 144 0
147 144 0
145 143 0
144 143 0
146 147 0
149 150 0
154 155 0
149 150 0
147 144 0
148 152 0
149 154 0
149 149 0
154 158 0
146 145 0
148 148 0
153 157 0
150 152 0
155 157 0
151 153 0
151 149 0
153 159 0
152 155 0
149 152 0
146 146 0
147 146 0
146 150 0
149 147 0
151 150 0
149 151 0
148 148 0
153 154 0
153 156 0
147 144 0
150 151 0
146 145 0
145 145 0
155 159 0
151 153 0
153 154 0
145 141 0
148 146 0
150 148 0
148 147 0
152 156 0
148 145 0
150 154 0
145 145 0
151 152 0
151 156 0
151 154 0
145 146 0
151 154 0
149 150 0
145 145 0
145 142 0
148 150 0
146 145 0
147 149 0
147 148 0
142 136 0
153 156 0
139 136 0
153 156 0
143 143 0
153 156 0
150 149 0
149 149 0
141 140 0
152 152 0
150 150 0
147 145 0
147 150 0
150 151 0
147 149 0
149 150 0
146 144 0
146 146 0
141 140 0
145 142 0
144 141 0
144 142 0
143 141 0
146 147 0
145 142 0
148 147 0
147 148 0
148 148 0
148 152 0
141 138 0
146 144 0
148 151 0
144 143 0
151 151 0
156 158 0
146 145 0
157 158 0
155 158 0
149 151 0
154 155 0
150 152 0
151 150 0
156 157 0
152 155 0
152 153 0
158 163 0
149 147 0
153 158 0
150 154 0
157 159 0
150 155 0
156 160 0
164 172 0
153 156 0
160 166 0
158 163 0
161 168 0
157 160 0
162 171 0
156 160 0
160 167 0
160 168 0
164 170 0
162 168 0
159 166 0
165 176 0
161 170 0
159 164 0
163 172 0
159 168 0
162 173 0
165 176 0
163 173 0
161 169 0
165 178 0
163 182 0
160 179 0
161 180 0
162 181 0
164 183 0
160 180 0
160 180 0
154 173 0
155 173 0
160 179 0
156 174 0
156 175 0
162 181 0
155 173 0
160 178 0
159 177 0
158 176 0
158 176 0
153 171 0
155 172 0
159 177 0
157 175 0
154 171 0
156 173 0
158 174 0
153 169 0
152 168 0
157 175 0
157 173 0
155 171 0
157 173 0
154 170 0
152 167 0
150 166 0
151 167 0
156 171 0
154 170 0
156 171 0
151 166 0
147 161 0
153 168 0
155 171 0
153 168 0
154 169 0
155 169 0
150 165 0
151 165 0
150 166 0
149 163 0
152 167 0
147 161 0
156 171 0
144 156 0
153 167 0
149 162 0
153 167 0
152 166 0
148 158 0
151 166 0
148 161 0
146 158 0
153 166 0
150 164 0
155 168 0
150 162 0
149 162 0
147 159 0
148 160 0
144 155 0
153 167 0
149 162 0
150 163 0
153 164 0
151 163 0
153 167 0
146 155 0
151 164 0
146 154 0
155 169 0
146 155 0
146 156 0
144 152 0
148 160 0
143 154 0
149 158 0
152 165 0
143 152 0
148 160 0
146 155 0
151 160 0
150 160 0
148 159 0
146 157 0
151 161 0
148 158 0
150 160 0
147 154 0
150 159 0
153 163 0
147 157 0
151 161 0
153 163 0
156 169 0
152 166 0
147 156 0
152 163 0
150 159 0
148 154 0
148 155 0
150 160 0
148 156 0
158 168 0
150 158 0
151 162 0
147 155 0
151 158 0
151 159 0
148 154 0
149 157 0
149 156 0
155 164 0
148 154 0
148 154 0
146 153 0
149 156 0
153 161 0
145 150 0
150 157 0
150 157 0
147 152 0
150 158 0
150 156 0
151 156 0
150 154 0
146 147 0
150 156 0
149 158 0
143 145 0
147 151 0
147 147 0
152 160 0
153 157 0
149 153 0
148 149 0
147 150 0
150 153 0
142 144 0
147 150 0
148 152 0
151 153 0
144 142 0
144 143 0
142 139 0
141 139 0
150 152 0
145 144 0
147 151 0
137 134 0
140 133 0
147 143 0
144 144 0
141 138 0
144 139 0
141 134 0
147 144 0
139 137 0
141 138 0
149 147 0
146 144 0
143 140 0
147 145 0
140 134 0
138 132 0
138 135 0
140 133 0
146 142 0
147 147 0
143 137 0
148 147 0
140 132 0
140 137 0
139 134 0
137 132 0
147 147 0
142 136 0
143 139 0
136 132 0
141 135 0
131 120 0
134 123 0
134 124 0
136 127 0
135 130 0
134 124 0
131 122 0
140 136 0
134 123 0
134 125 0
138 129 0
147 144 0
135 125 0
133 122 0
137 126 0
137 129 0
139 132 0
137 128 0
142 133 0
130 120 0
136 126 0
132 122 0
134 124 0
141 136 0
137 128 0
141 135 0
136 125 0
139 130 0
140 130 0
135 125 0
137 130 0
139 133 0
133 123 0
141 134 0
144 139 0
142 138 0
140 132 0
140 136 0
140 133 0
147 146 0
137 126 0
144 140 0
142 137 0
139 134 0
140 132 0
140 133 0
140 131 0
147 147 0
142 133 0
144 144 0
140 134 0
147 143 0
149 149 0
148 144 0
147 144 0
143 139 0
152 154 0
132 123 0
144 143 0
141 137 0
152 153 0
144 141 0
152 152 0
148 150 0
147 146 0
146 142 0
142 140 0
148 153 0
146 147 0
150 151 0
148 148 0
154 155 0
147 146 0
148 146 0
145 142 0
146 143 0
150 151 0
154 159 0
147 148 0
149 145 0
144 142 0
146 141 0
146 147 0
146 142 0
155 159 0
146 145 0
149 149 0
150 153 0
152 154 0
145 146 0
151 152 0
152 154 0
149 147 0
148 148 0
151 153 0
149 150 0
142 136 0
146 148 0
150 151 0
149 150 0
143 143 0
153 158 0
146 146 0
149 147 0
142 139 0
148 151 0
148 146 0
146 145 0
153 158 0
146 151 0
151 150 0
152 156 0
149 152 0
147 149 0
154 156 0
146 145 0
145 145 0
148 149 0
153 157 0
147 151 0
152 154 0
149 151 0
149 151 0
151 152 0
151 156 0
150 151 0
146 146 0
143 142 0
147 149 0
149 152 0
147 148 0
149 149 0
150 151 0
146 145 0
144 140 0
149 151 0
151 150 0
152 153 0
149 149 0
148 149 0
153 155 0
142 140 0
147 145 0
153 154 0
148 148 0
150 151 0
147 148 0
147 147 0
146 148 0
147 147 0
149 151 0
147 149 0
149 151 0
148 146 0
145 143 0
145 145 0
153 154 0
147 147 0
154 158 0
147 147 0
148 147 0
153 157 0
142 140 0
150 153 0
152 154 0
147 147 0
150 151 0
149 150 0
147 148 0
149 148 0
151 155 0
142 143 0
151 154 0
150 152 0
154 156 0
156 158 0
150 152 0
150 149 0
151 152 0
153 157 0
153 155 0
152 153 0
154 156 0
156 161 0
153 159 0
153 157 0
156 161 0
153 157 0
152 153 0
154 159 0
156 162 0
156 162 0
155 160 0
160 166 0
156 161 0
155 160 0
163 171 0
164 173 0
159 166 0
160 165 0
160 166 0
159 166 0
157 166 0
165 176 0
165 175 0
163 174 0
163 173 0
160 168 0
162 174 0
161 169 0
156 163 0
165 178 0
161 180 0
157 175 0
162 182 0
167 186 0
159 176 0
162 181 0
163 181 0
165 184 0
160 179 0
159 178 0
159 177 0
157 175 0
160 179 0
160 178 0
155 173 0
158 177 0
156 173 0
155 173 0
156 173 0
159 176 0
160 178 0
158 176 0
161 178 0
161 178 0
152 169 0
153 170 0
157 174 0
153 168 0
155 172 0
157 174 0
153 170 0
155 172 0
151 166 0
153 169 0
151 165 0
152 166 0
151 165 0
150 166 0
150 165 0
157 172 0
155 170 0
152 168 0
151 166 0
148 163 0
154 169 0
155 169 0
146 160 0
144 159 0
150 164 0
152 167 0
153 169 0
146 157 0
149 162 0
147 160 0
142 154 0
145 156 0
151 164 0
149 163 0
148 160 0
152 164 0
148 161 0
153 166 0
150 163 0
151 163 0
150 161 0
151 165 0
149 162 0
152 163 0
148 159 0
145 153 0
141 149 0
146 156 0
152 166 0
149 159 0
146 155 0
150 161 0
149 159 0
152 166 0
142 148 0
152 164 0
148 157 0
150 162 0
149 160 0
151 162 0
146 154 0
151 161 0
147 154 0
152 164 0
152 167 0
152 164 0
154 165 0
150 160 0
149 157 0
153 164 0
144 153 0
145 151 0
151 161 0
146 155 0
152 161 0
148 156 0
150 158 0
149 157 0
156 169 0
149 159 0
148 155 0
149 156 0
148 155 0
143 149 0
152 160 0
152 162 0
158 169 0
148 154 0
151 161 0
148 155 0
153 164 0
154 163 0
150 156 0
149 156 0
150 158 0
152 158 0
146 152 0
150 156 0
143 148 0
146 151 0
151 159 0
148 152 0
150 158 0
149 158 0
147 152 0
151 156 0
149 152 0
151 157 0
151 157 0
149 154 0
151 155 0
152 159 0
150 154 0
149 155 0
151 154 0
150 153 0
148 154 0
149 154 0
147 148 0
154 162 0
148 152 0
143 145 0
148 149 0
151 149 0
148 151 0
148 151 0
148 148 0
148 151 0
145 145 0
144 143 0
142 142 0
149 151 0
142 143 0
135 125 0
143 140 0
151 154 0
144 143 0
144 141 0
143 145 0
142 139 0
148 148 0
150 152 0
141 136 0
137 131 0
144 142 0
145 147 0
143 137 0
145 144 0
133 121 0
139 137 0
144 142 0
137 127 0
139 134 0
133 125 0
136 130 0
140 133 0
134 126 0
147 147 0
139 138 0
139 129 0
140 136 0
136 127 0
143 141 0
146 141 0
142 141 0
138 131 0
138 130 0
133 123 0
133 126 0
138 129 0
136 132 0
136 126 0
139 130 0
140 129 0
138 125 0
132 123 0
140 133 0
130 116 0
128 115 0
135 127 0
138 130 0
143 136 0
139 132 0
137 126 0
137 127 0
141 138 0
140 133 0
143 137 0
138 130 0
141 133 0
142 135 0
142 137 0
136 132 0
138 128 0
138 128 0
141 133 0
125 113 0
140 134 0
138 128 0
144 141 0
142 135 0
133 121 0
138 128 0
151 152 0
135 127 0
138 124 0
145 143 0
134 125 0
144 139 0
148 146 0
147 145 0
141 136 0
145 147 0
145 142 0
143 140 0
144 139 0
144 143 0
143 139 0
146 145 0
144 143 0
142 137 0
143 138 0
150 147 0
149 147 0
148 150 0
151 151 0
143 139 0
151 155 0
142 142 0
146 144 0
142 136 0
145 143 0
150 150 0
147 146 0
152 156 0
150 150 0
146 148 0
151 152 0
149 148 0
151 152 0
146 143 0
155 160 0
150 147 0
150 153 0
149 151 0
148 151 0
152 154 0
147 148 0
149 148 0
152 150 0
149 153 0
149 151 0
151 153 0
148 149 0
146 147 0
146 143 0
149 149 0
144 143 0
147 151 0
146 144 0
153 152 0
150 153 0
154 155 0
157 160 0
145 147 0
143 143 0
153 153 0
150 150 0
154 160 0
154 159 0
152 153 0
153 160 0
149 153 0
151 154 0
147 150 0
147 146 0
152 152 0
146 146 0
148 146 0
149 151 0
146 147 0
150 151 0
148 150 0
149 148 0
153 159 0
153 156 0
152 155 0
149 151 0
155 160 0
148 148 0
152 154 0
158 160 0
153 155 0
149 149 0
148 151 0
152 150 0
148 150 0
144 143 0
149 149 0
151 151 0
150 152 0
152 152 0
150 152 0
145 140 0
151 153 0
147 143 0
150 152 0
148 149 0
157 160 0
148 150 0
145 143 0
149 149 0
148 146 0
147 146 0
151 154 0
152 157 0
153 156 0
150 150 0
149 147 0
157 161 0
151 150 0
146 148 0
148 147 0
147 146 0
147 145 0
147 147 0
149 149 0
153 157 0
154 157 0
152 156 0
147 149 0
154 156 0
149 150 0
152 154 0
151 155 0
144 142 0
149 151 0
155 160 0
148 150 0
156 162 0
155 158 0
151 155 0
150 152 0
156 159 0
157 161 0
155 160 0
153 158 0
154 157 0
157 162 0
155 160 0
155 158 0
157 162 0
152 156 0
154 158 0
154 158 0
160 168 0
157 164 0
154 158 0
158 166 0
155 162 0
159 166 0
159 165 0
160 166 0
154 158 0
157 163 0
160 167 0
159 166 0
162 170 0
161 171 0
159 168 0
161 170 0
159 165 0
159 169 0
164 173 0
159 166 0
163 174 0
163 182 0
157 176 0
161 180 0
158 177 0
164 183 0
163 181 0
157 176 0
165 183 0
157 176 0
158 177 0
157 176 0
159 178 0
159 178 0
152 169 0
155 172 0
158 174 0
159 176 0
160 179 0
156 172 0
158 175 0
162 180 0
160 178 0
155 170 0
149 166 0
158 175 0
162 179 0
156 172 0
153 170 0
154 171 0
158 175 0
151 166 0
156 171 0
154 170 0
154 170 0
157 172 0
157 173 0
152 167 0
156 171 0
150 164 0
159 176 0
150 164 0
151 164 0
151 167 0
151 163 0
149 163 0
150 164 0
153 167 0
157 173 0
150 161 0
150 162 0
150 165 0
155 169 0
145 158 0
144 155 0
148 161 0
148 161 0
161 178 0
144 154 0
154 167 0
150 164 0
150 163 0
153 167 0
147 161 0
150 162 0
145 158 0
153 167 0
151 164 0
151 163 0
152 164 0
149 160 0
152 165 0
151 164 0
145 154 0
154 168 0
150 160 0
152 162 0
148 159 0
148 158 0
150 162 0
143 154 0
150 163 0
145 152 0
151 164 0
149 158 0
150 164 0
153 164 0
150 162 0
156 166 0
146 155 0
147 158 0
155 169 0
151 161 0
148 161 0
147 154 0
152 166 0
148 160 0
148 155 0
148 158 0
151 162 0
153 163 0
151 159 0
153 163 0
148 156 0
152 162 0
151 159 0
154 163 0
150 156 0
149 157 0
149 154 0
157 168 0
150 156 0
149 157 0
154 165 0
154 160 0
157 168 0
151 158 0
149 155 0
152 163 0
149 157 0
154 162 0
146 154 0
150 158 0
151 154 0
147 151 0
153 159 0
149 158 0
150 157 0
151 159 0
153 160 0
157 168 0
153 159 0
150 153 0
155 163 0
149 152 0
153 159 0
144 143 0
142 146 0
150 155 0
149 153 0
155 163 0
148 152 0
148 152 0
146 146 0
151 153 0
148 156 0
150 156 0
141 142 0
145 147 0
149 151 0
150 154 0
147 151 0
137 131 0
149 151 0
147 151 0
146 147 0
141 138 0
144 144 0
147 149 0
145 145 0
154 154 0
144 141 0
144 139 0
142 141 0
147 146 0
144 145 0
137 131 0
146 145 0
138 129 0
148 145 0
140 134 0
138 132 0
144 142 0
148 150 0
142 140 0
139 131 0
147 146 0
135 129 0
143 139 0
142 134 0
141 137 0
151 152 0
143 141 0
138 128 0
137 132 0
145 139 0
144 137 0
142 137 0
141 138 0
142 136 0
138 133 0
140 128 0
142 137 0
146 140 0
138 135 0
136 126 0
141 135 0
138 130 0
139 133 0
140 135 0
140 133 0
142 136 0
140 131 0
137 126 0
147 139 0
142 135 0
144 136 0
136 129 0
137 130 0
136 132 0
139 132 0
146 145 0
136 127 0
143 138 0
143 141 0
142 136 0
142 130 0
137 128 0
135 128 0
142 134 0
133 122 0
145 143 0
142 133 0
136 129 0
142 134 0
146 141 0
136 126 0
145 143 0
151 149 0
152 156 0
144 143 0
155 157 0
141 136 0
139 127 0
143 137 0
147 146 0
148 147 0
150 150 0
142 136 0
141 134 0
146 145 0
147 145 0
147 148 0
145 144 0
141 137 0
146 145 0
146 143 0
148 148 0
148 149 0
145 138 0
146 147 0
142 139 0
146 146 0
147 148 0
147 145 0
148 145 0
151 155 0
150 151 0
148 148 0
145 143 0
151 154 0
144 137 0
142 139 0
147 146 0
149 149 0
152 155 0
146 146 0
149 147 0
153 155 0
148 149 0
148 144 0
146 148 0
153 158 0
149 151 0
152 153 0
146 145 0
153 156 0
154 159 0
153 155 0
146 148 0
152 155 0
137 132 0
148 149 0
146 148 0
146 144 0
151 153 0
153 157 0
145 145 0
146 147 0
153 160 0
152 158 0
148 149 0
142 137 0
149 151 0
151 153 0
153 157 0
149 150 0
152 157 0
144 141 0
155 162 0
146 149 0
151 151 0
150 150 0
148 149 0
154 159 0
147 146 0
154 154 0
154 156 0
150 154 0
147 148 0
147 151 0
152 153 0
148 147 0
147 145 0
154 158 0
148 149 0
151 152 0
156 161 0
147 145 0
148 147 0
149 150 0
149 150 0
145 143 0
148 149 0
148 149 0
155 156 0
151 157 0
155 156 0
143 142 0
155 161 0
147 149 0
152 155 0
149 151 0
151 153 0
151 153 0
151 154 0
146 144 0
148 151 0
153 155 0
154 155 0
153 156 0
152 153 0
149 147 0
148 151 0
155 156 0
146 147 0
149 150 0
148 149 0
151 150 0
150 153 0
154 157 0
149 150 0
146 144 0
153 154 0
149 150 0
152 152 0
151 153 0
156 161 0
154 159 0
151 151 0
156 160 0
150 152 0
151 154 0
156 161 0
153 158 0
148 150 0
154 159 0
156 159 0
152 155 0
156 160 0
156 160 0
161 169 0
155 158 0
152 155 0
153 157 0
160 167 0
158 163 0
152 156 0
160 164 0
158 166 0
156 162 0
157 162 0
156 162 0
154 157 0
159 166 0
158 164 0
159 166 0
160 168 0
156 161 0
160 168 0
160 168 0
162 169 0
162 168 0
161 170 0
162 170 0
163 172 0
161 169 0
161 171 0
160 168 0
163 171 0
165 175 0
164 183 0
161 179 0
160 180 0
162 180 0
163 182 0
161 179 0
159 177 0
162 180 0
158 177 0
155 172 0
161 179 0
160 177 0
159 176 0
159 176 0
159 177 0
157 176 0
159 176 0
159 176 0
156 173 0
152 168 0
151 169 0
156 171 0
155 171 0
159 177 0
159 177 0
154 171 0
150 166 0
154 170 0
155 172 0
153 166 0
147 163 0
150 166 0
150 165 0
152 168 0
152 169 0
145 159 0
151 166 0
149 163 0
152 167 0
155 168 0
149 163 0
152 167 0
153 168 0
152 167 0
153 166 0
152 165 0
151 166 0
149 163 0
153 168 0
150 162 0
152 167 0
155 169 0
151 164 0
151 165 0
152 164 0
149 160 0
145 160 0
145 158 0
144 157 0
151 165 0
150 162 0
151 165 0
150 163 0
151 164 0
149 163 0
147 157 0
148 159 0
149 161 0
152 164 0
148 162 0
155 169 0
149 165 0
152 165 0
152 162 0
150 162 0
149 158 0
154 164 0
152 161 0
148 160 0
152 162 0
154 164 0
156 169 0
145 153 0
151 163 0
153 162 0
151 163 0
149 160 0
153 162 0
147 155 0
152 164 0
149 161 0
146 150 0
149 159 0
150 162 0
156 170 0
152 163 0
149 157 0
156 167 0
152 161 0
147 154 0
150 160 0
151 160 0
149 154 0
151 160 0
143 152 0
154 164 0
144 149 0
147 156 0
148 155 0
151 157 0
147 152 0
153 164 0
154 162 0
151 159 0
151 159 0
150 155 0
151 159 0
151 160 0
149 155 0
147 153 0
148 157 0
148 155 0
149 158 0
157 168 0
147 154 0
154 166 0
147 151 0
156 167 0
148 153 0
152 156 0
147 150 0
147 154 0
152 157 0
149 153 0
150 153 0
147 148 0
154 159 0
142 142 0
149 153 0
150 156 0
153 155 0
144 146 0
148 151 0
143 147 0
147 149 0
146 154 0
141 141 0
149 151 0
143 142 0
145 148 0
144 143 0
147 149 0
147 151 0
141 141 0
144 144 0
138 139 0
149 150 0
146 145 0
147 151 0
148 150 0
139 135 0
141 142 0
146 148 0
139 138 0
151 147 0
140 134 0
143 135 0
142 142 0
146 142 0
145 143 0
140 136 0
137 129 0
144 139 0
141 135 0
143 140 0
148 148 0
143 139 0
140 137 0
142 140 0
151 146 0
145 142 0
141 137 0
142 138 0
144 139 0
139 130 0
141 139 0
140 136 0
145 144 0
141 134 0
137 131 0
145 142 0
138 127 0
144 140 0
141 134 0
142 135 0
135 126 0
142 137 0
149 146 0
138 127 0
139 135 0
145 142 0
140 133 0
141 136 0
138 128 0
136 124 0
145 139 0
137 130 0
145 140 0
140 134 0
139 130 0
142 132 0
146 143 0
139 131 0
142 138 0
143 138 0
137 129 0
138 127 0
146 145 0
149 145 0
147 146 0
142 136 0
143 134 0
140 132 0
144 141 0
146 142 0
138 132 0
147 143 0
149 147 0
143 137 0
149 148 0
150 148 0
142 139 0
141 130 0
146 139 0
145 142 0
147 142 0
145 144 0
139 136 0
148 151 0
143 144 0
145 144 0
148 146 0
143 138 0
151 150 0
146 145 0
147 145 0
149 148 0
149 151 0
148 150 0
149 147 0
147 146 0
143 143 0
145 143 0
144 143 0
149 147 0
146 146 0
146 146 0
151 152 0
156 160 0
148 147 0
149 151 0
148 149 0
147 147 0
148 147 0
146 148 0
153 152 0
147 146 0
146 146 0
151 150 0
151 155 0
153 155 0
152 155 0
151 155 0
148 151 0
150 152 0
150 150 0
144 139 0
146 146 0
152 154 0
151 155 0
149 151 0
152 157 0
154 158 0
153 157 0
155 159 0
152 158 0
155 160 0
157 164 0
149 151 0
151 154 0
149 152 0
149 150 0
147 148 0
148 145 0
151 152 0
146 151 0
150 154 0
150 152 0
144 145 0
151 152 0
150 154 0
150 151 0
152 153 0
147 150 0
157 161 0
144 141 0
141 138 0
152 158 0
148 150 0
152 154 0
149 151 0
154 157 0
155 160 0
150 154 0
141 141 0
152 152 0
152 157 0
151 153 0
142 139 0
153 156 0
155 162 0
151 153 0
144 144 0
153 155 0
147 149 0
155 157 0
155 157 0
149 150 0
148 148 0
152 154 0
151 150 0
150 150 0
151 150 0
147 146 0
155 156 0
147 144 0
153 158 0
147 146 0
150 152 0
148 148 0
150 150 0
149 149 0
149 150 0
148 146 0
155 157 0
153 155 0
152 154 0
148 148 0
144 145 0
151 152 0
153 156 0
152 156 0
151 150 0
155 158 0
147 147 0
152 151 0
152 154 0
147 147 0
156 162 0
154 158 0
147 146 0
153 155 0
157 160 0
152 155 0
154 156 0
154 154 0
158 161 0
151 153 0
156 160 0
154 159 0
154 158 0
156 160 0
160 164 0
154 154 0
158 168 0
162 170 0
157 162 0
161 168 0
155 160 0
154 158 0
158 166 0
158 164 0
156 161 0
156 162 0
155 160 0
154 158 0
159 164 0
160 166 0
159 165 0
161 169 0
160 169 0
161 171 0
160 166 0
163 174 0
160 167 0
161 169 0
155 161 0
158 167 0
163 175 0
163 172 0
159 179 0
164 182 0
163 179 0
158 177 0
158 177 0
159 177 0
163 181 0
158 177 0
155 173 0
155 171 0
162 181 0
158 176 0
161 179 0
158 174 0
160 177 0
161 179 0
158 175 0
159 177 0
155 171 0
153 168 0
158 175 0
157 172 0
155 171 0
155 169 0
156 172 0
152 168 0
153 170 0
154 169 0
148 164 0
149 165 0
153 169 0
153 169 0
157 175 0
152 167 0
155 171 0
157 173 0
149 164 0
155 171 0
153 166 0
152 168 0
154 171 0
153 167 0
148 161 0
155 171 0
149 163 0
154 168 0
153 166 0
151 163 0
155 170 0
153 170 0
153 168 0
153 168 0
154 167 0
153 167 0
152 166 0
153 167 0
152 164 0
151 164 0
150 164 0
146 155 0
157 170 0
152 165 0
149 160 0
149 161 0
156 164 0
155 167 0
154 168 0
152 164 0
151 165 0
151 165 0
149 157 0
150 162 0
153 165 0
151 161 0
150 161 0
149 158 0
148 158 0
152 166 0
156 168 0
148 158 0
151 160 0
154 165 0
150 161 0
152 161 0
145 154 0
153 164 0
152 163 0
149 160 0
154 164 0
155 166 0
154 165 0
147 156 0
156 167 0
153 163 0
146 156 0
150 156 0
153 160 0
159 171 0
146 151 0
144 150 0
148 153 0
146 153 0
152 161 0
152 163 0
148 157 0
149 158 0
146 152 0
146 154 0
154 164 0
149 157 0
153 164 0
144 152 0
157 169 0
154 162 0
153 163 0
150 162 0
155 162 0
149 150 0
146 151 0
147 153 0
150 158 0
150 160 0
149 155 0
156 162 0
153 157 0
153 161 0
151 158 0
146 148 0
146 149 0
147 150 0
145 152 0
155 169 0
149 154 0
145 150 0
157 165 0
152 158 0
148 151 0
151 155 0
154 159 0
150 155 0
147 151 0
150 153 0
150 154 0
149 152 0
151 152 0
144 144 0
144 148 0
147 150 0
150 152 0
150 156 0
145 148 0
146 152 0
150 155 0
147 149 0
146 149 0
143 142 0
146 150 0
147 147 0
148 149 0
145 148 0
144 144 0
150 150 0
146 149 0
145 148 0
143 141 0
142 138 0
150 153 0
146 148 0
149 147 0
143 139 0
148 152 0
146 142 0
144 140 0
141 133 0
144 141 0
143 142 0
144 141 0
148 149 0
146 144 0
142 136 0
143 139 0
139 134 0
144 140 0
149 148 0
147 146 0
148 147 0
143 135 0
141 137 0
140 136 0
143 136 0
144 140 0
138 134 0
147 148 0
139 131 0
142 135 0
146 137 0
139 133 0
143 138 0
139 134 0
140 134 0
138 126 0
144 139 0
136 125 0
144 140 0
143 140 0
138 132 0
143 136 0
139 133 0
147 138 0
140 135 0
140 135 0
146 145 0
144 138 0
139 132 0
144 139 0
136 129 0
144 139 0
138 130 0
137 129 0
150 149 0
142 136 0
147 145 0
139 130 0
135 130 0
146 142 0
143 137 0
141 135 0
140 139 0
141 130 0
144 142 0
143 141 0
146 143 0
145 142 0
143 140 0
148 150 0
143 138 0
141 138 0
143 138 0
142 136 0
144 141 0
147 147 0
147 147 0
146 146 0
156 161 0
148 149 0
149 148 0
148 144 0
151 154 0
143 138 0
145 143 0
146 147 0
148 147 0
148 149 0
150 153 0
147 145 0
150 148 0
148 149 0
149 151 0
146 142 0
147 146 0
146 146 0
155 160 0
154 156 0
145 145 0
147 149 0
150 155 0
156 160 0
149 145 0
143 144 0
153 156 0
149 148 0
145 149 0
154 153 0
149 150 0
147 148 0
152 151 0
156 159 0
152 151 0
152 153 0
145 143 0
149 153 0
157 160 0
147 149 0
151 153 0
149 147 0
153 155 0
150 153 0
144 146 0
152 156 0
149 154 0
151 154 0
153 153 0
157 163 0
149 153 0
155 159 0
153 158 0
145 143 0
152 153 0
151 153 0
150 150 0
148 152 0
153 156 0
152 155 0
150 154 0
156 158 0
151 156 0
147 146 0
154 158 0
150 156 0
152 155 0
153 158 0
152 154 0
152 157 0
151 153 0
152 156 0
154 156 0
155 160 0
155 160 0
149 153 0
152 155 0
147 146 0
155 158 0
153 161 0
152 157 0
152 155 0
152 154 0
154 155 0
151 152 0
148 146 0
153 157 0
155 157 0
151 152 0
150 150 0
142 138 0
152 156 0
146 147 0
153 156 0
149 150 0
153 158 0
156 159 0
158 166 0
156 159 0
151 150 0
152 155 0
148 147 0
148 147 0
150 154 0
153 155 0
149 152 0
155 160 0
152 154 0
147 146 0
147 148 0
150 151 0
152 156 0
146 147 0
151 153 0
152 153 0
147 147 0
153 157 0
152 155 0
154 156 0
151 153 0
150 152 0
155 160 0
151 152 0
155 160 0
157 161 0
155 159 0
152 156 0
162 167 0
156 158 0
157 162 0
159 165 0
151 157 0
154 159 0
159 166 0
158 163 0
161 169 0
160 166 0
158 164 0
158 162 0
152 153 0
165 173 0
155 161 0
158 163 0
161 169 0
158 166 0
160 166 0
158 166 0
163 172 0
160 169 0
162 172 0
161 167 0
158 169 0
157 165 0
157 166 0
159 168 0
163 172 0
163 174 0
164 182 0
162 181 0
161 180 0
164 182 0
160 177 0
164 182 0
158 175 0
158 175 0
157 174 0
159 176 0
158 177 0
157 176 0
160 179 0
158 176 0
158 176 0
159 175 0
157 174 0
155 173 0
161 179 0
156 172 0
151 168 0
157 175 0
156 172 0
161 178 0
156 174 0
157 175 0
158 175 0
154 170 0
163 178 0
153 169 0
157 174 0
149 166 0
151 166 0
155 168 0
149 165 0
156 173 0
156 172 0
154 169 0
158 175 0
155 170 0
151 167 0
152 168 0
149 164 0
153 169 0
153 167 0
150 163 0
155 169 0
156 170 0
155 170 0
147 161 0
154 169 0
155 172 0
148 160 0
157 172 0
151 165 0
155 169 0
150 162 0
148 161 0
151 163 0
154 169 0
152 164 0
152 166 0
150 164 0
155 169 0
152 164 0
149 161 0
150 163 0
151 163 0
158 171 0
157 172 0
153 164 0
152 164 0
150 159 0
150 159 0
151 163 0
154 169 0
153 168 0
153 165 0
156 170 0
147 155 0
157 170 0
150 159 0
143 151 0
154 166 0
148 159 0
152 167 0
151 160 0
147 161 0
150 160 0
150 159 0
151 162 0
148 156 0
154 161 0
161 174 0
150 159 0
147 156 0
151 164 0
155 165 0
150 158 0
157 171 0
150 160 0
149 159 0
152 163 0
152 162 0
147 155 0
150 162 0
147 153 0
150 162 0
150 157 0
148 157 0
148 154 0
154 166 0
150 157 0
154 165 0
153 161 0
149 155 0
152 166 0
147 155 0
151 157 0
151 157 0
152 162 0
150 159 0
144 145 0
146 149 0
153 160 0
148 151 0
150 154 0
147 148 0
150 154 0
142 146 0
152 161 0
153 162 0
153 159 0
154 161 0
155 162 0
153 160 0
153 161 0
152 160 0
145 149 0
146 149 0
151 158 0
145 148 0
142 142 0
149 150 0
150 156 0
151 157 0
151 157 0
150 154 0
146 141 0
145 144 0
140 140 0
153 155 0
150 151 0
142 140 0
146 147 0
146 146 0
152 152 0
148 147 0
144 144 0
146 141 0
150 150 0
145 145 0
150 153 0
151 154 0
152 154 0
144 140 0
143 142 0
144 143 0
142 139 0
143 144 0
147 147 0
151 153 0
145 144 0
142 140 0
145 146 0
148 145 0
142 137 0
143 143 0
144 142 0
145 138 0
147 147 0
146 142 0
147 144 0
145 142 0
141 135 0
146 146 0
142 135 0
140 131 0
142 135 0
142 136 0
137 136 0
139 133 0
145 138 0
141 134 0
145 141 0
137 131 0
141 135 0
138 127 0
147 141 0
143 137 0
148 144 0
144 143 0
143 143 0
144 137 0
149 151 0
144 145 0
141 136 0
146 142 0
145 142 0
148 146 0
145 140 0
140 139 0
139 133 0
140 133 0
143 134 0
138 129 0
130 121 0
135 131 0
147 145 0
145 142 0
149 148 0
141 133 0
144 136 0
145 142 0
141 132 0
149 148 0
142 140 0
147 145 0
146 147 0
153 155 0
146 146 0
144 135 0
150 146 0
145 141 0
143 137 0
149 143 0
147 150 0
142 140 0
145 142 0
154 154 0
150 153 0
149 150 0
145 143 0
144 140 0
144 140 0
144 138 0
149 150 0
147 147 0
149 149 0
146 144 0
145 141 0
149 152 0
146 143 0
147 147 0
149 152 0
145 140 0
147 147 0
149 149 0
147 146 0
149 152 0
154 156 0
146 145 0
147 146 0
150 152 0
150 151 0
154 160 0
152 157 0
149 149 0
151 153 0
154 157 0
151 157 0
151 151 0
150 154 0
150 150 0
151 153 0
155 161 0
153 155 0
152 155 0
148 151 0
151 151 0
150 157 0
148 150 0
154 159 0
149 149 0
155 159 0
155 161 0
155 160 0
149 148 0
147 149 0
152 153 0
153 156 0
157 161 0
153 156 0
148 152 0
152 156 0
156 158 0
153 155 0
155 159 0
151 154 0
148 149 0
151 155 0
154 154 0
153 151 0
151 152 0
154 159 0
152 156 0
158 162 0
154 158 0
154 159 0
150 153 0
147 148 0
153 154 0
154 161 0
152 158 0
147 147 0
151 154 0
150 152 0
152 152 0
151 156 0
146 144 0
151 152 0
151 152 0
152 151 0
154 156 0
155 159 0
149 150 0
153 157 0
152 156 0
153 158 0
154 156 0
153 155 0
151 151 0
159 164 0
153 157 0
152 154 0
160 167 0
151 154 0
153 158 0
152 154 0
156 163 0
150 154 0
151 153 0
150 152 0
153 155 0
153 156 0
153 158 0
154 157 0
155 156 0
156 161 0
155 157 0
147 149 0
156 159 0
149 151 0
152 153 0
157 161 0
153 156 0
154 158 0
154 158 0
156 159 0
153 158 0
160 165 0
159 164 0
157 162 0
157 163 0
148 149 0
156 162 0
155 161 0
156 160 0
156 160 0
153 158 0
152 154 0
156 158 0
153 156 0
156 160 0
154 159 0
155 162 0
158 165 0
155 160 0
160 167 0
162 171 0
157 162 0
154 158 0
156 163 0
156 162 0
157 162 0
156 163 0
155 160 0
159 165 0
159 166 0
160 168 0
157 163 0
163 171 0
157 163 0
161 167 0
160 168 0
163 170 0
160 170 0
159 167 0
159 167 0
159 169 0
163 181 0
162 181 0
163 182 0
157 176 0
158 175 0
161 180 0
156 174 0
159 177 0
162 181 0
160 177 0
157 174 0
158 174 0
160 177 0
160 178 0
156 174 0
154 171 0
164 182 0
159 176 0
155 171 0
160 179 0
153 168 0
161 179 0
160 178 0
155 172 0
153 170 0
159 177 0
156 171 0
158 175 0
159 176 0
154 169 0
159 175 0
157 173 0
158 173 0
151 167 0
151 164 0
152 168 0
159 175 0
152 167 0
158 173 0
154 169 0
153 169 0
148 162 0
151 166 0
151 165 0
156 172 0
152 165 0
154 168 0
151 165 0
148 162 0
149 162 0
159 173 0
151 164 0
156 170 0
155 169 0
155 170 0
154 169 0
143 157 0
151 166 0
147 159 0
158 172 0
151 162 0
152 163 0
150 163 0
149 161 0
149 162 0
146 158 0
155 168 0
146 156 0
147 160 0
150 160 0
155 168 0
152 164 0
155 167 0
152 164 0
156 168 0
146 155 0
153 165 0
155 167 0
149 159 0
148 155 0
151 160 0
153 163 0
150 163 0
152 164 0
155 169 0
152 160 0
147 155 0
156 169 0
152 164 0
149 160 0
153 166 0
154 165 0
148 158 0
154 164 0
149 157 0
153 165 0
151 161 0
147 155 0
156 165 0
152 164 0
149 158 0
155 164 0
152 162 0
153 161 0
146 152 0
151 159 0
156 169 0
151 156 0
154 164 0
154 167 0
147 153 0
156 164 0
154 166 0
150 154 0
148 157 0
155 162 0
153 159 0
155 164 0
150 153 0
153 159 0
154 162 0
156 168 0
148 155 0
152 158 0
150 156 0
148 152 0
155 167 0
147 151 0
154 161 0
148 156 0
151 156 0
148 155 0
155 162 0
155 163 0
149 154 0
148 153 0
149 153 0
150 149 0
152 155 0
150 157 0
151 152 0
151 154 0
153 160 0
148 150 0
144 144 0
148 151 0
149 155 0
147 150 0
147 149 0
149 157 0
148 152 0
147 150 0
152 156 0
158 166 0
143 145 0
150 152 0
149 156 0
147 147 0
151 156 0
142 142 0
146 147 0
148 149 0
154 157 0
148 147 0
142 141 0
148 147 0
148 151 0
149 151 0
147 149 0
147 146 0
141 136 0
144 144 0
153 155 0
145 142 0
146 146 0
145 146 0
149 147 0
145 145 0
142 136 0
146 143 0
143 140 0
149 148 0
142 138 0
144 137 0
138 132 0
152 154 0
140 133 0
141 133 0
145 146 0
147 146 0
142 136 0
142 138 0
147 149 0
147 147 0
144 141 0
143 137 0
143 136 0
143 142 0
149 148 0
137 128 0
137 129 0
140 136 0
143 142 0
150 149 0
144 140 0
138 128 0
146 142 0
143 138 0
147 147 0
147 146 0
145 142 0
145 137 0
148 145 0
144 142 0
149 147 0
149 149 0
142 136 0
141 136 0
150 147 0
142 136 0
139 131 0
150 149 0
148 150 0
141 135 0
148 143 0
139 130 0
141 137 0
142 135 0
145 144 0
152 151 0
139 133 0
138 130 0
149 147 0
150 150 0
147 144 0
154 154 0
147 144 0
151 152 0
146 142 0
144 141 0
148 145 0
149 149 0
149 149 0
148 148 0
143 138 0
152 154 0
153 155 0
148 150 0
142 140 0
150 150 0
144 141 0
149 150 0
147 149 0
152 153 0
151 154 0
148 151 0
150 152 0
146 145 0
154 162 0
148 148 0
147 146 0
149 150 0
150 150 0
149 148 0
151 157 0
155 158 0
151 154 0
157 159 0
154 158 0
154 157 0
156 160 0
152 157 0
153 155 0
148 154 0
149 149 0
150 151 0
155 162 0
150 155 0
156 162 0
152 156 0
156 162 0
156 161 0
151 156 0
151 152 0
149 152 0
153 155 0
147 149 0
152 158 0
145 149 0
152 159 0
143 141 0
152 159 0
156 162 0
154 163 0
156 164 0
148 152 0
143 142 0
149 151 0
152 152 0
151 153 0
148 152 0
158 165 0
153 158 0
155 159 0
158 166 0
151 154 0
153 160 0
153 154 0
151 158 0
151 154 0
150 151 0
156 161 0
150 151 0
154 155 0
154 157 0
154 161 0
155 161 0
149 150 0
151 152 0
152 156 0
151 156 0
154 156 0
158 164 0
153 154 0
154 161 0
149 152 0
160 168 0
146 145 0
155 159 0
154 160 0
146 146 0
151 156 0
156 160 0
160 167 0
151 152 0
155 157 0
159 168 0
151 154 0
156 160 0
154 157 0
152 155 0
154 156 0
151 155 0
151 152 0
151 150 0
151 156 0
153 156 0
154 158 0
147 150 0
154 159 0
149 150 0
154 159 0
158 165 0
147 148 0
152 154 0
148 150 0
154 156 0
154 160 0
145 144 0
154 156 0
153 157 0
161 169 0
152 155 0
152 156 0
156 160 0
158 164 0
152 157 0
154 158 0
154 159 0
157 161 0
155 161 0
156 159 0
151 152 0
155 160 0
153 158 0
158 164 0
159 163 0
153 157 0
157 163 0
154 159 0
155 159 0
156 162 0
157 161 0
159 167 0
159 166 0
161 165 0
156 163 0
158 165 0
158 165 0
159 166 0
159 166 0
158 166 0
160 168 0
159 165 0
161 171 0
160 169 0
160 167 0
160 169 0
161 168 0
159 168 0
162 181 0
164 183 0
163 180 0
150 166 0
158 176 0
158 176 0
160 179 0
156 174 0
160 177 0
155 171 0
158 176 0
159 178 0
161 177 0
162 180 0
159 175 0
160 178 0
158 174 0
151 166 0
155 172 0
162 181 0
158 175 0
156 173 0
155 170 0
158 173 0
158 173 0
160 178 0
156 173 0
153 169 0
153 170 0
155 170 0
154 170 0
156 172 0
154 170 0
159 176 0
159 174 0
153 168 0
158 175 0
146 161 0
151 163 0
156 170 0
155 171 0
149 165 0
152 163 0
156 171 0
158 175 0
149 162 0
153 167 0
154 170 0
148 163 0
153 166 0
152 168 0
149 163 0
158 171 0
151 164 0
155 169 0
155 170 0
151 163 0
154 168 0
152 168 0
151 165 0
153 165 0
154 168 0
151 161 0
149 160 0
152 168 0
151 163 0
155 166 0
156 170 0
150 160 0
147 157 0
155 166 0
152 163 0
153 166 0
158 172 0
152 164 0
153 163 0
155 168 0
152 165 0
156 169 0
154 165 0
155 165 0
155 165 0
156 167 0
148 156 0
149 156 0
153 164 0
151 162 0
155 169 0
153 163 0
153 165 0
148 157 0
155 167 0
155 164 0
150 160 0
159 174 0
155 168 0
148 158 0
153 164 0
149 159 0
152 162 0
156 168 0
151 156 0
152 164 0
150 159 0
156 167 0
153 160 0
160 172 0
153 161 0
156 167 0
153 164 0
151 162 0
157 165 0
153 162 0
149 158 0
151 157 0
153 161 0
151 159 0
147 152 0
154 161 0
150 155 0
151 157 0
152 158 0
152 159 0
155 161 0
148 153 0
151 160 0
152 161 0
155 164 0
149 154 0
150 161 0
152 162 0
152 156 0
150 159 0
151 158 0
151 155 0
150 156 0
153 161 0
156 164 0
153 156 0
153 161 0
152 158 0
154 161 0
149 152 0
152 154 0
155 162 0
153 163 0
153 157 0
150 154 0
146 150 0
151 154 0
151 153 0
150 150 0
153 159 0
153 156 0
147 147 0
152 157 0
149 149 0
145 146 0
147 147 0
146 146 0
143 139 0
147 150 0
146 147 0
152 155 0
142 142 0
148 149 0
148 150 0
148 150 0
147 147 0
151 153 0
150 149 0
146 144 0
145 142 0
141 141 0
145 142 0
154 157 0
147 148 0
139 135 0
143 141 0
144 137 0
137 133 0
147 145 0
148 144 0
145 146 0
148 146 0
145 144 0
142 139 0
137 131 0
145 143 0
145 139 0
146 142 0
135 126 0
145 139 0
145 140 0
152 153 0
144 143 0
149 146 0
145 142 0
142 137 0
149 148 0
147 141 0
149 150 0
141 135 0
145 141 0
140 134 0
147 144 0
143 140 0
145 138 0
146 147 0
147 145 0
146 145 0
143 137 0
138 133 0
148 146 0
141 139 0
143 137 0
146 146 0
150 148 0
145 139 0
145 143 0
144 141 0
141 136 0
141 136 0
148 148 0
145 142 0
148 143 0
145 141 0
147 147 0
148 145 0
140 135 0
148 145 0
147 146 0
153 156 0
152 154 0
146 140 0
150 149 0
144 140 0
143 142 0
148 145 0
148 147 0
149 149 0
148 147 0
143 142 0
150 152 0
148 148 0
144 139 0
148 149 0
145 144 0
147 146 0
156 161 0
148 145 0
152 153 0
154 157 0
149 148 0
154 162 0
151 152 0
145 147 0
153 155 0
151 154 0
155 157 0
149 149 0
154 157 0
146 148 0
151 153 0
151 155 0
149 150 0
153 159 0
154 157 0
153 160 0
149 150 0
157 162 0
159 167 0
149 152 0
145 145 0
149 151 0
149 150 0
152 153 0
152 157 0
157 162 0
148 147 0
155 162 0
152 157 0
150 154 0
156 164 0
155 159 0
151 152 0
154 156 0
151 154 0
152 155 0
147 146 0
155 165 0
150 153 0
146 143 0
151 153 0
154 156 0
150 152 0
148 148 0
153 158 0
150 151 0
152 160 0
156 162 0
153 157 0
156 166 0
154 159 0
152 156 0
148 149 0
151 152 0
149 152 0
154 159 0
153 159 0
151 155 0
157 162 0
155 160 0
147 152 0
154 156 0
153 157 0
150 154 0
157 161 0
154 157 0
155 163 0
149 148 0
148 150 0
154 159 0
154 159 0
150 152 0
146 150 0
150 154 0
156 161 0
153 156 0
155 158 0
153 154 0
153 159 0
155 159 0
157 164 0
154 159 0
153 161 0
152 154 0
156 162 0
153 156 0
149 147 0
149 150 0
151 154 0
154 160 0
149 151 0
152 157 0
154 159 0
159 166 0
152 156 0
153 157 0
153 157 0
155 160 0
157 161 0
156 163 0
149 150 0
154 158 0
150 151 0
152 156 0
151 152 0
153 156 0
154 155 0
154 157 0
156 162 0
152 156 0
159 165 0
153 157 0
161 167 0
149 149 0
153 157 0
158 164 0
153 156 0
154 157 0
161 167 0
152 155 0
158 161 0
161 168 0
155 161 0
158 164 0
157 163 0
156 161 0
160 167 0
154 155 0
157 162 0
157 163 0
158 164 0
160 168 0
154 159 0
156 160 0
161 166 0
161 169 0
157 163 0
162 174 0
157 164 0
159 167 0
155 159 0
160 169 0
161 170 0
156 163 0
158 164 0
158 165 0
165 174 0
163 182 0
159 176 0
156 173 0
156 173 0
159 179 0
161 178 0
160 179 0
156 172 0
165 182 0
160 177 0
156 173 0
158 176 0
161 178 0
162 180 0
156 173 0
154 170 0
157 174 0
158 175 0
162 178 0
159 176 0
158 175 0
154 171 0
159 176 0
157 174 0
161 177 0
158 175 0
152 166 0
158 175 0
154 170 0
153 168 0
158 174 0
150 163 0
154 168 0
158 175 0
156 171 0
153 168 0
156 171 0
154 169 0
150 164 0
160 176 0
151 166 0
158 176 0
155 168 0
156 170 0
150 165 0
160 175 0
154 169 0
155 170 0
153 168 0
152 166 0
151 164 0
152 166 0
154 169 0
154 169 0
152 166 0
150 162 0
155 169 0
152 164 0
152 166 0
153 167 0
149 163 0
152 163 0
154 168 0
157 172 0
155 170 0
153 166 0
159 174 0
156 170 0
152 163 0
148 158 0
153 165 0
150 161 0
153 166 0
154 166 0
152 162 0
154 169 0
152 162 0
153 166 0
154 166 0
155 168 0
145 153 0
147 158 0
154 166 0
156 169 0
154 165 0
156 169 0
152 162 0
152 163 0
155 166 0
153 165 0
151 160 0
151 162 0
153 164 0
151 165 0
155 167 0
153 164 0
153 161 0
157 169 0
145 153 0
153 163 0
154 164 0
151 159 0
151 161 0
155 165 0
156 170 0
151 159 0
153 162 0
151 160 0
154 165 0
153 163 0
153 164 0
155 162 0
152 163 0
152 157 0
149 157 0
152 158 0
153 160 0
157 167 0
152 158 0
151 160 0
152 161 0
156 165 0
150 154 0
152 160 0
155 165 0
153 159 0
149 153 0
151 156 0
154 162 0
154 161 0
156 164 0
155 164 0
155 161 0
148 154 0
152 159 0
144 144 0
151 156 0
156 164 0
152 158 0
149 150 0
152 156 0
151 156 0
150 156 0
149 154 0
148 151 0
149 151 0
144 145 0
152 159 0
153 156 0
147 146 0
153 159 0
153 156 0
146 145 0
148 148 0
145 147 0
150 154 0
149 149 0
147 151 0
152 153 0
143 138 0
144 144 0
147 145 0
146 147 0
149 150 0
146 141 0
143 143 0
147 147 0
148 144 0
141 139 0
145 143 0
145 143 0
140 135 0
147 143 0
141 137 0
147 145 0
147 147 0
141 138 0
144 144 0
149 146 0
143 142 0
148 151 0
147 148 0
147 149 0
142 138 0
149 153 0
148 151 0
147 144 0
145 143 0
143 140 0
146 145 0
151 152 0
148 149 0
144 141 0
147 144 0
146 148 0
143 142 0
143 138 0
138 127 0
137 131 0
142 139 0
151 150 0
148 147 0
139 128 0
150 151 0
144 140 0
153 153 0
145 143 0
146 147 0
142 141 0
141 136 0
149 147 0
147 144 0
148 146 0
143 135 0
145 142 0
143 138 0
151 151 0
147 144 0
147 150 0
147 141 0
147 143 0
145 146 0
145 143 0
151 151 0
145 143 0
142 137 0
152 153 0
145 142 0
139 133 0
149 148 0
148 146 0
150 153 0
143 138 0
152 155 0
150 149 0
148 147 0
151 151 0
151 150 0
150 148 0
144 140 0
149 147 0
146 146 0
149 150 0
148 144 0
151 150 0
149 147 0
143 143 0
149 153 0
144 143 0
147 145 0
152 154 0
152 150 0
149 150 0
147 147 0
149 153 0
152 156 0
143 139 0
150 150 0
152 161 0
153 157 0
153 155 0
150 152 0
148 148 0
147 147 0
147 150 0
151 152 0
149 153 0
152 157 0
147 149 0
154 156 0
153 156 0
151 153 0
158 167 0
152 153 0
149 153 0
151 156 0
151 157 0
146 145 0
144 144 0
151 154 0
147 149 0
152 155 0
152 155 0
147 149 0
153 158 0
152 156 0
154 159 0
152 152 0
153 156 0
149 149 0
154 160 0
154 160 0
155 161 0
152 156 0
151 154 0
153 156 0
154 157 0
156 161 0
152 157 0
155 159 0
158 164 0
151 155 0
150 154 0
153 156 0
152 157 0
156 162 0
155 161 0
153 159 0
152 157 0
153 161 0
153 157 0
151 156 0
149 152 0
153 157 0
151 154 0
153 159 0
153 156 0
157 164 0
158 165 0
147 147 0
154 159 0
158 165 0
149 151 0
150 153 0
153 157 0
150 153 0
150 155 0
152 153 0
149 149 0
153 158 0
158 162 0
148 149 0
154 159 0
150 153 0
152 154 0
157 164 0
154 156 0
152 155 0
157 159 0
150 152 0
156 161 0
156 162 0
151 152 0
147 149 0
156 162 0
153 157 0
157 162 0
156 159 0
161 168 0
151 153 0
153 157 0
156 159 0
151 152 0
156 161 0
157 163 0
159 166 0
154 158 0
160 167 0
157 161 0
155 160 0
153 156 0
156 160 0
153 154 0
161 167 0
155 160 0
155 162 0
157 161 0
154 160 0
159 168 0
153 158 0
153 157 0
156 161 0
153 155 0
158 164 0
154 156 0
155 159 0
157 162 0
162 168 0
156 159 0
159 164 0
154 162 0
158 163 0
155 161 0
157 163 0
160 165 0
160 171 0
156 164 0
161 171 0
158 164 0
163 173 0
158 166 0
156 162 0
158 165 0
156 160 0
159 165 0
160 169 0
161 167 0
157 165 0
159 164 0
163 170 0
160 179 0
155 173 0
158 176 0
161 179 0
158 176 0
161 179 0
160 177 0
156 174 0
163 181 0
154 171 0
159 176 0
156 173 0
160 179 0
157 173 0
157 175 0
155 171 0
157 174 0
158 176 0
161 178 0
159 176 0
162 179 0
158 174 0
157 173 0
158 175 0
155 172 0
153 169 0
156 173 0
159 175 0
154 169 0
158 175 0
152 167 0
155 172 0
158 174 0
159 174 0
155 172 0
155 170 0
157 175 0
154 168 0
154 167 0
152 167 0
159 176 0
161 176 0
152 167 0
156 173 0
157 170 0
146 159 0
156 169 0
151 165 0
154 168 0
149 160 0
153 165 0
157 172 0
153 166 0
149 163 0
154 167 0
159 174 0
154 168 0
156 172 0
152 165 0
156 168 0
163 179 0
151 163 0
154 167 0
159 172 0
150 161 0
151 163 0
150 160 0
153 166 0
158 173 0
153 167 0
152 164 0
154 168 0
155 167 0
155 168 0
153 164 0
153 164 0
148 158 0
151 163 0
154 166 0
154 166 0
153 164 0
155 165 0
150 160 0
153 163 0
150 163 0
151 161 0
154 164 0
154 167 0
153 165 0
156 169 0
156 169 0
148 156 0
151 162 0
152 163 0
155 167 0
150 158 0
157 168 0
156 167 0
152 161 0
155 168 0
156 165 0
155 166 0
160 175 0
154 166 0
154 163 0
150 157 0
154 163 0
155 167 0
155 162 0
154 166 0
154 163 0
153 162 0
149 157 0
151 158 0
154 162 0
147 156 0
153 158 0
151 156 0
156 170 0
147 152 0
151 157 0
152 158 0
148 156 0
151 157 0
154 159 0
147 153 0
161 174 0
152 158 0
150 158 0
150 154 0
153 162 0
148 153 0
152 159 0
156 165 0
151 150 0
150 155 0
144 148 0
153 157 0
146 153 0
152 155 0
152 161 0
149 156 0
150 151 0
156 164 0
146 147 0
151 157 0
146 143 0
147 149 0
151 153 0
149 151 0
151 158 0
152 155 0
149 155 0
152 155 0
145 145 0
148 150 0
146 147 0
146 147 0
149 152 0
145 148 0
152 154 0
148 142 0
150 151 0
148 147 0
153 158 0
147 145 0
150 149 0
150 155 0
147 150 0
145 143 0
146 146 0
150 155 0
145 147 0
145 144 0
153 154 0
150 154 0
144 137 0
149 150 0
148 146 0
142 138 0
149 147 0
146 148 0
147 148 0
150 147 0
145 141 0
150 154 0
147 148 0
143 138 0
151 156 0
138 134 0
147 144 0
155 157 0
146 145 0
147 144 0
143 140 0
146 144 0
147 144 0
147 147 0
150 151 0
149 147 0
144 140 0
144 136 0
147 142 0
148 148 0
147 146 0
146 144 0
139 131 0
148 145 0
148 145 0
147 145 0
150 150 0
148 144 0
141 133 0
143 137 0
145 143 0
143 141 0
148 146 0
146 146 0
147 149 0
150 148 0
148 148 0
154 154 0
145 145 0
149 144 0
149 150 0
145 143 0
148 149 0
143 142 0
155 155 0
150 147 0
147 146 0
144 139 0
147 147 0
149 150 0
149 145 0
152 149 0
153 153 0
143 141 0
149 149 0
151 152 0
146 141 0
149 148 0
153 154 0
150 150 0
153 154 0
149 146 0
154 159 0
147 145 0
152 154 0
159 165 0
151 150 0
153 160 0
147 150 0
151 155 0
152 156 0
151 154 0
147 147 0
150 152 0
152 156 0
151 155 0
149 149 0
151 154 0
154 159 0
154 159 0
147 149 0
150 150 0
152 155 0
150 150 0
153 158 0
152 154 0
150 152 0
148 148 0
156 161 0
149 148 0
153 154 0
149 152 0
154 160 0
152 156 0
158 162 0
146 149 0
151 155 0
154 158 0
149 152 0
148 152 0
156 161 0
147 149 0
154 159 0
147 147 0
141 139 0
147 150 0
151 151 0
156 159 0
153 158 0
159 164 0
156 165 0
153 157 0
156 160 0
153 158 0
153 158 0
146 148 0
154 156 0
150 154 0
151 158 0
148 152 0
152 153 0
148 151 0
152 159 0
152 154 0
151 154 0
156 164 0
152 155 0
150 152 0
154 158 0
153 159 0
154 160 0
153 160 0
152 154 0
156 161 0
152 154 0
150 155 0
151 157 0
155 160 0
156 159 0
154 157 0
155 164 0
152 155 0
160 167 0
152 155 0
150 153 0
152 157 0
150 152 0
156 162 0
157 165 0
156 160 0
156 159 0
154 157 0
153 160 0
155 157 0
151 154 0
151 154 0
151 157 0
156 161 0
157 163 0
153 156 0
156 162 0
158 164 0
153 156 0
154 159 0
155 163 0
151 156 0
154 158 0
155 160 0
156 159 0
151 153 0
148 149 0
155 158 0
156 161 0
150 152 0
154 156 0
158 161 0
160 166 0
154 159 0
157 161 0
154 157 0
153 158 0
156 159 0
150 153 0
155 158 0
155 160 0
157 165 0
158 165 0
156 160 0
156 162 0
155 159 0
154 159 0
160 169 0
158 163 0
155 160 0
156 160 0
156 162 0
153 159 0
154 159 0
152 159 0
160 166 0
153 157 0
157 164 0
158 165 0
153 157 0
154 162 0
160 168 0
160 168 0
159 166 0
157 160 0
161 171 0
163 170 0
156 161 0
163 171 0
158 164 0
161 169 0
161 170 0
156 175 0
159 178 0
158 176 0
157 174 0
158 175 0
158 176 0
153 170 0
167 185 0
161 178 0
159 176 0
161 179 0
162 179 0
158 176 0
162 179 0
159 176 0
157 173 0
159 176 0
151 168 0
160 178 0
158 174 0
161 179 0
156 173 0
161 179 0
157 173 0
159 177 0
159 176 0
154 169 0
153 169 0
156 172 0
153 167 0
153 170 0
150 163 0
154 168 0
151 163 0
153 166 0
152 165 0
154 170 0
158 175 0
155 170 0
160 175 0
155 170 0
154 168 0
155 169 0
158 173 0
158 173 0
158 173 0
152 165 0
151 166 0
157 171 0
155 169 0
150 163 0
147 160 0
155 169 0
155 170 0
160 175 0
152 163 0
158 173 0
155 170 0
154 165 0
153 168 0
153 165 0
156 169 0
152 166 0
156 170 0
151 163 0
155 167 0
150 161 0
157 171 0
155 167 0
156 169 0
150 161 0
156 172 0
150 159 0
155 167 0
160 177 0
152 164 0
156 170 0
157 170 0
154 167 0
155 170 0
152 163 0
155 170 0
153 168 0
157 168 0
155 167 0
157 169 0
154 168 0
158 170 0
158 171 0
149 159 0
153 167 0
155 166 0
152 163 0
158 169 0
156 167 0
153 167 0
151 158 0
151 161 0
153 163 0
153 162 0
152 163 0
153 164 0
152 162 0
158 166 0
154 164 0
150 158 0
157 170 0
148 156 0
153 160 0
152 162 0
156 168 0
152 163 0
151 158 0
153 161 0
151 158 0
158 172 0
154 163 0
151 160 0
153 162 0
154 162 0
161 172 0
154 161 0
156 163 0
151 158 0
152 161 0
152 159 0
147 154 0
148 151 0
154 164 0
150 155 0
155 165 0
150 159 0
152 158 0
145 149 0
152 161 0
152 160 0
149 154 0
155 158 0
149 154 0
152 157 0
152 160 0
154 162 0
148 148 0
149 152 0
151 153 0
150 157 0
151 158 0
149 147 0
151 156 0
152 156 0
149 152 0
150 154 0
152 156 0
145 146 0
155 161 0
144 141 0
147 150 0
151 154 0
149 151 0
148 151 0
148 153 0
149 151 0
151 155 0
149 149 0
148 148 0
153 159 0
155 158 0
149 146 0
148 149 0
144 143 0
141 139 0
148 147 0
148 147 0
148 149 0
148 149 0
148 150 0
145 142 0
145 140 0
144 142 0
148 149 0
147 149 0
148 148 0
146 143 0
144 138 0
152 152 0
149 149 0
147 143 0
141 136 0
144 137 0
151 152 0
144 141 0
145 142 0
148 146 0
147 145 0
146 140 0
146 143 0
139 131 0
148 145 0
151 150 0
144 140 0
148 145 0
146 143 0
148 145 0
150 147 0
142 137 0
145 143 0
147 141 0
148 147 0
143 138 0
151 154 0
154 153 0
142 134 0
145 142 0
147 145 0
150 152 0
145 143 0
146 139 0
152 153 0
144 137 0
148 147 0
143 138 0
145 141 0
137 124 0
148 146 0
149 149 0
148 144 0
147 150 0
154 155 0
150 153 0
146 146 0
142 141 0
153 155 0
151 148 0
148 144 0
147 144 0
147 148 0
147 143 0
143 136 0
140 136 0
150 151 0
148 147 0
144 142 0
149 152 0
144 139 0
142 140 0
155 160 0
154 157 0
158 165 0
153 154 0
146 146 0
149 154 0
151 152 0
153 158 0
151 152 0
148 151 0
152 157 0
147 145 0
144 140 0
152 158 0
151 150 0
152 156 0
149 151 0
150 152 0
150 153 0
156 160 0
157 162 0
159 167 0
153 159 0
153 150 0
155 161 0
152 153 0
157 164 0
151 156 0
151 156 0
150 149 0
152 160 0
149 151 0
155 160 0
148 150 0
149 148 0
150 154 0
148 148 0
153 157 0
151 157 0
149 154 0
157 163 0
155 161 0
148 149 0
150 150 0
153 156 0
149 153 0
152 157 0
156 163 0
155 164 0
154 156 0
149 151 0
156 161 0
149 153 0
153 161 0
152 156 0
154 157 0
148 157 0
153 157 0
150 156 0
154 158 0
153 156 0
153 156 0
157 166 0
154 158 0
153 155 0
158 166 0
149 151 0
152 155 0
150 151 0
158 164 0
155 160 0
156 164 0
157 162 0
150 150 0
156 163 0
153 160 0
154 157 0
158 163 0
157 162 0
154 155 0
157 163 0
161 170 0
149 149 0
153 158 0
148 149 0
153 158 0
157 162 0
150 153 0
154 160 0
154 155 0
156 162 0
158 165 0
153 157 0
155 159 0
154 158 0
154 162 0
151 157 0
159 166 0
158 164 0
149 147 0
151 151 0
155 157 0
156 160 0
152 157 0
157 163 0
156 161 0
155 160 0
155 159 0
161 169 0
154 159 0
154 155 0
157 161 0
156 159 0
157 163 0
154 158 0
159 165 0
152 159 0
156 161 0
156 162 0
157 162 0
157 165 0
156 165 0
154 156 0
156 164 0
159 166 0
160 170 0
156 164 0
162 170 0
155 161 0
162 169 0
155 161 0
155 157 0
159 168 0
156 159 0
156 163 0
158 166 0
157 164 0
154 160 0
156 160 0
157 164 0
150 154 0
164 174 0
154 159 0
160 168 0
163 172 0
158 167 0
159 164 0
161 170 0
154 161 0
162 169 0
157 163 0
164 173 0
159 168 0
164 172 0
160 168 0
160 179 0
159 176 0
159 178 0
159 177 0
161 179 0
161 178 0
152 167 0
160 177 0
155 172 0
155 171 0
156 172 0
155 170 0
160 177 0
157 173 0
154 171 0
162 182 0
155 172 0
155 172 0
161 178 0
154 171 0
157 173 0
157 173 0
157 173 0
157 174 0
161 180 0
154 171 0
153 168 0
159 177 0
151 167 0
157 174 0
158 175 0
154 168 0
155 171 0
157 175 0
158 174 0
150 163 0
152 165 0
155 171 0
154 168 0
158 175 0
156 171 0
156 171 0
155 170 0
157 174 0
152 166 0
160 176 0
155 171 0
150 165 0
158 175 0
150 163 0
156 170 0
156 171 0
159 175 0
154 169 0
154 164 0
156 170 0
156 171 0
150 161 0
156 172 0
147 160 0
145 153 0
156 170 0
155 169 0
158 171 0
152 163 0
154 164 0
149 161 0
154 168 0
153 167 0
153 164 0
158 173 0
150 162 0
159 174 0
159 171 0
151 163 0
153 164 0
155 169 0
153 164 0
159 172 0
149 160 0
150 162 0
154 168 0
151 163 0
151 163 0
153 167 0
153 165 0
152 161 0
155 165 0
152 165 0
153 164 0
153 165 0
149 158 0
158 170 0
149 158 0
152 159 0
151 160 0
156 168 0
151 161 0
156 166 0
157 169 0
157 171 0
153 164 0
155 164 0
156 164 0
154 164 0
150 159 0
151 158 0
153 161 0
150 159 0
153 164 0
153 163 0
154 161 0
148 155 0
155 164 0
150 160 0
149 154 0
154 167 0
154 164 0
158 165 0
150 159 0
148 152 0
149 154 0
143 150 0
151 158 0
155 163 0
153 159 0
150 156 0
149 160 0
153 161 0
150 159 0
154 160 0
151 158 0
147 150 0
153 159 0
154 159 0
150 158 0
148 150 0
158 166 0
150 159 0
149 154 0
148 154 0
149 152 0
149 153 0
152 158 0
152 157 0
148 154 0
151 151 0
155 162 0
153 160 0
156 159 0
152 157 0
144 145 0
152 155 0
149 150 0
154 160 0
150 155 0
151 153 0
152 153 0
156 163 0
149 148 0
151 156 0
147 148 0
143 139 0
150 155 0
146 146 0
155 163 0
144 147 0
152 154 0
147 147 0
150 150 0
151 152 0
149 149 0
150 149 0
146 148 0
145 141 0
148 143 0
148 149 0
151 156 0
151 155 0
146 145 0
146 146 0
148 147 0
148 148 0
152 152 0
151 153 0
149 150 0
148 146 0
151 153 0
150 148 0
144 139 0
145 143 0
147 144 0
150 152 0
144 141 0
151 149 0
148 146 0
145 142 0
147 145 0
146 149 0
145 143 0
152 154 0
148 147 0
149 144 0
149 155 0
142 138 0
146 146 0
138 133 0
150 150 0
153 150 0
146 143 0
143 139 0
145 141 0
146 144 0
143 137 0
145 143 0
150 153 0
144 142 0
145 140 0
151 154 0
149 149 0
144 144 0
144 141 0
150 150 0
143 139 0
146 147 0
149 145 0
148 147 0
148 145 0
148 148 0
143 139 0
149 149 0
151 153 0
142 139 0
156 160 0
149 153 0
150 144 0
151 147 0
153 156 0
149 147 0
152 157 0
151 151 0
151 152 0
153 157 0
153 159 0
151 153 0
154 157 0
149 152 0
150 150 0
147 144 0
151 157 0
156 160 0
146 146 0
148 152 0
147 147 0
153 155 0
151 153 0
150 149 0
155 160 0
152 156 0
155 163 0
152 157 0
151 155 0
153 157 0
150 152 0
153 152 0
154 155 0
146 144 0
152 158 0
157 164 0
149 150 0
151 155 0
150 154 0
153 154 0
155 159 0
157 164 0
156 164 0
150 155 0
153 158 0
152 159 0
154 156 0
156 160 0
153 158 0
148 151 0
153 159 0
150 155 0
158 168 0
154 159 0
151 156 0
153 158 0
153 154 0
154 161 0
154 162 0
149 151 0
154 160 0
156 166 0
157 165 0
154 160 0
155 162 0
147 149 0
154 158 0
152 158 0
155 162 0
155 162 0
157 164 0
154 159 0
156 165 0
150 154 0
161 169 0
155 162 0
157 166 0
149 148 0
154 162 0
156 163 0
157 164 0
154 158 0
157 163 0
155 164 0
153 160 0
151 157 0
155 162 0
151 153 0
154 157 0
155 160 0
154 158 0
151 154 0
149 151 0
156 159 0
157 163 0
156 161 0
152 158 0
154 160 0
148 150 0
151 156 0
155 161 0
152 155 0
154 159 0
157 159 0
152 157 0
154 158 0
154 159 0
156 161 0
155 158 0
150 154 0
158 162 0
152 157 0
156 164 0
156 161 0
158 165 0
150 154 0
154 163 0
152 158 0
157 165 0
156 160 0
157 164 0
149 152 0
152 154 0
154 158 0
155 158 0
155 157 0
149 149 0
154 159 0
152 154 0
158 163 0
151 155 0
156 160 0
157 164 0
153 156 0
154 159 0
158 166 0
156 162 0
158 163 0
155 158 0
154 160 0
156 161 0
154 159 0
155 159 0
159 166 0
157 162 0
159 165 0
156 162 0
153 155 0
159 166 0
160 166 0
160 165 0
159 166 0
162 172 0
158 166 0
163 171 0
156 163 0
161 172 0
157 160 0
159 168 0
161 168 0
163 174 0
156 160 0
156 160 0
161 172 0
159 169 0
162 172 0
162 168 0
156 173 0
162 182 0
161 180 0
160 178 0
157 174 0
159 176 0
154 170 0
162 179 0
156 173 0
157 175 0
158 175 0
156 172 0
159 176 0
160 176 0
160 178 0
159 176 0
158 176 0
151 167 0
159 176 0
157 175 0
159 174 0
157 172 0
155 169 0
160 178 0
156 171 0
155 169 0
158 172 0
158 176 0
160 177 0
156 171 0
155 170 0
153 167 0
161 178 0
152 166 0
158 176 0
158 174 0
145 154 0
156 170 0
153 166 0
163 180 0
155 168 0
153 167 0
155 171 0
159 176 0
156 171 0
152 167 0
156 171 0
157 172 0
152 163 0
153 169 0
156 170 0
157 173 0
154 167 0
157 172 0
154 165 0
157 173 0
156 169 0
156 169 0
156 170 0
158 173 0
155 169 0
158 171 0
156 171 0
153 163 0
156 169 0
153 168 0
148 157 0
154 169 0
151 163 0
154 165 0
156 169 0
150 160 0
155 168 0
160 173 0
152 163 0
154 165 0
156 169 0
153 163 0
159 174 0
156 166 0
159 173 0
157 170 0
150 161 0
153 166 0
155 168 0
160 172 0
156 170 0
155 166 0
157 170 0
154 165 0
148 158 0
155 165 0
156 166 0
150 162 0
151 159 0
155 163 0
147 154 0
155 166 0
153 158 0
157 170 0
153 164 0
155 164 0
153 163 0
154 164 0
154 164 0
155 167 0
154 165 0
153 159 0
154 163 0
157 169 0
153 164 0
153 159 0
155 163 0
155 168 0
156 167 0
151 158 0
153 163 0
161 175 0
154 165 0
152 156 0
155 164 0
152 163 0
152 159 0
157 169 0
154 159 0
155 161 0
158 166 0
152 160 0
155 165 0
150 157 0
153 159 0
149 153 0
150 156 0
153 161 0
149 150 0
154 164 0
154 163 0
154 159 0
148 150 0
148 156 0
153 160 0
146 152 0
151 156 0
146 153 0
154 159 0
152 154 0
151 157 0
150 154 0
155 162 0
155 159 0
147 148 0
155 165 0
154 161 0
147 152 0
150 153 0
150 152 0
149 148 0
148 146 0
146 148 0
150 153 0
151 157 0
150 154 0
157 163 0
150 149 0
155 162 0
149 153 0
151 153 0
147 150 0
148 146 0
149 152 0
144 137 0
148 148 0
150 148 0
149 147 0
150 149 0
151 156 0
156 162 0
148 150 0
154 153 0
145 142 0
147 150 0
153 155 0
148 151 0
148 146 0
147 149 0
147 149 0
150 150 0
151 154 0
152 156 0
143 140 0
152 156 0
142 136 0
148 145 0
149 148 0
141 133 0
149 147 0
154 156 0
146 144 0
145 146 0
142 137 0
153 155 0
145 143 0
149 145 0
148 147 0
153 154 0
149 151 0
156 161 0
149 152 0
146 146 0
143 141 0
144 144 0
146 141 0
152 153 0
145 143 0
151 151 0
153 153 0
149 148 0
156 156 0
152 151 0
143 140 0
154 157 0
147 145 0
147 142 0
156 159 0
146 144 0
144 144 0
146 144 0
148 142 0
154 157 0
149 149 0
151 151 0
150 148 0
149 151 0
147 146 0
145 140 0
147 148 0
147 147 0
151 158 0
151 151 0
151 151 0
149 147 0
148 149 0
152 152 0
151 151 0
153 156 0
151 152 0
149 152 0
154 161 0
144 141 0
151 150 0
155 159 0
146 141 0
157 163 0
150 151 0
152 155 0
150 151 0
154 156 0
151 149 0
146 143 0
150 150 0
152 157 0
153 156 0
148 147 0
149 150 0
153 160 0
149 151 0
157 163 0
149 147 0
152 156 0
156 163 0
153 159 0
153 157 0
157 162 0
153 157 0
150 153 0
155 162 0
149 156 0
157 162 0
148 149 0
158 167 0
155 158 0
149 150 0
152 157 0
151 154 0
149 152 0
154 164 0
153 159 0
152 157 0
151 156 0
153 157 0
154 157 0
157 165 0
158 164 0
152 157 0
156 160 0
151 155 0
156 162 0
154 162 0
155 163 0
151 159 0
153 155 0
155 164 0
152 155 0
154 161 0
152 155 0
153 157 0
149 151 0
154 160 0
147 151 0
157 164 0
153 158 0
150 154 0
155 165 0
155 161 0
153 159 0
154 161 0
153 159 0
156 160 0
160 170 0
156 164 0
152 157 0
153 156 0
156 164 0
151 154 0
150 154 0
155 162 0
155 160 0
154 159 0
155 163 0
156 159 0
154 158 0
155 163 0
155 164 0
150 152 0
156 162 0
158 163 0
157 163 0
160 168 0
152 154 0
156 161 0
157 163 0
156 159 0
155 162 0
157 163 0
153 156 0
153 158 0
156 161 0
157 164 0
153 156 0
158 166 0
157 161 0
151 154 0
151 155 0
155 160 0
157 160 0
154 160 0
159 167 0
158 167 0
158 165 0
153 158 0
156 163 0
154 159 0
153 158 0
159 168 0
154 160 0
155 160 0
155 161 0
155 162 0
158 163 0
160 168 0
156 164 0
153 154 0
159 169 0
157 162 0
159 166 0
158 162 0
159 167 0
155 161 0
164 174 0
158 166 0
160 166 0
156 160 0
161 169 0
160 166 0
158 163 0
159 164 0
157 163 0
160 167 0
156 160 0
161 169 0
161 168 0
156 162 0
159 165 0
161 171 0
162 169 0
158 162 0
161 170 0
161 170 0
159 165 0
161 169 0
158 175 0
163 182 0
161 179 0
160 179 0
160 178 0
156 173 0
160 178 0
157 173 0
155 171 0
160 177 0
159 176 0
156 173 0
158 173 0
158 175 0
157 174 0
157 172 0
156 172 0
158 174 0
157 175 0
160 179 0
159 176 0
152 168 0
161 178 0
158 175 0
159 175 0
156 171 0
157 173 0
157 172 0
158 173 0
158 174 0
158 175 0
155 169 0
156 170 0
155 173 0
158 174 0
157 171 0
154 168 0
151 164 0
160 175 0
149 162 0
159 176 0
160 174 0
153 165 0
152 163 0
153 167 0
162 180 0
149 160 0
158 170 0
151 163 0
155 169 0
160 176 0
156 170 0
155 168 0
151 163 0
157 170 0
153 165 0
153 170 0
154 167 0
153 166 0
154 167 0
152 165 0
156 169 0
159 176 0
159 172 0
157 172 0
153 166 0
152 165 0
155 166 0
159 173 0
154 169 0
159 170 0
156 169 0
155 169 0
157 171 0
155 168 0
154 168 0
154 167 0
150 161 0
154 166 0
156 169 0
149 160 0
146 153 0
153 165 0
154 164 0
157 168 0
154 164 0
155 169 0
156 166 0
155 167 0
154 162 0
158 168 0
151 160 0
160 174 0
154 166 0
153 162 0
159 170 0
155 167 0
152 160 0
155 168 0
151 159 0
152 163 0
154 161 0
152 160 0
154 163 0
153 165 0
156 165 0
160 173 0
151 158 0
150 159 0
157 166 0
154 164 0
155 166 0
156 169 0
152 162 0
152 160 0
150 156 0
153 160 0
154 166 0
151 160 0
154 163 0
155 165 0
155 166 0
155 164 0
156 166 0
154 161 0
153 159 0
152 160 0
150 155 0
152 156 0
157 166 0
158 166 0
151 160 0
150 155 0
154 162 0
152 157 0
151 157 0
153 163 0
153 161 0
146 149 0
146 150 0
152 160 0
146 149 0
152 152 0
146 148 0
157 167 0
149 156 0
151 156 0
151 154 0
151 160 0
150 154 0
151 153 0
154 160 0
147 147 0
146 148 0
151 156 0
151 156 0
148 149 0
150 155 0
148 154 0
153 158 0
142 140 0
149 150 0
146 143 0
145 148 0
150 154 0
157 161 0
150 151 0
147 148 0
145 143 0
149 146 0
148 149 0
151 155 0
151 155 0
149 151 0
150 151 0
148 148 0
145 144 0
153 154 0
151 151 0
140 136 0
152 157 0
149 151 0
150 154 0
150 149 0
151 149 0
151 156 0
148 148 0
147 148 0
148 146 0
143 139 0
152 152 0
146 146 0
150 149 0
146 142 0
150 151 0
149 150 0
149 145 0
150 151 0
146 143 0
150 149 0
150 150 0
142 139 0
149 145 0
153 155 0
147 143 0
142 136 0
145 139 0
143 140 0
149 151 0
150 150 0
155 159 0
150 147 0
147 146 0
148 145 0
146 146 0
147 147 0
155 157 0
143 137 0
151 152 0
146 143 0
150 148 0
148 141 0
156 160 0
154 153 0
148 146 0
149 151 0
154 156 0
149 146 0
150 153 0
148 148 0
149 153 0
152 155 0
150 148 0
146 141 0
150 152 0
155 156 0
154 156 0
151 155 0
141 136 0
152 154 0
155 159 0
147 143 0
147 153 0
153 157 0
143 140 0
151 151 0
154 156 0
154 157 0
149 151 0
155 161 0
155 160 0
154 159 0
148 150 0
153 156 0
153 158 0
154 159 0
151 151 0
155 163 0
157 161 0
152 153 0
154 158 0
153 157 0
153 154 0
150 154 0
154 160 0
152 151 0
156 163 0
153 158 0
151 154 0
154 158 0
152 155 0
155 162 0
154 162 0
158 166 0
153 155 0
154 159 0
153 155 0
156 162 0
153 155 0
149 154 0
151 156 0
157 161 0
154 158 0
159 166 0
156 161 0
146 148 0
149 153 0
150 152 0
154 157 0
157 160 0
152 157 0
152 155 0
155 158 0
149 154 0
147 148 0
158 163 0
156 164 0
153 159 0
151 154 0
160 168 0
154 159 0
157 166 0
158 167 0
151 155 0
152 159 0
154 158 0
153 161 0
153 161 0
156 163 0
154 156 0
158 165 0
149 153 0
156 165 0
161 169 0
155 158 0
153 159 0
157 163 0
155 162 0
157 164 0
155 162 0
154 158 0
156 163 0
152 160 0
155 162 0
152 158 0
153 159 0
158 164 0
155 164 0
151 157 0
152 154 0
154 163 0
149 155 0
155 162 0
156 164 0
154 159 0
151 157 0
155 163 0
159 167 0
153 156 0
155 163 0
153 158 0
156 159 0
159 167 0
157 164 0
154 158 0
151 157 0
157 165 0
161 169 0
155 161 0
151 154 0
155 164 0
155 160 0
159 164 0
155 161 0
156 158 0
157 164 0
164 172 0
157 165 0
160 165 0
157 165 0
154 160 0
155 164 0
152 156 0
156 161 0
157 162 0
156 164 0
160 165 0
152 157 0
152 155 0
155 161 0
152 156 0
156 161 0
157 163 0
160 168 0
155 162 0
160 168 0
158 165 0
158 166 0
159 167 0
158 163 0
160 167 0
160 168 0
161 168 0
163 172 0
157 164 0
156 166 0
160 166 0
157 166 0
162 171 0
165 174 0
159 167 0
157 166 0
160 171 0
163 173 0
161 173 0
158 168 0
160 168 0
158 168 0
161 171 0
158 167 0
158 176 0
165 184 0
159 177 0
162 181 0
162 181 0
160 177 0
164 182 0
160 180 0
161 179 0
159 177 0
159 176 0
160 177 0
158 175 0
159 176 0
156 174 0
159 177 0
157 175 0
160 177 0
158 175 0
155 172 0
159 176 0
161 175 0
160 178 0
160 176 0
157 174 0
157 174 0
151 166 0
158 174 0
160 176 0
155 170 0
157 172 0
157 172 0
155 170 0
156 171 0
157 174 0
156 169 0
157 173 0
154 169 0
157 174 0
155 169 0
155 171 0
152 164 0
159 177 0
156 171 0
158 173 0
154 169 0
152 165 0
159 175 0
160 175 0
157 172 0
158 171 0
159 175 0
157 172 0
158 173 0
152 165 0
150 162 0
157 172 0
151 165 0
159 173 0
155 169 0
159 173 0
159 173 0
154 167 0
158 173 0
156 170 0
158 170 0
157 171 0
156 169 0
155 166 0
155 168 0
150 158 0
150 161 0
150 159 0
159 170 0
158 170 0
159 172 0
158 171 0
154 166 0
159 173 0
155 166 0
159 173 0
164 179 0
159 175 0
151 163 0
157 170 0
158 171 0
153 165 0
150 161 0
151 159 0
154 167 0
155 170 0
155 167 0
154 162 0
155 165 0
154 167 0
155 164 0
154 166 0
155 168 0
158 167 0
155 163 0
157 166 0
152 159 0
158 166 0
158 168 0
156 169 0
149 157 0
156 168 0
154 166 0
154 165 0
153 162 0
152 163 0
152 162 0
153 161 0
154 162 0
155 161 0
155 165 0
154 163 0
151 154 0
153 160 0
152 157 0
153 164 0
155 162 0
151 157 0
153 162 0
152 157 0
155 164 0
149 156 0
157 162 0
154 162 0
150 157 0
148 155 0
149 156 0
155 165 0
155 163 0
148 149 0
156 160 0
155 161 0
153 158 0
155 165 0
156 165 0
157 169 0
149 153 0
157 167 0
149 153 0
153 162 0
155 162 0
153 157 0
157 164 0
147 146 0
153 160 0
152 157 0
154 158 0
152 152 0
148 151 0
157 162 0
150 149 0
148 152 0
150 156 0
152 155 0
155 156 0
151 154 0
155 164 0
157 162 0
146 150 0
152 156 0
150 153 0
150 153 0
151 151 0
150 151 0
151 152 0
149 150 0
148 148 0
153 155 0
150 149 0
153 160 0
150 151 0
145 145 0
152 157 0
156 159 0
152 150 0
147 144 0
149 143 0
146 142 0
148 152 0
151 149 0
149 151 0
149 149 0
152 150 0
143 138 0
145 145 0
150 149 0
152 157 0
152 151 0
146 143 0
151 151 0
152 151 0
148 152 0
156 159 0
153 153 0
143 143 0
150 150 0
150 148 0
152 154 0
150 147 0
148 149 0
152 154 0
148 148 0
149 151 0
150 149 0
145 143 0
149 150 0
150 149 0
149 147 0
146 146 0
151 158 0
143 139 0
144 139 0
152 153 0
146 143 0
147 143 0
153 155 0
150 151 0
155 157 0
156 157 0
146 147 0
150 151 0
147 142 0
155 162 0
150 149 0
150 146 0
150 146 0
155 160 0
155 159 0
154 155 0
149 150 0
149 149 0
151 155 0
145 141 0
149 149 0
153 156 0
150 150 0
148 150 0
146 149 0
145 140 0
147 148 0
147 150 0
151 151 0
152 155 0
155 162 0
152 154 0
153 150 0
148 150 0
149 149 0
149 149 0
153 161 0
154 161 0
155 159 0
152 157 0
150 151 0
152 155 0
151 151 0
155 158 0
155 159 0
152 155 0
152 150 0
153 157 0
150 153 0
155 161 0
151 154 0
150 152 0
150 154 0
154 157 0
149 151 0
151 154 0
153 156 0
156 160 0
154 158 0
155 160 0
157 165 0
153 155 0
154 160 0
152 157 0
152 154 0
156 160 0
159 167 0
154 156 0
152 158 0
153 158 0
153 159 0
154 160 0
157 164 0
157 165 0
151 154 0
153 157 0
154 160 0
156 161 0
158 166 0
158 164 0
153 159 0
153 160 0
151 159 0
152 157 0
152 156 0
154 157 0
160 167 0
153 162 0
157 165 0
154 160 0
151 158 0
153 161 0
149 152 0
154 159 0
156 159 0
153 158 0
154 158 0
155 160 0
149 151 0
153 157 0
152 155 0
159 168 0
154 157 0
153 158 0
157 161 0
155 160 0
160 169 0
153 159 0
152 158 0
159 164 0
153 159 0
154 161 0
161 170 0
159 167 0
153 160 0
157 164 0
156 161 0
150 155 0
155 160 0
154 162 0
158 166 0
151 156 0
150 154 0
158 165 0
161 170 0
160 166 0
157 160 0
156 162 0
153 159 0
156 161 0
156 161 0
160 164 0
157 161 0
157 161 0
158 162 0
157 164 0
159 165 0
161 168 0
154 162 0
158 166 0
154 160 0
153 157 0
154 160 0
156 163 0
152 158 0
156 162 0
152 159 0
158 165 0
157 164 0
159 166 0
154 158 0
153 158 0
158 166 0
162 172 0
158 166 0
162 174 0
157 166 0
155 161 0
153 158 0
157 164 0
158 165 0
159 168 0
161 169 0
157 164 0
163 171 0
160 167 0
159 168 0
157 165 0
156 161 0
160 169 0
158 168 0
162 172 0
158 166 0
160 167 0
164 175 0
157 163 0
160 167 0
157 165 0
157 164 0
162 171 0
157 163 0
159 166 0
159 177 0
158 178 0
156 173 0
157 175 0
161 177 0
159 176 0
159 176 0
165 184 0
160 176 0
158 175 0
155 172 0
158 176 0
161 179 0
161 178 0
157 174 0
159 176 0
160 177 0
160 175 0
158 174 0
157 174 0
156 173 0
160 175 0
159 177 0
158 173 0
158 172 0
159 176 0
154 169 0
152 167 0
157 173 0
159 176 0
156 170 0
155 171 0
154 169 0
155 171 0
155 169 0
161 178 0
156 171 0
161 177 0
153 167 0
161 177 0
154 169 0
158 172 0
151 164 0
157 172 0
155 171 0
155 167 0
151 164 0
152 164 0
150 164 0
158 172 0
152 165 0
155 167 0
158 171 0
163 179 0
158 174 0
153 166 0
159 173 0
155 169 0
152 166 0
152 163 0
157 170 0
152 165 0
160 176 0
152 162 0
159 170 0
152 163 0
159 172 0
157 169 0
156 167 0
155 166 0
153 167 0
152 160 0
161 177 0
156 169 0
156 170 0
151 161 0
159 173 0
155 169 0
155 169 0
151 162 0
158 170 0
153 164 0
155 167 0
158 172 0
156 168 0
151 164 0
156 168 0
154 165 0
151 163 0
153 163 0
156 167 0
153 165 0
150 161 0
155 167 0
150 160 0
158 169 0
153 162 0
154 165 0
153 160 0
159 171 0
157 172 0
148 155 0
157 167 0
157 170 0
158 170 0
153 164 0
157 169 0
159 173 0
154 165 0
152 159 0
157 169 0
153 162 0
153 160 0
151 155 0
154 163 0
153 163 0
157 164 0
154 163 0
151 159 0
151 156 0
152 159 0
154 163 0
154 163 0
155 166 0
156 162 0
148 156 0
146 150 0
150 158 0
152 159 0
159 169 0
151 158 0
157 168 0
154 161 0
152 158 0
150 157 0
156 166 0
154 161 0
152 160 0
149 155 0
152 157 0
153 160 0
149 151 0
152 154 0
155 160 0
154 160 0
155 165 0
151 155 0
147 152 0
156 163 0
148 153 0
150 150 0
149 150 0
145 146 0
156 160 0
143 144 0
153 155 0
151 154 0
155 160 0
152 157 0
149 151 0
151 150 0
149 150 0
153 158 0
149 155 0
155 162 0
146 146 0
146 148 0
153 157 0
154 157 0
150 153 0
155 158 0
156 162 0
149 153 0
154 159 0
146 146 0
150 150 0
150 152 0
150 151 0
152 155 0
156 157 0
147 145 0
145 147 0
150 152 0
146 143 0
148 148 0
145 143 0
147 144 0
148 147 0
151 152 0
152 149 0
144 143 0
148 147 0
151 150 0
149 149 0
152 158 0
147 149 0
149 148 0
146 145 0
150 146 0
152 155 0
152 161 0
149 150 0
140 133 0
149 151 0
144 140 0
149 150 0
148 147 0
150 153 0
148 144 0
146 144 0
144 144 0
149 148 0
153 153 0
153 153 0
147 143 0
147 143 0
149 148 0
145 145 0
150 150 0
150 153 0
150 155 0
147 146 0
147 150 0
149 147 0
147 146 0
154 157 0
155 159 0
148 147 0
148 147 0
150 153 0
154 155 0
150 150 0
151 154 0
150 152 0
150 151 0
151 150 0
149 151 0
152 155 0
153 153 0
149 152 0
147 145 0
149 144 0
146 144 0
156 161 0
153 156 0
154 155 0
151 154 0
153 155 0
148 148 0
155 156 0
158 159 0
154 158 0
155 157 0
149 151 0
152 157 0
151 151 0
156 162 0
151 155 0
155 162 0
153 151 0
158 165 0
155 161 0
153 155 0
154 158 0
154 156 0
157 164 0
151 151 0
148 147 0
153 159 0
157 160 0
149 149 0
154 159 0
152 158 0
151 154 0
155 159 0
153 160 0
152 155 0
151 155 0
150 150 0
153 155 0
153 161 0
151 154 0
155 160 0
156 164 0
154 161 0
159 166 0
152 159 0
152 153 0
157 168 0
149 149 0
155 164 0
153 158 0
158 164 0
147 148 0
150 155 0
150 152 0
155 162 0
155 161 0
157 162 0
161 168 0
160 166 0
156 164 0
154 158 0
157 165 0
155 161 0
153 153 0
154 160 0
156 161 0
153 157 0
154 159 0
160 168 0
155 160 0
151 154 0
157 165 0
156 160 0
152 157 0
156 165 0
153 162 0
154 160 0
156 162 0
150 152 0
158 164 0
152 156 0
155 161 0
158 164 0
155 163 0
156 163 0
161 170 0
152 155 0
153 161 0
153 158 0
153 155 0
155 162 0
154 159 0
155 161 0
151 155 0
155 162 0
156 161 0
156 163 0
156 161 0
153 158 0
152 153 0
159 166 0
150 151 0
157 160 0
156 162 0
149 155 0
160 168 0
161 170 0
151 151 0
160 164 0
156 162 0
153 159 0
159 165 0
158 165 0
156 165 0
158 163 0
159 165 0
160 169 0
157 162 0
151 152 0
160 169 0
161 168 0
156 161 0
157 165 0
159 167 0
160 169 0
159 167 0
153 157 0
158 167 0
156 162 0
154 160 0
155 161 0
154 160 0
154 158 0
159 164 0
155 163 0
153 161 0
160 167 0
161 172 0
153 158 0
159 166 0
161 170 0
159 167 0
164 175 0
157 164 0
160 169 0
162 172 0
156 163 0
155 159 0
159 168 0
160 167 0
161 169 0
162 173 0
158 166 0
152 161 0
159 167 0
160 169 0
158 166 0
160 169 0
160 177 0
159 176 0
160 178 0
161 177 0
158 176 0
162 181 0
157 173 0
156 173 0
160 176 0
158 175 0
157 174 0
164 183 0
158 176 0
157 174 0
162 179 0
157 173 0
156 174 0
159 176 0
157 174 0
159 174 0
160 177 0
158 174 0
156 173 0
157 173 0
161 176 0
151 167 0
156 171 0
160 177 0
157 174 0
155 172 0
160 177 0
159 176 0
158 174 0
161 176 0
158 175 0
161 175 0
158 172 0
155 170 0
157 172 0
157 172 0
152 164 0
159 175 0
157 172 0
156 171 0
155 169 0
163 178 0
156 171 0
154 166 0
154 169 0
155 170 0
157 172 0
157 170 0
158 171 0
155 168 0
157 173 0
158 174 0
156 170 0
155 172 0
154 167 0
157 171 0
157 169 0
156 170 0
156 169 0
161 174 0
155 168 0
152 164 0
156 168 0
159 173 0
152 165 0
157 171 0
155 167 0
156 169 0
152 164 0
154 167 0
160 177 0
159 174 0
157 167 0
156 168 0
155 165 0
159 173 0
157 168 0
159 171 0
152 164 0
157 171 0
160 172 0
152 161 0
154 163 0
154 164 0
151 162 0
158 169 0
157 168 0
158 169 0
151 160 0
157 170 0
159 168 0
158 170 0
153 159 0
163 174 0
159 173 0
158 168 0
158 169 0
150 162 0
153 159 0
161 174 0
159 168 0
156 166 0
158 170 0
152 160 0
158 168 0
152 163 0
158 169 0
159 171 0
151 160 0
156 166 0
152 157 0
152 161 0
159 170 0
156 165 0
155 167 0
156 164 0
156 166 0
153 161 0
151 160 0
152 162 0
156 165 0
153 160 0
153 161 0
154 163 0
158 168 0
154 159 0
149 154 0
156 165 0
154 163 0
154 163 0
149 152 0
148 151 0
156 164 0
149 150 0
157 166 0
156 164 0
151 158 0
161 173 0
157 160 0
150 156 0
156 165 0
153 157 0
152 159 0
150 151 0
151 156 0
147 149 0
156 164 0
154 162 0
147 150 0
150 156 0
149 152 0
155 158 0
155 165 0
152 157 0
151 156 0
150 155 0
148 150 0
155 163 0
156 160 0
155 162 0
152 156 0
155 157 0
153 163 0
152 156 0
157 163 0
146 143 0
146 143 0
152 153 0
155 156 0
143 141 0
150 154 0
148 146 0
153 156 0
148 150 0
150 153 0
153 157 0
146 148 0
150 150 0
146 144 0
152 155 0
150 150 0
151 149 0
155 158 0
147 146 0
147 147 0
147 146 0
141 139 0
147 146 0
149 149 0
151 151 0
153 155 0
151 153 0
148 144 0
151 152 0
145 147 0
151 154 0
145 145 0
147 147 0
153 154 0
151 151 0
152 154 0
147 141 0
149 151 0
150 150 0
145 141 0
150 153 0
146 144 0
148 145 0
147 148 0
151 155 0
152 152 0
146 141 0
149 146 0
148 149 0
146 145 0
151 151 0
153 156 0
153 154 0
148 147 0
150 153 0
149 149 0
151 153 0
150 149 0
152 153 0
151 150 0
154 153 0
151 151 0
140 131 0
145 146 0
150 144 0
149 150 0
151 153 0
150 152 0
152 155 0
154 156 0
152 153 0
151 152 0
151 152 0
155 159 0
156 163 0
156 159 0
147 145 0
152 154 0
149 148 0
146 145 0
156 160 0
157 164 0
152 152 0
156 163 0
155 160 0
153 161 0
150 153 0
152 156 0
149 151 0
158 164 0
156 160 0
151 148 0
153 154 0
155 163 0
155 159 0
156 163 0
152 155 0
155 161 0
151 151 0
153 157 0
155 165 0
155 160 0
149 150 0
152 159 0
154 159 0
155 159 0
156 162 0
151 155 0
155 160 0
157 168 0
157 162 0
153 157 0
153 155 0
157 162 0
154 159 0
153 158 0
159 168 0
155 164 0
155 160 0
151 158 0
160 170 0
153 158 0
155 162 0
152 154 0
152 158 0
155 161 0
156 162 0
153 159 0
152 155 0
163 174 0
161 172 0
157 164 0
156 163 0
158 166 0
158 167 0
160 168 0
154 159 0
154 158 0
153 158 0
158 163 0
155 162 0
154 158 0
152 158 0
153 158 0
154 164 0
156 163 0
158 165 0
156 161 0
159 168 0
151 152 0
161 169 0
156 162 0
157 165 0
157 168 0
156 163 0
156 165 0
152 156 0
158 159 0
153 159 0
151 158 0
153 159 0
155 163 0
162 171 0
156 165 0
159 166 0
154 158 0
158 164 0
160 170 0
162 172 0
157 162 0
155 158 0
154 160 0
152 156 0
156 163 0
159 167 0
154 157 0
153 158 0
161 170 0
160 171 0
151 153 0
151 154 0
152 156 0
153 157 0
154 160 0
159 165 0
153 156 0
154 159 0
156 162 0
157 164 0
160 170 0
157 162 0
152 159 0
152 155 0
152 156 0
153 159 0
152 154 0
157 165 0
160 166 0
161 166 0
157 163 0
159 166 0
156 159 0
163 170 0
158 165 0
154 159 0
157 162 0
156 161 0
157 164 0
156 164 0
158 166 0
157 164 0
161 169 0
157 165 0
161 168 0
162 170 0
162 170 0
156 160 0
157 165 0
161 171 0
157 163 0
156 160 0
158 167 0
160 169 0
162 171 0
161 170 0
157 165 0
161 170 0
158 166 0
163 173 0
158 166 0
160 169 0
157 174 0
163 181 0
160 178 0
163 183 0
160 177 0
162 179 0
164 183 0
159 176 0
157 173 0
161 179 0
157 173 0
163 181 0
158 175 0
157 171 0
157 174 0
155 170 0
162 180 0
159 175 0
158 175 0
162 178 0
157 174 0
158 176 0
158 173 0
157 173 0
159 176 0
153 167 0
154 166 0
153 166 0
157 174 0
159 173 0
159 175 0
149 162 0
158 176 0
157 174 0
158 175 0
151 166 0
161 176 0
156 172 0
157 171 0
155 170 0
158 173 0
158 174 0
157 171 0
159 174 0
157 170 0
157 172 0
156 171 0
154 165 0
154 169 0
153 166 0
158 174 0
158 175 0
154 171 0
152 167 0
158 173 0
159 173 0
157 172 0
160 176 0
160 175 0
157 170 0
163 179 0
151 165 0
160 177 0
160 173 0
157 174 0
158 173 0
157 168 0
154 168 0
155 168 0
155 168 0
154 165 0
149 161 0
157 172 0
153 166 0
159 175 0
157 169 0
156 169 0
157 170 0
151 160 0
159 170 0
155 165 0
153 166 0
160 176 0
155 169 0
147 154 0
159 175 0
154 163 0
157 168 0
156 166 0
155 169 0
155 164 0
156 166 0
158 169 0
157 171 0
156 170 0
153 162 0
157 169 0
159 172 0
155 165 0
148 150 0
156 167 0
155 165 0
156 168 0
158 169 0
152 164 0
157 169 0
151 162 0
156 170 0
156 164 0
157 171 0
155 160 0
155 164 0
145 149 0
156 166 0
150 155 0
157 168 0
153 157 0
159 173 0
151 157 0
155 166 0
155 166 0
157 165 0
155 167 0
149 152 0
157 168 0
155 162 0
153 161 0
158 168 0
155 164 0
150 154 0
152 158 0
154 157 0
150 153 0
153 157 0
157 166 0
155 164 0
156 164 0
151 157 0
153 160 0
151 154 0
154 158 0
153 163 0
154 158 0
154 161 0
154 159 0
151 156 0
150 151 0
152 159 0
149 152 0
159 168 0
148 152 0
148 149 0
154 162 0
154 160 0
143 147 0
150 152 0
152 155 0
154 160 0
151 156 0
153 158 0
145 142 0
147 146 0
153 155 0
154 157 0
149 152 0
148 151 0
152 154 0
147 150 0
151 157 0
151 155 0
150 154 0
154 158 0
147 146 0
155 160 0
150 154 0
150 153 0
155 157 0
148 150 0
149 149 0
151 153 0
152 156 0
147 146 0
154 156 0
152 159 0
154 155 0
153 159 0
152 151 0
149 152 0
156 164 0
153 156 0
149 151 0
149 152 0
141 141 0
152 150 0
149 152 0
152 151 0
149 149 0
153 156 0
152 151 0
151 149 0
155 158 0
145 142 0
152 157 0
150 151 0
142 139 0
146 146 0
150 152 0
150 150 0
150 151 0
149 149 0
149 151 0
153 152 0
149 149 0
151 150 0
154 160 0
151 158 0
144 140 0
156 158 0
144 143 0
145 141 0
145 145 0
150 150 0
151 153 0
151 155 0
150 150 0
154 157 0
149 147 0
151 152 0
154 158 0
151 151 0
153 157 0
156 159 0
153 155 0
152 151 0
153 155 0
151 152 0
151 152 0
155 161 0
153 156 0
145 142 0
151 153 0
152 158 0
151 151 0
154 156 0
153 156 0
154 159 0
158 163 0
156 162 0
150 148 0
154 158 0
149 151 0
151 152 0
152 152 0
155 161 0
151 153 0
156 163 0
156 163 0
155 159 0
159 166 0
152 157 0
155 162 0
156 161 0
152 152 0
156 166 0
154 157 0
156 163 0
156 164 0
154 157 0
150 150 0
153 159 0
154 157 0
148 150 0
154 155 0
150 154 0
153 159 0
151 154 0
157 162 0
157 163 0
154 160 0
158 163 0
150 151 0
155 160 0
155 163 0
156 163 0
151 153 0
160 168 0
156 161 0
157 166 0
155 159 0
153 158 0
155 158 0
153 161 0
152 157 0
152 160 0
151 154 0
155 161 0
159 170 0
156 159 0
156 163 0
158 167 0
160 167 0
160 171 0
151 151 0
153 158 0
155 157 0
154 159 0
158 167 0
156 165 0
156 162 0
151 154 0
159 168 0
158 166 0
158 166 0
156 163 0
155 163 0
158 162 0
151 157 0
155 163 0
156 163 0
156 163 0
159 165 0
154 160 0
154 162 0
161 169 0
162 170 0
153 157 0
159 163 0
151 154 0
151 153 0
158 167 0
154 160 0
157 163 0
153 159 0
161 168 0
154 162 0
153 155 0
159 166 0
152 158 0
155 161 0
157 164 0
157 162 0
156 162 0
157 165 0
154 158 0
155 163 0
153 158 0
159 166 0
158 165 0
157 166 0
154 160 0
158 164 0
153 158 0
153 159 0
151 156 0
159 167 0
156 161 0
158 168 0
150 153 0
160 169 0
151 154 0
153 157 0
158 164 0
159 169 0
157 164 0
156 161 0
159 166 0
156 160 0
153 159 0
158 166 0
156 162 0
156 158 0
156 164 0
158 166 0
159 164 0
157 165 0
157 163 0
160 169 0
157 162 0
161 171 0
160 165 0
153 156 0
158 162 0
162 171 0
161 170 0
160 167 0
157 166 0
158 165 0
154 157 0
162 173 0
158 166 0
159 167 0
162 172 0
163 174 0
159 166 0
162 172 0
162 171 0
158 166 0
158 165 0
161 172 0
155 163 0
161 179 0
161 181 0
161 179 0
161 178 0
161 178 0
160 178 0
157 174 0
158 175 0
156 171 0
160 176 0
159 176 0
162 180 0
152 167 0
162 181 0
158 174 0
159 177 0
158 174 0
160 177 0
160 177 0
158 174 0
157 173 0
158 174 0
159 175 0
158 176 0
158 174 0
155 172 0
157 171 0
160 176 0
154 170 0
156 172 0
151 167 0
159 174 0
158 173 0
156 171 0
156 172 0
152 167 0
154 168 0
158 173 0
159 173 0
150 163 0
156 169 0
157 172 0
158 174 0
159 178 0
149 160 0
158 172 0
160 174 0
155 172 0
158 175 0
148 156 0
156 169 0
165 180 0
156 169 0
158 172 0
153 164 0
156 170 0
158 171 0
157 171 0
155 168 0
157 170 0
159 174 0
160 178 0
156 172 0
157 172 0
156 171 0
159 172 0
153 164 0
157 173 0
157 169 0
156 171 0
158 169 0
148 155 0
160 176 0
154 168 0
156 170 0
152 161 0
158 170 0
160 171 0
152 163 0
159 173 0
158 167 0
156 166 0
157 169 0
158 172 0
158 171 0
158 171 0
150 163 0
159 170 0
153 162 0
153 164 0
158 173 0
155 167 0
150 158 0
156 166 0
156 166 0
155 168 0
157 172 0
154 165 0
157 170 0
153 163 0
158 170 0
152 162 0
158 165 0
158 172 0
155 163 0
156 167 0
152 160 0
147 155 0
157 171 0
151 158 0
154 165 0
153 164 0
153 164 0
160 174 0
153 164 0
155 166 0
158 169 0
156 167 0
160 173 0
156 162 0
154 164 0
155 165 0
154 160 0
155 164 0
155 164 0
155 160 0
156 165 0
159 170 0
154 161 0
153 162 0
152 157 0
154 158 0
154 161 0
157 163 0
153 161 0
150 152 0
159 167 0
147 151 0
149 153 0
152 159 0
162 174 0
150 153 0
155 159 0
155 160 0
152 156 0
161 175 0
148 150 0
158 168 0
148 150 0
156 163 0
151 153 0
151 155 0
149 147 0
149 152 0
150 155 0
152 155 0
154 160 0
152 153 0
153 157 0
153 162 0
148 148 0
152 155 0
153 156 0
153 160 0
156 162 0
153 157 0
149 152 0
152 156 0
149 151 0
150 155 0
147 150 0
148 150 0
151 154 0
154 156 0
155 162 0
158 162 0
153 158 0
148 148 0
147 145 0
152 154 0
147 144 0
155 159 0
151 152 0
148 148 0
152 151 0
152 152 0
148 148 0
151 151 0
151 153 0
150 150 0
148 148 0
150 149 0
153 153 0
150 153 0
149 147 0
152 156 0
151 153 0
150 151 0
144 144 0
150 153 0
149 142 0
154 156 0
154 157 0
151 157 0
154 161 0
145 144 0
150 149 0
151 151 0
146 144 0
146 144 0
150 151 0
151 151 0
147 143 0
150 150 0
158 160 0
152 154 0
147 143 0
151 150 0
150 156 0
154 156 0
147 149 0
148 148 0
155 162 0
153 158 0
148 147 0
149 148 0
148 149 0
150 148 0
153 158 0
151 153 0
150 148 0
154 158 0
155 156 0
156 160 0
156 161 0
151 154 0
147 153 0
156 159 0
153 154 0
150 150 0
154 154 0
153 158 0
150 149 0
153 156 0
151 154 0
148 149 0
151 152 0
152 153 0
148 148 0
153 161 0
154 158 0
152 156 0
152 153 0
155 157 0
152 155 0
153 156 0
158 168 0
155 163 0
155 158 0
150 152 0
152 156 0
148 148 0
152 155 0
156 160 0
155 162 0
154 161 0
148 149 0
154 159 0
154 162 0
151 155 0
151 156 0
157 162 0
155 156 0
156 163 0
153 160 0
154 157 0
157 159 0
155 163 0
153 156 0
154 160 0
154 160 0
157 164 0
153 158 0
154 158 0
157 163 0
158 167 0
155 163 0
151 155 0
152 155 0
157 160 0
151 156 0
159 167 0
158 164 0
159 166 0
153 155 0
153 158 0
158 163 0
157 162 0
153 161 0
155 160 0
157 167 0
157 166 0
157 165 0
149 152 0
153 158 0
160 171 0
150 155 0
157 165 0
154 162 0
153 156 0
153 158 0
160 168 0
156 164 0
153 157 0
155 166 0
154 162 0
156 161 0
152 155 0
157 168 0
156 163 0
158 166 0
158 164 0
157 164 0
158 167 0
157 164 0
156 159 0
152 153 0
154 161 0
153 160 0
155 162 0
159 167 0
157 162 0
153 157 0
154 157 0
161 170 0
162 170 0
156 164 0
160 172 0
157 163 0
151 159 0
154 160 0
159 169 0
155 162 0
154 158 0
153 157 0
160 167 0
158 168 0
153 157 0
161 171 0
158 165 0
156 163 0
160 168 0
160 168 0
157 163 0
155 159 0
153 157 0
162 173 0
159 171 0
160 170 0
158 165 0
154 160 0
158 163 0
162 172 0
156 161 0
155 161 0
155 160 0
154 156 0
158 166 0
161 168 0
162 170 0
158 168 0
156 160 0
153 160 0
158 165 0
159 164 0
154 158 0
157 163 0
153 158 0
160 170 0
162 170 0
158 165 0
157 165 0
159 167 0
157 162 0
161 169 0
156 162 0
161 168 0
158 165 0
161 171 0
158 164 0
160 170 0
158 164 0
158 164 0
158 164 0
162 171 0
156 161 0
157 163 0
155 160 0
159 167 0
159 170 0
154 172 0
158 174 0
162 179 0
162 180 0
160 177 0
159 178 0
160 177 0
157 174 0
160 179 0
159 175 0
158 175 0
158 175 0
160 179 0
161 181 0
160 177 0
158 174 0
160 177 0
159 176 0
159 176 0
159 176 0
154 171 0
158 175 0
157 173 0
162 178 0
157 171 0
159 176 0
159 175 0
159 175 0
162 180 0
159 177 0
160 178 0
157 173 0
158 173 0
157 173 0
158 172 0
158 174 0
158 175 0
160 176 0
157 171 0
160 175 0
157 171 0
154 170 0
155 170 0
157 172 0
159 176 0
159 175 0
158 171 0
151 165 0
159 172 0
157 170 0
159 173 0
159 173 0
158 176 0
162 177 0
153 167 0
160 175 0
160 177 0
153 166 0
150 161 0
153 167 0
161 177 0
157 170 0
158 172 0
161 175 0
155 172 0
158 173 0
154 166 0
152 167 0
155 166 0
158 173 0
154 165 0
160 174 0
156 172 0
154 165 0
151 161 0
154 164 0
161 177 0
154 167 0
156 169 0
158 171 0
154 166 0
155 168 0
160 171 0
154 165 0
158 171 0
157 170 0
157 169 0
155 167 0
159 172 0
160 170 0
156 171 0
155 166 0
155 168 0
156 169 0
153 164 0
157 170 0
153 167 0
151 161 0
153 166 0
153 163 0
158 171 0
150 160 0
156 167 0
152 161 0
159 171 0
150 163 0
157 168 0
157 169 0
155 166 0
151 160 0
156 167 0
155 169 0
159 171 0
152 163 0
159 171 0
157 167 0
151 162 0
160 175 0
156 169 0
154 163 0
153 161 0
153 160 0
154 165 0
156 165 0
157 162 0
160 169 0
154 158 0
153 160 0
157 165 0
154 163 0
156 165 0
154 158 0
154 162 0
155 164 0
151 159 0
156 165 0
151 157 0
156 166 0
154 161 0
150 157 0
150 157 0
157 167 0
154 163 0
157 163 0
154 159 0
146 152 0
151 160 0
148 150 0
157 165 0
150 158 0
154 161 0
158 161 0
155 161 0
152 155 0
155 160 0
154 160 0
150 152 0
147 148 0
152 155 0
150 149 0
153 156 0
154 162 0
154 157 0
150 152 0
154 158 0
152 157 0
155 162 0
153 157 0
152 158 0
151 155 0
151 154 0
155 158 0
150 154 0
160 166 0
152 153 0
153 158 0
150 151 0
152 157 0
154 158 0
151 152 0
149 150 0
150 149 0
155 158 0
154 154 0
152 154 0
152 156 0
153 154 0
149 148 0
149 147 0
152 151 0
152 151 0
156 155 0
148 152 0
153 151 0
145 142 0
145 144 0
149 150 0
149 149 0
147 145 0
153 153 0
154 157 0
154 153 0
155 156 0
146 144 0
154 153 0
159 167 0
148 149 0
153 157 0
150 149 0
145 144 0
147 143 0
152 156 0
156 157 0
146 143 0
148 147 0
152 153 0
152 151 0
149 147 0
153 157 0
156 159 0
153 157 0
149 153 0
152 156 0
153 159 0
152 156 0
157 161 0
148 147 0
157 157 0
152 152 0
154 158 0
155 157 0
152 156 0
150 153 0
150 150 0
151 155 0
154 158 0
154 155 0
154 158 0
150 152 0
154 157 0
152 153 0
145 139 0
153 159 0
156 161 0
152 156 0
154 157 0
157 161 0
154 155 0
154 156 0
152 152 0
157 164 0
155 158 0
157 167 0
151 150 0
149 151 0
151 155 0
154 158 0
157 161 0
156 159 0
154 161 0
152 156 0
158 166 0
155 161 0
156 161 0
159 166 0
157 165 0
156 165 0
156 162 0
157 164 0
157 164 0
152 153 0
155 160 0
149 153 0
156 162 0
156 161 0
154 159 0
158 166 0
155 159 0
150 151 0
151 153 0
155 162 0
153 161 0
156 161 0
154 160 0
158 165 0
156 163 0
158 162 0
157 167 0
154 159 0
154 156 0
161 169 0
159 171 0
158 165 0
156 163 0
154 157 0
154 162 0
155 162 0
156 165 0
155 165 0
156 162 0
152 158 0
155 161 0
155 163 0
159 168 0
156 160 0
154 160 0
153 162 0
157 161 0
156 162 0
158 167 0
153 155 0
157 160 0
155 162 0
155 161 0
158 165 0
155 160 0
152 155 0
154 163 0
161 167 0
157 162 0
158 169 0
153 158 0
157 166 0
160 168 0
156 166 0
157 164 0
155 162 0
149 152 0
155 162 0
158 166 0
154 158 0
160 167 0
157 163 0
151 155 0
158 165 0
158 167 0
158 164 0
154 158 0
161 170 0
156 163 0
157 163 0
154 160 0
154 158 0
162 170 0
155 162 0
157 166 0
155 165 0
156 164 0
157 161 0
156 166 0
153 159 0
157 166 0
156 162 0
155 161 0
158 165 0
155 161 0
155 159 0
160 169 0
156 162 0
154 160 0
157 165 0
158 167 0
154 159 0
157 163 0
160 167 0
157 164 0
155 162 0
156 161 0
155 164 0
159 165 0
158 166 0
163 172 0
161 168 0
155 164 0
157 163 0
156 163 0
156 163 0
159 166 0
155 163 0
156 163 0
156 160 0
161 170 0
155 160 0
152 157 0
162 169 0
153 157 0
162 173 0
158 166 0
160 167 0
161 171 0
160 170 0
159 170 0
159 166 0
157 164 0
162 174 0
165 177 0
158 167 0
162 170 0
156 162 0
162 169 0
159 176 0
162 179 0
157 175 0
159 174 0
158 175 0
160 178 0
157 175 0
159 174 0
159 174 0
158 173 0
161 178 0
156 171 0
161 180 0
157 173 0
158 177 0
160 177 0
164 179 0
159 175 0
162 180 0
156 171 0
162 178 0
162 176 0
158 174 0
162 178 0
160 174 0
163 181 0
153 169 0
162 180 0
161 177 0
155 169 0
160 176 0
160 176 0
158 175 0
161 178 0
154 170 0
159 175 0
159 175 0
158 173 0
155 171 0
157 171 0
155 169 0
156 172 0
164 180 0
154 166 0
159 174 0
158 174 0
161 177 0
161 175 0
157 173 0
161 176 0
156 170 0
161 177 0
157 171 0
156 170 0
158 169 0
156 173 0
157 167 0
157 173 0
157 172 0
155 167 0
157 174 0
154 166 0
160 171 0
159 172 0
153 165 0
153 164 0
160 176 0
155 169 0
156 169 0
156 170 0
158 169 0
152 165 0
157 170 0
155 167 0
154 164 0
157 173 0
148 159 0
158 170 0
156 168 0
161 174 0
157 169 0
154 167 0
154 162 0
153 163 0
158 174 0
152 166 0
156 168 0
160 176 0
156 170 0
157 171 0
154 164 0
160 174 0
154 165 0
157 168 0
158 170 0
154 165 0
154 166 0
155 163 0
153 159 0
155 167 0
157 170 0
145 150 0
151 158 0
156 170 0
154 162 0
155 166 0
158 169 0
157 168 0
155 164 0
160 174 0
153 160 0
150 158 0
154 164 0
153 161 0
159 170 0
148 155 0
151 159 0
157 163 0
157 168 0
154 161 0
158 168 0
152 165 0
160 169 0
151 157 0
155 163 0
151 160 0
157 167 0
149 157 0
153 162 0
157 165 0
155 167 0
153 160 0
154 160 0
156 164 0
154 161 0
156 164 0
151 159 0
157 166 0
156 164 0
158 169 0
155 163 0
149 153 0
156 164 0
156 167 0
157 165 0
157 166 0
157 163 0
153 161 0
155 166 0
160 169 0
157 164 0
151 154 0
158 167 0
156 163 0
155 160 0
149 153 0
148 152 0
157 164 0
152 159 0
156 163 0
156 160 0
155 161 0
156 162 0
150 153 0
155 161 0
155 154 0
151 157 0
150 152 0
158 164 0
153 157 0
152 158 0
153 156 0
150 154 0
146 146 0
152 155 0
149 152 0
151 155 0
152 152 0
151 153 0
155 160 0
155 161 0
154 159 0
150 151 0
151 149 0
150 154 0
155 159 0
150 151 0
148 148 0
153 156 0
150 151 0
154 160 0
154 159 0
155 158 0
149 150 0
154 156 0
154 156 0
146 149 0
152 154 0
155 154 0
150 151 0
155 158 0
148 152 0
154 154 0
146 143 0
145 140 0
153 154 0
151 150 0
153 153 0
153 158 0
146 148 0
152 155 0
150 152 0
152 152 0
151 151 0
153 155 0
152 152 0
152 153 0
153 158 0
150 149 0
148 148 0
156 163 0
150 149 0
154 160 0
157 165 0
151 157 0
152 150 0
151 152 0
150 152 0
155 158 0
150 150 0
151 156 0
153 154 0
146 146 0
154 159 0
151 153 0
159 163 0
153 156 0
145 145 0
156 161 0
151 154 0
156 158 0
155 158 0
154 156 0
149 153 0
151 155 0
149 150 0
155 156 0
152 154 0
155 164 0
150 149 0
155 160 0
150 151 0
157 162 0
154 155 0
155 155 0
153 156 0
154 160 0
160 167 0
152 157 0
153 158 0
155 160 0
151 149 0
159 164 0
153 159 0
158 164 0
156 161 0
155 161 0
155 158 0
153 156 0
156 164 0
158 162 0
156 161 0
158 165 0
154 158 0
152 155 0
159 165 0
159 169 0
157 168 0
160 166 0
157 167 0
156 161 0
149 151 0
158 166 0
151 155 0
159 166 0
160 170 0
155 159 0
159 169 0
153 160 0
154 157 0
163 174 0
154 163 0
154 160 0
157 163 0
151 155 0
158 169 0
155 161 0
156 163 0
156 162 0
155 159 0
152 157 0
156 165 0
154 158 0
157 165 0
157 164 0
155 162 0
156 167 0
155 161 0
157 164 0
159 169 0
157 163 0
152 161 0
159 170 0
158 168 0
156 162 0
157 163 0
159 168 0
154 158 0
160 171 0
155 162 0
159 168 0
154 158 0
154 161 0
156 164 0
159 165 0
157 164 0
158 165 0
159 167 0
156 164 0
158 166 0
162 171 0
149 151 0
155 161 0
154 162 0
155 162 0
153 159 0
158 165 0
162 173 0
156 161 0
157 167 0
158 167 0
156 164 0
157 162 0
155 161 0
154 162 0
156 167 0
151 154 0
154 163 0
156 161 0
156 164 0
157 167 0
157 164 0
159 167 0
156 163 0
157 166 0
157 165 0
155 161 0
158 167 0
159 169 0
157 164 0
155 162 0
158 168 0
159 166 0
160 169 0
158 167 0
155 159 0
155 160 0
162 170 0
160 171 0
160 166 0
157 164 0
157 169 0
159 167 0
160 167 0
160 169 0
159 169 0
157 166 0
157 167 0
160 170 0
159 167 0
161 170 0
156 163 0
159 169 0
156 160 0
159 164 0
157 163 0
158 166 0
155 159 0
158 166 0
158 168 0
159 167 0
159 167 0
161 168 0
159 166 0
159 167 0
157 161 0
162 171 0
164 176 0
158 164 0
161 170 0
163 181 0
159 177 0
154 171 0
161 180 0
161 176 0
161 179 0
158 174 0
166 185 0
160 178 0
156 172 0
161 177 0
159 174 0
153 168 0
157 172 0
158 175 0
158 175 0
157 173 0
160 178 0
159 175 0
157 172 0
157 173 0
160 176 0
162 173 0
158 173 0
156 171 0
160 176 0
159 174 0
155 169 0
161 180 0
158 175 0
157 174 0
158 174 0
155 173 0
159 175 0
154 170 0
163 181 0
152 166 0
160 175 0
155 168 0
160 176 0
156 170 0
158 172 0
156 172 0
157 171 0
158 174 0
154 166 0
160 175 0
154 168 0
162 176 0
156 168 0
159 175 0
160 177 0
159 175 0
154 171 0
152 165 0
154 168 0
156 168 0
159 174 0
162 178 0
160 176 0
163 180 0
156 170 0
156 168 0
156 168 0
149 159 0
155 166 0
156 169 0
156 168 0
157 167 0
157 170 0
157 171 0
152 160 0
153 162 0
158 171 0
156 167 0
159 176 0
159 170 0
161 175 0
156 168 0
157 171 0
149 160 0
155 167 0
157 169 0
157 170 0
154 169 0
158 173 0
160 174 0
155 167 0
151 161 0
158 171 0
159 172 0
156 167 0
152 160 0
154 164 0
155 165 0
154 165 0
158 170 0
155 167 0
151 162 0
157 168 0
157 164 0
147 152 0
161 174 0
160 172 0
160 173 0
159 171 0
157 170 0
156 167 0
159 170 0
152 161 0
154 165 0
158 170 0
157 166 0
153 164 0
154 166 0
161 172 0
157 168 0
163 178 0
154 162 0
150 158 0
156 164 0
157 165 0
156 165 0
156 167 0
158 170 0
153 162 0
159 170 0
154 162 0
154 158 0
153 161 0
153 159 0
160 172 0
154 159 0
158 168 0
158 169 0
157 161 0
159 169 0
154 161 0
153 158 0
157 166 0
150 154 0
155 160 0
154 160 0
154 158 0
150 156 0
151 156 0
151 153 0
151 162 0
153 161 0
154 161 0
155 164 0
153 158 0
154 160 0
158 166 0
152 156 0
157 163 0
151 152 0
155 161 0
153 159 0
153 156 0
148 149 0
153 155 0
152 154 0
155 162 0
152 154 0
157 167 0
155 164 0
153 159 0
148 148 0
152 152 0
155 161 0
155 160 0
151 156 0
153 159 0
150 153 0
148 153 0
154 157 0
150 152 0
151 155 0
154 159 0
154 160 0
153 152 0
153 154 0
151 156 0
154 158 0
149 152 0
147 152 0
156 157 0
151 151 0
148 151 0
155 161 0
152 151 0
147 147 0
145 147 0
149 152 0
151 152 0
151 148 0
151 154 0
151 153 0
155 159 0
149 146 0
156 162 0
155 163 0
149 151 0
155 161 0
156 158 0
152 152 0
154 158 0
150 154 0
147 142 0
153 154 0
156 160 0
153 155 0
153 155 0
153 162 0
154 160 0
151 153 0
154 160 0
154 155 0
149 151 0
158 164 0
151 153 0
155 161 0
157 165 0
152 152 0
151 156 0
150 155 0
152 155 0
159 166 0
149 149 0
155 159 0
151 152 0
158 162 0
153 156 0
152 154 0
153 151 0
147 148 0
154 156 0
156 163 0
153 159 0
153 157 0
150 148 0
157 163 0
150 155 0
155 159 0
155 160 0
154 157 0
154 156 0
149 148 0
156 163 0
154 157 0
154 159 0
155 162 0
153 160 0
160 167 0
153 153 0
155 160 0
155 160 0
153 158 0
154 157 0
155 160 0
153 155 0
155 159 0
157 164 0
156 161 0
159 164 0
153 160 0
155 162 0
149 154 0
155 162 0
155 160 0
157 162 0
157 162 0
154 159 0
153 162 0
153 163 0
155 162 0
152 155 0
155 159 0
151 158 0
159 169 0
155 159 0
156 161 0
153 154 0
154 160 0
154 161 0
154 161 0
152 159 0
160 172 0
155 162 0
158 170 0
160 169 0
154 159 0
156 159 0
157 166 0
155 161 0
160 169 0
153 158 0
158 168 0
160 171 0
159 168 0
155 163 0
160 170 0
155 164 0
157 168 0
155 160 0
154 161 0
159 167 0
154 166 0
158 168 0
155 161 0
151 152 0
149 153 0
154 159 0
156 165 0
155 163 0
151 157 0
157 166 0
154 159 0
154 159 0
158 165 0
160 165 0
159 170 0
159 165 0
158 166 0
162 173 0
157 166 0
154 160 0
155 162 0
160 168 0
154 162 0
158 163 0
158 162 0
159 165 0
152 158 0
154 157 0
156 161 0
157 164 0
159 167 0
158 164 0
160 168 0
160 170 0
152 158 0
154 161 0
156 165 0
153 157 0
156 163 0
153 157 0
153 160 0
160 170 0
160 170 0
156 165 0
160 167 0
154 157 0
155 159 0
156 162 0
157 166 0
158 165 0
157 163 0
155 162 0
161 169 0
157 165 0
156 165 0
158 166 0
161 169 0
160 168 0
161 171 0
156 163 0
159 167 0
157 165 0
158 167 0
158 166 0
160 168 0
156 163 0
162 168 0
156 161 0
154 159 0
159 168 0
160 168 0
161 169 0
159 167 0
161 168 0
162 171 0
161 168 0
160 169 0
160 172 0
163 172 0
155 161 0
164 176 0
156 162 0
156 166 0
158 167 0
157 165 0
160 167 0
159 165 0
158 166 0
159 169 0
160 168 0
159 169 0
158 165 0
158 175 0
162 179 0
155 172 0
158 174 0
158 176 0
162 181 0
158 175 0
162 180 0
159 176 0
162 178 0
158 176 0
161 175 0
158 174 0
160 178 0
159 177 0
157 176 0
161 178 0
158 176 0
159 174 0
160 177 0
159 176 0
160 177 0
157 172 0
163 177 0
158 174 0
159 173 0
161 177 0
161 178 0
157 174 0
159 176 0
161 179 0
159 175 0
160 176 0
154 167 0
155 168 0
158 173 0
153 166 0
157 174 0
160 176 0
158 175 0
156 169 0
155 168 0
156 169 0
155 168 0
163 177 0
161 179 0
154 170 0
162 178 0
157 170 0
158 171 0
157 174 0
156 170 0
160 175 0
158 174 0
157 171 0
158 174 0
156 172 0
160 174 0
159 171 0
158 173 0
154 166 0
156 170 0
161 175 0
155 163 0
160 174 0
159 172 0
155 169 0
160 174 0
157 168 0
154 167 0
161 177 0
157 171 0
160 171 0
159 175 0
156 171 0
159 173 0
157 168 0
154 165 0
156 168 0
161 177 0
153 164 0
156 169 0
160 174 0
159 173 0
163 176 0
154 163 0
161 173 0
155 164 0
158 171 0
150 160 0
153 160 0
157 169 0
160 174 0
157 169 0
160 170 0
157 168 0
151 161 0
157 170 0
159 172 0
158 172 0
154 163 0
158 168 0
158 169 0
154 166 0
153 160 0
152 162 0
159 173 0
158 169 0
157 167 0
154 164 0
157 167 0
154 163 0
154 161 0
153 161 0
158 171 0
157 168 0
154 166 0
156 167 0
158 171 0
153 162 0
157 164 0
154 165 0
153 160 0
159 168 0
158 171 0
153 160 0
152 160 0
161 172 0
151 158 0
151 157 0
158 167 0
158 167 0
153 158 0
156 164 0
159 168 0
155 165 0
160 169 0
154 159 0
157 164 0
153 160 0
152 160 0
153 159 0
151 158 0
158 163 0
156 163 0
149 154 0
150 157 0
153 159 0
152 160 0
156 164 0
156 162 0
148 152 0
156 161 0
151 156 0
154 159 0
153 162 0
152 157 0
155 161 0
153 159 0
155 160 0
151 160 0
153 156 0
156 162 0
154 157 0
153 157 0
155 163 0
151 154 0
152 157 0
146 144 0
150 152 0
152 156 0
151 154 0
154 160 0
154 160 0
155 157 0
151 152 0
145 145 0
146 143 0
153 158 0
146 149 0
153 155 0
154 158 0
156 162 0
156 163 0
152 155 0
150 152 0
151 154 0
155 159 0
149 149 0
153 156 0
154 156 0
148 147 0
149 148 0
153 155 0
154 158 0
151 155 0
153 157 0
155 155 0
157 162 0
148 148 0
154 154 0
152 155 0
149 147 0
153 156 0
153 155 0
148 145 0
152 153 0
153 155 0
160 167 0
154 156 0
150 147 0
151 158 0
152 151 0
145 143 0
152 156 0
153 158 0
151 156 0
154 159 0
151 151 0
149 153 0
153 153 0
151 154 0
144 137 0
149 148 0
153 157 0
150 148 0
149 149 0
151 153 0
151 153 0
150 152 0
149 152 0
159 164 0
153 156 0
150 153 0
152 156 0
155 156 0
154 155 0
155 159 0
157 165 0
153 158 0
154 157 0
152 157 0
153 152 0
154 157 0
150 148 0
154 159 0
144 144 0
156 165 0
151 157 0
151 157 0
160 167 0
153 158 0
156 161 0
156 164 0
158 164 0
153 159 0
153 155 0
151 152 0
155 161 0
156 161 0
149 153 0
156 159 0
149 151 0
151 154 0
153 155 0
155 160 0
154 159 0
153 159 0
157 163 0
157 163 0
154 160 0
155 164 0
150 151 0
149 152 0
156 164 0
153 159 0
154 159 0
157 164 0
149 154 0
157 161 0
154 157 0
160 167 0
154 159 0
159 170 0
150 154 0
154 158 0
148 145 0
154 160 0
161 172 0
152 158 0
156 164 0
153 154 0
156 162 0
157 165 0
156 166 0
154 162 0
156 162 0
158 169 0
154 163 0
157 165 0
156 167 0
156 162 0
154 159 0
157 165 0
155 163 0
158 168 0
155 165 0
157 165 0
162 167 0
156 162 0
154 159 0
152 158 0
153 159 0
158 166 0
158 165 0
152 162 0
159 166 0
159 168 0
154 159 0
156 164 0
153 156 0
151 158 0
156 165 0
160 170 0
157 167 0
155 164 0
153 158 0
154 158 0
160 169 0
160 168 0
157 164 0
158 168 0
154 159 0
159 169 0
157 166 0
153 159 0
157 167 0
157 167 0
155 163 0
162 173 0
156 164 0
155 159 0
159 168 0
153 159 0
157 163 0
159 168 0
160 171 0
158 166 0
161 171 0
159 168 0
162 169 0
154 161 0
155 160 0
160 169 0
158 168 0
161 171 0
157 168 0
157 166 0
162 173 0
163 173 0
161 173 0
158 165 0
152 159 0
164 175 0
159 168 0
160 170 0
159 168 0
158 167 0
159 167 0
156 163 0
160 170 0
157 164 0
161 171 0
161 171 0
158 169 0
160 171 0
161 170 0
160 168 0
159 167 0
161 171 0
159 168 0
157 165 0
158 165 0
158 166 0
159 167 0
162 171 0
161 172 0
162 170 0
160 169 0
165 176 0
157 162 0
161 171 0
159 167 0
162 173 0
157 164 0
160 168 0
157 167 0
161 172 0
160 168 0
164 175 0
158 173 0
159 178 0
159 177 0
165 184 0
165 184 0
158 175 0
163 181 0
160 177 0
159 176 0
161 179 0
158 173 0
162 181 0
159 177 0
160 177 0
161 178 0
160 176 0
156 173 0
156 172 0
164 181 0
160 175 0
158 174 0
165 184 0
158 172 0
157 172 0
161 178 0
156 170 0
153 168 0
160 177 0
158 174 0
161 178 0
159 176 0
161 179 0
161 176 0
158 178 0
156 172 0
154 168 0
157 172 0
158 171 0
155 166 0
156 171 0
156 171 0
159 172 0
163 180 0
159 176 0
157 173 0
156 169 0
159 174 0
161 176 0
159 176 0
160 177 0
162 176 0
156 168 0
156 170 0
152 166 0
160 176 0
157 170 0
157 171 0
159 177 0
156 169 0
155 166 0
157 172 0
153 164 0
158 171 0
159 176 0
162 177 0
161 174 0
159 176 0
154 163 0
161 177 0
161 172 0
158 172 0
161 175 0
161 175 0
158 169 0
160 176 0
155 167 0
157 166 0
160 171 0
154 167 0
159 177 0
151 161 0
161 175 0
158 167 0
154 167 0
155 163 0
158 171 0
158 174 0
151 160 0
155 163 0
159 170 0
161 175 0
153 162 0
155 164 0
155 165 0
155 167 0
155 169 0
160 175 0
161 172 0
154 164 0
159 171 0
152 162 0
152 165 0
156 166 0
155 166 0
154 164 0
159 171 0
157 171 0
154 160 0
157 169 0
156 166 0
153 163 0
156 167 0
154 165 0
154 164 0
158 169 0
155 163 0
159 172 0
156 164 0
159 170 0
153 161 0
153 162 0
151 156 0
157 164 0
153 163 0
153 162 0
153 163 0
154 163 0
155 166 0
157 165 0
155 166 0
153 159 0
152 161 0
152 159 0
158 167 0
157 162 0
156 163 0
157 163 0
150 157 0
159 170 0
157 167 0
156 161 0
157 163 0
151 157 0
153 161 0
156 163 0
153 156 0
156 166 0
159 169 0
155 161 0
148 152 0
153 155 0
152 157 0
155 161 0
152 154 0
157 165 0
155 162 0
156 163 0
150 151 0
156 164 0
151 156 0
151 156 0
153 156 0
154 160 0
150 152 0
159 168 0
151 155 0
155 161 0
149 155 0
153 158 0
155 161 0
150 156 0
152 155 0
157 163 0
152 158 0
157 166 0
152 156 0
154 159 0
159 163 0
154 158 0
156 160 0
149 151 0
150 154 0
150 152 0
152 155 0
152 154 0
156 163 0
154 160 0
155 158 0
155 160 0
151 150 0
153 157 0
148 148 0
153 158 0
148 148 0
157 161 0
157 160 0
157 162 0
151 158 0
150 150 0
151 152 0
149 147 0
153 156 0
156 159 0
154 156 0
156 161 0
147 147 0
153 157 0
155 156 0
153 156 0
157 167 0
149 157 0
151 152 0
153 153 0
154 157 0
156 162 0
151 152 0
151 153 0
153 154 0
152 155 0
148 149 0
154 158 0
154 158 0
151 152 0
149 148 0
151 154 0
157 162 0
155 163 0
157 161 0
151 154 0
153 157 0
151 154 0
149 148 0
158 164 0
156 164 0
149 152 0
152 154 0
148 148 0
156 164 0
149 149 0
147 145 0
151 155 0
157 163 0
159 166 0
154 158 0
154 163 0
154 155 0
154 155 0
154 157 0
152 158 0
154 160 0
153 155 0
156 164 0
156 160 0
158 161 0
151 156 0
153 156 0
157 163 0
155 163 0
153 159 0
155 161 0
157 164 0
157 165 0
157 161 0
153 155 0
151 151 0
160 170 0
157 163 0
152 156 0
153 158 0
153 155 0
156 161 0
155 160 0
156 161 0
154 161 0
156 162 0
154 161 0
155 161 0
156 162 0
157 162 0
150 155 0
158 163 0
154 161 0
154 160 0
155 163 0
159 166 0
158 167 0
157 164 0
157 166 0
157 163 0
156 163 0
154 162 0
157 166 0
159 167 0
158 164 0
153 157 0
158 161 0
155 160 0
154 161 0
154 160 0
155 159 0
153 157 0
157 164 0
156 164 0
158 167 0
153 155 0
152 158 0
157 167 0
159 171 0
155 162 0
160 168 0
157 165 0
157 161 0
156 162 0
155 158 0
156 164 0
155 161 0
155 163 0
160 173 0
155 162 0
162 171 0
156 164 0
153 160 0
158 169 0
160 171 0
156 165 0
160 171 0
156 165 0
159 166 0
157 168 0
157 167 0
156 165 0
159 169 0
155 164 0
158 167 0
164 174 0
156 165 0
158 168 0
157 165 0
160 167 0
159 168 0
161 171 0
160 169 0
159 171 0
153 162 0
159 168 0
158 165 0
156 163 0
161 169 0
159 169 0
159 169 0
161 168 0
160 171 0
157 166 0
155 160 0
158 164 0
158 166 0
159 169 0
155 162 0
155 163 0
159 164 0
159 168 0
158 166 0
154 156 0
161 169 0
158 167 0
161 169 0
161 172 0
156 160 0
161 169 0
160 170 0
157 166 0
159 166 0
155 161 0
152 157 0
157 164 0
161 170 0
159 166 0
162 171 0
158 166 0
159 168 0
159 167 0
162 174 0
161 170 0
159 169 0
160 169 0
159 169 0
164 174 0
156 164 0
160 173 0
158 169 0
157 167 0
160 171 0
160 169 0
162 173 0
163 174 0
162 172 0
159 169 0
164 175 0
161 173 0
159 168 0
162 180 0
158 176 0
160 178 0
163 180 0
156 173 0
156 172 0
166 185 0
163 179 0
159 174 0
159 176 0
159 177 0
157 175 0
160 177 0
159 176 0
156 171 0
159 177 0
161 178 0
157 172 0
157 172 0
159 176 0
158 174 0
155 167 0
160 175 0
160 178 0
159 174 0
161 177 0
156 172 0
158 171 0
163 179 0
159 177 0
158 174 0
160 176 0
162 177 0
159 175 0
156 173 0
158 174 0
157 171 0
158 171 0
157 173 0
158 174 0
154 169 0
160 176 0
159 171 0
158 174 0
162 178 0
165 184 0
156 171 0
155 166 0
155 167 0
160 175 0
160 176 0
156 172 0
162 178 0
159 174 0
161 177 0
154 167 0
158 173 0
154 169 0
153 167 0
154 169 0
153 164 0
161 177 0
153 163 0
156 169 0
161 176 0
152 163 0
156 171 0
156 166 0
153 167 0
161 173 0
156 169 0
159 174 0
158 174 0
156 169 0
160 175 0
161 177 0
157 171 0
154 166 0
161 177 0
162 179 0
160 174 0
156 167 0
161 177 0
157 171 0
159 171 0
159 172 0
158 170 0
153 167 0
156 167 0
158 172 0
157 170 0
153 163 0
157 171 0
159 168 0
159 171 0
161 175 0
155 164 0
154 166 0
161 175 0
160 174 0
155 167 0
159 175 0
160 173 0
159 172 0
153 165 0
154 166 0
155 164 0
156 169 0
156 169 0
159 173 0
156 166 0
154 162 0
164 175 0
153 164 0
158 169 0
155 163 0
155 166 0
157 167 0
158 170 0
155 165 0
158 172 0
157 165 0
150 158 0
161 175 0
159 169 0
154 164 0
155 163 0
163 174 0
154 158 0
153 166 0
156 164 0
156 168 0
153 158 0
158 168 0
159 170 0
157 166 0
153 157 0
154 164 0
154 162 0
158 170 0
157 166 0
152 160 0
157 165 0
154 163 0
159 171 0
158 171 0
150 152 0
153 159 0
154 161 0
152 157 0
161 171 0
158 166 0
151 158 0
152 158 0
157 166 0
153 159 0
153 163 0
152 159 0
149 151 0
155 160 0
156 160 0
154 160 0
156 163 0
158 164 0
152 157 0
153 160 0
146 145 0
151 153 0
152 153 0
151 151 0
156 163 0
153 158 0
156 160 0
152 159 0
153 157 0
154 160 0
153 157 0
152 157 0
154 156 0
150 151 0
154 157 0
156 161 0
155 155 0
153 157 0
156 161 0
156 161 0
150 155 0
156 156 0
152 155 0
152 154 0
148 151 0
153 160 0
161 170 0
154 159 0
152 154 0
149 151 0
150 152 0
155 158 0
151 152 0
152 155 0
151 154 0
153 156 0
158 164 0
156 159 0
152 158 0
147 148 0
152 154 0
151 152 0
147 144 0
151 155 0
153 152 0
149 149 0
160 168 0
157 166 0
155 162 0
154 157 0
149 152 0
153 153 0
154 156 0
156 165 0
149 147 0
152 153 0
154 159 0
149 152 0
151 152 0
157 165 0
156 162 0
150 150 0
160 164 0
156 160 0
157 164 0
155 157 0
157 160 0
155 157 0
154 159 0
155 162 0
156 161 0
158 165 0
154 159 0
151 156 0
152 156 0
152 154 0
155 163 0
154 158 0
158 163 0
155 158 0
154 162 0
150 149 0
158 167 0
155 160 0
158 163 0
157 163 0
153 159 0
155 158 0
156 161 0
157 162 0
150 151 0
156 162 0
152 156 0
154 159 0
154 158 0
153 158 0
158 164 0
156 162 0
153 158 0
162 171 0
151 154 0
157 165 0
151 158 0
157 162 0
146 147 0
155 162 0
156 165 0
157 162 0
155 161 0
154 162 0
153 162 0
152 160 0
156 166 0
160 167 0
159 165 0
157 165 0
155 161 0
155 157 0
155 162 0
163 172 0
153 162 0
153 159 0
159 167 0
159 171 0
164 175 0
161 173 0
151 157 0
160 170 0
159 170 0
159 170 0
156 165 0
157 162 0
158 165 0
157 168 0
155 161 0
161 171 0
154 160 0
157 166 0
160 169 0
159 166 0
159 166 0
163 173 0
154 160 0
160 170 0
158 166 0
157 165 0
158 164 0
158 167 0
160 170 0
154 160 0
157 165 0
154 156 0
156 166 0
158 166 0
156 165 0
159 165 0
156 165 0
159 169 0
162 169 0
151 157 0
161 172 0
158 167 0
160 170 0
157 166 0
159 168 0
158 169 0
158 167 0
157 166 0
157 168 0
156 163 0
162 172 0
157 164 0
161 173 0
154 162 0
159 169 0
155 163 0
157 165 0
159 168 0
157 166 0
157 167 0
157 166 0
157 162 0
161 172 0
157 165 0
160 166 0
156 168 0
153 158 0
163 174 0
159 170 0
157 167 0
164 175 0
157 167 0
157 166 0
156 167 0
159 167 0
159 167 0
154 157 0
163 172 0
161 168 0
160 167 0
160 168 0
163 172 0
159 166 0
162 169 0
162 173 0
160 169 0
161 173 0
161 172 0
160 167 0
161 171 0
161 168 0
155 163 0
159 168 0
159 167 0
158 167 0
162 171 0
159 167 0
157 165 0
156 165 0
159 167 0
163 173 0
164 175 0
163 171 0
163 173 0
163 172 0
160 169 0
159 168 0
158 167 0
161 170 0
163 171 0
158 168 0
155 162 0
158 164 0
161 170 0
157 175 0
159 178 0
158 176 0
157 174 0
160 175 0
159 177 0
162 178 0
160 176 0
161 178 0
160 178 0
159 177 0
159 176 0
167 185 0
160 177 0
161 177 0
155 171 0
161 176 0
161 178 0
163 180 0
160 175 0
164 180 0
162 178 0
161 177 0
161 177 0
158 175 0
161 179 0
161 178 0
159 173 0
161 178 0
158 173 0
159 173 0
156 171 0
157 173 0
161 178 0
162 177 0
159 175 0
163 177 0
152 166 0
153 168 0
159 175 0
159 176 0
156 171 0
161 177 0
163 180 0
159 174 0
157 171 0
164 182 0
158 176 0
161 174 0
156 170 0
160 175 0
157 170 0
162 177 0
159 172 0
159 172 0
157 171 0
157 171 0
157 170 0
156 167 0
156 171 0
160 176 0
156 172 0
157 170 0
158 173 0
154 165 0
157 169 0
158 170 0
156 170 0
162 177 0
157 170 0
158 172 0
154 167 0
156 169 0
156 170 0
159 170 0
155 169 0
160 173 0
156 170 0
154 166 0
154 162 0
159 171 0
159 174 0
155 167 0
154 168 0
157 169 0
152 161 0
158 170 0
152 164 0
158 174 0
159 171 0
158 171 0
156 168 0
157 169 0
151 157 0
155 168 0
160 173 0
156 167 0
158 171 0
158 169 0
156 167 0
154 164 0
160 173 0
155 162 0
159 172 0
158 170 0
155 165 0
154 166 0
157 172 0
161 175 0
160 174 0
155 165 0
156 168 0
158 168 0
159 172 0
156 163 0
154 168 0
152 161 0
154 164 0
155 162 0
160 171 0
158 166 0
155 162 0
156 165 0
155 162 0
155 163 0
155 167 0
151 159 0
158 172 0
156 164 0
158 169 0
158 170 0
152 158 0
157 165 0
158 168 0
153 159 0
159 169 0
155 165 0
155 159 0
155 161 0
153 161 0
150 151 0
157 166 0
155 162 0
151 156 0
157 165 0
156 166 0
154 162 0
152 155 0
158 164 0
154 162 0
152 156 0
153 159 0
158 167 0
152 153 0
156 164 0
152 157 0
155 163 0
158 167 0
152 158 0
154 163 0
150 151 0
156 163 0
150 156 0
153 157 0
155 157 0
151 154 0
154 162 0
153 157 0
153 157 0
159 167 0
150 153 0
153 160 0
157 162 0
155 160 0
155 161 0
153 159 0
154 157 0
150 151 0
156 159 0
152 156 0
152 152 0
155 161 0
152 160 0
148 149 0
155 158 0
156 161 0
156 161 0
156 163 0
157 166 0
154 157 0
152 156 0
153 157 0
156 161 0
157 165 0
154 155 0
154 159 0
156 161 0
152 154 0
153 157 0
154 158 0
150 154 0
151 155 0
156 162 0
155 161 0
154 159 0
154 154 0
153 158 0
145 142 0
153 159 0
151 151 0
150 149 0
149 150 0
154 159 0
156 162 0
155 161 0
152 158 0
152 155 0
158 166 0
148 151 0
153 156 0
149 148 0
155 160 0
150 149 0
149 149 0
155 161 0
154 160 0
153 154 0
158 164 0
156 162 0
155 159 0
148 147 0
151 153 0
156 161 0
156 163 0
156 160 0
151 153 0
159 162 0
162 173 0
155 159 0
154 158 0
153 155 0
155 159 0
158 162 0
151 156 0
161 169 0
155 158 0
155 160 0
153 157 0
157 164 0
154 158 0
154 155 0
153 158 0
150 151 0
154 159 0
153 155 0
153 161 0
154 161 0
154 158 0
156 159 0
149 152 0
158 166 0
155 159 0
157 163 0
153 158 0
156 163 0
156 161 0
152 156 0
151 158 0
156 165 0
157 162 0
154 159 0
158 164 0
154 161 0
155 160 0
158 164 0
156 162 0
160 170 0
162 171 0
159 168 0
155 163 0
157 165 0
164 175 0
153 159 0
155 160 0
161 170 0
157 166 0
156 163 0
156 164 0
157 165 0
158 165 0
158 167 0
160 169 0
159 169 0
159 166 0
157 166 0
154 158 0
149 150 0
158 165 0
158 169 0
157 165 0
153 160 0
156 166 0
155 160 0
154 160 0
156 165 0
154 163 0
152 158 0
160 172 0
156 164 0
156 164 0
155 162 0
153 161 0
154 158 0
160 167 0
161 170 0
158 168 0
161 168 0
159 169 0
159 170 0
153 159 0
160 172 0
156 165 0
158 164 0
161 171 0
155 165 0
158 167 0
158 164 0
157 167 0
160 169 0
158 169 0
153 161 0
159 170 0
157 166 0
159 170 0
157 166 0
156 162 0
160 169 0
153 158 0
161 170 0
159 168 0
160 167 0
157 166 0
158 168 0
161 172 0
160 170 0
158 165 0
163 174 0
159 170 0
159 169 0
158 167 0
162 170 0
160 171 0
159 166 0
160 166 0
157 165 0
157 167 0
156 165 0
158 164 0
156 163 0
158 166 0
156 161 0
160 166 0
157 163 0
157 166 0
157 164 0
158 163 0
157 165 0
158 167 0
157 166 0
159 166 0
159 166 0
158 165 0
156 164 0
160 169 0
157 164 0
165 175 0
156 164 0
154 161 0
159 166 0
158 166 0
160 169 0
161 170 0
159 171 0
160 170 0
159 167 0
158 166 0
162 173 0
162 171 0
155 162 0
162 172 0
164 171 0
160 170 0
159 169 0
159 166 0
159 168 0
159 168 0
163 175 0
162 170 0
158 164 0
159 167 0
161 179 0
161 178 0
154 170 0
160 176 0
156 172 0
158 175 0
161 179 0
163 181 0
161 178 0
160 178 0
162 178 0
161 178 0
158 175 0
160 179 0
161 175 0
158 174 0
158 175 0
158 174 0
161 179 0
161 177 0
159 174 0
162 180 0
159 176 0
157 172 0
159 174 0
158 172 0
158 174 0
160 175 0
160 176 0
160 177 0
157 173 0
160 177 0
160 173 0
158 175 0
159 174 0
158 174 0
157 171 0
153 166 0
161 176 0
157 174 0
158 171 0
158 173 0
157 170 0
162 180 0
158 174 0
162 178 0
158 172 0
160 176 0
162 177 0
155 169 0
159 173 0
159 173 0
159 175 0
160 174 0
153 165 0
151 162 0
156 169 0
163 179 0
155 171 0
160 173 0
155 168 0
157 170 0
157 170 0
159 174 0
157 171 0
157 171 0
158 173 0
159 171 0
159 173 0
156 169 0
151 164 0
162 177 0
158 171 0
150 162 0
155 168 0
159 173 0
156 167 0
158 170 0
159 172 0
160 176 0
153 164 0
156 169 0
154 164 0
158 170 0
155 169 0
159 173 0
154 165 0
159 171 0
160 171 0
164 180 0
155 165 0
160 175 0
159 169 0
158 167 0
158 172 0
153 163 0
156 165 0
157 168 0
156 167 0
162 174 0
158 167 0
156 170 0
155 168 0
161 175 0
154 161 0
160 171 0
156 164 0
155 168 0
161 173 0
155 165 0
152 156 0
157 169 0
157 167 0
154 163 0
159 172 0
156 163 0
157 167 0
155 165 0
157 166 0
151 159 0
150 159 0
153 162 0
155 164 0
155 164 0
162 176 0
159 168 0
154 163 0
155 163 0
152 156 0
157 168 0
154 157 0
153 160 0
157 167 0
157 165 0
156 166 0
155 162 0
158 163 0
159 170 0
154 163 0
158 169 0
152 158 0
154 160 0
157 165 0
157 164 0
159 166 0
156 163 0
155 164 0
154 160 0
148 152 0
158 169 0
156 164 0
163 173 0
150 154 0
155 162 0
156 163 0
154 159 0
152 158 0
150 156 0
150 152 0
158 167 0
157 166 0
156 161 0
158 167 0
157 164 0
151 160 0
160 169 0
154 159 0
150 154 0
157 168 0
154 161 0
155 160 0
160 170 0
149 153 0
152 152 0
154 157 0
156 164 0
151 157 0
152 155 0
155 157 0
157 166 0
157 167 0
153 154 0
155 160 0
154 154 0
154 159 0
153 159 0
156 163 0
156 162 0
153 156 0
155 157 0
157 163 0
150 150 0
154 159 0
153 159 0
154 159 0
150 154 0
152 153 0
153 158 0
158 161 0
146 143 0
150 149 0
153 159 0
155 161 0
148 151 0
151 156 0
152 157 0
158 167 0
146 143 0
157 166 0
155 156 0
153 154 0
152 158 0
162 171 0
153 159 0
147 147 0
158 165 0
153 154 0
152 152 0
154 155 0
159 166 0
154 156 0
155 158 0
153 154 0
153 154 0
147 142 0
154 160 0
159 169 0
158 162 0
154 155 0
155 157 0
152 153 0
151 151 0
156 162 0
153 154 0
157 164 0
154 157 0
156 159 0
150 154 0
154 160 0
154 157 0
152 159 0
152 154 0
152 156 0
156 161 0
152 157 0
155 161 0
153 157 0
151 158 0
157 164 0
162 172 0
154 160 0
154 157 0
154 159 0
157 162 0
159 165 0
157 162 0
158 164 0
156 161 0
156 163 0
155 162 0
156 164 0
158 163 0
156 165 0
154 161 0
156 160 0
158 163 0
158 163 0
155 163 0
153 158 0
154 160 0
152 154 0
154 158 0
155 158 0
154 158 0
156 160 0
157 165 0
159 166 0
158 167 0
159 168 0
155 162 0
157 165 0
156 165 0
158 165 0
158 166 0
154 155 0
161 169 0
155 162 0
163 173 0
162 172 0
158 167 0
160 168 0
162 172 0
156 164 0
157 166 0
152 159 0
161 170 0
158 169 0
160 170 0
158 168 0
157 166 0
152 156 0
155 158 0
154 160 0
156 161 0
160 169 0
159 169 0
156 163 0
159 169 0
160 167 0
159 170 0
154 159 0
161 170 0
155 166 0
159 169 0
162 176 0
153 157 0
159 166 0
157 166 0
155 160 0
159 167 0
160 170 0
157 169 0
154 162 0
155 161 0
155 164 0
157 160 0
159 168 0
159 170 0
161 172 0
155 163 0
158 166 0
157 165 0
164 175 0
163 174 0
156 163 0
160 171 0
156 165 0
159 169 0
159 170 0
158 167 0
159 170 0
159 170 0
159 165 0
160 169 0
162 173 0
160 167 0
162 174 0
158 162 0
156 162 0
159 171 0
159 169 0
160 171 0
157 162 0
158 169 0
158 166 0
159 167 0
156 165 0
159 168 0
161 169 0
159 166 0
156 165 0
158 166 0
158 165 0
156 165 0
157 164 0
156 165 0
159 167 0
160 169 0
160 165 0
161 171 0
154 164 0
157 165 0
161 168 0
161 169 0
156 164 0
160 167 0
155 161 0
159 170 0
160 170 0
160 171 0
162 173 0
160 171 0
158 165 0
159 167 0
160 171 0
155 162 0
159 170 0
162 173 0
161 171 0
153 160 0
161 171 0
166 176 0
164 177 0
160 169 0
161 170 0
163 171 0
160 168 0
158 168 0
164 175 0
166 178 0
161 180 0
158 173 0
163 180 0
163 180 0
163 180 0
160 179 0
160 178 0
158 173 0
161 178 0
164 181 0
155 171 0
160 177 0
158 175 0
157 173 0
162 178 0
160 175 0
161 179 0
155 171 0
163 179 0
161 178 0
156 172 0
154 168 0
159 174 0
156 171 0
159 175 0
157 175 0
160 176 0
158 176 0
157 172 0
160 176 0
158 174 0
157 175 0
158 174 0
159 172 0
162 179 0
155 170 0
160 174 0
154 167 0
160 176 0
152 167 0
158 175 0
158 174 0
160 177 0
163 178 0
159 175 0
156 169 0
161 175 0
156 170 0
159 173 0
159 174 0
161 176 0
162 179 0
161 178 0
159 174 0
157 170 0
159 172 0
158 173 0
150 162 0
159 175 0
160 173 0
163 180 0
158 171 0
155 167 0
157 169 0
157 171 0
162 178 0
157 173 0
154 164 0
160 179 0
154 164 0
158 174 0
152 166 0
159 172 0
158 171 0
154 164 0
160 175 0
161 174 0
160 174 0
161 174 0
153 165 0
152 163 0
156 168 0
157 168 0
155 166 0
159 172 0
156 167 0
156 166 0
155 167 0
157 168 0
156 167 0
160 171 0
157 172 0
159 171 0
159 173 0
152 161 0
162 173 0
156 171 0
156 165 0
161 174 0
151 161 0
159 171 0
158 170 0
156 165 0
160 172 0
164 178 0
155 166 0
157 167 0
158 171 0
160 172 0
158 171 0
157 167 0
161 174 0
157 169 0
156 165 0
157 169 0
157 167 0
156 163 0
154 162 0
155 166 0
155 163 0
159 169 0
153 161 0
158 169 0
157 164 0
155 164 0
155 166 0
157 166 0
158 167 0
155 162 0
156 163 0
152 158 0
157 167 0
156 168 0
153 160 0
158 166 0
151 154 0
158 168 0
156 164 0
158 169 0
151 157 0
161 169 0
155 164 0
154 162 0
157 166 0
160 167 0
160 169 0
154 157 0
158 164 0
159 165 0
159 168 0
155 163 0
157 166 0
160 170 0
153 160 0
151 154 0
160 167 0
153 157 0
147 150 0
156 159 0
153 155 0
154 157 0
150 154 0
160 167 0
152 156 0
156 158 0
159 168 0
155 163 0
151 154 0
155 160 0
149 151 0
157 166 0
154 159 0
151 157 0
160 167 0
154 162 0
157 163 0
152 156 0
159 168 0
153 162 0
154 160 0
160 168 0
149 156 0
154 160 0
157 168 0
151 155 0
154 157 0
155 155 0
148 148 0
151 154 0
153 155 0
151 154 0
156 162 0
154 158 0
155 159 0
157 161 0
153 155 0
146 147 0
158 169 0
153 160 0
153 156 0
151 152 0
153 154 0
156 159 0
154 158 0
153 156 0
158 160 0
157 165 0
153 155 0
154 159 0
149 151 0
150 151 0
150 154 0
150 151 0
152 154 0
157 164 0
151 159 0
150 155 0
154 159 0
151 153 0
153 156 0
153 159 0
154 158 0
155 159 0
153 159 0
154 154 0
155 161 0
154 158 0
150 153 0
161 169 0
154 155 0
153 153 0
149 153 0
154 157 0
156 161 0
153 156 0
150 155 0
153 157 0
153 155 0
154 158 0
155 160 0
158 166 0
155 157 0
156 164 0
152 157 0
158 162 0
157 163 0
156 159 0
158 165 0
157 168 0
154 160 0
157 163 0
157 160 0
157 166 0
154 155 0
156 163 0
152 153 0
156 163 0
156 163 0
154 161 0
152 149 0
159 169 0
154 162 0
155 164 0
157 162 0
155 163 0
153 158 0
158 161 0
157 164 0
155 161 0
157 163 0
154 160 0
158 165 0
157 164 0
157 160 0
156 164 0
159 169 0
158 165 0
158 164 0
160 170 0
162 174 0
154 162 0
159 170 0
156 165 0
154 161 0
155 162 0
159 168 0
160 170 0
153 160 0
153 158 0
160 172 0
160 169 0
157 166 0
155 164 0
152 159 0
158 166 0
160 169 0
149 155 0
159 169 0
160 171 0
158 164 0
158 167 0
153 156 0
154 158 0
160 168 0
153 161 0
158 164 0
155 164 0
161 172 0
156 161 0
153 158 0
161 171 0
157 171 0
158 168 0
155 163 0
158 168 0
159 169 0
156 162 0
157 165 0
159 167 0
162 173 0
158 169 0
159 169 0
159 168 0
158 165 0
153 157 0
161 171 0
157 165 0
155 161 0
159 171 0
156 162 0
154 161 0
159 169 0
155 163 0
158 169 0
158 170 0
157 164 0
158 167 0
158 166 0
156 164 0
158 170 0
154 157 0
161 172 0
160 171 0
164 177 0
158 168 0
159 168 0
156 165 0
161 170 0
155 160 0
150 157 0
161 173 0
156 163 0
160 170 0
161 170 0
161 170 0
157 164 0
159 167 0
155 162 0
153 157 0
158 166 0
159 167 0
159 170 0
160 171 0
160 172 0
158 167 0
161 174 0
160 168 0
163 174 0
158 168 0
159 167 0
162 172 0
159 169 0
158 167 0
160 170 0
159 169 0
159 167 0
160 171 0
163 175 0
160 168 0
158 167 0
160 169 0
160 170 0
161 169 0
160 170 0
159 166 0
156 162 0
159 171 0
158 168 0
158 167 0
156 165 0
160 171 0
163 172 0
161 169 0
155 162 0
164 172 0
159 168 0
163 174 0
159 170 0
162 172 0
163 174 0
161 177 0
162 180 0
161 177 0
159 175 0
159 175 0
161 179 0
158 174 0
162 180 0
162 179 0
157 172 0
162 179 0
161 179 0
159 173 0
157 174 0
159 173 0
160 177 0
161 177 0
157 173 0
159 176 0
157 174 0
160 177 0
161 177 0
162 179 0
157 171 0
159 176 0
161 179 0
163 180 0
158 173 0
162 178 0
156 171 0
157 173 0
159 174 0
155 169 0
158 173 0
160 176 0
154 168 0
161 177 0
160 177 0
160 175 0
157 175 0
158 173 0
157 169 0
159 174 0
163 180 0
158 174 0
158 172 0
154 168 0
160 176 0
156 170 0
161 173 0
160 177 0
160 174 0
151 160 0
156 169 0
160 176 0
157 171 0
160 175 0
157 171 0
155 169 0
158 174 0
160 174 0
159 174 0
158 174 0
159 172 0
161 174 0
158 172 0
154 167 0
159 172 0
157 171 0
158 169 0
158 169 0
159 174 0
158 174 0
156 170 0
161 172 0
155 168 0
159 174 0
161 176 0
156 170 0
158 170 0
155 171 0
158 170 0
160 172 0
159 173 0
157 171 0
157 168 0
160 173 0
164 179 0
153 167 0
154 167 0
152 160 0
160 173 0
159 173 0
160 171 0
164 180 0
152 158 0
155 168 0
157 171 0
161 172 0
157 168 0
155 165 0
157 169 0
156 169 0
160 169 0
159 169 0
157 168 0
159 166 0
157 166 0
159 170 0
156 169 0
157 168 0
153 161 0
156 166 0
157 169 0
152 159 0
158 170 0
158 172 0
159 171 0
156 167 0
152 157 0
158 167 0
154 163 0
157 166 0
153 161 0
157 164 0
157 166 0
155 164 0
154 161 0
157 165 0
158 166 0
158 169 0
157 168 0
157 167 0
156 167 0
156 168 0
157 167 0
156 163 0
160 170 0
152 159 0
156 164 0
157 167 0
154 161 0
157 164 0
156 165 0
159 169 0
157 163 0
153 158 0
156 168 0
158 166 0
160 167 0
157 160 0
156 161 0
153 158 0
156 164 0
155 163 0
155 164 0
156 162 0
160 168 0
152 151 0
157 163 0
158 167 0
152 153 0
157 170 0
152 156 0
155 159 0
154 157 0
153 160 0
157 165 0
151 153 0
155 163 0
152 154 0
157 164 0
154 161 0
157 165 0
157 164 0
155 159 0
154 160 0
153 157 0
146 144 0
153 158 0
155 159 0
155 160 0
156 160 0
155 161 0
154 158 0
156 159 0
153 159 0
158 163 0
154 160 0
155 162 0
154 160 0
154 156 0
153 157 0
153 158 0
156 159 0
155 158 0
155 158 0
154 157 0
154 159 0
156 161 0
155 160 0
154 157 0
149 154 0
154 159 0
154 159 0
155 158 0
153 158 0
152 155 0
151 155 0
149 152 0
155 162 0
153 159 0
153 155 0
154 157 0
159 164 0
155 158 0
155 160 0
155 160 0
155 159 0
154 160 0
155 161 0
156 162 0
155 162 0
151 150 0
154 160 0
151 151 0
155 159 0
159 169 0
150 154 0
159 167 0
160 169 0
153 158 0
150 152 0
153 154 0
157 164 0
155 158 0
156 158 0
148 149 0
150 152 0
150 155 0
154 157 0
154 159 0
150 151 0
158 163 0
152 158 0
157 162 0
154 156 0
157 160 0
157 164 0
156 159 0
156 163 0
157 165 0
152 156 0
155 158 0
151 155 0
150 156 0
158 163 0
157 160 0
154 155 0
156 159 0
155 160 0
156 164 0
155 162 0
162 172 0
158 169 0
155 159 0
159 166 0
154 157 0
155 161 0
154 161 0
155 159 0
151 155 0
162 168 0
155 163 0
151 158 0
160 168 0
155 162 0
154 160 0
152 159 0
158 166 0
154 161 0
158 168 0
159 167 0
157 163 0
157 166 0
153 160 0
156 165 0
154 159 0
151 157 0
158 167 0
157 166 0
159 171 0
158 166 0
158 166 0
159 167 0
154 162 0
158 169 0
157 168 0
154 159 0
159 168 0
154 160 0
161 172 0
162 172 0
156 165 0
156 164 0
157 164 0
156 165 0
156 166 0
162 174 0
159 169 0
157 165 0
156 165 0
159 168 0
158 168 0
159 167 0
152 157 0
162 166 0
156 166 0
157 163 0
160 170 0
163 176 0
159 167 0
158 163 0
158 166 0
156 165 0
155 165 0
161 168 0
157 166 0
160 167 0
156 161 0
155 162 0
158 167 0
157 166 0
157 165 0
159 167 0
153 160 0
153 157 0
162 173 0
159 166 0
156 164 0
163 177 0
159 170 0
163 173 0
159 170 0
157 164 0
160 169 0
163 174 0
155 163 0
157 170 0
153 160 0
159 165 0
160 171 0
155 163 0
163 174 0
157 168 0
162 172 0
158 167 0
154 159 0
160 171 0
164 178 0
159 168 0
161 171 0
164 176 0
157 166 0
164 175 0
158 167 0
160 171 0
160 168 0
162 172 0
157 164 0
164 173 0
156 163 0
159 166 0
158 167 0
162 172 0
159 170 0
155 165 0
159 168 0
161 170 0
161 169 0
162 176 0
156 165 0
160 169 0
163 174 0
158 165 0
157 166 0
161 170 0
166 178 0
164 175 0
163 175 0
157 164 0
151 156 0
161 172 0
162 174 0
157 165 0
161 172 0
163 173 0
165 178 0
160 171 0
163 176 0
161 179 0
156 171 0
158 174 0
156 171 0
160 176 0
164 182 0
163 180 0
158 175 0
159 175 0
163 181 0
164 179 0
161 179 0
160 175 0
162 179 0
155 171 0
163 181 0
163 180 0
161 178 0
156 168 0
156 171 0
160 174 0
160 177 0
157 174 0
162 178 0
155 173 0
163 179 0
161 179 0
156 172 0
161 178 0
161 177 0
159 173 0
159 172 0
160 175 0
159 173 0
156 171 0
158 171 0
162 181 0
159 175 0
157 171 0
163 181 0
153 167 0
160 174 0
153 167 0
158 175 0
164 183 0
162 179 0
159 175 0
159 175 0
159 174 0
163 181 0
158 173 0
156 170 0
158 172 0
157 172 0
163 180 0
154 169 0
154 167 0
155 165 0
160 177 0
151 163 0
158 170 0
159 173 0
154 165 0
157 170 0
156 169 0
157 169 0
165 182 0
157 173 0
153 164 0
161 176 0
156 168 0
161 177 0
161 177 0
161 176 0
156 169 0
159 172 0
159 171 0
160 175 0
156 167 0
159 170 0
159 173 0
158 173 0
158 172 0
161 175 0
162 178 0
164 179 0
157 169 0
160 173 0
151 157 0
152 166 0
153 163 0
163 176 0
161 177 0
157 171 0
158 171 0
153 163 0
157 166 0
157 166 0
155 167 0
155 165 0
160 171 0
156 169 0
158 171 0
155 165 0
156 166 0
159 168 0
160 173 0
156 166 0
153 165 0
157 167 0
161 174 0
155 166 0
151 159 0
160 172 0
160 170 0
159 173 0
159 168 0
160 171 0
157 165 0
152 162 0
157 167 0
162 175 0
159 171 0
158 167 0
155 164 0
159 170 0
156 164 0
151 160 0
159 169 0
159 169 0
159 173 0
154 164 0
160 173 0
155 162 0
155 165 0
159 170 0
155 165 0
153 159 0
154 163 0
157 166 0
157 163 0
154 161 0
155 162 0
154 165 0
153 157 0
157 168 0
155 162 0
159 167 0
151 155 0
155 162 0
153 154 0
152 159 0
158 169 0
155 161 0
162 173 0
155 159 0
153 161 0
159 165 0
155 165 0
147 144 0
153 158 0
152 156 0
156 161 0
155 162 0
149 153 0
155 162 0
155 158 0
153 159 0
155 163 0
154 156 0
161 171 0
159 168 0
151 156 0
153 154 0
148 150 0
156 160 0
147 145 0
155 163 0
155 161 0
151 152 0
151 156 0
155 160 0
153 157 0
156 162 0
150 152 0
150 153 0
150 152 0
153 155 0
151 154 0
154 160 0
153 159 0
160 166 0
151 154 0
147 149 0
152 154 0
156 159 0
155 161 0
156 162 0
152 158 0
149 149 0
160 168 0
159 164 0
155 161 0
154 157 0
156 162 0
160 168 0
151 153 0
151 157 0
157 163 0
151 155 0
157 165 0
154 161 0
152 154 0
158 163 0
158 164 0
154 160 0
153 155 0
156 162 0
157 166 0
155 158 0
156 163 0
157 161 0
160 167 0
158 167 0
151 154 0
156 162 0
159 165 0
153 156 0
160 167 0
152 155 0
153 159 0
155 159 0
150 153 0
152 158 0
159 165 0
155 158 0
156 162 0
156 160 0
158 169 0
154 161 0
153 157 0
155 162 0
154 158 0
154 159 0
154 158 0
159 164 0
153 154 0
155 159 0
157 161 0
160 167 0
153 159 0
150 156 0
161 171 0
157 166 0
154 160 0
159 167 0
156 160 0
155 159 0
159 168 0
156 164 0
156 166 0
156 159 0
153 161 0
160 169 0
158 167 0
159 170 0
159 167 0
152 158 0
155 158 0
157 160 0
156 165 0
156 163 0
158 165 0
154 155 0
159 167 0
150 154 0
155 159 0
158 163 0
158 166 0
160 170 0
155 161 0
159 170 0
158 164 0
158 168 0
156 163 0
153 160 0
157 166 0
158 168 0
154 161 0
158 162 0
159 169 0
153 163 0
152 158 0
158 166 0
158 167 0
159 170 0
159 169 0
157 166 0
159 168 0
157 163 0
155 162 0
158 168 0
160 169 0
161 173 0
156 164 0
159 170 0
155 164 0
158 167 0
161 168 0
161 171 0
157 166 0
160 171 0
157 164 0
158 165 0
160 167 0
164 176 0
157 165 0
159 168 0
158 168 0
158 163 0
154 163 0
155 162 0
158 169 0
160 170 0
158 166 0
158 164 0
153 161 0
157 166 0
159 168 0
162 174 0
159 164 0
158 170 0
161 169 0
155 161 0
155 163 0
155 162 0
160 172 0
160 171 0
161 169 0
157 168 0
158 165 0
159 165 0
163 174 0
158 166 0
156 165 0
157 163 0
157 163 0
159 167 0
157 166 0
155 162 0
159 168 0
157 166 0
160 172 0
153 156 0
157 167 0
155 163 0
156 164 0
159 168 0
156 161 0
158 168 0
155 164 0
160 169 0
154 162 0
159 170 0
160 170 0
162 176 0
157 166 0
157 164 0
154 159 0
155 159 0
158 165 0
161 171 0
157 165 0
160 169 0
164 177 0
159 166 0
155 163 0
161 171 0
156 165 0
163 173 0
163 174 0
161 172 0
160 170 0
162 168 0
165 177 0
160 170 0
161 172 0
162 172 0
157 167 0
162 173 0
160 171 0
158 169 0
161 170 0
160 170 0
158 167 0
162 171 0
160 169 0
159 169 0
160 171 0
158 167 0
161 178 0
160 177 0
159 177 0
161 178 0
162 180 0
164 183 0
159 174 0
161 177 0
164 182 0
158 173 0
159 177 0
159 175 0
162 180 0
157 172 0
162 179 0
161 180 0
155 172 0
164 180 0
158 173 0
161 177 0
159 173 0
161 178 0
158 174 0
162 178 0
158 173 0
162 179 0
159 176 0
159 175 0
155 170 0
160 178 0
155 170 0
160 175 0
159 173 0
161 178 0
160 175 0
158 170 0
163 179 0
160 177 0
160 173 0
156 171 0
160 175 0
158 172 0
158 172 0
157 173 0
157 171 0
160 174 0
160 177 0
160 177 0
158 171 0
160 173 0
158 175 0
158 172 0
159 172 0
160 175 0
158 172 0
162 178 0
159 175 0
154 164 0
158 172 0
156 167 0
162 177 0
155 169 0
156 170 0
155 167 0
164 182 0
159 175 0
158 172 0
159 174 0
153 162 0
156 170 0
157 169 0
160 175 0
163 182 0
163 180 0
157 172 0
158 171 0
155 168 0
156 167 0
155 166 0
156 165 0
158 171 0
158 171 0
160 173 0
155 167 0
161 175 0
159 170 0
159 175 0
155 166 0
157 170 0
154 163 0
158 171 0
160 171 0
161 177 0
159 172 0
160 174 0
155 166 0
155 165 0
156 165 0
157 168 0
156 167 0
159 172 0
160 172 0
154 166 0
155 162 0
158 169 0
158 171 0
157 171 0
158 165 0
159 172 0
161 174 0
155 169 0
156 168 0
154 166 0
157 166 0
156 164 0
159 170 0
153 161 0
153 164 0
154 160 0
159 170 0
152 159 0
155 162 0
158 167 0
159 169 0
151 157 0
156 166 0
159 167 0
155 160 0
160 170 0
158 166 0
157 166 0
155 162 0
162 175 0
154 163 0
157 164 0
158 168 0
157 167 0
157 165 0
158 169 0
157 165 0
159 170 0
155 166 0
161 173 0
157 167 0
154 160 0
156 160 0
155 163 0
151 154 0
153 158 0
156 165 0
154 161 0
161 171 0
153 156 0
154 160 0
159 169 0
158 163 0
157 164 0
158 168 0
157 163 0
155 159 0
157 162 0
156 163 0
160 173 0
162 172 0
154 157 0
155 161 0
155 161 0
155 160 0
156 161 0
154 166 0
161 169 0
153 156 0
149 153 0
158 166 0
156 162 0
159 170 0
155 159 0
149 151 0
155 162 0
155 159 0
155 162 0
155 162 0
156 160 0
152 156 0
157 162 0
159 164 0
154 161 0
156 163 0
159 164 0
154 156 0
154 157 0
161 171 0
149 149 0
153 157 0
156 161 0
154 159 0
156 159 0
155 161 0
152 153 0
152 156 0
156 160 0
150 152 0
157 162 0
158 161 0
147 140 0
157 161 0
154 161 0
154 158 0
151 156 0
154 158 0
156 160 0
149 152 0
158 164 0
153 157 0
154 157 0
153 155 0
154 156 0
159 168 0
155 162 0
155 161 0
154 160 0
157 163 0
155 158 0
159 166 0
156 165 0
154 157 0
155 161 0
156 164 0
159 166 0
157 160 0
157 162 0
153 156 0
154 156 0
156 160 0
157 162 0
157 162 0
152 155 0
153 157 0
158 166 0
156 164 0
157 167 0
157 168 0
157 163 0
156 162 0
155 163 0
153 156 0
158 167 0
160 169 0
155 165 0
156 163 0
154 160 0
156 160 0
155 157 0
155 163 0
158 167 0
154 155 0
158 161 0
150 148 0
154 159 0
154 159 0
156 161 0
155 164 0
155 162 0
159 165 0
160 169 0
160 165 0
151 154 0
156 163 0
156 165 0
154 162 0
150 157 0
156 160 0
156 162 0
157 168 0
156 167 0
154 160 0
151 153 0
158 165 0
157 166 0
159 166 0
156 164 0
156 162 0
152 159 0
155 161 0
159 168 0
156 161 0
163 174 0
150 156 0
160 171 0
156 166 0
152 159 0
158 166 0
161 171 0
158 162 0
155 164 0
158 168 0
157 166 0
159 168 0
161 173 0
157 165 0
159 170 0
158 166 0
160 171 0
156 164 0
156 163 0
159 169 0
159 171 0
154 164 0
158 168 0
159 168 0
156 163 0
161 173 0
160 170 0
159 169 0
164 178 0
154 158 0
156 165 0
161 170 0
161 171 0
162 173 0
158 165 0
153 158 0
158 167 0
160 172 0
158 168 0
161 169 0
159 167 0
163 175 0
161 172 0
158 169 0
158 168 0
158 164 0
159 170 0
158 166 0
154 163 0
160 169 0
156 164 0
160 171 0
158 166 0
159 166 0
161 170 0
162 172 0
160 171 0
160 170 0
154 163 0
158 166 0
159 171 0
161 172 0
157 165 0
160 168 0
156 164 0
156 165 0
158 166 0
162 175 0
161 172 0
158 169 0
157 168 0
160 172 0
163 173 0
157 166 0
160 170 0
166 179 0
158 167 0
154 161 0
159 168 0
161 172 0
161 170 0
161 172 0
155 163 0
160 169 0
161 170 0
158 166 0
158 167 0
157 163 0
162 173 0
160 172 0
160 167 0
158 166 0
162 177 0
161 170 0
161 169 0
165 178 0
160 170 0
161 168 0
163 178 0
159 166 0
163 174 0
160 170 0
158 165 0
161 172 0
162 174 0
156 168 0
161 169 0
160 170 0
163 172 0
158 167 0
162 171 0
163 176 0
158 166 0
163 174 0
162 180 0
164 181 0
157 175 0
161 179 0
162 179 0
161 180 0
160 176 0
159 177 0
162 177 0
163 180 0
158 176 0
159 174 0
159 173 0
165 182 0
161 177 0
161 178 0
159 175 0
158 172 0
159 175 0
161 176 0
160 175 0
159 176 0
162 179 0
158 174 0
158 175 0
159 176 0
161 175 0
160 175 0
159 177 0
156 170 0
158 175 0
161 178 0
158 173 0
155 168 0
158 171 0
159 173 0
158 173 0
150 162 0
161 175 0
158 173 0
156 170 0
161 176 0
157 172 0
159 176 0
160 178 0
158 174 0
160 175 0
161 178 0
156 169 0
159 175 0
155 168 0
161 176 0
158 173 0
158 171 0
157 170 0
164 181 0
160 175 0
157 171 0
157 171 0
160 171 0
159 175 0
161 177 0
160 174 0
162 179 0
158 174 0
161 174 0
164 178 0
150 159 0
153 166 0
163 180 0
156 169 0
159 175 0
159 174 0
156 170 0
160 174 0
158 171 0
157 168 0
163 178 0
164 181 0
159 170 0
159 171 0
163 179 0
161 176 0
158 170 0
162 175 0
155 166 0
158 171 0
157 170 0
159 170 0
153 163 0
155 166 0
156 167 0
156 165 0
154 165 0
161 176 0
158 171 0
156 166 0
158 171 0
156 167 0
151 159 0
158 172 0
160 170 0
158 169 0
157 170 0
158 171 0
154 163 0
158 169 0
160 174 0
155 164 0
158 165 0
156 164 0
157 166 0
152 159 0
157 167 0
154 165 0
163 178 0
157 169 0
159 168 0
157 169 0
158 168 0
157 165 0
161 171 0
158 169 0
151 159 0
152 159 0
156 166 0
159 172 0
157 164 0
158 168 0
158 166 0
160 170 0
152 157 0
157 167 0
159 171 0
156 161 0
159 168 0
161 173 0
156 164 0
159 166 0
152 159 0
155 161 0
156 162 0
156 164 0
156 164 0
158 166 0
161 172 0
150 155 0
155 159 0
160 169 0
154 162 0
156 163 0
154 162 0
155 166 0
158 166 0
156 163 0
153 159 0
156 167 0
153 158 0
159 168 0
153 159 0
157 164 0
158 168 0
157 164 0
158 161 0
156 163 0
148 152 0
159 167 0
156 161 0
158 168 0
156 162 0
158 164 0
158 165 0
157 163 0
160 169 0
153 157 0
154 157 0
150 151 0
157 166 0
156 161 0
158 164 0
153 159 0
158 167 0
152 156 0
154 159 0
151 152 0
153 155 0
157 161 0
157 163 0
158 164 0
160 169 0
155 161 0
154 162 0
158 168 0
156 164 0
154 156 0
157 162 0
153 159 0
154 159 0
157 165 0
156 161 0
154 164 0
157 164 0
155 161 0
158 165 0
158 166 0
158 168 0
156 159 0
155 160 0
154 161 0
152 153 0
155 156 0
158 163 0
160 168 0
152 158 0
155 159 0
150 149 0
159 168 0
155 160 0
152 156 0
152 156 0
153 153 0
152 153 0
158 167 0
153 158 0
156 158 0
148 148 0
151 155 0
157 164 0
154 157 0
157 160 0
152 156 0
158 164 0
157 164 0
156 161 0
157 161 0
159 166 0
155 159 0
153 159 0
152 160 0
160 167 0
159 167 0
157 162 0
157 162 0
153 161 0
156 164 0
155 156 0
155 162 0
156 164 0
156 161 0
154 160 0
155 159 0
154 159 0
157 165 0
151 159 0
161 169 0
158 166 0
155 163 0
160 169 0
155 160 0
157 164 0
154 159 0
158 166 0
162 171 0
154 160 0
153 157 0
153 159 0
160 169 0
154 156 0
156 158 0
161 170 0
157 161 0
155 158 0
157 167 0
159 166 0
158 163 0
159 165 0
159 168 0
157 162 0
154 161 0
157 163 0
155 163 0
157 166 0
161 173 0
159 171 0
160 169 0
160 168 0
154 158 0
159 168 0
159 169 0
155 161 0
157 164 0
159 165 0
154 158 0
159 173 0
155 161 0
149 159 0
158 167 0
156 163 0
160 170 0
155 163 0
156 162 0
160 168 0
162 175 0
157 167 0
158 169 0
157 165 0
156 161 0
155 165 0
156 165 0
161 170 0
161 170 0
157 166 0
154 160 0
157 163 0
159 171 0
157 162 0
160 172 0
159 169 0
156 165 0
163 171 0
160 172 0
154 162 0
157 164 0
158 162 0
161 172 0
163 173 0
157 167 0
159 167 0
153 161 0
161 171 0
158 166 0
161 172 0
159 171 0
154 161 0
160 169 0
158 168 0
164 175 0
159 172 0
156 165 0
159 167 0
158 166 0
160 175 0
159 167 0
161 172 0
160 167 0
159 168 0
157 166 0
158 164 0
156 166 0
158 167 0
155 162 0
161 170 0
160 170 0
164 174 0
160 171 0
156 162 0
155 162 0
159 167 0
161 172 0
155 161 0
157 165 0
160 169 0
160 172 0
159 167 0
163 172 0
156 163 0
155 160 0
159 166 0
161 171 0
156 167 0
160 170 0
159 168 0
158 168 0
164 178 0
159 168 0
159 168 0
161 171 0
156 162 0
156 162 0
159 170 0
162 173 0
163 173 0
163 173 0
156 160 0
160 170 0
161 170 0
160 168 0
158 166 0
161 169 0
160 174 0
160 170 0
162 173 0
159 165 0
160 169 0
159 167 0
161 171 0
162 170 0
157 168 0
165 176 0
161 172 0
