P3
400 225
255
217 233 255
217 233 255
217 233 255
217 233 255
217 233 255
217 233 255
217 233 255
217 233 255
217 233 255
217 233 255
217 233 255
217 233 255
217 233 255
217 233 255
217 233 255
217 233 255
217 233 255
217 233 255
217 233 255
217 233 255
217 233 255
217 233 255
217 233 255
217 233 255
217 233 255
217 233 255
217 233 255
217 233 255
217 233 255
217 233 255
217 233 255
217 233 255
217 233 255
217 233 255
217 233 255
217 233 255
217 233 255
217 233 255
217 233 255
217 233 255
217 233 255
217 233 255
217 233 255
217 233 255
217 233 255
217 233 255
217 233 255
217 233 255
217 233 255
217 233 255
217 233 255
217 233 255
217 233 255
216 233 255
216 233 255
216 233 255
216 233 255
216 233 255
216 233 255
216 233 255
216 233 255
216 233 255
216 233 255
216 233 255
216 233 255
216 233 255
216 233 255
216 233 255
216 233 255
216 233 255
216 233 255
216 233 255
216 233 255
216 233 255
216 233 255
216 233 255
216 233 255
216 233 255
216 233 255
216 233 255
216 233 255
216 233 255
216 233 255
216 233 255
216 233 255
216 233 255
216 233 255
216 233 255
216 233 255
216 233 255
216 233 255
216 233 255
216 233 255
216 233 255
216 233 255
216 233 255
216 233 255
216 233 255
216 232 255
216 232 255
216 232 255
216 232 255
216 232 255
216 232 255
216 232 255
216 232 255
216 232 255
216 232 255
216 232 255
216 232 255
216 232 255
216 232 255
216 232 255
216 232 255
216 232 255
216 232 255
216 232 255
216 232 255
215 232 255
215 232 255
215 232 255
215 232 255
215 232 255
215 232 255
215 232 255
215 232 255
215 232 255
215 232 255
215 232 255
215 232 255
215 232 255
215 232 255
215 232 255
215 232 255
215 232 255
215 232 255
215 232 255
215 232 255
215 232 255
215 232 255
215 232 255
215 232 255
215 232 255
215 232 255
215 232 255
215 232 255
215 232 255
215 232 255
215 232 255
215 232 255
215 232 255
215 232 255
215 232 255
215 232 255
215 232 255
215 232 255
215 232 255
215 232 255
215 232 255
215 232 255
215 232 255
215 232 255
215 232 255
215 232 255
215 232 255
215 232 255
215 232 255
215 232 255
215 232 255
215 232 255
215 232 255
215 232 255
215 232 255
215 232 255
215 232 255
215 232 255
215 232 255
215 232 255
215 232 255
215 232 255
215 232 255
215 232 255
215 232 255
215 232 255
215 232 255
215 232 255
215 232 255
215 232 255
215 232 255
215 232 255
215 232 255
215 232 255
215 232 255
215 232 255
215 232 255
215 232 255
215 232 255
215 232 255
215 232 255
215 232 255
215 232 255
215 232 255
215 232 255
215 232 255
215 232 255
215 232 255
215 232 255
215 232 255
215 232 255
215 232 255
215 232 255
215 232 255
215 232 255
215 232 255
215 232 255
215 232 255
215 232 255
215 232 255
215 232 255
215 232 255
215 232 255
215 232 255
215 232 255
215 232 255
215 232 255
215 232 255
215 232 255
215 232 255
215 232 255
215 232 255
215 232 255
215 232 255
215 232 255
215 232 255
215 232 255
215 232 255
215 232 255
215 232 255
215 232 255
215 232 255
215 232 255
215 232 255
215 232 255
215 232 255
215 232 255
215 232 255
215 232 255
215 232 255
215 232 255
215 232 255
215 232 255
215 232 255
215 232 255
215 232 255
215 232 255
215 232 255
215 232 255
215 232 255
215 232 255
215 232 255
215 232 255
215 232 255
215 232 255
215 232 255
215 232 255
215 232 255
215 232 255
215 232 255
215 232 255
215 232 255
215 232 255
215 232 255
215 232 255
215 232 255
215 232 255
215 232 255
215 232 255
215 232 255
215 232 255
215 232 255
215 232 255
215 232 255
216 232 255
216 232 255
216 232 255
216 232 255
216 232 255
216 232 255
216 232 255
216 232 255
216 232 255
216 232 255
216 232 255
216 232 255
216 232 255
216 232 255
216 232 255
216 232 255
216 232 255
216 232 255
216 232 255
216 232 255
216 233 255
216 233 255
216 233 255
216 233 255
216 233 255
216 233 255
216 233 255
216 233 255
216 233 255
216 233 255
216 233 255
216 233 255
216 233 255
216 233 255
216 233 255
216 233 255
216 233 255
216 233 255
216 233 255
216 233 255
216 233 255
216 233 255
216 233 255
216 233 255
216 233 255
216 233 255
216 233 255
216 233 255
216 233 255
216 233 255
216 233 255
216 233 255
216 233 255
216 233 255
216 233 255
216 233 255
216 233 255
216 233 255
216 233 255
216 233 255
216 233 255
216 233 255
216 233 255
216 233 255
217 233 255
217 233 255
217 233 255
217 233 255
217 233 255
217 233 255
217 233 255
217 233 255
217 233 255
217 233 255
217 233 255
217 233 255
217 233 255
217 233 255
217 233 255
217 233 255
217 233 255
217 233 255
217 233 255
217 233 255
217 233 255
217 233 255
217 233 255
217 233 255
217 233 255
217 233 255
217 233 255
217 233 255
217 233 255
217 233 255
217 233 255
217 233 255
217 233 255
217 233 255
217 233 255
217 233 255
217 233 255
217 233 255
217 233 255
217 233 255
217 233 255
217 233 255
217 233 255
217 233 255
217 233 255
217 233 255
217 233 255
217 233 255
217 233 255
217 233 255
217 233 255
217 233 255
217 233 255
217 233 255
217 233 255
217 233 255
217 233 255
217 233 255
217 233 255
217 233 255
217 233 255
217 233 255
217 233 255
217 233 255
217 233 255
217 233 255
217 233 255
217 233 255
217 233 255
217 233 255
217 233 255
217 233 255
217 233 255
217 233 255
217 233 255
217 233 255
217 233 255
217 233 255
217 233 255
217 233 255
217 233 255
217 233 255
217 233 255
217 233 255
217 233 255
217 233 255
217 233 255
217 233 255
217 233 255
217 233 255
217 233 255
217 233 255
217 233 255
217 233 255
217 233 255
217 233 255
217 233 255
217 233 255
217 233 255
217 233 255
217 233 255
217 233 255
217 233 255
217 233 255
217 233 255
217 233 255
217 233 255
217 233 255
217 233 255
217 233 255
217 233 255
217 233 255
217 233 255
217 233 255
217 233 255
216 233 255
216 233 255
216 233 255
216 233 255
216 233 255
216 233 255
216 233 255
216 233 255
216 233 255
216 233 255
216 233 255
216 233 255
216 233 255
216 233 255
216 233 255
216 233 255
216 233 255
216 233 255
216 233 255
216 233 255
216 233 255
216 233 255
216 233 255
216 233 255
216 233 255
216 233 255
216 233 255
216 233 255
216 233 255
216 233 255
216 233 255
216 233 255
216 233 255
216 233 255
216 233 255
216 233 255
216 233 255
216 233 255
216 233 255
216 233 255
216 233 255
216 233 255
216 233 255
216 233 255
216 233 255
216 233 255
216 232 255
216 232 255
216 232 255
216 232 255
216 232 255
216 232 255
216 232 255
216 232 255
216 232 255
216 232 255
216 232 255
216 232 255
216 232 255
216 232 255
216 232 255
216 232 255
216 232 255
216 232 255
216 232 255
216 232 255
216 232 255
215 232 255
215 232 255
215 232 255
215 232 255
215 232 255
215 232 255
215 232 255
215 232 255
215 232 255
215 232 255
215 232 255
215 232 255
215 232 255
215 232 255
215 232 255
215 232 255
215 232 255
215 232 255
215 232 255
215 232 255
215 232 255
215 232 255
215 232 255
215 232 255
215 232 255
215 232 255
215 232 255
215 232 255
215 232 255
215 232 255
215 232 255
215 232 255
215 232 255
215 232 255
215 232 255
215 232 255
215 232 255
215 232 255
215 232 255
215 232 255
215 232 255
215 232 255
215 232 255
215 232 255
215 232 255
215 232 255
215 232 255
215 232 255
215 232 255
215 232 255
215 232 255
215 232 255
215 232 255
215 232 255
215 232 255
215 232 255
215 232 255
215 232 255
215 232 255
215 232 255
215 232 255
215 232 255
215 232 255
215 232 255
215 232 255
215 232 255
215 232 255
215 232 255
215 232 255
215 232 255
215 232 255
215 232 255
215 232 255
215 232 255
215 232 255
215 232 255
215 232 255
215 232 255
215 232 255
215 232 255
215 232 255
215 232 255
215 232 255
215 232 255
215 232 255
215 232 255
215 232 255
215 232 255
215 232 255
215 232 255
215 232 255
215 232 255
215 232 255
215 232 255
215 232 255
215 232 255
215 232 255
215 232 255
215 232 255
215 232 255
215 232 255
215 232 255
215 232 255
215 232 255
215 232 255
215 232 255
215 232 255
215 232 255
215 232 255
215 232 255
215 232 255
215 232 255
215 232 255
215 232 255
215 232 255
215 232 255
215 232 255
215 232 255
215 232 255
215 232 255
215 232 255
215 232 255
215 232 255
215 232 255
215 232 255
215 232 255
215 232 255
215 232 255
215 232 255
215 232 255
215 232 255
215 232 255
215 232 255
215 232 255
215 232 255
215 232 255
215 232 255
215 232 255
215 232 255
215 232 255
215 232 255
215 232 255
216 232 255
216 232 255
216 232 255
216 232 255
216 232 255
216 232 255
216 232 255
216 232 255
216 232 255
216 232 255
216 232 255
216 232 255
216 232 255
216 232 255
216 232 255
216 232 255
216 232 255
216 232 255
216 232 255
216 232 255
216 232 255
216 232 255
216 233 255
216 233 255
216 233 255
216 233 255
216 233 255
216 233 255
216 233 255
216 233 255
216 233 255
216 233 255
216 233 255
216 233 255
216 233 255
216 233 255
216 233 255
216 233 255
216 233 255
216 233 255
216 233 255
216 233 255
216 233 255
216 233 255
216 233 255
216 233 255
216 233 255
216 233 255
216 233 255
216 233 255
216 233 255
216 233 255
216 233 255
216 233 255
216 233 255
216 233 255
216 233 255
216 233 255
216 233 255
216 233 255
216 233 255
216 233 255
216 233 255
216 233 255
216 233 255
216 233 255
216 233 255
216 233 255
217 233 255
217 233 255
217 233 255
217 233 255
217 233 255
217 233 255
217 233 255
217 233 255
217 233 255
217 233 255
217 233 255
217 233 255
217 233 255
217 233 255
217 233 255
217 233 255
217 233 255
217 233 255
217 233 255
217 233 255
217 233 255
217 233 255
217 233 255
217 233 255
217 233 255
217 233 255
217 233 255
217 233 255
217 233 255
217 233 255
217 233 255
217 233 255
217 233 255
217 233 255
217 233 255
217 233 255
217 233 255
217 233 255
217 233 255
217 233 255
217 233 255
217 233 255
217 233 255
217 233 255
217 233 255
217 233 255
217 233 255
217 233 255
217 233 255
217 233 255
217 233 255
217 233 255
217 233 255
217 233 255
217 233 255
217 233 255
217 233 255
217 233 255
217 233 255
217 233 255
217 233 255
217 233 255
217 233 255
217 233 255
217 233 255
217 233 255
217 233 255
217 233 255
217 233 255
217 233 255
217 233 255
217 233 255
217 233 255
217 233 255
217 233 255
217 233 255
217 233 255
217 233 255
217 233 255
217 233 255
217 233 255
217 233 255
217 233 255
217 233 255
217 233 255
217 233 255
217 233 255
217 233 255
217 233 255
217 233 255
217 233 255
217 233 255
217 233 255
217 233 255
217 233 255
217 233 255
217 233 255
217 233 255
217 233 255
217 233 255
217 233 255
217 233 255
217 233 255
217 233 255
217 233 255
217 233 255
217 233 255
217 233 255
217 233 255
217 233 255
217 233 255
217 233 255
217 233 255
217 233 255
217 233 255
217 233 255
217 233 255
217 233 255
217 233 255
217 233 255
217 233 255
217 233 255
217 233 255
217 233 255
217 233 255
217 233 255
217 233 255
217 233 255
217 233 255
217 233 255
217 233 255
217 233 255
217 233 255
216 233 255
216 233 255
216 233 255
216 233 255
216 233 255
216 233 255
216 233 255
216 233 255
216 233 255
216 233 255
216 233 255
216 233 255
216 233 255
216 233 255
216 233 255
216 233 255
216 233 255
216 233 255
216 233 255
216 233 255
216 233 255
216 233 255
216 233 255
216 233 255
216 233 255
216 233 255
216 233 255
216 233 255
216 233 255
216 233 255
216 233 255
216 233 255
216 233 255
216 233 255
216 233 255
216 233 255
216 233 255
216 233 255
216 233 255
216 233 255
216 233 255
216 233 255
216 233 255
216 233 255
216 233 255
216 233 255
216 232 255
216 232 255
216 232 255
216 232 255
216 232 255
216 232 255
216 232 255
216 232 255
216 232 255
216 232 255
216 232 255
216 232 255
216 232 255
216 232 255
216 232 255
216 232 255
216 232 255
216 232 255
216 232 255
216 232 255
216 232 255
216 232 255
216 232 255
216 232 255
215 232 255
215 232 255
215 232 255
215 232 255
215 232 255
215 232 255
215 232 255
215 232 255
215 232 255
215 232 255
215 232 255
215 232 255
215 232 255
215 232 255
215 232 255
215 232 255
215 232 255
215 232 255
215 232 255
215 232 255
215 232 255
215 232 255
215 232 255
215 232 255
215 232 255
215 232 255
215 232 255
215 232 255
215 232 255
215 232 255
215 232 255
215 232 255
215 232 255
215 232 255
215 232 255
215 232 255
215 232 255
215 232 255
215 232 255
215 232 255
215 232 255
215 232 255
215 232 255
215 232 255
215 232 255
215 232 255
215 232 255
215 232 255
215 232 255
215 232 255
215 232 255
215 232 255
215 232 255
215 232 255
215 232 255
215 232 255
215 232 255
215 232 255
215 232 255
215 232 255
215 232 255
215 232 255
215 232 255
215 232 255
215 232 255
215 232 255
215 232 255
215 232 255
215 232 255
215 232 255
215 232 255
215 232 255
215 232 255
215 232 255
215 232 255
215 232 255
215 232 255
215 232 255
215 232 255
215 232 255
215 232 255
215 232 255
215 232 255
215 232 255
215 232 255
215 232 255
215 232 255
215 232 255
215 232 255
215 232 255
215 232 255
215 232 255
215 232 255
215 232 255
215 232 255
215 232 255
215 232 255
215 232 255
215 232 255
215 232 255
215 232 255
215 232 255
215 232 255
215 232 255
215 232 255
215 232 255
215 232 255
215 232 255
215 232 255
215 232 255
215 232 255
215 232 255
215 232 255
215 232 255
215 232 255
215 232 255
215 232 255
216 232 255
216 232 255
216 232 255
216 232 255
216 232 255
216 232 255
216 232 255
216 232 255
216 232 255
216 232 255
216 232 255
216 232 255
216 232 255
216 232 255
216 232 255
216 232 255
216 232 255
216 232 255
216 232 255
216 232 255
216 232 255
216 232 255
216 232 255
216 232 255
216 233 255
216 233 255
216 233 255
216 233 255
216 233 255
216 233 255
216 233 255
216 233 255
216 233 255
216 233 255
216 233 255
216 233 255
216 233 255
216 233 255
216 233 255
216 233 255
216 233 255
216 233 255
216 233 255
216 233 255
216 233 255
216 233 255
216 233 255
216 233 255
216 233 255
216 233 255
216 233 255
216 233 255
216 233 255
216 233 255
216 233 255
216 233 255
216 233 255
216 233 255
216 233 255
216 233 255
216 233 255
216 233 255
216 233 255
216 233 255
216 233 255
216 233 255
216 233 255
216 233 255
216 233 255
216 233 255
217 233 255
217 233 255
217 233 255
217 233 255
217 233 255
217 233 255
217 233 255
217 233 255
217 233 255
217 233 255
217 233 255
217 233 255
217 233 255
217 233 255
217 233 255
217 233 255
217 233 255
217 233 255
217 233 255
217 233 255
217 233 255
217 233 255
217 233 255
217 233 255
217 233 255
217 233 255
217 233 255
217 233 255
217 233 255
217 233 255
217 233 255
217 233 255
217 233 255
217 233 255
217 233 255
217 233 255
217 233 255
217 233 255
217 233 255
217 233 255
217 233 255
217 233 255
217 233 255
217 233 255
217 233 255
217 233 255
217 233 255
217 233 255
217 233 255
217 233 255
217 233 255
217 233 255
217 233 255
217 233 255
217 233 255
217 233 255
217 233 255
217 233 255
217 233 255
217 233 255
217 233 255
217 233 255
217 233 255
217 233 255
217 233 255
217 233 255
217 233 255
217 233 255
217 233 255
217 233 255
217 233 255
217 233 255
218 233 255
218 233 255
218 233 255
218 233 255
218 233 255
217 233 255
217 233 255
217 233 255
217 233 255
217 233 255
217 233 255
217 233 255
217 233 255
217 233 255
217 233 255
217 233 255
217 233 255
217 233 255
217 233 255
217 233 255
217 233 255
217 233 255
217 233 255
217 233 255
217 233 255
217 233 255
217 233 255
217 233 255
217 233 255
217 233 255
217 233 255
217 233 255
217 233 255
217 233 255
217 233 255
217 233 255
217 233 255
217 233 255
217 233 255
217 233 255
217 233 255
217 233 255
217 233 255
217 233 255
217 233 255
217 233 255
217 233 255
217 233 255
217 233 255
217 233 255
217 233 255
217 233 255
217 233 255
217 233 255
217 233 255
217 233 255
217 233 255
217 233 255
217 233 255
217 233 255
217 233 255
217 233 255
217 233 255
217 233 255
217 233 255
217 233 255
217 233 255
217 233 255
217 233 255
217 233 255
217 233 255
217 233 255
217 233 255
217 233 255
217 233 255
217 233 255
217 233 255
217 233 255
217 233 255
217 233 255
216 233 255
216 233 255
216 233 255
216 233 255
216 233 255
216 233 255
216 233 255
216 233 255
216 233 255
216 233 255
216 233 255
216 233 255
216 233 255
216 233 255
216 233 255
216 233 255
216 233 255
216 233 255
216 233 255
216 233 255
216 233 255
216 233 255
216 233 255
216 233 255
216 233 255
216 233 255
216 233 255
216 233 255
216 233 255
216 233 255
216 233 255
216 233 255
216 233 255
216 233 255
216 233 255
216 233 255
216 233 255
216 233 255
216 233 255
216 233 255
216 233 255
216 233 255
216 233 255
216 233 255
216 233 255
216 233 255
216 233 255
216 233 255
216 233 255
216 233 255
216 232 255
216 232 255
216 232 255
216 232 255
216 232 255
216 232 255
216 232 255
216 232 255
216 232 255
216 232 255
216 232 255
216 232 255
216 232 255
216 232 255
216 232 255
216 232 255
216 232 255
216 232 255
216 232 255
216 232 255
216 232 255
216 232 255
216 232 255
216 232 255
216 232 255
216 232 255
216 232 255
215 232 255
215 232 255
215 232 255
215 232 255
215 232 255
215 232 255
215 232 255
215 232 255
215 232 255
215 232 255
215 232 255
215 232 255
215 232 255
215 232 255
215 232 255
215 232 255
215 232 255
215 232 255
215 232 255
215 232 255
215 232 255
215 232 255
215 232 255
215 232 255
215 232 255
215 232 255
215 232 255
215 232 255
215 232 255
215 232 255
215 232 255
215 232 255
215 232 255
215 232 255
215 232 255
215 232 255
215 232 255
215 232 255
215 232 255
215 232 255
215 232 255
215 232 255
215 232 255
215 232 255
215 232 255
215 232 255
215 232 255
215 232 255
215 232 255
215 232 255
215 232 255
215 232 255
215 232 255
215 232 255
215 232 255
215 232 255
215 232 255
215 232 255
215 232 255
215 232 255
215 232 255
215 232 255
215 232 255
215 232 255
215 232 255
215 232 255
215 232 255
215 232 255
215 232 255
215 232 255
215 232 255
215 232 255
215 232 255
215 232 255
215 232 255
215 232 255
215 232 255
215 232 255
215 232 255
215 232 255
215 232 255
215 232 255
215 232 255
215 232 255
215 232 255
215 232 255
216 232 255
216 232 255
216 232 255
216 232 255
216 232 255
216 232 255
216 232 255
216 232 255
216 232 255
216 232 255
216 232 255
216 232 255
216 232 255
216 232 255
216 232 255
216 232 255
216 232 255
216 232 255
216 232 255
216 232 255
216 232 255
216 232 255
216 232 255
216 232 255
216 232 255
216 232 255
216 232 255
216 233 255
216 233 255
216 233 255
216 233 255
216 233 255
216 233 255
216 233 255
216 233 255
216 233 255
216 233 255
216 233 255
216 233 255
216 233 255
216 233 255
216 233 255
216 233 255
216 233 255
216 233 255
216 233 255
216 233 255
216 233 255
216 233 255
216 233 255
216 233 255
216 233 255
216 233 255
216 233 255
216 233 255
216 233 255
216 233 255
216 233 255
216 233 255
216 233 255
216 233 255
216 233 255
216 233 255
216 233 255
216 233 255
216 233 255
216 233 255
216 233 255
216 233 255
216 233 255
216 233 255
216 233 255
216 233 255
216 233 255
216 233 255
216 233 255
217 233 255
217 233 255
217 233 255
217 233 255
217 233 255
217 233 255
217 233 255
217 233 255
217 233 255
217 233 255
217 233 255
217 233 255
217 233 255
217 233 255
217 233 255
217 233 255
217 233 255
217 233 255
217 233 255
217 233 255
217 233 255
217 233 255
217 233 255
217 233 255
217 233 255
217 233 255
217 233 255
217 233 255
217 233 255
217 233 255
217 233 255
217 233 255
217 233 255
217 233 255
217 233 255
217 233 255
217 233 255
217 233 255
217 233 255
217 233 255
217 233 255
217 233 255
217 233 255
217 233 255
217 233 255
217 233 255
217 233 255
217 233 255
217 233 255
217 233 255
217 233 255
217 233 255
217 233 255
217 233 255
217 233 255
217 233 255
217 233 255
217 233 255
217 233 255
217 233 255
217 233 255
217 233 255
217 233 255
217 233 255
217 233 255
217 233 255
217 233 255
217 233 255
217 233 255
217 233 255
217 233 255
217 233 255
217 233 255
217 233 255
218 233 255
218 233 255
218 233 255
218 233 255
218 233 255
218 233 255
218 233 255
218 234 255
218 234 255
218 234 255
218 234 255
218 234 255
218 234 255
218 233 255
218 233 255
218 233 255
218 233 255
218 233 255
218 233 255
218 233 255
218 233 255
218 233 255
217 233 255
217 233 255
217 233 255
217 233 255
217 233 255
217 233 255
217 233 255
217 233 255
217 233 255
217 233 255
217 233 255
217 233 255
217 233 255
217 233 255
217 233 255
217 233 255
217 233 255
217 233 255
217 233 255
217 233 255
217 233 255
217 233 255
217 233 255
217 233 255
217 233 255
217 233 255
217 233 255
217 233 255
217 233 255
217 233 255
217 233 255
217 233 255
217 233 255
217 233 255
217 233 255
217 233 255
217 233 255
217 233 255
217 233 255
217 233 255
217 233 255
217 233 255
217 233 255
217 233 255
217 233 255
217 233 255
217 233 255
217 233 255
217 233 255
217 233 255
217 233 255
217 233 255
217 233 255
217 233 255
217 233 255
217 233 255
217 233 255
217 233 255
217 233 255
217 233 255
217 233 255
217 233 255
217 233 255
217 233 255
217 233 255
217 233 255
217 233 255
217 233 255
217 233 255
217 233 255
217 233 255
217 233 255
217 233 255
217 233 255
217 233 255
216 233 255
216 233 255
216 233 255
216 233 255
216 233 255
216 233 255
216 233 255
216 233 255
216 233 255
216 233 255
216 233 255
216 233 255
216 233 255
216 233 255
216 233 255
216 233 255
216 233 255
216 233 255
216 233 255
216 233 255
216 233 255
216 233 255
216 233 255
216 233 255
216 233 255
216 233 255
216 233 255
216 233 255
216 233 255
216 233 255
216 233 255
216 233 255
216 233 255
216 233 255
216 233 255
216 233 255
216 233 255
216 233 255
216 233 255
216 233 255
216 233 255
216 233 255
216 233 255
216 233 255
216 233 255
216 233 255
216 233 255
216 233 255
216 233 255
216 233 255
216 233 255
216 233 255
216 232 255
216 232 255
216 232 255
216 232 255
216 232 255
216 232 255
216 232 255
216 232 255
216 232 255
216 232 255
216 232 255
216 232 255
216 232 255
216 232 255
216 232 255
216 232 255
216 232 255
216 232 255
216 232 255
216 232 255
216 232 255
216 232 255
216 232 255
216 232 255
216 232 255
216 232 255
216 232 255
216 232 255
216 232 255
216 232 255
216 232 255
216 232 255
216 232 255
216 232 255
216 232 255
216 232 255
216 232 255
216 232 255
216 232 255
216 232 255
215 232 255
215 232 255
215 232 255
215 232 255
215 232 255
215 232 255
215 232 255
215 232 255
215 232 255
215 232 255
215 232 255
215 232 255
215 232 255
215 232 255
215 232 255
215 232 255
215 232 255
215 232 255
215 232 255
215 232 255
215 232 255
215 232 255
215 232 255
215 232 255
215 232 255
215 232 255
215 232 255
215 232 255
215 232 255
215 232 255
215 232 255
215 232 255
215 232 255
215 232 255
215 232 255
215 232 255
216 232 255
216 232 255
216 232 255
216 232 255
216 232 255
216 232 255
216 232 255
216 232 255
216 232 255
216 232 255
216 232 255
216 232 255
216 232 255
216 232 255
216 232 255
216 232 255
216 232 255
216 232 255
216 232 255
216 232 255
216 232 255
216 232 255
216 232 255
216 232 255
216 232 255
216 232 255
216 232 255
216 232 255
216 232 255
216 232 255
216 232 255
216 232 255
216 232 255
216 232 255
216 232 255
216 232 255
216 232 255
216 232 255
216 233 255
216 233 255
216 233 255
216 233 255
216 233 255
216 233 255
216 233 255
216 233 255
216 233 255
216 233 255
216 233 255
216 233 255
216 233 255
216 233 255
216 233 255
216 233 255
216 233 255
216 233 255
216 233 255
216 233 255
216 233 255
216 233 255
216 233 255
216 233 255
216 233 255
216 233 255
216 233 255
216 233 255
216 233 255
216 233 255
216 233 255
216 233 255
216 233 255
216 233 255
216 233 255
216 233 255
216 233 255
216 233 255
216 233 255
216 233 255
216 233 255
216 233 255
216 233 255
216 233 255
216 233 255
216 233 255
216 233 255
216 233 255
216 233 255
216 233 255
216 233 255
216 233 255
217 233 255
217 233 255
217 233 255
217 233 255
217 233 255
217 233 255
217 233 255
217 233 255
217 233 255
217 233 255
217 233 255
217 233 255
217 233 255
217 233 255
217 233 255
217 233 255
217 233 255
217 233 255
217 233 255
217 233 255
217 233 255
217 233 255
217 233 255
217 233 255
217 233 255
217 233 255
217 233 255
217 233 255
217 233 255
217 233 255
217 233 255
217 233 255
217 233 255
217 233 255
217 233 255
217 233 255
217 233 255
217 233 255
217 233 255
217 233 255
217 233 255
217 233 255
217 233 255
217 233 255
217 233 255
217 233 255
217 233 255
217 233 255
217 233 255
217 233 255
217 233 255
217 233 255
217 233 255
217 233 255
217 233 255
217 233 255
217 233 255
217 233 255
217 233 255
217 233 255
217 233 255
217 233 255
217 233 255
217 233 255
217 233 255
217 233 255
217 233 255
217 233 255
217 233 255
217 233 255
217 233 255
217 233 255
217 233 255
217 233 255
217 233 255
217 233 255
218 233 255
218 233 255
218 233 255
218 233 255
218 233 255
218 233 255
218 233 255
218 233 255
218 234 255
218 234 255
218 234 255
218 234 255
218 234 255
218 234 255
218 234 255
218 234 255
218 234 255
218 234 255
218 234 255
218 234 255
218 234 255
218 234 255
218 234 255
218 234 255
218 234 255
218 234 255
218 234 255
218 234 255
218 234 255
218 234 255
218 234 255
218 234 255
218 234 255
218 233 255
218 233 255
218 233 255
218 233 255
218 233 255
218 233 255
218 233 255
218 233 255
218 233 255
217 233 255
217 233 255
217 233 255
217 233 255
217 233 255
217 233 255
217 233 255
217 233 255
217 233 255
217 233 255
217 233 255
217 233 255
217 233 255
217 233 255
217 233 255
217 233 255
217 233 255
217 233 255
217 233 255
217 233 255
217 233 255
217 233 255
217 233 255
217 233 255
217 233 255
217 233 255
217 233 255
217 233 255
217 233 255
217 233 255
217 233 255
217 233 255
217 233 255
217 233 255
217 233 255
217 233 255
217 233 255
217 233 255
217 233 255
217 233 255
217 233 255
217 233 255
217 233 255
217 233 255
217 233 255
217 233 255
217 233 255
217 233 255
217 233 255
217 233 255
217 233 255
217 233 255
217 233 255
217 233 255
217 233 255
217 233 255
217 233 255
217 233 255
217 233 255
217 233 255
217 233 255
217 233 255
217 233 255
217 233 255
217 233 255
217 233 255
217 233 255
217 233 255
217 233 255
217 233 255
217 233 255
217 233 255
217 233 255
217 233 255
217 233 255
216 233 255
216 233 255
216 233 255
216 233 255
216 233 255
216 233 255
216 233 255
216 233 255
216 233 255
216 233 255
216 233 255
216 233 255
216 233 255
216 233 255
216 233 255
216 233 255
216 233 255
216 233 255
216 233 255
216 233 255
216 233 255
216 233 255
216 233 255
216 233 255
216 233 255
216 233 255
216 233 255
216 233 255
216 233 255
216 233 255
216 233 255
216 233 255
216 233 255
216 233 255
216 233 255
216 233 255
216 233 255
216 233 255
216 233 255
216 233 255
216 233 255
216 233 255
216 233 255
216 233 255
216 233 255
216 233 255
216 233 255
216 233 255
216 233 255
216 233 255
216 233 255
216 233 255
216 233 255
216 233 255
216 233 255
216 233 255
216 233 255
216 233 255
216 232 255
216 232 255
216 232 255
216 232 255
216 232 255
216 232 255
216 232 255
216 232 255
216 232 255
216 232 255
216 232 255
216 232 255
216 232 255
216 232 255
216 232 255
216 232 255
216 232 255
216 232 255
216 232 255
216 232 255
216 232 255
216 232 255
216 232 255
216 232 255
216 232 255
216 232 255
216 232 255
216 232 255
216 232 255
216 232 255
216 232 255
216 232 255
216 232 255
216 232 255
216 232 255
216 232 255
216 232 255
216 232 255
216 232 255
216 232 255
216 232 255
216 232 255
216 232 255
216 232 255
216 232 255
216 232 255
216 232 255
216 232 255
216 232 255
216 232 255
216 232 255
216 232 255
216 232 255
216 232 255
216 232 255
216 232 255
216 232 255
216 232 255
216 232 255
216 232 255
216 232 255
216 232 255
216 232 255
216 232 255
216 232 255
216 232 255
216 232 255
216 232 255
216 232 255
216 232 255
216 232 255
216 232 255
216 232 255
216 232 255
216 232 255
216 232 255
216 232 255
216 232 255
216 232 255
216 232 255
216 232 255
216 233 255
216 233 255
216 233 255
216 233 255
216 233 255
216 233 255
216 233 255
216 233 255
216 233 255
216 233 255
216 233 255
216 233 255
216 233 255
216 233 255
216 233 255
216 233 255
216 233 255
216 233 255
216 233 255
216 233 255
216 233 255
216 233 255
216 233 255
216 233 255
216 233 255
216 233 255
216 233 255
216 233 255
216 233 255
216 233 255
216 233 255
216 233 255
216 233 255
216 233 255
216 233 255
216 233 255
216 233 255
216 233 255
216 233 255
216 233 255
216 233 255
216 233 255
216 233 255
216 233 255
216 233 255
216 233 255
216 233 255
216 233 255
216 233 255
216 233 255
216 233 255
216 233 255
216 233 255
216 233 255
216 233 255
216 233 255
216 233 255
216 233 255
217 233 255
217 233 255
217 233 255
217 233 255
217 233 255
217 233 255
217 233 255
217 233 255
217 233 255
217 233 255
217 233 255
217 233 255
217 233 255
217 233 255
217 233 255
217 233 255
217 233 255
217 233 255
217 233 255
217 233 255
217 233 255
217 233 255
217 233 255
217 233 255
217 233 255
217 233 255
217 233 255
217 233 255
217 233 255
217 233 255
217 233 255
217 233 255
217 233 255
217 233 255
217 233 255
217 233 255
217 233 255
217 233 255
217 233 255
217 233 255
217 233 255
217 233 255
217 233 255
217 233 255
217 233 255
217 233 255
217 233 255
217 233 255
217 233 255
217 233 255
217 233 255
217 233 255
217 233 255
217 233 255
217 233 255
217 233 255
217 233 255
217 233 255
217 233 255
217 233 255
217 233 255
217 233 255
217 233 255
217 233 255
217 233 255
217 233 255
217 233 255
217 233 255
217 233 255
217 233 255
217 233 255
217 233 255
217 233 255
217 233 255
217 233 255
218 233 255
218 233 255
218 233 255
218 233 255
218 233 255
218 233 255
218 233 255
218 233 255
218 233 255
218 234 255
218 234 255
218 234 255
218 234 255
218 234 255
218 234 255
218 234 255
218 234 255
218 234 255
218 234 255
218 234 255
218 234 255
218 234 255
218 234 255
218 234 255
218 234 255
218 234 255
218 234 255
218 234 255
218 234 255
218 234 255
218 234 255
218 234 255
218 234 255
218 234 255
218 234 255
218 234 255
218 234 255
218 234 255
218 234 255
218 234 255
218 234 255
218 234 255
218 234 255
218 234 255
218 234 255
218 234 255
218 234 255
218 234 255
218 234 255
218 234 255
218 234 255
218 234 255
218 234 255
218 234 255
218 234 255
218 233 255
218 233 255
218 233 255
218 233 255
218 233 255
218 233 255
218 233 255
218 233 255
218 233 255
217 233 255
217 233 255
217 233 255
217 233 255
217 233 255
217 233 255
217 233 255
217 233 255
217 233 255
217 233 255
217 233 255
217 233 255
217 233 255
217 233 255
217 233 255
217 233 255
217 233 255
217 233 255
217 233 255
217 233 255
217 233 255
217 233 255
217 233 255
217 233 255
217 233 255
217 233 255
217 233 255
217 233 255
217 233 255
217 233 255
217 233 255
217 233 255
217 233 255
217 233 255
217 233 255
217 233 255
217 233 255
217 233 255
217 233 255
217 233 255
217 233 255
217 233 255
217 233 255
217 233 255
217 233 255
217 233 255
217 233 255
217 233 255
217 233 255
217 233 255
217 233 255
217 233 255
217 233 255
217 233 255
217 233 255
217 233 255
217 233 255
217 233 255
217 233 255
217 233 255
217 233 255
217 233 255
217 233 255
217 233 255
217 233 255
217 233 255
217 233 255
217 233 255
217 233 255
217 233 255
217 233 255
217 233 255
217 233 255
217 233 255
217 233 255
217 233 255
216 233 255
216 233 255
216 233 255
216 233 255
216 233 255
216 233 255
216 233 255
216 233 255
216 233 255
216 233 255
216 233 255
216 233 255
216 233 255
216 233 255
216 233 255
216 233 255
216 233 255
216 233 255
216 233 255
216 233 255
216 233 255
216 233 255
216 233 255
216 233 255
216 233 255
216 233 255
216 233 255
216 233 255
216 233 255
216 233 255
216 233 255
216 233 255
216 233 255
216 233 255
216 233 255
216 233 255
216 233 255
216 233 255
216 233 255
216 233 255
216 233 255
216 233 255
216 233 255
216 233 255
216 233 255
216 233 255
216 233 255
216 233 255
216 233 255
216 233 255
216 233 255
216 233 255
216 233 255
216 233 255
216 233 255
216 233 255
216 233 255
216 233 255
216 233 255
216 233 255
216 233 255
216 233 255
216 233 255
216 233 255
216 233 255
216 233 255
216 233 255
216 233 255
216 233 255
216 233 255
216 233 255
216 233 255
216 233 255
216 233 255
216 233 255
216 233 255
216 233 255
216 233 255
216 233 255
216 233 255
216 232 255
216 232 255
216 232 255
216 232 255
216 232 255
216 233 255
216 232 255
216 232 255
216 232 255
216 232 255
216 232 255
216 232 255
216 233 255
216 232 255
216 233 255
216 232 255
216 233 255
216 233 255
216 233 255
216 233 255
216 233 255
216 233 255
216 233 255
216 233 255
216 233 255
216 233 255
216 233 255
216 233 255
216 233 255
216 233 255
216 233 255
216 233 255
216 233 255
216 233 255
216 233 255
216 233 255
216 233 255
216 233 255
216 233 255
216 233 255
216 233 255
216 233 255
216 233 255
216 233 255
216 233 255
216 233 255
216 233 255
216 233 255
216 233 255
216 233 255
216 233 255
216 233 255
216 233 255
216 233 255
216 233 255
216 233 255
216 233 255
216 233 255
216 233 255
216 233 255
216 233 255
216 233 255
216 233 255
216 233 255
216 233 255
216 233 255
216 233 255
216 233 255
216 233 255
216 233 255
216 233 255
216 233 255
216 233 255
216 233 255
216 233 255
216 233 255
216 233 255
216 233 255
216 233 255
216 233 255
216 233 255
216 233 255
216 233 255
216 233 255
216 233 255
216 233 255
216 233 255
216 233 255
216 233 255
216 233 255
216 233 255
216 233 255
216 233 255
217 233 255
217 233 255
217 233 255
217 233 255
217 233 255
217 233 255
217 233 255
217 233 255
217 233 255
217 233 255
217 233 255
217 233 255
217 233 255
217 233 255
217 233 255
217 233 255
217 233 255
217 233 255
217 233 255
217 233 255
217 233 255
217 233 255
217 233 255
217 233 255
217 233 255
217 233 255
217 233 255
217 233 255
217 233 255
217 233 255
217 233 255
217 233 255
217 233 255
217 233 255
217 233 255
217 233 255
217 233 255
217 233 255
217 233 255
217 233 255
217 233 255
217 233 255
217 233 255
217 233 255
217 233 255
217 233 255
217 233 255
217 233 255
217 233 255
217 233 255
217 233 255
217 233 255
217 233 255
217 233 255
217 233 255
217 233 255
217 233 255
217 233 255
217 233 255
217 233 255
217 233 255
217 233 255
217 233 255
217 233 255
217 233 255
217 233 255
217 233 255
217 233 255
217 233 255
217 233 255
217 233 255
217 233 255
217 233 255
217 233 255
217 233 255
217 233 255
218 233 255
218 233 255
218 233 255
218 233 255
218 233 255
218 233 255
218 233 255
218 233 255
218 233 255
218 234 255
218 234 255
218 234 255
218 234 255
218 234 255
218 234 255
218 234 255
218 234 255
218 234 255
218 234 255
218 234 255
218 234 255
218 234 255
218 234 255
218 234 255
218 234 255
218 234 255
218 234 255
218 234 255
218 234 255
218 234 255
218 234 255
218 234 255
218 234 255
218 234 255
218 234 255
218 234 255
218 234 255
218 234 255
218 234 255
218 234 255
218 234 255
218 234 255
218 234 255
218 234 255
218 234 255
218 234 255
218 234 255
218 234 255
218 234 255
218 234 255
218 234 255
218 234 255
218 234 255
218 234 255
218 234 255
218 234 255
218 234 255
218 234 255
218 234 255
218 234 255
218 234 255
218 234 255
218 234 255
218 234 255
218 234 255
218 234 255
218 234 255
218 234 255
218 234 255
218 234 255
218 234 255
218 234 255
218 234 255
218 234 255
218 234 255
218 234 255
218 234 255
218 233 255
218 233 255
218 233 255
218 233 255
218 233 255
218 233 255
218 233 255
218 233 255
217 233 255
217 233 255
217 233 255
217 233 255
217 233 255
217 233 255
217 233 255
217 233 255
217 233 255
217 233 255
217 233 255
217 233 255
217 233 255
217 233 255
217 233 255
217 233 255
217 233 255
217 233 255
217 233 255
217 233 255
217 233 255
217 233 255
217 233 255
217 233 255
217 233 255
217 233 255
217 233 255
217 233 255
217 233 255
217 233 255
217 233 255
217 233 255
217 233 255
217 233 255
217 233 255
217 233 255
217 233 255
217 233 255
217 233 255
217 233 255
217 233 255
217 233 255
217 233 255
217 233 255
217 233 255
217 233 255
217 233 255
217 233 255
217 233 255
217 233 255
217 233 255
217 233 255
217 233 255
217 233 255
217 233 255
217 233 255
217 233 255
217 233 255
217 233 255
217 233 255
217 233 255
217 233 255
217 233 255
217 233 255
217 233 255
217 233 255
217 233 255
217 233 255
217 233 255
217 233 255
217 233 255
217 233 255
217 233 255
217 233 255
217 233 255
217 233 255
217 233 255
217 233 255
217 233 255
216 233 255
216 233 255
216 233 255
216 233 255
216 233 255
216 233 255
216 233 255
216 233 255
216 233 255
216 233 255
216 233 255
216 233 255
216 233 255
216 233 255
216 233 255
216 233 255
216 233 255
216 233 255
216 233 255
216 233 255
216 233 255
216 233 255
216 233 255
216 233 255
216 233 255
216 233 255
216 233 255
216 233 255
216 233 255
216 233 255
216 233 255
216 233 255
216 233 255
216 233 255
216 233 255
216 233 255
216 233 255
216 233 255
216 233 255
216 233 255
216 233 255
216 233 255
216 233 255
216 233 255
216 233 255
216 233 255
216 233 255
216 233 255
216 233 255
216 233 255
216 233 255
216 233 255
216 233 255
216 233 255
216 233 255
216 233 255
216 233 255
216 233 255
216 233 255
216 233 255
216 233 255
216 233 255
216 233 255
216 233 255
216 233 255
216 233 255
216 233 255
216 233 255
216 233 255
216 233 255
216 233 255
216 233 255
216 233 255
216 233 255
216 233 255
216 233 255
216 233 255
216 233 255
216 233 255
216 233 255
216 233 255
216 233 255
216 233 255
216 233 255
216 233 255
216 233 255
216 233 255
216 233 255
216 233 255
216 233 255
216 233 255
216 233 255
216 233 255
216 233 255
216 233 255
216 233 255
216 233 255
216 233 255
216 233 255
216 233 255
216 233 255
216 233 255
216 233 255
216 233 255
216 233 255
216 233 255
216 233 255
216 233 255
216 233 255
216 233 255
216 233 255
216 233 255
216 233 255
216 233 255
216 233 255
216 233 255
216 233 255
216 233 255
216 233 255
216 233 255
216 233 255
216 233 255
216 233 255
216 233 255
216 233 255
216 233 255
216 233 255
216 233 255
216 233 255
216 233 255
216 233 255
216 233 255
216 233 255
216 233 255
216 233 255
216 233 255
216 233 255
216 233 255
216 233 255
216 233 255
216 233 255
216 233 255
216 233 255
216 233 255
216 233 255
216 233 255
216 233 255
217 233 255
217 233 255
217 233 255
217 233 255
217 233 255
217 233 255
217 233 255
217 233 255
217 233 255
217 233 255
217 233 255
217 233 255
217 233 255
217 233 255
217 233 255
217 233 255
217 233 255
217 233 255
217 233 255
217 233 255
217 233 255
217 233 255
217 233 255
217 233 255
217 233 255
217 233 255
217 233 255
217 233 255
217 233 255
217 233 255
217 233 255
217 233 255
217 233 255
217 233 255
217 233 255
217 233 255
217 233 255
217 233 255
217 233 255
217 233 255
217 233 255
217 233 255
217 233 255
217 233 255
217 233 255
217 233 255
217 233 255
217 233 255
217 233 255
217 233 255
217 233 255
217 233 255
217 233 255
217 233 255
217 233 255
217 233 255
217 233 255
217 233 255
217 233 255
217 233 255
217 233 255
217 233 255
217 233 255
217 233 255
217 233 255
217 233 255
217 233 255
217 233 255
217 233 255
217 233 255
217 233 255
217 233 255
217 233 255
217 233 255
217 233 255
217 233 255
217 233 255
217 233 255
217 233 255
218 233 255
218 233 255
218 233 255
218 233 255
218 233 255
218 233 255
218 233 255
218 233 255
218 234 255
218 234 255
218 234 255
218 234 255
218 234 255
218 234 255
218 234 255
218 234 255
218 234 255
218 234 255
218 234 255
218 234 255
218 234 255
218 234 255
218 234 255
218 234 255
218 234 255
218 234 255
218 234 255
218 234 255
218 234 255
218 234 255
218 234 255
218 234 255
218 234 255
218 234 255
218 234 255
218 234 255
218 234 255
218 234 255
218 234 255
218 234 255
218 234 255
218 234 255
218 234 255
218 234 255
218 234 255
218 234 255
218 234 255
218 234 255
218 234 255
218 234 255
218 234 255
218 234 255
218 234 255
218 234 255
218 234 255
218 234 255
218 234 255
218 234 255
218 234 255
218 234 255
218 234 255
218 234 255
218 234 255
218 234 255
218 234 255
218 234 255
218 234 255
218 234 255
218 234 255
218 234 255
218 234 255
218 234 255
218 234 255
218 234 255
218 234 255
218 234 255
218 234 255
218 234 255
218 234 255
218 234 255
218 234 255
218 234 255
218 234 255
218 234 255
218 234 255
218 234 255
218 234 255
218 234 255
218 234 255
218 234 255
218 234 255
218 234 255
218 234 255
218 234 255
218 234 255
218 234 255
218 234 255
218 233 255
218 233 255
218 233 255
218 233 255
218 233 255
218 233 255
218 233 255
218 233 255
218 233 255
218 233 255
217 233 255
217 233 255
217 233 255
217 233 255
217 233 255
217 233 255
217 233 255
217 233 255
217 233 255
217 233 255
217 233 255
217 233 255
217 233 255
217 233 255
217 233 255
217 233 255
217 233 255
217 233 255
217 233 255
217 233 255
217 233 255
217 233 255
217 233 255
217 233 255
217 233 255
217 233 255
217 233 255
217 233 255
217 233 255
217 233 255
217 233 255
217 233 255
217 233 255
217 233 255
217 233 255
217 233 255
217 233 255
217 233 255
217 233 255
217 233 255
217 233 255
217 233 255
217 233 255
217 233 255
217 233 255
217 233 255
217 233 255
217 233 255
217 233 255
217 233 255
217 233 255
217 233 255
217 233 255
217 233 255
217 233 255
217 233 255
217 233 255
217 233 255
217 233 255
217 233 255
217 233 255
217 233 255
217 233 255
217 233 255
217 233 255
217 233 255
217 233 255
217 233 255
217 233 255
217 233 255
217 233 255
217 233 255
217 233 255
217 233 255
217 233 255
217 233 255
217 233 255
217 233 255
217 233 255
217 233 255
217 233 255
216 233 255
216 233 255
216 233 255
216 233 255
216 233 255
216 233 255
216 233 255
216 233 255
216 233 255
216 233 255
216 233 255
216 233 255
216 233 255
216 233 255
216 233 255
216 233 255
216 233 255
216 233 255
216 233 255
216 233 255
216 233 255
216 233 255
216 233 255
216 233 255
216 233 255
216 233 255
216 233 255
216 233 255
216 233 255
216 233 255
216 233 255
216 233 255
216 233 255
216 233 255
216 233 255
216 233 255
216 233 255
216 233 255
216 233 255
216 233 255
216 233 255
216 233 255
216 233 255
216 233 255
216 233 255
216 233 255
216 233 255
216 233 255
216 233 255
216 233 255
216 233 255
216 233 255
216 233 255
216 233 255
216 233 255
216 233 255
216 233 255
216 233 255
216 233 255
216 233 255
216 233 255
216 233 255
216 233 255
216 233 255
216 233 255
216 233 255
216 233 255
216 233 255
216 233 255
216 233 255
216 233 255
216 233 255
216 233 255
216 233 255
216 233 255
216 233 255
216 233 255
216 233 255
216 233 255
216 233 255
216 233 255
216 233 255
216 233 255
216 233 255
216 233 255
216 233 255
216 233 255
216 233 255
216 233 255
216 233 255
216 233 255
216 233 255
216 233 255
216 233 255
216 233 255
216 233 255
216 233 255
216 233 255
216 233 255
216 233 255
216 233 255
216 233 255
216 233 255
216 233 255
216 233 255
216 233 255
216 233 255
216 233 255
216 233 255
216 233 255
216 233 255
216 233 255
216 233 255
216 233 255
216 233 255
216 233 255
216 233 255
216 233 255
216 233 255
217 233 255
217 233 255
217 233 255
217 233 255
217 233 255
217 233 255
217 233 255
217 233 255
217 233 255
217 233 255
217 233 255
217 233 255
217 233 255
217 233 255
217 233 255
217 233 255
217 233 255
217 233 255
217 233 255
217 233 255
217 233 255
217 233 255
217 233 255
217 233 255
217 233 255
217 233 255
217 233 255
217 233 255
217 233 255
217 233 255
217 233 255
217 233 255
217 233 255
217 233 255
217 233 255
217 233 255
217 233 255
217 233 255
217 233 255
217 233 255
217 233 255
217 233 255
217 233 255
217 233 255
217 233 255
217 233 255
217 233 255
217 233 255
217 233 255
217 233 255
217 233 255
217 233 255
217 233 255
217 233 255
217 233 255
217 233 255
217 233 255
217 233 255
217 233 255
217 233 255
217 233 255
217 233 255
217 233 255
217 233 255
217 233 255
217 233 255
217 233 255
217 233 255
217 233 255
217 233 255
217 233 255
217 233 255
217 233 255
217 233 255
217 233 255
217 233 255
217 233 255
217 233 255
217 233 255
217 233 255
217 233 255
217 233 255
218 233 255
218 233 255
218 233 255
218 233 255
218 233 255
218 233 255
218 233 255
218 233 255
218 234 255
218 234 255
218 234 255
218 234 255
218 234 255
218 234 255
218 234 255
218 234 255
218 234 255
218 234 255
218 234 255
218 234 255
218 234 255
218 234 255
218 234 255
218 234 255
218 234 255
218 234 255
218 234 255
218 234 255
218 234 255
218 234 255
218 234 255
218 234 255
218 234 255
218 234 255
218 234 255
218 234 255
218 234 255
218 234 255
218 234 255
218 234 255
218 234 255
218 234 255
218 234 255
218 234 255
218 234 255
218 234 255
218 234 255
218 234 255
218 234 255
218 234 255
218 234 255
218 234 255
218 234 255
218 234 255
218 234 255
218 234 255
218 234 255
218 234 255
218 234 255
218 234 255
218 234 255
218 234 255
218 234 255
218 234 255
218 234 255
218 234 255
218 234 255
218 234 255
218 234 255
218 234 255
218 234 255
218 234 255
218 234 255
218 234 255
218 234 255
218 234 255
218 234 255
218 234 255
218 234 255
218 234 255
218 234 255
218 234 255
218 234 255
218 234 255
218 234 255
218 234 255
218 234 255
218 234 255
218 234 255
218 234 255
218 234 255
218 234 255
218 234 255
218 234 255
218 234 255
218 234 255
218 234 255
218 234 255
218 234 255
218 234 255
218 234 255
218 234 255
218 234 255
218 234 255
218 234 255
218 234 255
218 234 255
218 234 255
218 234 255
218 234 255
218 234 255
218 234 255
218 234 255
218 234 255
218 234 255
218 234 255
218 234 255
218 234 255
218 234 255
218 234 255
218 234 255
218 233 255
218 233 255
218 233 255
218 233 255
218 233 255
218 233 255
218 233 255
218 233 255
217 233 255
217 233 255
217 233 255
217 233 255
217 233 255
217 233 255
217 233 255
217 233 255
217 233 255
217 233 255
217 233 255
217 233 255
217 233 255
217 233 255
217 233 255
217 233 255
217 233 255
217 233 255
217 233 255
217 233 255
217 233 255
217 233 255
217 233 255
217 233 255
217 233 255
217 233 255
217 233 255
217 233 255
217 233 255
217 233 255
217 233 255
217 233 255
217 233 255
217 233 255
217 233 255
217 233 255
217 233 255
217 233 255
217 233 255
217 233 255
217 233 255
217 233 255
217 233 255
217 233 255
217 233 255
217 233 255
217 233 255
217 233 255
217 233 255
217 233 255
217 233 255
217 233 255
217 233 255
217 233 255
217 233 255
217 233 255
217 233 255
217 233 255
217 233 255
217 233 255
217 233 255
217 233 255
217 233 255
217 233 255
217 233 255
217 233 255
217 233 255
217 233 255
217 233 255
217 233 255
217 233 255
217 233 255
217 233 255
217 233 255
217 233 255
217 233 255
217 233 255
217 233 255
217 233 255
217 233 255
217 233 255
217 233 255
217 233 255
217 233 255
217 233 255
217 233 255
217 233 255
217 233 255
217 233 255
216 233 255
216 233 255
216 233 255
216 233 255
216 233 255
216 233 255
216 233 255
216 233 255
216 233 255
216 233 255
216 233 255
216 233 255
216 233 255
216 233 255
216 233 255
216 233 255
216 233 255
216 233 255
216 233 255
216 233 255
216 233 255
216 233 255
216 233 255
216 233 255
216 233 255
216 233 255
216 233 255
216 233 255
216 233 255
216 233 255
216 233 255
216 233 255
216 233 255
216 233 255
216 233 255
216 233 255
216 233 255
216 233 255
216 233 255
216 233 255
216 233 255
216 233 255
216 233 255
216 233 255
216 233 255
216 233 255
216 233 255
216 233 255
216 233 255
216 233 255
216 233 255
216 233 255
216 233 255
216 233 255
216 233 255
216 233 255
216 233 255
216 233 255
216 233 255
216 233 255
216 233 255
216 233 255
216 233 255
216 233 255
216 233 255
216 233 255
216 233 255
216 233 255
216 233 255
216 233 255
216 233 255
216 233 255
216 233 255
216 233 255
216 233 255
216 233 255
216 233 255
216 233 255
216 233 255
217 233 255
217 233 255
217 233 255
217 233 255
217 233 255
217 233 255
217 233 255
217 233 255
217 233 255
217 233 255
217 233 255
217 233 255
217 233 255
217 233 255
217 233 255
217 233 255
217 233 255
217 233 255
217 233 255
217 233 255
217 233 255
217 233 255
217 233 255
217 233 255
217 233 255
217 233 255
217 233 255
217 233 255
217 233 255
217 233 255
217 233 255
217 233 255
217 233 255
217 233 255
217 233 255
217 233 255
217 233 255
217 233 255
217 233 255
217 233 255
217 233 255
217 233 255
217 233 255
217 233 255
217 233 255
217 233 255
217 233 255
217 233 255
217 233 255
217 233 255
217 233 255
217 233 255
217 233 255
217 233 255
217 233 255
217 233 255
217 233 255
217 233 255
217 233 255
217 233 255
217 233 255
217 233 255
217 233 255
217 233 255
217 233 255
217 233 255
217 233 255
217 233 255
217 233 255
217 233 255
217 233 255
217 233 255
217 233 255
217 233 255
217 233 255
217 233 255
217 233 255
217 233 255
217 233 255
217 233 255
217 233 255
217 233 255
217 233 255
217 233 255
217 233 255
217 233 255
217 233 255
217 233 255
217 233 255
217 233 255
217 233 255
218 233 255
218 233 255
218 233 255
218 233 255
218 233 255
218 233 255
218 233 255
218 233 255
218 234 255
218 234 255
218 234 255
218 234 255
218 234 255
218 234 255
218 234 255
218 234 255
218 234 255
218 234 255
218 234 255
218 234 255
218 234 255
218 234 255
218 234 255
218 234 255
218 234 255
218 234 255
218 234 255
218 234 255
218 234 255
218 234 255
218 234 255
218 234 255
218 234 255
218 234 255
218 234 255
218 234 255
218 234 255
218 234 255
218 234 255
218 234 255
218 234 255
218 234 255
218 234 255
218 234 255
218 234 255
218 234 255
218 234 255
218 234 255
218 234 255
218 234 255
218 234 255
218 234 255
218 234 255
218 234 255
218 234 255
218 234 255
218 234 255
218 234 255
218 234 255
218 234 255
218 234 255
218 234 255
218 234 255
218 234 255
218 234 255
218 234 255
218 234 255
218 234 255
218 234 255
218 234 255
218 234 255
218 234 255
218 234 255
218 234 255
218 234 255
218 234 255
218 234 255
218 234 255
218 234 255
218 234 255
218 234 255
218 234 255
218 234 255
218 234 255
218 234 255
218 234 255
218 234 255
218 234 255
218 234 255
218 234 255
218 234 255
218 234 255
218 234 255
218 234 255
218 234 255
218 234 255
218 234 255
218 234 255
218 234 255
218 234 255
218 234 255
218 234 255
218 234 255
218 234 255
218 234 255
218 234 255
218 234 255
218 234 255
218 234 255
218 234 255
218 234 255
218 234 255
218 234 255
218 234 255
218 234 255
218 234 255
218 234 255
218 234 255
218 234 255
218 234 255
218 234 255
218 234 255
218 234 255
218 234 255
218 234 255
218 234 255
218 234 255
218 234 255
218 234 255
218 234 255
218 234 255
218 234 255
218 234 255
218 234 255
218 234 255
218 234 255
218 234 255
218 234 255
218 234 255
218 234 255
218 234 255
218 234 255
218 234 255
218 234 255
218 233 255
218 233 255
218 233 255
218 233 255
218 233 255
218 233 255
218 233 255
218 233 255
218 233 255
217 233 255
217 233 255
217 233 255
217 233 255
217 233 255
217 233 255
217 233 255
217 233 255
217 233 255
217 233 255
217 233 255
217 233 255
217 233 255
217 233 255
217 233 255
217 233 255
217 233 255
217 233 255
217 233 255
217 233 255
217 233 255
217 233 255
217 233 255
217 233 255
217 233 255
217 233 255
217 233 255
217 233 255
217 233 255
217 233 255
217 233 255
217 233 255
217 233 255
217 233 255
217 233 255
217 233 255
217 233 255
217 233 255
217 233 255
217 233 255
217 233 255
217 233 255
217 233 255
217 233 255
217 233 255
217 233 255
217 233 255
217 233 255
217 233 255
217 233 255
217 233 255
217 233 255
217 233 255
217 233 255
217 233 255
217 233 255
217 233 255
217 233 255
217 233 255
217 233 255
217 233 255
217 233 255
217 233 255
217 233 255
217 233 255
217 233 255
217 233 255
217 233 255
217 233 255
217 233 255
217 233 255
217 233 255
217 233 255
217 233 255
217 233 255
217 233 255
217 233 255
217 233 255
217 233 255
217 233 255
217 233 255
217 233 255
217 233 255
217 233 255
217 233 255
217 233 255
217 233 255
217 233 255
217 233 255
217 233 255
217 233 255
217 233 255
217 233 255
217 233 255
217 233 255
217 233 255
217 233 255
217 233 255
217 233 255
217 233 255
217 233 255
217 233 255
217 233 255
217 233 255
217 233 255
217 233 255
217 233 255
217 233 255
217 233 255
217 233 255
217 233 255
217 233 255
217 233 255
217 233 255
217 233 255
217 233 255
217 233 255
217 233 255
217 233 255
217 233 255
217 233 255
217 233 255
217 233 255
217 233 255
217 233 255
217 233 255
217 233 255
217 233 255
217 233 255
217 233 255
217 233 255
217 233 255
217 233 255
217 233 255
217 233 255
217 233 255
217 233 255
217 233 255
217 233 255
217 233 255
217 233 255
217 233 255
217 233 255
217 233 255
217 233 255
217 233 255
217 233 255
217 233 255
217 233 255
217 233 255
217 233 255
217 233 255
217 233 255
217 233 255
217 233 255
217 233 255
217 233 255
217 233 255
217 233 255
217 233 255
217 233 255
217 233 255
217 233 255
217 233 255
217 233 255
217 233 255
217 233 255
217 233 255
217 233 255
217 233 255
217 233 255
217 233 255
217 233 255
217 233 255
217 233 255
217 233 255
217 233 255
217 233 255
217 233 255
217 233 255
217 233 255
217 233 255
217 233 255
217 233 255
217 233 255
217 233 255
217 233 255
217 233 255
217 233 255
217 233 255
217 233 255
217 233 255
217 233 255
217 233 255
217 233 255
217 233 255
217 233 255
217 233 255
217 233 255
217 233 255
217 233 255
217 233 255
217 233 255
217 233 255
217 233 255
217 233 255
217 233 255
217 233 255
217 233 255
217 233 255
217 233 255
217 233 255
217 233 255
217 233 255
217 233 255
217 233 255
217 233 255
217 233 255
217 233 255
217 233 255
217 233 255
217 233 255
217 233 255
217 233 255
217 233 255
217 233 255
217 233 255
217 233 255
217 233 255
217 233 255
217 233 255
217 233 255
217 233 255
217 233 255
218 233 255
218 233 255
218 233 255
218 233 255
218 233 255
218 233 255
218 233 255
218 233 255
218 233 255
218 234 255
218 234 255
218 234 255
218 234 255
218 234 255
218 234 255
218 234 255
218 234 255
218 234 255
218 234 255
218 234 255
218 234 255
218 234 255
218 234 255
218 234 255
218 234 255
218 234 255
218 234 255
218 234 255
218 234 255
218 234 255
218 234 255
218 234 255
218 234 255
218 234 255
218 234 255
218 234 255
218 234 255
218 234 255
218 234 255
218 234 255
218 234 255
218 234 255
218 234 255
218 234 255
218 234 255
218 234 255
218 234 255
218 234 255
218 234 255
218 234 255
218 234 255
218 234 255
218 234 255
218 234 255
218 234 255
218 234 255
218 234 255
218 234 255
218 234 255
218 234 255
218 234 255
218 234 255
218 234 255
218 234 255
218 234 255
218 234 255
218 234 255
218 234 255
218 234 255
218 234 255
218 234 255
218 234 255
218 234 255
218 234 255
218 234 255
218 234 255
218 234 255
218 234 255
218 234 255
218 234 255
218 234 255
218 234 255
218 234 255
218 234 255
218 234 255
218 234 255
218 234 255
218 234 255
218 234 255
218 234 255
218 234 255
218 234 255
218 234 255
218 234 255
218 234 255
218 234 255
218 234 255
218 234 255
218 234 255
218 234 255
218 234 255
218 234 255
218 234 255
218 234 255
218 234 255
218 234 255
218 234 255
218 234 255
218 234 255
218 234 255
218 234 255
218 234 255
218 234 255
218 234 255
218 234 255
218 234 255
218 234 255
218 234 255
218 234 255
218 234 255
218 234 255
218 234 255
218 234 255
218 234 255
218 234 255
218 234 255
218 234 255
218 234 255
218 234 255
218 234 255
218 234 255
218 234 255
218 234 255
218 234 255
218 234 255
218 234 255
218 234 255
218 234 255
218 234 255
218 234 255
218 234 255
218 234 255
218 234 255
218 234 255
218 234 255
218 234 255
218 234 255
218 234 255
218 234 255
218 234 255
218 234 255
218 234 255
218 234 255
218 234 255
218 234 255
218 234 255
218 234 255
218 234 255
218 234 255
218 234 255
218 234 255
218 234 255
218 234 255
218 234 255
218 234 255
218 234 255
218 234 255
218 234 255
218 234 255
218 234 255
218 234 255
218 233 255
218 233 255
218 233 255
218 233 255
218 233 255
218 233 255
218 233 255
218 233 255
217 233 255
217 233 255
217 233 255
217 233 255
217 233 255
217 233 255
217 233 255
217 233 255
217 233 255
217 233 255
217 233 255
217 233 255
217 233 255
217 233 255
217 233 255
217 233 255
217 233 255
217 233 255
217 233 255
217 233 255
217 233 255
217 233 255
217 233 255
217 233 255
217 233 255
217 233 255
217 233 255
217 233 255
217 233 255
217 233 255
217 233 255
217 233 255
217 233 255
217 233 255
217 233 255
217 233 255
217 233 255
217 233 255
217 233 255
217 233 255
217 233 255
217 233 255
217 233 255
217 233 255
217 233 255
217 233 255
217 233 255
217 233 255
217 233 255
217 233 255
217 233 255
217 233 255
217 233 255
217 233 255
217 233 255
217 233 255
217 233 255
217 233 255
217 233 255
217 233 255
217 233 255
217 233 255
217 233 255
217 233 255
217 233 255
217 233 255
217 233 255
217 233 255
217 233 255
217 233 255
217 233 255
217 233 255
217 233 255
217 233 255
217 233 255
217 233 255
217 233 255
217 233 255
217 233 255
217 233 255
217 233 255
217 233 255
217 233 255
217 233 255
217 233 255
217 233 255
217 233 255
217 233 255
217 233 255
217 233 255
217 233 255
217 233 255
217 233 255
217 233 255
217 233 255
217 233 255
217 233 255
217 233 255
217 233 255
217 233 255
217 233 255
217 233 255
217 233 255
217 233 255
217 233 255
217 233 255
217 233 255
217 233 255
217 233 255
217 233 255
217 233 255
217 233 255
217 233 255
217 233 255
217 233 255
217 233 255
217 233 255
217 233 255
217 233 255
217 233 255
217 233 255
217 233 255
217 233 255
217 233 255
217 233 255
217 233 255
217 233 255
217 233 255
217 233 255
217 233 255
217 233 255
217 233 255
217 233 255
217 233 255
217 233 255
217 233 255
217 233 255
217 233 255
217 233 255
217 233 255
217 233 255
217 233 255
217 233 255
217 233 255
217 233 255
217 233 255
217 233 255
217 233 255
217 233 255
217 233 255
217 233 255
217 233 255
217 233 255
217 233 255
217 233 255
217 233 255
217 233 255
217 233 255
217 233 255
217 233 255
217 233 255
217 233 255
217 233 255
217 233 255
217 233 255
217 233 255
217 233 255
217 233 255
217 233 255
217 233 255
217 233 255
217 233 255
217 233 255
217 233 255
217 233 255
217 233 255
217 233 255
217 233 255
217 233 255
217 233 255
217 233 255
217 233 255
217 233 255
217 233 255
217 233 255
217 233 255
217 233 255
217 233 255
217 233 255
217 233 255
217 233 255
217 233 255
217 233 255
217 233 255
217 233 255
217 233 255
217 233 255
217 233 255
217 233 255
217 233 255
217 233 255
217 233 255
217 233 255
217 233 255
217 233 255
217 233 255
217 233 255
217 233 255
217 233 255
218 233 255
218 233 255
218 233 255
218 233 255
218 233 255
218 233 255
218 233 255
218 233 255
218 233 255
218 234 255
218 234 255
218 234 255
218 234 255
218 234 255
218 234 255
218 234 255
218 234 255
218 234 255
218 234 255
218 234 255
218 234 255
218 234 255
218 234 255
218 234 255
218 234 255
218 234 255
218 234 255
218 234 255
218 234 255
218 234 255
218 234 255
218 234 255
218 234 255
218 234 255
218 234 255
218 234 255
218 234 255
218 234 255
218 234 255
218 234 255
218 234 255
218 234 255
218 234 255
218 234 255
218 234 255
218 234 255
218 234 255
218 234 255
218 234 255
218 234 255
218 234 255
218 234 255
218 234 255
218 234 255
218 234 255
218 234 255
218 234 255
218 234 255
218 234 255
218 234 255
218 234 255
218 234 255
218 234 255
218 234 255
218 234 255
218 234 255
218 234 255
218 234 255
218 234 255
218 234 255
218 234 255
218 234 255
218 234 255
218 234 255
218 234 255
218 234 255
218 234 255
218 234 255
218 234 255
218 234 255
218 234 255
218 234 255
218 234 255
218 234 255
218 234 255
218 234 255
218 234 255
218 234 255
218 234 255
218 234 255
218 234 255
218 234 255
218 234 255
218 234 255
218 234 255
218 234 255
219 234 255
219 234 255
219 234 255
219 234 255
219 234 255
219 234 255
219 234 255
219 234 255
219 234 255
219 234 255
219 234 255
219 234 255
219 234 255
219 234 255
218 234 255
218 234 255
218 234 255
218 234 255
218 234 255
218 234 255
218 234 255
218 234 255
218 234 255
218 234 255
218 234 255
218 234 255
218 234 255
218 234 255
218 234 255
218 234 255
218 234 255
218 234 255
218 234 255
218 234 255
218 234 255
218 234 255
218 234 255
218 234 255
218 234 255
218 234 255
218 234 255
218 234 255
218 234 255
218 234 255
218 234 255
218 234 255
218 234 255
218 234 255
218 234 255
218 234 255
218 234 255
218 234 255
218 234 255
218 234 255
218 234 255
218 234 255
218 234 255
218 234 255
218 234 255
218 234 255
218 234 255
218 234 255
218 234 255
218 234 255
218 234 255
218 234 255
218 234 255
218 234 255
218 234 255
218 234 255
218 234 255
218 234 255
218 234 255
218 234 255
218 234 255
218 234 255
218 234 255
218 234 255
218 234 255
218 234 255
218 234 255
218 234 255
218 234 255
218 234 255
218 234 255
218 234 255
218 234 255
218 234 255
218 234 255
218 234 255
218 234 255
218 234 255
218 234 255
218 234 255
218 234 255
218 234 255
218 234 255
218 234 255
218 234 255
218 234 255
218 233 255
218 233 255
218 233 255
218 233 255
218 233 255
218 233 255
218 233 255
218 233 255
218 233 255
218 233 255
217 233 255
217 233 255
217 233 255
217 233 255
217 233 255
217 233 255
217 233 255
217 233 255
217 233 255
217 233 255
217 233 255
217 233 255
217 233 255
217 233 255
217 233 255
217 233 255
217 233 255
217 233 255
217 233 255
217 233 255
217 233 255
217 233 255
217 233 255
217 233 255
217 233 255
217 233 255
217 233 255
217 233 255
217 233 255
217 233 255
217 233 255
217 233 255
217 233 255
217 233 255
217 233 255
217 233 255
217 233 255
217 233 255
217 233 255
217 233 255
217 233 255
217 233 255
217 233 255
217 233 255
217 233 255
217 233 255
217 233 255
217 233 255
217 233 255
217 233 255
217 233 255
217 233 255
217 233 255
217 233 255
217 233 255
217 233 255
217 233 255
217 233 255
217 233 255
217 233 255
217 233 255
217 233 255
217 233 255
217 233 255
217 233 255
217 233 255
217 233 255
217 233 255
217 233 255
217 233 255
217 233 255
217 233 255
217 233 255
217 233 255
217 233 255
217 233 255
217 233 255
217 233 255
217 233 255
217 233 255
217 233 255
217 233 255
217 233 255
217 233 255
217 233 255
217 233 255
217 233 255
217 233 255
217 233 255
217 233 255
217 233 255
217 233 255
217 233 255
217 233 255
217 233 255
217 233 255
217 233 255
217 233 255
217 233 255
217 233 255
217 233 255
217 233 255
217 233 255
217 233 255
217 233 255
217 233 255
217 233 255
217 233 255
217 233 255
217 233 255
217 233 255
217 233 255
217 233 255
217 233 255
217 233 255
217 233 255
217 233 255
217 233 255
217 233 255
217 233 255
217 233 255
217 233 255
217 233 255
217 233 255
217 233 255
217 233 255
217 233 255
217 233 255
217 233 255
217 233 255
217 233 255
217 233 255
217 233 255
217 233 255
217 233 255
217 233 255
217 233 255
217 233 255
217 233 255
217 233 255
217 233 255
217 233 255
217 233 255
217 233 255
217 233 255
217 233 255
217 233 255
217 233 255
217 233 255
217 233 255
217 233 255
217 233 255
217 233 255
217 233 255
217 233 255
217 233 255
217 233 255
217 233 255
217 233 255
217 233 255
217 233 255
217 233 255
217 233 255
217 233 255
217 233 255
217 233 255
217 233 255
217 233 255
217 233 255
217 233 255
217 233 255
217 233 255
217 233 255
217 233 255
217 233 255
217 233 255
217 233 255
217 233 255
217 233 255
217 233 255
218 233 255
218 233 255
218 233 255
218 233 255
218 233 255
218 233 255
218 233 255
218 233 255
218 234 255
218 234 255
218 234 255
218 234 255
218 234 255
218 234 255
218 234 255
218 234 255
218 234 255
218 234 255
218 234 255
218 234 255
218 234 255
218 234 255
218 234 255
218 234 255
218 234 255
218 234 255
218 234 255
218 234 255
218 234 255
218 234 255
218 234 255
218 234 255
218 234 255
218 234 255
218 234 255
218 234 255
218 234 255
218 234 255
218 234 255
218 234 255
218 234 255
218 234 255
218 234 255
218 234 255
218 234 255
218 234 255
218 234 255
218 234 255
218 234 255
218 234 255
218 234 255
218 234 255
218 234 255
218 234 255
218 234 255
218 234 255
218 234 255
218 234 255
218 234 255
218 234 255
218 234 255
218 234 255
218 234 255
218 234 255
218 234 255
218 234 255
218 234 255
218 234 255
218 234 255
218 234 255
218 234 255
218 234 255
218 234 255
218 234 255
218 234 255
218 234 255
218 234 255
218 234 255
218 234 255
218 234 255
218 234 255
218 234 255
218 234 255
218 234 255
218 234 255
218 234 255
218 234 255
218 234 255
218 234 255
218 234 255
218 234 255
218 234 255
218 234 255
218 234 255
218 234 255
218 234 255
219 234 255
219 234 255
219 234 255
219 234 255
219 234 255
219 234 255
219 234 255
219 234 255
219 234 255
219 234 255
219 234 255
219 234 255
219 234 255
219 234 255
219 234 255
219 234 255
219 234 255
219 234 255
219 234 255
219 234 255
219 234 255
219 234 255
219 234 255
219 234 255
219 234 255
219 234 255
219 234 255
219 234 255
219 234 255
219 234 255
219 234 255
219 234 255
219 234 255
219 234 255
219 234 255
219 234 255
219 234 255
219 234 255
219 234 255
219 234 255
219 234 255
218 234 255
218 234 255
218 234 255
218 234 255
218 234 255
218 234 255
218 234 255
218 234 255
218 234 255
218 234 255
218 234 255
218 234 255
218 234 255
218 234 255
218 234 255
218 234 255
218 234 255
218 234 255
218 234 255
218 234 255
218 234 255
218 234 255
218 234 255
218 234 255
218 234 255
218 234 255
218 234 255
218 234 255
218 234 255
218 234 255
218 234 255
218 234 255
218 234 255
218 234 255
218 234 255
218 234 255
218 234 255
218 234 255
218 234 255
218 234 255
218 234 255
218 234 255
218 234 255
218 234 255
218 234 255
218 234 255
218 234 255
218 234 255
218 234 255
218 234 255
218 234 255
218 234 255
218 234 255
218 234 255
218 234 255
218 234 255
218 234 255
218 234 255
218 234 255
218 234 255
218 234 255
218 234 255
218 234 255
218 234 255
218 234 255
218 234 255
218 234 255
218 234 255
218 234 255
218 234 255
218 234 255
218 234 255
218 234 255
218 234 255
218 234 255
218 234 255
218 234 255
218 234 255
218 234 255
218 234 255
218 234 255
218 234 255
218 234 255
218 234 255
218 234 255
218 234 255
218 234 255
218 234 255
218 233 255
218 233 255
218 233 255
218 233 255
218 233 255
218 233 255
218 233 255
218 233 255
218 233 255
218 233 255
218 233 255
217 233 255
217 233 255
217 233 255
217 233 255
217 233 255
217 233 255
217 233 255
217 233 255
217 233 255
217 233 255
217 233 255
217 233 255
217 233 255
217 233 255
217 233 255
217 233 255
217 233 255
217 233 255
217 233 255
217 233 255
217 233 255
217 233 255
217 233 255
217 233 255
217 233 255
217 233 255
217 233 255
217 233 255
217 233 255
217 233 255
217 233 255
217 233 255
217 233 255
217 233 255
217 233 255
217 233 255
217 233 255
217 233 255
217 233 255
217 233 255
217 233 255
217 233 255
217 233 255
217 233 255
217 233 255
217 233 255
217 233 255
217 233 255
217 233 255
217 233 255
217 233 255
217 233 255
217 233 255
217 233 255
217 233 255
217 233 255
217 233 255
217 233 255
217 233 255
217 233 255
217 233 255
217 233 255
217 233 255
217 233 255
217 233 255
217 233 255
217 233 255
217 233 255
217 233 255
217 233 255
217 233 255
217 233 255
217 233 255
217 233 255
217 233 255
217 233 255
217 233 255
217 233 255
217 233 255
217 233 255
217 233 255
217 233 255
217 233 255
217 233 255
217 233 255
217 233 255
217 233 255
217 233 255
217 233 255
217 233 255
217 233 255
217 233 255
217 233 255
217 233 255
217 233 255
217 233 255
217 233 255
217 233 255
217 233 255
217 233 255
217 233 255
217 233 255
217 233 255
217 233 255
217 233 255
217 233 255
217 233 255
217 233 255
217 233 255
217 233 255
217 233 255
217 233 255
217 233 255
217 233 255
217 233 255
217 233 255
217 233 255
217 233 255
217 233 255
217 233 255
217 233 255
217 233 255
217 233 255
217 233 255
217 233 255
217 233 255
217 233 255
217 233 255
217 233 255
217 233 255
217 233 255
217 233 255
217 233 255
217 233 255
217 233 255
217 233 255
217 233 255
217 233 255
217 233 255
217 233 255
217 233 255
217 233 255
217 233 255
217 233 255
217 233 255
217 233 255
217 233 255
218 233 255
218 233 255
218 233 255
218 233 255
218 233 255
218 233 255
218 233 255
218 233 255
218 233 255
218 233 255
218 234 255
218 234 255
218 234 255
218 234 255
218 234 255
218 234 255
218 234 255
218 234 255
218 234 255
218 234 255
218 234 255
218 234 255
218 234 255
218 234 255
218 234 255
218 234 255
218 234 255
218 234 255
218 234 255
218 234 255
218 234 255
218 234 255
218 234 255
218 234 255
218 234 255
218 234 255
218 234 255
218 234 255
218 234 255
218 234 255
218 234 255
218 234 255
218 234 255
218 234 255
218 234 255
218 234 255
218 234 255
218 234 255
218 234 255
218 234 255
218 234 255
218 234 255
218 234 255
218 234 255
218 234 255
218 234 255
218 234 255
218 234 255
218 234 255
218 234 255
218 234 255
218 234 255
218 234 255
218 234 255
218 234 255
218 234 255
218 234 255
218 234 255
218 234 255
218 234 255
218 234 255
218 234 255
218 234 255
218 234 255
218 234 255
218 234 255
218 234 255
218 234 255
218 234 255
218 234 255
218 234 255
218 234 255
218 234 255
218 234 255
218 234 255
218 234 255
218 234 255
218 234 255
218 234 255
218 234 255
218 234 255
218 234 255
218 234 255
218 234 255
218 234 255
218 234 255
218 234 255
218 234 255
218 234 255
219 234 255
219 234 255
219 234 255
219 234 255
219 234 255
219 234 255
219 234 255
219 234 255
219 234 255
219 234 255
219 234 255
219 234 255
219 234 255
219 234 255
219 234 255
219 234 255
219 234 255
219 234 255
219 234 255
219 234 255
219 234 255
219 234 255
219 234 255
219 234 255
219 234 255
219 234 255
219 234 255
219 234 255
219 234 255
219 234 255
219 234 255
219 234 255
219 234 255
219 234 255
219 234 255
219 234 255
219 234 255
219 234 255
219 234 255
219 234 255
219 234 255
219 234 255
219 234 255
219 234 255
219 234 255
219 234 255
219 234 255
219 234 255
219 234 255
219 234 255
219 234 255
219 234 255
219 234 255
219 234 255
219 234 255
219 234 255
219 234 255
219 234 255
219 234 255
219 234 255
219 234 255
219 234 255
219 234 255
219 234 255
219 234 255
219 234 255
219 234 255
219 234 255
219 234 255
219 234 255
218 234 255
218 234 255
218 234 255
218 234 255
218 234 255
218 234 255
218 234 255
218 234 255
218 234 255
218 234 255
218 234 255
218 234 255
218 234 255
218 234 255
218 234 255
218 234 255
218 234 255
218 234 255
218 234 255
218 234 255
218 234 255
218 234 255
218 234 255
218 234 255
218 234 255
218 234 255
218 234 255
218 234 255
218 234 255
218 234 255
218 234 255
218 234 255
218 234 255
218 234 255
218 234 255
218 234 255
218 234 255
218 234 255
218 234 255
218 234 255
218 234 255
218 234 255
218 234 255
218 234 255
218 234 255
218 234 255
218 234 255
218 234 255
218 234 255
218 234 255
218 234 255
218 234 255
218 234 255
218 234 255
218 234 255
218 234 255
218 234 255
218 234 255
218 234 255
218 234 255
218 234 255
218 234 255
218 234 255
218 234 255
218 234 255
218 234 255
218 234 255
218 234 255
218 234 255
218 234 255
218 234 255
218 234 255
218 234 255
218 234 255
218 234 255
218 234 255
218 234 255
218 234 255
218 234 255
218 234 255
218 234 255
218 234 255
218 234 255
218 234 255
218 234 255
218 234 255
218 234 255
218 234 255
218 234 255
218 234 255
218 234 255
218 233 255
218 233 255
218 233 255
218 233 255
218 233 255
218 233 255
218 233 255
218 233 255
218 233 255
218 233 255
218 233 255
218 233 255
218 233 255
217 233 255
217 233 255
217 233 255
217 233 255
217 233 255
217 233 255
217 233 255
217 233 255
217 233 255
217 233 255
217 233 255
217 233 255
217 233 255
217 233 255
217 233 255
217 233 255
217 233 255
217 233 255
217 233 255
217 233 255
217 233 255
217 233 255
217 233 255
217 233 255
217 233 255
217 233 255
217 233 255
217 233 255
217 233 255
217 233 255
217 233 255
217 233 255
217 233 255
217 233 255
217 233 255
217 233 255
217 233 255
217 233 255
217 233 255
217 233 255
217 233 255
217 233 255
217 233 255
217 233 255
217 233 255
217 233 255
217 233 255
217 233 255
217 233 255
217 233 255
217 233 255
217 233 255
217 233 255
217 233 255
217 233 255
217 233 255
217 233 255
217 233 255
217 233 255
217 233 255
217 233 255
217 233 255
217 233 255
217 233 255
217 233 255
217 233 255
217 233 255
217 233 255
217 233 255
217 233 255
217 233 255
217 233 255
217 233 255
217 233 255
217 233 255
217 233 255
217 233 255
217 233 255
217 233 255
217 233 255
217 233 255
217 233 255
217 233 255
217 233 255
217 233 255
217 233 255
217 233 255
217 233 255
217 233 255
217 233 255
217 233 255
217 233 255
217 233 255
217 233 255
217 233 255
217 233 255
217 233 255
217 233 255
217 233 255
217 233 255
217 233 255
217 233 255
217 233 255
217 233 255
217 233 255
217 233 255
217 233 255
218 233 255
218 233 255
218 233 255
218 233 255
218 233 255
218 233 255
218 233 255
218 233 255
218 233 255
218 233 255
218 233 255
218 233 255
218 233 255
218 234 255
218 234 255
218 234 255
218 234 255
218 234 255
218 234 255
218 234 255
218 234 255
218 234 255
218 234 255
218 234 255
218 234 255
218 234 255
218 234 255
218 234 255
218 234 255
218 234 255
218 234 255
218 234 255
218 234 255
218 234 255
218 234 255
218 234 255
218 234 255
218 234 255
218 234 255
218 234 255
218 234 255
218 234 255
218 234 255
218 234 255
218 234 255
218 234 255
218 234 255
218 234 255
218 234 255
218 234 255
218 234 255
218 234 255
218 234 255
218 234 255
218 234 255
218 234 255
218 234 255
218 234 255
218 234 255
218 234 255
218 234 255
218 234 255
218 234 255
218 234 255
218 234 255
218 234 255
218 234 255
218 234 255
218 234 255
218 234 255
218 234 255
218 234 255
218 234 255
218 234 255
218 234 255
218 234 255
218 234 255
218 234 255
218 234 255
218 234 255
218 234 255
218 234 255
218 234 255
218 234 255
218 234 255
218 234 255
218 234 255
218 234 255
218 234 255
218 234 255
218 234 255
218 234 255
218 234 255
218 234 255
218 234 255
218 234 255
218 234 255
218 234 255
218 234 255
218 234 255
218 234 255
218 234 255
218 234 255
218 234 255
219 234 255
219 234 255
219 234 255
219 234 255
219 234 255
219 234 255
219 234 255
219 234 255
219 234 255
219 234 255
219 234 255
219 234 255
219 234 255
219 234 255
219 234 255
219 234 255
219 234 255
219 234 255
219 234 255
219 234 255
219 234 255
219 234 255
219 234 255
219 234 255
219 234 255
219 234 255
219 234 255
219 234 255
219 234 255
219 234 255
219 234 255
219 234 255
219 234 255
219 234 255
219 234 255
219 234 255
219 234 255
219 234 255
219 234 255
219 234 255
219 234 255
219 234 255
219 234 255
219 234 255
219 234 255
219 234 255
219 234 255
219 234 255
219 234 255
219 234 255
219 234 255
219 234 255
219 234 255
219 234 255
219 234 255
219 234 255
219 234 255
219 234 255
219 234 255
219 234 255
219 234 255
219 234 255
219 234 255
219 234 255
219 234 255
219 234 255
219 234 255
219 234 255
219 234 255
219 234 255
219 234 255
219 234 255
219 234 255
219 234 255
219 234 255
219 234 255
219 234 255
219 234 255
219 234 255
219 234 255
219 234 255
219 234 255
219 234 255
219 234 255
219 234 255
219 234 255
219 234 255
219 234 255
219 234 255
219 234 255
219 234 255
219 234 255
219 234 255
219 234 255
219 234 255
219 234 255
219 234 255
219 234 255
219 234 255
219 234 255
218 234 255
218 234 255
218 234 255
218 234 255
218 234 255
218 234 255
218 234 255
218 234 255
218 234 255
218 234 255
218 234 255
218 234 255
218 234 255
218 234 255
218 234 255
218 234 255
218 234 255
218 234 255
218 234 255
218 234 255
218 234 255
218 234 255
218 234 255
218 234 255
218 234 255
218 234 255
218 234 255
218 234 255
218 234 255
218 234 255
218 234 255
218 234 255
218 234 255
218 234 255
218 234 255
218 234 255
218 234 255
218 234 255
218 234 255
218 234 255
218 234 255
218 234 255
218 234 255
218 234 255
218 234 255
218 234 255
218 234 255
218 234 255
218 234 255
218 234 255
218 234 255
218 234 255
218 234 255
218 234 255
218 234 255
218 234 255
218 234 255
218 234 255
218 234 255
218 234 255
218 234 255
218 234 255
218 234 255
218 234 255
218 234 255
218 234 255
218 234 255
218 234 255
218 234 255
218 234 255
218 234 255
218 234 255
218 234 255
218 234 255
218 234 255
218 234 255
218 234 255
218 234 255
218 234 255
218 234 255
218 234 255
218 234 255
218 234 255
218 234 255
218 234 255
218 234 255
218 234 255
218 234 255
218 234 255
218 234 255
218 234 255
218 234 255
218 234 255
218 234 255
218 234 255
218 234 255
218 234 255
218 234 255
218 233 255
218 233 255
218 233 255
218 233 255
218 233 255
218 233 255
218 233 255
218 233 255
218 233 255
218 233 255
218 233 255
218 233 255
218 233 255
218 233 255
218 233 255
218 233 255
218 233 255
218 233 255
218 233 255
217 233 255
217 233 255
217 233 255
217 233 255
217 233 255
217 233 255
217 233 255
217 233 255
217 233 255
217 233 255
217 233 255
217 233 255
217 233 255
217 233 255
217 233 255
217 233 255
217 233 255
217 233 255
217 233 255
217 233 255
217 233 255
217 233 255
217 233 255
217 233 255
217 233 255
217 233 255
217 233 255
217 233 255
217 233 255
217 233 255
217 233 255
217 233 255
217 233 255
217 233 255
217 233 255
217 233 255
217 233 255
217 233 255
217 233 255
217 233 255
217 233 255
217 233 255
217 233 255
217 233 255
217 233 255
217 233 255
217 233 255
217 233 255
218 233 255
218 233 255
218 233 255
218 233 255
218 233 255
218 233 255
218 233 255
218 233 255
218 233 255
218 233 255
218 233 255
218 233 255
218 233 255
218 233 255
218 233 255
218 233 255
218 233 255
218 233 255
218 233 255
218 233 255
218 233 255
218 234 255
218 234 255
218 234 255
218 234 255
218 234 255
218 234 255
218 234 255
218 234 255
218 234 255
218 234 255
218 234 255
218 234 255
218 234 255
218 234 255
218 234 255
218 234 255
218 234 255
218 234 255
218 234 255
218 234 255
218 234 255
218 234 255
218 234 255
218 234 255
218 234 255
218 234 255
218 234 255
218 234 255
218 234 255
218 234 255
218 234 255
218 234 255
218 234 255
218 234 255
218 234 255
218 234 255
218 234 255
218 234 255
218 234 255
218 234 255
218 234 255
218 234 255
218 234 255
218 234 255
218 234 255
218 234 255
218 234 255
218 234 255
218 234 255
218 234 255
218 234 255
218 234 255
218 234 255
218 234 255
218 234 255
218 234 255
218 234 255
218 234 255
218 234 255
218 234 255
218 234 255
218 234 255
218 234 255
218 234 255
218 234 255
218 234 255
218 234 255
218 234 255
218 234 255
218 234 255
218 234 255
218 234 255
218 234 255
218 234 255
218 234 255
218 234 255
218 234 255
218 234 255
218 234 255
218 234 255
218 234 255
218 234 255
218 234 255
218 234 255
218 234 255
218 234 255
218 234 255
218 234 255
218 234 255
218 234 255
218 234 255
218 234 255
218 234 255
218 234 255
218 234 255
218 234 255
218 234 255
218 234 255
219 234 255
218 234 255
219 234 255
219 234 255
219 234 255
219 234 255
219 234 255
219 234 255
219 234 255
219 234 255
219 234 255
219 234 255
219 234 255
219 234 255
219 234 255
219 234 255
219 234 255
219 234 255
219 234 255
219 234 255
219 234 255
219 234 255
219 234 255
219 234 255
219 234 255
219 234 255
219 234 255
219 234 255
219 234 255
219 234 255
219 234 255
219 234 255
219 234 255
219 234 255
219 234 255
219 234 255
219 234 255
219 234 255
219 234 255
219 234 255
219 234 255
219 234 255
219 234 255
219 234 255
219 234 255
219 234 255
219 234 255
219 234 255
219 234 255
219 234 255
219 234 255
219 234 255
219 234 255
219 234 255
219 234 255
219 234 255
219 234 255
219 234 255
219 234 255
219 234 255
219 234 255
219 234 255
219 234 255
219 234 255
219 234 255
219 234 255
219 234 255
219 234 255
219 234 255
219 234 255
219 234 255
219 234 255
219 234 255
219 234 255
219 234 255
219 234 255
219 234 255
219 234 255
219 234 255
219 234 255
219 234 255
219 234 255
219 234 255
219 234 255
219 234 255
219 234 255
219 234 255
219 234 255
219 234 255
219 234 255
219 234 255
219 234 255
219 234 255
219 234 255
219 234 255
219 234 255
219 234 255
219 234 255
219 234 255
219 234 255
219 234 255
219 234 255
219 234 255
219 234 255
219 234 255
219 234 255
219 234 255
219 234 255
219 234 255
219 234 255
219 234 255
219 234 255
219 234 255
219 234 255
219 234 255
219 234 255
219 234 255
219 234 255
219 234 255
219 234 255
219 234 255
219 234 255
219 234 255
219 234 255
219 234 255
219 234 255
219 234 255
219 234 255
219 234 255
219 234 255
219 234 255
219 234 255
219 234 255
218 234 255
218 234 255
218 234 255
218 234 255
218 234 255
218 234 255
218 234 255
218 234 255
218 234 255
218 234 255
218 234 255
218 234 255
218 234 255
218 234 255
218 234 255
218 234 255
218 234 255
218 234 255
218 234 255
218 234 255
218 234 255
218 234 255
218 234 255
218 234 255
218 234 255
218 234 255
218 234 255
218 234 255
218 234 255
218 234 255
218 234 255
218 234 255
218 234 255
218 234 255
218 234 255
218 234 255
218 234 255
218 234 255
218 234 255
218 234 255
218 234 255
218 234 255
218 234 255
218 234 255
218 234 255
218 234 255
218 234 255
218 234 255
218 234 255
218 234 255
218 234 255
218 234 255
218 234 255
218 234 255
218 234 255
218 234 255
218 234 255
218 234 255
218 234 255
218 234 255
218 234 255
218 234 255
218 234 255
218 234 255
218 234 255
218 234 255
218 234 255
218 234 255
218 234 255
218 234 255
218 234 255
218 234 255
218 234 255
218 234 255
218 234 255
218 234 255
218 234 255
218 234 255
218 234 255
218 234 255
218 234 255
218 234 255
218 234 255
218 234 255
218 234 255
218 234 255
218 234 255
218 234 255
218 234 255
218 234 255
218 234 255
218 234 255
218 234 255
218 234 255
218 234 255
218 234 255
218 234 255
218 234 255
218 234 255
218 234 255
218 234 255
218 234 255
218 234 255
218 234 255
218 234 255
218 234 255
218 234 255
218 234 255
218 234 255
218 234 255
218 234 255
218 234 255
218 234 255
218 234 255
218 234 255
218 234 255
218 234 255
218 234 255
218 234 255
218 234 255
218 234 255
218 234 255
218 234 255
218 234 255
218 234 255
218 234 255
218 234 255
218 234 255
218 234 255
218 234 255
218 234 255
218 234 255
218 234 255
218 234 255
218 234 255
218 234 255
218 234 255
218 234 255
218 234 255
218 234 255
218 234 255
218 234 255
218 234 255
218 234 255
218 234 255
218 234 255
218 234 255
218 234 255
218 234 255
218 234 255
218 234 255
218 234 255
218 234 255
218 234 255
218 234 255
218 234 255
218 234 255
218 234 255
218 234 255
218 234 255
218 234 255
218 234 255
218 234 255
218 234 255
218 234 255
218 234 255
218 234 255
218 234 255
218 234 255
218 234 255
218 234 255
218 234 255
218 234 255
218 234 255
218 234 255
218 234 255
218 234 255
218 234 255
218 234 255
218 234 255
218 234 255
218 234 255
218 234 255
218 234 255
218 234 255
218 234 255
218 234 255
218 234 255
218 234 255
218 234 255
218 234 255
218 234 255
218 234 255
218 234 255
218 234 255
218 234 255
218 234 255
218 234 255
218 234 255
218 234 255
218 234 255
218 234 255
218 234 255
218 234 255
218 234 255
218 234 255
218 234 255
218 234 255
218 234 255
218 234 255
218 234 255
218 234 255
218 234 255
218 234 255
218 234 255
218 234 255
218 234 255
218 234 255
218 234 255
218 234 255
218 234 255
218 234 255
218 234 255
218 234 255
218 234 255
218 234 255
218 234 255
218 234 255
218 234 255
218 234 255
218 234 255
218 234 255
218 234 255
218 234 255
218 234 255
218 234 255
218 234 255
218 234 255
218 234 255
218 234 255
218 234 255
218 234 255
218 234 255
218 234 255
218 234 255
218 234 255
218 234 255
218 234 255
218 234 255
218 234 255
218 234 255
218 234 255
219 234 255
219 234 255
219 234 255
219 234 255
219 234 255
219 234 255
219 234 255
219 234 255
219 234 255
219 234 255
219 234 255
219 234 255
219 234 255
219 234 255
219 234 255
219 234 255
219 234 255
219 234 255
219 234 255
219 234 255
219 234 255
219 234 255
219 234 255
219 234 255
219 234 255
219 234 255
219 234 255
219 234 255
219 234 255
219 234 255
219 234 255
219 234 255
219 234 255
219 234 255
219 234 255
219 234 255
219 234 255
219 234 255
219 234 255
219 234 255
219 234 255
219 234 255
219 234 255
219 234 255
219 234 255
219 234 255
219 234 255
219 234 255
219 234 255
219 234 255
219 234 255
219 234 255
219 234 255
219 234 255
219 234 255
219 234 255
219 234 255
219 234 255
219 234 255
219 234 255
219 234 255
219 234 255
219 234 255
219 234 255
219 234 255
219 234 255
219 234 255
219 234 255
219 234 255
219 234 255
219 234 255
219 234 255
219 234 255
219 234 255
219 234 255
219 234 255
219 234 255
219 234 255
219 234 255
219 234 255
219 234 255
219 234 255
219 234 255
219 234 255
219 234 255
219 234 255
219 234 255
219 234 255
219 234 255
219 234 255
219 234 255
219 234 255
219 234 255
219 234 255
219 234 255
219 234 255
219 234 255
219 234 255
219 234 255
219 234 255
219 234 255
219 234 255
219 234 255
219 234 255
219 234 255
219 234 255
219 234 255
219 234 255
219 234 255
219 234 255
219 234 255
219 234 255
219 234 255
219 234 255
219 234 255
219 234 255
219 234 255
219 234 255
219 234 255
219 234 255
219 234 255
219 234 255
219 234 255
219 234 255
219 234 255
219 234 255
219 234 255
219 234 255
219 234 255
219 234 255
219 234 255
219 234 255
219 234 255
219 234 255
219 234 255
219 234 255
219 234 255
219 234 255
219 234 255
219 234 255
219 234 255
219 234 255
219 234 255
219 234 255
219 234 255
219 234 255
219 234 255
219 234 255
219 234 255
219 234 255
219 234 255
219 234 255
219 234 255
219 234 255
219 234 255
219 234 255
219 234 255
219 234 255
219 234 255
219 234 255
219 234 255
219 234 255
219 234 255
219 234 255
219 234 255
218 234 255
218 234 255
218 234 255
218 234 255
218 234 255
218 234 255
218 234 255
218 234 255
218 234 255
218 234 255
218 234 255
218 234 255
218 234 255
218 234 255
218 234 255
218 234 255
218 234 255
218 234 255
218 234 255
218 234 255
218 234 255
218 234 255
218 234 255
218 234 255
218 234 255
218 234 255
218 234 255
218 234 255
218 234 255
218 234 255
218 234 255
218 234 255
218 234 255
218 234 255
218 234 255
218 234 255
218 234 255
218 234 255
218 234 255
218 234 255
218 234 255
218 234 255
218 234 255
218 234 255
218 234 255
218 234 255
218 234 255
218 234 255
218 234 255
218 234 255
218 234 255
218 234 255
218 234 255
218 234 255
218 234 255
218 234 255
218 234 255
218 234 255
218 234 255
218 234 255
218 234 255
218 234 255
218 234 255
218 234 255
218 234 255
218 234 255
218 234 255
218 234 255
218 234 255
218 234 255
218 234 255
218 234 255
218 234 255
218 234 255
218 234 255
218 234 255
218 234 255
218 234 255
218 234 255
218 234 255
218 234 255
218 234 255
218 234 255
218 234 255
218 234 255
218 234 255
218 234 255
218 234 255
218 234 255
218 234 255
218 234 255
218 234 255
218 234 255
218 234 255
218 234 255
218 234 255
218 234 255
218 234 255
218 234 255
218 234 255
218 234 255
218 234 255
218 234 255
218 234 255
218 234 255
218 234 255
218 234 255
218 234 255
218 234 255
218 234 255
218 234 255
218 234 255
218 234 255
218 234 255
218 234 255
218 234 255
218 234 255
218 234 255
218 234 255
218 234 255
218 234 255
218 234 255
218 234 255
218 234 255
218 234 255
218 234 255
218 234 255
218 234 255
218 234 255
218 234 255
218 234 255
218 234 255
218 234 255
218 234 255
218 234 255
218 234 255
218 234 255
218 234 255
218 234 255
218 234 255
218 234 255
218 234 255
218 234 255
218 234 255
218 234 255
218 234 255
218 234 255
218 234 255
218 234 255
218 234 255
218 234 255
218 234 255
218 234 255
218 234 255
218 234 255
218 234 255
218 234 255
218 234 255
218 234 255
218 234 255
218 234 255
218 234 255
218 234 255
218 234 255
218 234 255
218 234 255
218 234 255
218 234 255
218 234 255
218 234 255
218 234 255
218 234 255
218 234 255
218 234 255
218 234 255
218 234 255
218 234 255
218 234 255
218 234 255
218 234 255
218 234 255
218 234 255
218 234 255
218 234 255
218 234 255
218 234 255
218 234 255
218 234 255
218 234 255
218 234 255
218 234 255
218 234 255
218 234 255
218 234 255
218 234 255
218 234 255
218 234 255
218 234 255
218 234 255
218 234 255
218 234 255
218 234 255
218 234 255
218 234 255
218 234 255
218 234 255
218 234 255
218 234 255
218 234 255
218 234 255
218 234 255
218 234 255
218 234 255
218 234 255
218 234 255
218 234 255
218 234 255
219 234 255
219 234 255
219 234 255
219 234 255
219 234 255
219 234 255
219 234 255
219 234 255
219 234 255
219 234 255
219 234 255
219 234 255
219 234 255
219 234 255
219 234 255
219 234 255
219 234 255
219 234 255
219 234 255
219 234 255
219 234 255
219 234 255
219 234 255
219 234 255
219 234 255
219 234 255
219 234 255
219 234 255
219 234 255
219 234 255
219 234 255
219 234 255
219 234 255
219 234 255
219 234 255
219 234 255
219 234 255
219 234 255
219 234 255
219 234 255
219 234 255
219 234 255
219 234 255
219 234 255
219 234 255
219 234 255
219 234 255
219 234 255
219 234 255
219 234 255
219 234 255
219 234 255
219 234 255
219 234 255
219 234 255
219 234 255
219 234 255
219 234 255
219 234 255
219 234 255
219 234 255
219 234 255
219 234 255
219 234 255
219 234 255
219 234 255
219 234 255
219 234 255
219 234 255
219 234 255
219 234 255
219 234 255
219 234 255
219 234 255
219 234 255
219 234 255
219 234 255
219 234 255
219 234 255
219 234 255
219 234 255
219 234 255
219 234 255
219 234 255
219 234 255
219 234 255
219 234 255
219 234 255
219 234 255
219 234 255
219 234 255
219 234 255
219 234 255
219 234 255
219 234 255
219 234 255
219 234 255
219 234 255
219 234 255
219 234 255
219 234 255
219 234 255
219 234 255
219 234 255
219 234 255
219 234 255
219 234 255
219 234 255
219 234 255
219 234 255
219 234 255
219 234 255
219 234 255
219 234 255
219 234 255
219 234 255
219 234 255
219 234 255
219 234 255
219 234 255
219 234 255
219 234 255
219 234 255
219 234 255
219 234 255
219 234 255
219 234 255
219 234 255
219 234 255
219 234 255
219 234 255
219 234 255
219 234 255
219 234 255
219 234 255
219 234 255
219 234 255
219 234 255
219 234 255
219 234 255
219 234 255
219 234 255
219 234 255
219 234 255
219 234 255
219 234 255
219 234 255
219 234 255
219 234 255
219 234 255
219 234 255
219 234 255
219 234 255
219 234 255
219 234 255
219 234 255
219 234 255
219 234 255
219 234 255
219 234 255
219 234 255
219 234 255
219 234 255
219 234 255
219 234 255
219 234 255
219 234 255
219 234 255
219 234 255
219 234 255
219 234 255
219 234 255
219 234 255
219 234 255
219 234 255
219 234 255
219 234 255
219 234 255
219 234 255
219 234 255
219 234 255
219 234 255
219 234 255
219 234 255
219 234 255
219 234 255
219 234 255
219 234 255
219 234 255
219 234 255
219 234 255
219 234 255
219 234 255
219 234 255
219 234 255
219 234 255
219 234 255
219 234 255
219 234 255
219 234 255
219 234 255
219 234 255
218 234 255
218 234 255
218 234 255
218 234 255
218 234 255
218 234 255
218 234 255
218 234 255
218 234 255
218 234 255
218 234 255
218 234 255
218 234 255
218 234 255
218 234 255
218 234 255
218 234 255
218 234 255
218 234 255
218 234 255
218 234 255
218 234 255
218 234 255
218 234 255
218 234 255
218 234 255
218 234 255
218 234 255
218 234 255
218 234 255
218 234 255
218 234 255
218 234 255
218 234 255
218 234 255
218 234 255
218 234 255
218 234 255
218 234 255
218 234 255
218 234 255
218 234 255
218 234 255
218 234 255
218 234 255
218 234 255
218 234 255
218 234 255
218 234 255
218 234 255
218 234 255
218 234 255
218 234 255
218 234 255
218 234 255
218 234 255
218 234 255
218 234 255
218 234 255
218 234 255
218 234 255
218 234 255
218 234 255
218 234 255
218 234 255
218 234 255
218 234 255
218 234 255
218 234 255
218 234 255
218 234 255
218 234 255
218 234 255
218 234 255
218 234 255
218 234 255
218 234 255
218 234 255
218 234 255
218 234 255
218 234 255
218 234 255
218 234 255
218 234 255
218 234 255
218 234 255
218 234 255
218 234 255
218 234 255
218 234 255
218 234 255
218 234 255
218 234 255
218 234 255
218 234 255
218 234 255
218 234 255
218 234 255
218 234 255
218 234 255
218 234 255
218 234 255
218 234 255
218 234 255
218 234 255
218 234 255
218 234 255
218 234 255
218 234 255
218 234 255
218 234 255
218 234 255
218 234 255
218 234 255
218 234 255
218 234 255
218 234 255
218 234 255
218 234 255
218 234 255
218 234 255
218 234 255
218 234 255
218 234 255
218 234 255
218 234 255
218 234 255
218 234 255
218 234 255
218 234 255
218 234 255
218 234 255
218 234 255
218 234 255
218 234 255
218 234 255
218 234 255
218 234 255
218 234 255
218 234 255
218 234 255
218 234 255
218 234 255
218 234 255
218 234 255
218 234 255
218 234 255
218 234 255
218 234 255
218 234 255
218 234 255
218 234 255
218 234 255
218 234 255
218 234 255
218 234 255
218 234 255
218 234 255
218 234 255
218 234 255
218 234 255
218 234 255
218 234 255
218 234 255
218 234 255
218 234 255
218 234 255
218 234 255
218 234 255
218 234 255
218 234 255
218 234 255
218 234 255
218 234 255
218 234 255
218 234 255
218 234 255
218 234 255
218 234 255
219 234 255
219 234 255
219 234 255
219 234 255
219 234 255
219 234 255
219 234 255
219 234 255
219 234 255
219 234 255
219 234 255
219 234 255
219 234 255
219 234 255
219 234 255
219 234 255
219 234 255
219 234 255
219 234 255
219 234 255
219 234 255
219 234 255
219 234 255
219 234 255
219 234 255
219 234 255
219 234 255
219 234 255
219 234 255
219 234 255
219 234 255
219 234 255
219 234 255
219 234 255
219 234 255
219 234 255
219 234 255
219 234 255
219 234 255
219 234 255
219 234 255
219 234 255
219 234 255
219 234 255
219 234 255
219 234 255
219 234 255
219 234 255
219 234 255
219 234 255
219 234 255
219 234 255
219 234 255
219 234 255
219 234 255
219 234 255
219 234 255
219 234 255
219 234 255
219 234 255
219 234 255
219 234 255
219 234 255
219 234 255
219 234 255
219 234 255
219 234 255
219 234 255
219 234 255
219 234 255
219 234 255
219 234 255
219 234 255
219 234 255
219 234 255
219 234 255
219 234 255
219 234 255
219 234 255
219 234 255
219 234 255
219 234 255
219 234 255
219 234 255
219 234 255
219 234 255
219 234 255
219 234 255
219 234 255
219 234 255
219 234 255
219 234 255
219 234 255
219 234 255
219 234 255
219 234 255
219 234 255
219 234 255
219 234 255
219 234 255
219 234 255
219 234 255
219 234 255
219 234 255
219 234 255
219 234 255
219 234 255
219 234 255
219 234 255
219 234 255
219 234 255
219 235 255
219 235 255
219 235 255
219 235 255
219 235 255
219 235 255
219 235 255
219 235 255
219 235 255
219 235 255
219 234 255
219 234 255
219 234 255
219 234 255
219 234 255
219 234 255
219 234 255
219 234 255
219 234 255
219 234 255
219 234 255
219 234 255
219 234 255
219 234 255
219 234 255
219 234 255
219 234 255
219 234 255
219 234 255
219 234 255
219 234 255
219 234 255
219 234 255
219 234 255
219 234 255
219 234 255
219 234 255
219 234 255
219 234 255
219 234 255
219 234 255
219 234 255
219 234 255
219 234 255
219 234 255
219 234 255
219 234 255
219 234 255
219 234 255
219 234 255
219 234 255
219 234 255
219 234 255
219 234 255
219 234 255
219 234 255
219 234 255
219 234 255
219 234 255
219 234 255
219 234 255
219 234 255
219 234 255
219 234 255
219 234 255
219 234 255
219 234 255
219 234 255
219 234 255
219 234 255
219 234 255
219 234 255
219 234 255
219 234 255
219 234 255
219 234 255
219 234 255
219 234 255
219 234 255
219 234 255
219 234 255
219 234 255
219 234 255
219 234 255
219 234 255
219 234 255
219 234 255
219 234 255
219 234 255
219 234 255
219 234 255
219 234 255
219 234 255
219 234 255
219 234 255
219 234 255
219 234 255
219 234 255
219 234 255
219 234 255
219 234 255
219 234 255
219 234 255
219 234 255
219 234 255
219 234 255
219 234 255
219 234 255
219 234 255
219 234 255
219 234 255
219 234 255
219 234 255
219 234 255
219 234 255
219 234 255
219 234 255
219 234 255
219 234 255
219 234 255
219 234 255
219 234 255
219 234 255
219 234 255
219 234 255
219 234 255
219 234 255
219 234 255
219 234 255
219 234 255
219 234 255
219 234 255
219 234 255
218 234 255
218 234 255
218 234 255
218 234 255
218 234 255
218 234 255
218 234 255
218 234 255
218 234 255
218 234 255
218 234 255
218 234 255
218 234 255
218 234 255
218 234 255
218 234 255
218 234 255
218 234 255
218 234 255
218 234 255
218 234 255
218 234 255
218 234 255
218 234 255
218 234 255
218 234 255
218 234 255
218 234 255
218 234 255
218 234 255
218 234 255
218 234 255
218 234 255
218 234 255
218 234 255
218 234 255
218 234 255
218 234 255
218 234 255
218 234 255
218 234 255
218 234 255
218 234 255
218 234 255
218 234 255
218 234 255
218 234 255
218 234 255
218 234 255
218 234 255
218 234 255
218 234 255
218 234 255
218 234 255
218 234 255
218 234 255
218 234 255
218 234 255
218 234 255
218 234 255
218 234 255
218 234 255
218 234 255
218 234 255
218 234 255
218 234 255
218 234 255
218 234 255
218 234 255
218 234 255
218 234 255
218 234 255
218 234 255
218 234 255
218 234 255
218 234 255
218 234 255
218 234 255
218 234 255
218 234 255
218 234 255
218 234 255
218 234 255
218 234 255
218 234 255
218 234 255
218 234 255
218 234 255
218 234 255
218 234 255
218 234 255
218 234 255
218 234 255
218 234 255
218 234 255
218 234 255
218 234 255
218 234 255
218 234 255
218 234 255
218 234 255
218 234 255
218 234 255
218 234 255
218 234 255
218 234 255
218 234 255
218 234 255
218 234 255
218 234 255
218 234 255
218 234 255
218 234 255
218 234 255
218 234 255
218 234 255
218 234 255
218 234 255
218 234 255
218 234 255
218 234 255
218 234 255
218 234 255
218 234 255
218 234 255
218 234 255
218 234 255
218 234 255
218 234 255
218 234 255
218 234 255
218 234 255
218 234 255
219 234 255
218 234 255
219 234 255
219 234 255
219 234 255
219 234 255
219 234 255
219 234 255
219 234 255
219 234 255
219 234 255
219 234 255
219 234 255
219 234 255
219 234 255
219 234 255
219 234 255
219 234 255
219 234 255
219 234 255
219 234 255
219 234 255
219 234 255
219 234 255
219 234 255
219 234 255
219 234 255
219 234 255
219 234 255
219 234 255
219 234 255
219 234 255
219 234 255
219 234 255
219 234 255
219 234 255
219 234 255
219 234 255
219 234 255
219 234 255
219 234 255
219 234 255
219 234 255
219 234 255
219 234 255
219 234 255
219 234 255
219 234 255
219 234 255
219 234 255
219 234 255
219 234 255
219 234 255
219 234 255
219 234 255
219 234 255
219 234 255
219 234 255
219 234 255
219 234 255
219 234 255
219 234 255
219 234 255
219 234 255
219 234 255
219 234 255
219 234 255
219 234 255
219 234 255
219 234 255
219 234 255
219 234 255
219 234 255
219 234 255
219 234 255
219 234 255
219 234 255
219 234 255
219 234 255
219 234 255
219 234 255
219 234 255
219 234 255
219 234 255
219 234 255
219 234 255
219 234 255
219 234 255
219 234 255
219 234 255
219 234 255
219 234 255
219 234 255
219 234 255
219 234 255
219 234 255
219 234 255
219 234 255
219 234 255
219 234 255
219 234 255
219 234 255
219 234 255
219 234 255
219 234 255
219 234 255
219 234 255
219 234 255
219 234 255
219 234 255
219 234 255
219 234 255
219 234 255
219 234 255
219 234 255
219 234 255
219 234 255
219 234 255
219 234 255
219 234 255
219 234 255
219 234 255
219 234 255
219 235 255
219 235 255
219 235 255
219 235 255
219 235 255
219 235 255
219 235 255
219 235 255
219 235 255
219 235 255
219 235 255
220 235 255
220 235 255
220 235 255
220 235 255
220 235 255
220 235 255
220 235 255
220 235 255
220 235 255
220 235 255
220 235 255
220 235 255
220 235 255
219 235 255
219 235 255
219 235 255
219 235 255
219 235 255
219 235 255
219 235 255
219 235 255
219 235 255
219 235 255
219 235 255
219 235 255
219 235 255
219 235 255
219 235 255
219 235 255
219 235 255
219 235 255
219 234 255
219 234 255
219 234 255
219 234 255
219 234 255
219 234 255
219 234 255
219 234 255
219 234 255
219 234 255
219 234 255
219 234 255
219 234 255
219 234 255
219 234 255
219 234 255
219 234 255
219 234 255
219 234 255
219 234 255
219 234 255
219 234 255
219 234 255
219 234 255
219 234 255
219 234 255
219 234 255
219 234 255
219 234 255
219 234 255
219 234 255
219 234 255
219 234 255
219 234 255
219 234 255
219 234 255
219 234 255
219 234 255
219 234 255
219 234 255
219 234 255
219 234 255
219 234 255
219 234 255
219 234 255
219 234 255
219 234 255
219 234 255
219 234 255
219 234 255
219 234 255
219 234 255
219 234 255
219 234 255
219 234 255
219 234 255
219 234 255
219 234 255
219 234 255
219 234 255
219 234 255
219 234 255
219 234 255
219 234 255
219 234 255
219 234 255
219 234 255
219 234 255
219 234 255
219 234 255
219 234 255
219 234 255
219 234 255
219 234 255
219 234 255
219 234 255
219 234 255
219 234 255
219 234 255
219 234 255
219 234 255
219 234 255
219 234 255
219 234 255
219 234 255
219 234 255
219 234 255
219 234 255
219 234 255
219 234 255
219 234 255
219 234 255
219 234 255
219 234 255
219 234 255
219 234 255
219 234 255
219 234 255
219 234 255
219 234 255
219 234 255
219 234 255
219 234 255
219 234 255
219 234 255
219 234 255
219 234 255
219 234 255
219 234 255
219 234 255
219 234 255
219 234 255
219 234 255
219 234 255
219 234 255
219 234 255
219 234 255
219 234 255
219 234 255
219 234 255
219 234 255
219 234 255
219 234 255
219 234 255
219 234 255
219 234 255
219 234 255
219 234 255
219 234 255
219 234 255
219 234 255
219 234 255
218 234 255
218 234 255
218 234 255
218 234 255
218 234 255
218 234 255
218 234 255
218 234 255
218 234 255
218 234 255
218 234 255
218 234 255
218 234 255
218 234 255
218 234 255
218 234 255
218 234 255
218 234 255
218 234 255
218 234 255
218 234 255
218 234 255
218 234 255
218 234 255
218 234 255
218 234 255
218 234 255
218 234 255
218 234 255
218 234 255
218 234 255
218 234 255
218 234 255
218 234 255
218 234 255
218 234 255
218 234 255
218 234 255
218 234 255
218 234 255
218 234 255
218 234 255
218 234 255
218 234 255
218 234 255
218 234 255
218 234 255
218 234 255
218 234 255
218 234 255
218 234 255
218 234 255
218 234 255
218 234 255
218 234 255
218 234 255
218 234 255
218 234 255
218 234 255
218 234 255
218 234 255
218 234 255
218 234 255
218 234 255
218 234 255
218 234 255
218 234 255
218 234 255
218 234 255
218 234 255
219 234 255
219 234 255
218 234 255
219 234 255
219 234 255
219 234 255
219 234 255
219 234 255
219 234 255
219 234 255
219 234 255
219 234 255
219 234 255
219 234 255
219 234 255
219 234 255
219 234 255
219 234 255
219 234 255
219 234 255
219 234 255
219 234 255
219 234 255
219 234 255
219 234 255
219 234 255
219 234 255
219 234 255
219 234 255
219 234 255
219 234 255
219 234 255
219 234 255
219 234 255
219 234 255
219 234 255
219 234 255
219 234 255
219 234 255
219 234 255
219 234 255
219 234 255
219 234 255
219 234 255
219 234 255
219 234 255
219 234 255
219 234 255
219 234 255
219 234 255
219 234 255
219 234 255
219 234 255
219 234 255
219 234 255
219 234 255
219 234 255
219 234 255
219 234 255
219 234 255
219 234 255
219 234 255
219 234 255
219 234 255
219 234 255
219 234 255
219 234 255
219 234 255
219 234 255
219 234 255
219 234 255
219 234 255
219 234 255
219 234 255
219 234 255
219 234 255
219 234 255
219 234 255
219 234 255
219 234 255
219 234 255
219 234 255
219 234 255
219 234 255
219 234 255
219 234 255
219 234 255
219 234 255
219 234 255
219 234 255
219 234 255
219 234 255
219 234 255
219 234 255
219 234 255
219 234 255
219 234 255
219 234 255
219 234 255
219 234 255
219 234 255
219 234 255
219 234 255
219 234 255
219 234 255
219 234 255
219 234 255
219 234 255
219 234 255
219 234 255
219 234 255
219 234 255
219 234 255
219 234 255
219 234 255
219 234 255
219 234 255
219 234 255
219 234 255
219 234 255
219 234 255
219 234 255
219 234 255
219 234 255
219 234 255
219 234 255
219 234 255
219 234 255
219 234 255
219 234 255
219 234 255
219 234 255
219 234 255
219 234 255
219 235 255
219 235 255
219 235 255
219 235 255
219 235 255
219 235 255
219 235 255
219 235 255
219 235 255
219 235 255
219 235 255
219 235 255
219 235 255
219 235 255
219 235 255
219 235 255
219 235 255
219 235 255
220 235 255
220 235 255
220 235 255
220 235 255
220 235 255
220 235 255
220 235 255
220 235 255
220 235 255
220 235 255
220 235 255
220 235 255
220 235 255
220 235 255
220 235 255
220 235 255
220 235 255
220 235 255
220 235 255
220 235 255
220 235 255
220 235 255
220 235 255
220 235 255
220 235 255
220 235 255
220 235 255
220 235 255
220 235 255
220 235 255
220 235 255
220 235 255
220 235 255
220 235 255
220 235 255
220 235 255
220 235 255
220 235 255
220 235 255
220 235 255
220 235 255
220 235 255
220 235 255
220 235 255
220 235 255
220 235 255
220 235 255
220 235 255
220 235 255
220 235 255
219 235 255
219 235 255
219 235 255
219 235 255
219 235 255
219 235 255
219 235 255
219 235 255
219 235 255
219 235 255
219 235 255
219 235 255
219 235 255
219 235 255
219 235 255
219 235 255
219 235 255
219 235 255
219 234 255
219 234 255
219 234 255
219 234 255
219 234 255
219 234 255
219 234 255
219 234 255
219 234 255
219 234 255
219 234 255
219 234 255
219 234 255
219 234 255
219 234 255
219 234 255
219 234 255
219 234 255
219 234 255
219 234 255
219 234 255
219 234 255
219 234 255
219 234 255
219 234 255
219 234 255
219 234 255
219 234 255
219 234 255
219 234 255
219 234 255
219 234 255
219 234 255
219 234 255
219 234 255
219 234 255
219 234 255
219 234 255
219 234 255
219 234 255
219 234 255
219 234 255
219 234 255
219 234 255
219 234 255
219 234 255
219 234 255
219 234 255
219 234 255
219 234 255
219 234 255
219 234 255
219 234 255
219 234 255
219 234 255
219 234 255
219 234 255
219 234 255
219 234 255
219 234 255
219 234 255
219 234 255
219 234 255
219 234 255
219 234 255
219 234 255
219 234 255
219 234 255
219 234 255
219 234 255
219 234 255
219 234 255
219 234 255
219 234 255
219 234 255
219 234 255
219 234 255
219 234 255
219 234 255
219 234 255
219 234 255
219 234 255
219 234 255
219 234 255
219 234 255
219 234 255
219 234 255
219 234 255
219 234 255
219 234 255
219 234 255
219 234 255
219 234 255
219 234 255
219 234 255
219 234 255
219 234 255
219 234 255
219 234 255
219 234 255
219 234 255
219 234 255
219 234 255
219 234 255
219 234 255
219 234 255
219 234 255
219 234 255
219 234 255
219 234 255
219 234 255
219 234 255
219 234 255
219 234 255
219 234 255
219 234 255
219 234 255
219 234 255
219 234 255
219 234 255
219 234 255
219 234 255
219 234 255
219 234 255
219 234 255
219 234 255
219 234 255
219 234 255
219 234 255
219 234 255
219 234 255
219 234 255
219 234 255
219 234 255
219 234 255
219 234 255
219 234 255
219 234 255
219 234 255
219 234 255
219 234 255
219 234 255
219 234 255
219 234 255
219 234 255
219 234 255
219 234 255
219 234 255
219 234 255
219 234 255
219 234 255
219 234 255
219 234 255
219 234 255
219 234 255
219 234 255
219 234 255
219 234 255
219 234 255
219 234 255
219 234 255
219 234 255
219 234 255
219 234 255
219 234 255
219 234 255
219 234 255
219 234 255
219 234 255
219 234 255
219 234 255
219 234 255
219 234 255
219 234 255
219 234 255
219 234 255
219 234 255
219 234 255
219 234 255
219 234 255
219 234 255
219 234 255
219 234 255
219 234 255
219 234 255
219 234 255
219 234 255
219 234 255
219 234 255
219 234 255
219 234 255
219 234 255
219 234 255
219 234 255
219 234 255
219 234 255
219 234 255
219 234 255
219 234 255
219 234 255
219 234 255
219 234 255
219 234 255
219 234 255
219 234 255
219 234 255
219 234 255
219 234 255
219 234 255
219 234 255
219 234 255
219 234 255
219 234 255
219 234 255
219 234 255
219 234 255
219 234 255
219 234 255
219 234 255
219 234 255
219 234 255
219 234 255
219 234 255
219 234 255
219 234 255
219 234 255
219 234 255
219 234 255
219 234 255
219 234 255
219 234 255
219 234 255
219 234 255
219 234 255
219 234 255
219 234 255
219 234 255
219 234 255
219 234 255
219 234 255
219 234 255
219 234 255
219 234 255
219 234 255
219 234 255
219 234 255
219 234 255
219 234 255
219 234 255
219 234 255
219 234 255
219 234 255
219 234 255
219 234 255
219 234 255
219 234 255
219 234 255
219 234 255
219 234 255
219 234 255
219 234 255
219 234 255
219 234 255
219 234 255
219 234 255
219 234 255
219 234 255
219 234 255
219 234 255
219 234 255
219 234 255
219 234 255
219 234 255
219 234 255
219 234 255
219 234 255
219 234 255
219 234 255
219 234 255
219 234 255
219 234 255
219 234 255
219 234 255
219 234 255
219 234 255
219 234 255
219 234 255
219 234 255
219 234 255
219 234 255
219 234 255
219 234 255
219 234 255
219 235 255
219 235 255
219 235 255
219 235 255
219 235 255
219 235 255
219 235 255
219 235 255
219 235 255
219 235 255
219 235 255
219 235 255
219 235 255
219 235 255
219 235 255
219 235 255
219 235 255
220 235 255
220 235 255
220 235 255
220 235 255
220 235 255
220 235 255
220 235 255
220 235 255
220 235 255
220 235 255
220 235 255
220 235 255
220 235 255
220 235 255
220 235 255
220 235 255
220 235 255
220 235 255
220 235 255
220 235 255
220 235 255
220 235 255
220 235 255
220 235 255
220 235 255
220 235 255
220 235 255
220 235 255
220 235 255
220 235 255
220 235 255
220 235 255
220 235 255
220 235 255
220 235 255
220 235 255
220 235 255
220 235 255
220 235 255
220 235 255
220 235 255
220 235 255
220 235 255
220 235 255
220 235 255
220 235 255
220 235 255
220 235 255
220 235 255
220 235 255
220 235 255
220 235 255
220 235 255
220 235 255
220 235 255
220 235 255
220 235 255
220 235 255
220 235 255
220 235 255
220 235 255
220 235 255
220 235 255
220 235 255
220 235 255
220 235 255
220 235 255
220 235 255
220 235 255
220 235 255
220 235 255
220 235 255
220 235 255
220 235 255
220 235 255
220 235 255
220 235 255
220 235 255
220 235 255
220 235 255
220 235 255
220 235 255
220 235 255
220 235 255
220 235 255
220 235 255
220 235 255
220 235 255
220 235 255
220 235 255
220 235 255
220 235 255
220 235 255
220 235 255
220 235 255
220 235 255
220 235 255
219 235 255
219 235 255
219 235 255
219 235 255
219 235 255
219 235 255
219 235 255
219 235 255
219 235 255
219 235 255
219 235 255
219 235 255
219 235 255
219 235 255
219 235 255
219 235 255
219 235 255
219 235 255
219 234 255
219 234 255
219 234 255
219 234 255
219 234 255
219 234 255
219 234 255
219 234 255
219 234 255
219 234 255
219 234 255
219 234 255
219 234 255
219 234 255
219 234 255
219 234 255
219 234 255
219 234 255
219 234 255
219 234 255
219 234 255
219 234 255
219 234 255
219 234 255
219 234 255
219 234 255
219 234 255
219 234 255
219 234 255
219 234 255
219 234 255
219 234 255
219 234 255
219 234 255
219 234 255
219 234 255
219 234 255
219 234 255
219 234 255
219 234 255
219 234 255
219 234 255
219 234 255
219 234 255
219 234 255
219 234 255
219 234 255
219 234 255
219 234 255
219 234 255
219 234 255
219 234 255
219 234 255
219 234 255
219 234 255
219 234 255
219 234 255
219 234 255
219 234 255
219 234 255
219 234 255
219 234 255
219 234 255
219 234 255
219 234 255
219 234 255
219 234 255
219 234 255
219 234 255
219 234 255
219 234 255
219 234 255
219 234 255
219 234 255
219 234 255
219 234 255
219 234 255
219 234 255
219 234 255
219 234 255
219 234 255
219 234 255
219 234 255
219 234 255
219 234 255
219 234 255
219 234 255
219 234 255
219 234 255
219 234 255
219 234 255
219 234 255
219 234 255
219 234 255
219 234 255
219 234 255
219 234 255
219 234 255
219 234 255
219 234 255
219 234 255
219 234 255
219 234 255
219 234 255
219 234 255
219 234 255
219 234 255
219 234 255
219 234 255
219 234 255
219 234 255
219 234 255
219 234 255
219 234 255
219 234 255
219 234 255
219 234 255
219 234 255
219 234 255
219 234 255
219 234 255
219 234 255
219 234 255
219 234 255
219 234 255
219 234 255
219 234 255
219 234 255
219 234 255
219 234 255
219 234 255
219 234 255
219 234 255
219 234 255
219 234 255
219 234 255
219 234 255
219 234 255
219 234 255
219 234 255
219 234 255
219 234 255
219 234 255
219 234 255
219 234 255
219 234 255
219 234 255
219 234 255
219 234 255
219 234 255
219 234 255
219 234 255
219 234 255
219 234 255
219 234 255
219 234 255
219 234 255
219 234 255
219 234 255
219 234 255
219 234 255
219 234 255
219 234 255
219 234 255
219 234 255
219 234 255
219 234 255
219 234 255
219 234 255
219 234 255
219 234 255
219 234 255
219 234 255
219 234 255
219 234 255
219 234 255
219 234 255
219 234 255
219 234 255
219 234 255
219 234 255
219 234 255
219 234 255
219 234 255
219 234 255
219 234 255
219 234 255
219 234 255
219 234 255
219 234 255
219 234 255
219 234 255
219 234 255
219 234 255
219 234 255
219 234 255
219 234 255
219 234 255
219 234 255
219 234 255
219 234 255
219 234 255
219 234 255
219 234 255
219 234 255
219 234 255
219 234 255
219 234 255
219 234 255
219 234 255
219 234 255
219 234 255
219 234 255
219 234 255
219 234 255
219 234 255
219 234 255
219 234 255
219 234 255
219 234 255
219 234 255
219 234 255
219 234 255
219 234 255
219 234 255
219 234 255
219 234 255
219 234 255
219 234 255
219 234 255
219 234 255
219 234 255
219 234 255
219 234 255
219 234 255
219 234 255
219 234 255
219 234 255
219 234 255
219 234 255
219 234 255
219 234 255
219 234 255
219 234 255
219 235 255
219 235 255
219 235 255
219 235 255
219 235 255
219 235 255
219 235 255
219 235 255
219 235 255
219 235 255
219 235 255
219 235 255
219 235 255
219 235 255
219 235 255
219 235 255
219 235 255
219 235 255
219 235 255
220 235 255
220 235 255
220 235 255
220 235 255
220 235 255
220 235 255
220 235 255
220 235 255
220 235 255
220 235 255
220 235 255
220 235 255
220 235 255
220 235 255
220 235 255
220 235 255
220 235 255
220 235 255
220 235 255
220 235 255
220 235 255
220 235 255
220 235 255
220 235 255
220 235 255
220 235 255
220 235 255
220 235 255
220 235 255
220 235 255
220 235 255
220 235 255
220 235 255
220 235 255
220 235 255
220 235 255
220 235 255
220 235 255
220 235 255
220 235 255
220 235 255
220 235 255
220 235 255
220 235 255
220 235 255
220 235 255
220 235 255
220 235 255
220 235 255
220 235 255
220 235 255
220 235 255
220 235 255
220 235 255
220 235 255
220 235 255
220 235 255
220 235 255
220 235 255
220 235 255
220 235 255
220 235 255
220 235 255
220 235 255
220 235 255
220 235 255
220 235 255
220 235 255
220 235 255
220 235 255
220 235 255
220 235 255
220 235 255
220 235 255
220 235 255
220 235 255
220 235 255
220 235 255
220 235 255
220 235 255
220 235 255
220 235 255
220 235 255
220 235 255
220 235 255
220 235 255
220 235 255
220 235 255
220 235 255
220 235 255
220 235 255
220 235 255
220 235 255
220 235 255
220 235 255
220 235 255
220 235 255
220 235 255
220 235 255
220 235 255
220 235 255
220 235 255
220 235 255
220 235 255
220 235 255
220 235 255
220 235 255
220 235 255
220 235 255
220 235 255
220 235 255
220 235 255
220 235 255
220 235 255
220 235 255
220 235 255
220 235 255
220 235 255
220 235 255
220 235 255
220 235 255
220 235 255
220 235 255
220 235 255
220 235 255
220 235 255
220 235 255
220 235 255
220 235 255
220 235 255
220 235 255
220 235 255
220 235 255
220 235 255
220 235 255
220 235 255
220 235 255
220 235 255
220 235 255
220 235 255
220 235 255
220 235 255
220 235 255
220 235 255
219 235 255
220 235 255
219 235 255
219 235 255
219 235 255
219 235 255
219 235 255
219 235 255
219 235 255
219 235 255
219 235 255
219 235 255
219 235 255
219 235 255
219 235 255
219 235 255
219 235 255
219 235 255
219 234 255
219 235 255
219 234 255
219 234 255
219 234 255
219 234 255
219 234 255
219 234 255
219 234 255
219 234 255
219 234 255
219 234 255
219 234 255
219 234 255
219 234 255
219 234 255
219 234 255
219 234 255
219 234 255
219 234 255
219 234 255
219 234 255
219 234 255
219 234 255
219 234 255
219 234 255
219 234 255
219 234 255
219 234 255
219 234 255
219 234 255
219 234 255
219 234 255
219 234 255
219 234 255
219 234 255
219 234 255
219 234 255
219 234 255
219 234 255
219 234 255
219 234 255
219 234 255
219 234 255
219 234 255
219 234 255
219 234 255
219 234 255
219 234 255
219 234 255
219 234 255
219 234 255
219 234 255
219 234 255
219 234 255
219 234 255
219 234 255
219 234 255
219 234 255
219 234 255
219 234 255
219 234 255
219 234 255
219 234 255
219 234 255
219 234 255
219 234 255
219 234 255
219 234 255
219 234 255
219 234 255
219 234 255
219 234 255
219 234 255
219 234 255
219 234 255
219 234 255
219 234 255
219 234 255
219 234 255
219 234 255
219 234 255
219 234 255
219 234 255
219 234 255
219 234 255
219 234 255
219 234 255
219 234 255
219 234 255
219 234 255
219 234 255
219 234 255
219 234 255
219 234 255
219 234 255
219 234 255
219 234 255
219 234 255
219 234 255
219 234 255
219 234 255
219 234 255
219 234 255
219 234 255
219 234 255
219 234 255
219 234 255
219 234 255
219 234 255
219 234 255
219 234 255
219 234 255
219 234 255
219 234 255
219 234 255
219 234 255
219 234 255
219 234 255
219 234 255
219 234 255
219 234 255
219 234 255
219 234 255
219 234 255
219 234 255
219 234 255
219 234 255
219 234 255
219 234 255
219 234 255
219 234 255
219 234 255
219 234 255
219 234 255
219 234 255
219 234 255
219 234 255
219 234 255
219 234 255
219 234 255
219 234 255
219 234 255
219 234 255
219 234 255
219 234 255
219 234 255
219 234 255
219 234 255
219 234 255
219 234 255
219 234 255
219 234 255
219 234 255
219 234 255
219 234 255
219 234 255
219 234 255
219 234 255
219 234 255
219 234 255
219 234 255
219 234 255
219 234 255
219 234 255
219 234 255
219 234 255
219 234 255
219 234 255
219 234 255
219 234 255
219 234 255
219 234 255
219 234 255
219 234 255
219 234 255
219 234 255
219 234 255
219 234 255
219 234 255
219 234 255
219 234 255
219 234 255
219 234 255
219 234 255
219 234 255
219 234 255
219 234 255
219 234 255
219 234 255
219 234 255
219 234 255
219 235 255
219 235 255
219 235 255
219 235 255
219 235 255
219 235 255
219 235 255
219 235 255
219 235 255
219 235 255
219 235 255
219 235 255
219 235 255
219 235 255
219 235 255
219 235 255
219 235 255
219 235 255
219 235 255
220 235 255
220 235 255
220 235 255
220 235 255
220 235 255
220 235 255
220 235 255
220 235 255
220 235 255
220 235 255
220 235 255
220 235 255
220 235 255
220 235 255
220 235 255
220 235 255
220 235 255
220 235 255
220 235 255
220 235 255
220 235 255
220 235 255
220 235 255
220 235 255
220 235 255
220 235 255
220 235 255
220 235 255
220 235 255
220 235 255
220 235 255
220 235 255
220 235 255
220 235 255
220 235 255
220 235 255
220 235 255
220 235 255
220 235 255
220 235 255
220 235 255
220 235 255
220 235 255
220 235 255
220 235 255
220 235 255
220 235 255
220 235 255
220 235 255
220 235 255
220 235 255
220 235 255
220 235 255
220 235 255
220 235 255
220 235 255
220 235 255
220 235 255
220 235 255
220 235 255
220 235 255
220 235 255
220 235 255
220 235 255
220 235 255
220 235 255
220 235 255
220 235 255
220 235 255
220 235 255
220 235 255
220 235 255
220 235 255
220 235 255
220 235 255
220 235 255
220 235 255
220 235 255
220 235 255
220 235 255
220 235 255
220 235 255
220 235 255
220 235 255
220 235 255
220 235 255
220 235 255
220 235 255
220 235 255
220 235 255
220 235 255
220 235 255
220 235 255
220 235 255
220 235 255
220 235 255
220 235 255
220 235 255
220 235 255
220 235 255
220 235 255
220 235 255
220 235 255
220 235 255
220 235 255
220 235 255
220 235 255
220 235 255
220 235 255
220 235 255
220 235 255
220 235 255
220 235 255
220 235 255
220 235 255
220 235 255
220 235 255
220 235 255
220 235 255
220 235 255
220 235 255
220 235 255
220 235 255
220 235 255
220 235 255
220 235 255
220 235 255
220 235 255
220 235 255
220 235 255
220 235 255
220 235 255
220 235 255
220 235 255
220 235 255
220 235 255
220 235 255
220 235 255
220 235 255
220 235 255
220 235 255
220 235 255
220 235 255
220 235 255
220 235 255
220 235 255
220 235 255
220 235 255
220 235 255
220 235 255
220 235 255
220 235 255
220 235 255
220 235 255
220 235 255
220 235 255
220 235 255
220 235 255
220 235 255
220 235 255
220 235 255
220 235 255
220 235 255
220 235 255
220 235 255
220 235 255
220 235 255
220 235 255
220 235 255
220 235 255
220 235 255
220 235 255
220 235 255
220 235 255
220 235 255
220 235 255
220 235 255
220 235 255
220 235 255
220 235 255
220 235 255
220 235 255
220 235 255
220 235 255
220 235 255
220 235 255
220 235 255
220 235 255
220 235 255
220 235 255
220 235 255
220 235 255
220 235 255
220 235 255
220 235 255
220 235 255
220 235 255
220 235 255
220 235 255
220 235 255
220 235 255
219 235 255
220 235 255
219 235 255
219 235 255
219 235 255
219 235 255
219 235 255
219 235 255
219 235 255
219 235 255
219 235 255
219 235 255
219 235 255
219 235 255
219 235 255
219 235 255
219 235 255
219 235 255
219 235 255
219 235 255
219 235 255
219 235 255
219 235 255
219 234 255
219 235 255
219 234 255
219 234 255
219 234 255
219 234 255
219 234 255
219 234 255
219 234 255
219 234 255
219 234 255
219 234 255
219 234 255
219 234 255
219 234 255
219 234 255
219 234 255
219 234 255
219 234 255
219 234 255
219 234 255
219 234 255
219 234 255
219 234 255
219 234 255
219 234 255
219 234 255
219 234 255
219 234 255
219 234 255
219 234 255
219 234 255
219 234 255
219 234 255
219 234 255
219 234 255
219 234 255
219 234 255
219 234 255
219 234 255
219 234 255
219 234 255
219 234 255
219 234 255
219 234 255
219 234 255
219 234 255
219 234 255
219 234 255
219 234 255
219 234 255
219 234 255
219 234 255
219 234 255
219 234 255
219 234 255
219 234 255
219 234 255
219 234 255
219 234 255
219 234 255
219 234 255
219 234 255
219 234 255
219 234 255
219 234 255
219 234 255
219 234 255
219 234 255
219 234 255
219 234 255
219 234 255
219 234 255
219 234 255
219 234 255
219 234 255
219 234 255
219 234 255
219 234 255
219 234 255
219 234 255
219 234 255
219 234 255
219 234 255
219 234 255
219 234 255
219 234 255
219 234 255
219 234 255
219 234 255
219 234 255
219 234 255
219 234 255
219 234 255
219 234 255
219 234 255
219 234 255
219 234 255
219 234 255
219 234 255
219 234 255
219 234 255
219 234 255
219 234 255
219 234 255
219 234 255
219 234 255
219 234 255
219 234 255
219 234 255
219 234 255
219 234 255
219 234 255
219 234 255
219 234 255
219 234 255
219 234 255
219 234 255
219 234 255
219 234 255
219 234 255
219 234 255
219 235 255
219 234 255
219 234 255
219 235 255
219 235 255
219 235 255
219 235 255
219 235 255
219 235 255
219 235 255
219 235 255
219 235 255
219 235 255
219 235 255
219 235 255
219 235 255
219 235 255
219 235 255
219 235 255
219 235 255
219 235 255
219 235 255
220 235 255
220 235 255
220 235 255
220 235 255
220 235 255
220 235 255
220 235 255
220 235 255
220 235 255
220 235 255
220 235 255
220 235 255
220 235 255
220 235 255
220 235 255
220 235 255
220 235 255
220 235 255
220 235 255
220 235 255
220 235 255
220 235 255
220 235 255
220 235 255
220 235 255
220 235 255
220 235 255
220 235 255
220 235 255
220 235 255
220 235 255
220 235 255
220 235 255
220 235 255
220 235 255
220 235 255
220 235 255
220 235 255
220 235 255
220 235 255
220 235 255
220 235 255
220 235 255
220 235 255
220 235 255
220 235 255
220 235 255
220 235 255
220 235 255
220 235 255
220 235 255
220 235 255
220 235 255
220 235 255
220 235 255
220 235 255
220 235 255
220 235 255
220 235 255
220 235 255
220 235 255
220 235 255
220 235 255
220 235 255
220 235 255
220 235 255
220 235 255
220 235 255
220 235 255
220 235 255
220 235 255
220 235 255
220 235 255
220 235 255
220 235 255
220 235 255
220 235 255
220 235 255
220 235 255
220 235 255
220 235 255
220 235 255
220 235 255
220 235 255
220 235 255
220 235 255
220 235 255
220 235 255
220 235 255
220 235 255
220 235 255
220 235 255
220 235 255
220 235 255
220 235 255
220 235 255
220 235 255
220 235 255
220 235 255
220 235 255
220 235 255
220 235 255
220 235 255
220 235 255
220 235 255
220 235 255
220 235 255
220 235 255
220 235 255
220 235 255
220 235 255
220 235 255
220 235 255
220 235 255
220 235 255
220 235 255
220 235 255
220 235 255
220 235 255
220 235 255
220 235 255
220 235 255
220 235 255
220 235 255
220 235 255
220 235 255
220 235 255
220 235 255
220 235 255
220 235 255
220 235 255
220 235 255
220 235 255
220 235 255
220 235 255
220 235 255
220 235 255
220 235 255
220 235 255
220 235 255
220 235 255
220 235 255
220 235 255
220 235 255
220 235 255
220 235 255
220 235 255
220 235 255
220 235 255
220 235 255
220 235 255
220 235 255
220 235 255
220 235 255
220 235 255
220 235 255
220 235 255
220 235 255
220 235 255
220 235 255
220 235 255
220 235 255
220 235 255
220 235 255
220 235 255
220 235 255
220 235 255
220 235 255
220 235 255
220 235 255
220 235 255
220 235 255
220 235 255
220 235 255
220 235 255
220 235 255
220 235 255
220 235 255
220 235 255
220 235 255
220 235 255
220 235 255
220 235 255
220 235 255
220 235 255
220 235 255
220 235 255
220 235 255
220 235 255
220 235 255
220 235 255
220 235 255
220 235 255
220 235 255
220 235 255
220 235 255
220 235 255
220 235 255
220 235 255
220 235 255
220 235 255
220 235 255
220 235 255
220 235 255
220 235 255
220 235 255
220 235 255
220 235 255
220 235 255
220 235 255
220 235 255
220 235 255
220 235 255
220 235 255
220 235 255
220 235 255
220 235 255
220 235 255
220 235 255
220 235 255
220 235 255
220 235 255
220 235 255
220 235 255
220 235 255
220 235 255
220 235 255
220 235 255
220 235 255
220 235 255
220 235 255
220 235 255
220 235 255
220 235 255
220 235 255
220 235 255
220 235 255
220 235 255
220 235 255
220 235 255
220 235 255
220 235 255
220 235 255
220 235 255
220 235 255
220 235 255
220 235 255
220 235 255
220 235 255
220 235 255
220 235 255
220 235 255
220 235 255
220 235 255
220 235 255
220 235 255
220 235 255
220 235 255
220 235 255
220 235 255
220 235 255
220 235 255
220 235 255
220 235 255
220 235 255
220 235 255
220 235 255
220 235 255
220 235 255
220 235 255
220 235 255
220 235 255
220 235 255
220 235 255
219 235 255
220 235 255
220 235 255
220 235 255
219 235 255
219 235 255
219 235 255
219 235 255
219 235 255
219 235 255
219 235 255
219 235 255
219 235 255
219 235 255
219 235 255
219 235 255
219 235 255
219 235 255
219 235 255
219 235 255
219 235 255
219 235 255
219 235 255
219 235 255
219 235 255
219 235 255
219 235 255
219 235 255
219 235 255
219 235 255
219 235 255
219 235 255
219 235 255
219 235 255
219 235 255
219 235 255
219 235 255
219 235 255
219 235 255
219 235 255
219 235 255
219 235 255
219 235 255
219 235 255
219 235 255
219 235 255
219 235 255
219 235 255
219 235 255
219 235 255
219 235 255
219 235 255
219 235 255
219 235 255
219 235 255
219 235 255
219 235 255
219 235 255
219 235 255
219 235 255
219 235 255
219 235 255
219 235 255
219 235 255
219 235 255
219 235 255
219 235 255
219 235 255
219 235 255
219 235 255
219 235 255
219 235 255
219 235 255
219 235 255
219 235 255
219 235 255
219 235 255
219 235 255
219 235 255
219 235 255
219 235 255
219 235 255
219 235 255
220 235 255
220 235 255
220 235 255
220 235 255
220 235 255
220 235 255
220 235 255
220 235 255
220 235 255
220 235 255
220 235 255
220 235 255
220 235 255
220 235 255
220 235 255
220 235 255
220 235 255
220 235 255
220 235 255
220 235 255
220 235 255
220 235 255
220 235 255
220 235 255
220 235 255
220 235 255
220 235 255
220 235 255
220 235 255
220 235 255
220 235 255
220 235 255
220 235 255
220 235 255
220 235 255
220 235 255
220 235 255
220 235 255
220 235 255
220 235 255
220 235 255
220 235 255
220 235 255
220 235 255
220 235 255
220 235 255
220 235 255
220 235 255
220 235 255
220 235 255
220 235 255
220 235 255
220 235 255
220 235 255
220 235 255
220 235 255
220 235 255
220 235 255
220 235 255
220 235 255
220 235 255
220 235 255
220 235 255
220 235 255
220 235 255
220 235 255
220 235 255
220 235 255
220 235 255
220 235 255
220 235 255
220 235 255
220 235 255
220 235 255
220 235 255
220 235 255
220 235 255
220 235 255
220 235 255
220 235 255
220 235 255
220 235 255
220 235 255
220 235 255
220 235 255
220 235 255
220 235 255
220 235 255
220 235 255
220 235 255
220 235 255
220 235 255
220 235 255
220 235 255
220 235 255
220 235 255
220 235 255
220 235 255
220 235 255
220 235 255
220 235 255
220 235 255
220 235 255
220 235 255
220 235 255
220 235 255
220 235 255
220 235 255
220 235 255
220 235 255
220 235 255
220 235 255
220 235 255
220 235 255
220 235 255
220 235 255
220 235 255
220 235 255
220 235 255
220 235 255
220 235 255
220 235 255
220 235 255
220 235 255
220 235 255
220 235 255
220 235 255
220 235 255
220 235 255
220 235 255
220 235 255
220 235 255
220 235 255
220 235 255
220 235 255
220 235 255
220 235 255
220 235 255
220 235 255
220 235 255
220 235 255
220 235 255
220 235 255
220 235 255
220 235 255
220 235 255
220 235 255
220 235 255
220 235 255
220 235 255
220 235 255
220 235 255
220 235 255
220 235 255
220 235 255
220 235 255
220 235 255
220 235 255
220 235 255
220 235 255
220 235 255
220 235 255
220 235 255
220 235 255
220 235 255
220 235 255
220 235 255
220 235 255
220 235 255
220 235 255
220 235 255
220 235 255
220 235 255
220 235 255
220 235 255
220 235 255
220 235 255
220 235 255
220 235 255
220 235 255
220 235 255
220 235 255
220 235 255
220 235 255
220 235 255
220 235 255
220 235 255
220 235 255
220 235 255
220 235 255
220 235 255
220 235 255
220 235 255
220 235 255
220 235 255
220 235 255
220 235 255
220 235 255
220 235 255
220 235 255
220 235 255
220 235 255
220 235 255
220 235 255
220 235 255
220 235 255
220 235 255
220 235 255
220 235 255
220 235 255
220 235 255
220 235 255
220 235 255
220 235 255
220 235 255
220 235 255
220 235 255
220 235 255
220 235 255
220 235 255
220 235 255
220 235 255
220 235 255
220 235 255
220 235 255
220 235 255
220 235 255
220 235 255
220 235 255
220 235 255
220 235 255
220 235 255
220 235 255
220 235 255
220 235 255
220 235 255
220 235 255
220 235 255
220 235 255
220 235 255
220 235 255
220 235 255
220 235 255
220 235 255
220 235 255
220 235 255
220 235 255
220 235 255
220 235 255
220 235 255
220 235 255
220 235 255
220 235 255
220 235 255
220 235 255
220 235 255
220 235 255
220 235 255
220 235 255
220 235 255
220 235 255
220 235 255
220 235 255
220 235 255
220 235 255
220 235 255
220 235 255
220 235 255
220 235 255
220 235 255
220 235 255
220 235 255
220 235 255
220 235 255
220 235 255
220 235 255
220 235 255
220 235 255
220 235 255
220 235 255
220 235 255
220 235 255
220 235 255
220 235 255
220 235 255
220 235 255
220 235 255
220 235 255
220 235 255
220 235 255
220 235 255
220 235 255
220 235 255
220 235 255
220 235 255
220 235 255
220 235 255
220 235 255
220 235 255
220 235 255
220 235 255
220 235 255
220 235 255
220 235 255
220 235 255
220 235 255
220 235 255
220 235 255
220 235 255
220 235 255
220 235 255
220 235 255
220 235 255
220 235 255
220 235 255
220 235 255
220 235 255
220 235 255
220 235 255
220 235 255
220 235 255
220 235 255
220 235 255
220 235 255
220 235 255
220 235 255
220 235 255
220 235 255
220 235 255
220 235 255
220 235 255
220 235 255
220 235 255
220 235 255
220 235 255
220 235 255
220 235 255
220 235 255
220 235 255
220 235 255
220 235 255
220 235 255
220 235 255
220 235 255
220 235 255
220 235 255
220 235 255
220 235 255
220 235 255
220 235 255
220 235 255
220 235 255
220 235 255
220 235 255
220 235 255
220 235 255
220 235 255
220 235 255
220 235 255
220 235 255
220 235 255
220 235 255
220 235 255
220 235 255
220 235 255
220 235 255
220 235 255
220 235 255
220 235 255
220 235 255
220 235 255
220 235 255
220 235 255
220 235 255
220 235 255
220 235 255
220 235 255
220 235 255
220 235 255
220 235 255
220 235 255
220 235 255
220 235 255
220 235 255
220 235 255
220 235 255
220 235 255
220 235 255
220 235 255
220 235 255
220 235 255
220 235 255
220 235 255
220 235 255
220 235 255
220 235 255
220 235 255
220 235 255
220 235 255
220 235 255
220 235 255
220 235 255
220 235 255
220 235 255
220 235 255
220 235 255
220 235 255
220 235 255
220 235 255
220 235 255
220 235 255
220 235 255
220 235 255
220 235 255
220 235 255
220 235 255
220 235 255
220 235 255
220 235 255
220 235 255
220 235 255
220 235 255
220 235 255
220 235 255
220 235 255
220 235 255
220 235 255
220 235 255
220 235 255
220 235 255
220 235 255
220 235 255
220 235 255
220 235 255
220 235 255
220 235 255
220 235 255
220 235 255
220 235 255
220 235 255
220 235 255
220 235 255
220 235 255
220 235 255
220 235 255
220 235 255
220 235 255
220 235 255
220 235 255
220 235 255
220 235 255
220 235 255
220 235 255
220 235 255
220 235 255
220 235 255
220 235 255
220 235 255
220 235 255
220 235 255
220 235 255
220 235 255
220 235 255
220 235 255
220 235 255
220 235 255
220 235 255
220 235 255
220 235 255
220 235 255
220 235 255
220 235 255
220 235 255
220 235 255
220 235 255
220 235 255
220 235 255
220 235 255
220 235 255
220 235 255
220 235 255
220 235 255
220 235 255
220 235 255
220 235 255
220 235 255
220 235 255
220 235 255
220 235 255
220 235 255
220 235 255
220 235 255
220 235 255
220 235 255
220 235 255
220 235 255
220 235 255
220 235 255
220 235 255
220 235 255
220 235 255
220 235 255
220 235 255
220 235 255
220 235 255
220 235 255
220 235 255
220 235 255
220 235 255
220 235 255
220 235 255
220 235 255
220 235 255
220 235 255
220 235 255
220 235 255
220 235 255
220 235 255
220 235 255
220 235 255
220 235 255
220 235 255
220 235 255
220 235 255
220 235 255
220 235 255
220 235 255
220 235 255
220 235 255
220 235 255
220 235 255
220 235 255
220 235 255
220 235 255
220 235 255
220 235 255
220 235 255
220 235 255
220 235 255
220 235 255
220 235 255
220 235 255
220 235 255
220 235 255
220 235 255
220 235 255
220 235 255
220 235 255
220 235 255
220 235 255
220 235 255
220 235 255
220 235 255
220 235 255
220 235 255
220 235 255
220 235 255
220 235 255
220 235 255
220 235 255
220 235 255
220 235 255
220 235 255
220 235 255
220 235 255
220 235 255
220 235 255
220 235 255
220 235 255
220 235 255
220 235 255
220 235 255
220 235 255
220 235 255
220 235 255
220 235 255
220 235 255
220 235 255
220 235 255
220 235 255
220 235 255
220 235 255
220 235 255
220 235 255
220 235 255
220 235 255
220 235 255
220 235 255
220 235 255
220 235 255
220 235 255
220 235 255
220 235 255
220 235 255
220 235 255
220 235 255
220 235 255
220 235 255
220 235 255
220 235 255
220 235 255
220 235 255
220 235 255
220 235 255
220 235 255
220 235 255
220 235 255
220 235 255
220 235 255
220 235 255
220 235 255
220 235 255
220 235 255
220 235 255
220 235 255
220 235 255
220 235 255
220 235 255
220 235 255
220 235 255
220 235 255
220 235 255
220 235 255
220 235 255
220 235 255
220 235 255
220 235 255
220 235 255
220 235 255
220 235 255
220 235 255
220 235 255
220 235 255
220 235 255
220 235 255
220 235 255
220 235 255
220 235 255
220 235 255
220 235 255
220 235 255
220 235 255
220 235 255
220 235 255
220 235 255
220 235 255
220 235 255
220 235 255
220 235 255
220 235 255
220 235 255
220 235 255
220 235 255
220 235 255
220 235 255
220 235 255
220 235 255
220 235 255
220 235 255
220 235 255
220 235 255
220 235 255
220 235 255
220 235 255
220 235 255
220 235 255
220 235 255
220 235 255
220 235 255
220 235 255
220 235 255
220 235 255
220 235 255
220 235 255
220 235 255
220 235 255
220 235 255
220 235 255
220 235 255
220 235 255
220 235 255
220 235 255
220 235 255
220 235 255
220 235 255
220 235 255
220 235 255
220 235 255
220 235 255
220 235 255
220 235 255
220 235 255
220 235 255
220 235 255
220 235 255
220 235 255
220 235 255
220 235 255
220 235 255
220 235 255
220 235 255
220 235 255
220 235 255
220 235 255
220 235 255
220 235 255
220 235 255
220 235 255
220 235 255
220 235 255
220 235 255
220 235 255
220 235 255
220 235 255
220 235 255
220 235 255
220 235 255
220 235 255
220 235 255
220 235 255
220 235 255
220 235 255
220 235 255
220 235 255
220 235 255
220 235 255
220 235 255
220 235 255
220 235 255
220 235 255
220 235 255
220 235 255
220 235 255
220 235 255
220 235 255
220 235 255
220 235 255
220 235 255
220 235 255
220 235 255
220 235 255
220 235 255
220 235 255
220 235 255
220 235 255
220 235 255
220 235 255
220 235 255
220 235 255
220 235 255
220 235 255
220 235 255
220 235 255
220 235 255
220 235 255
220 235 255
220 235 255
220 235 255
220 235 255
220 235 255
220 235 255
220 235 255
220 235 255
220 235 255
220 235 255
220 235 255
220 235 255
220 235 255
220 235 255
220 235 255
220 235 255
220 235 255
220 235 255
220 235 255
220 235 255
220 235 255
220 235 255
220 235 255
220 235 255
220 235 255
220 235 255
220 235 255
220 235 255
220 235 255
220 235 255
220 235 255
220 235 255
220 235 255
220 235 255
220 235 255
220 235 255
220 235 255
220 235 255
220 235 255
220 235 255
220 235 255
220 235 255
220 235 255
220 235 255
220 235 255
220 235 255
220 235 255
220 235 255
220 235 255
220 235 255
220 235 255
220 235 255
220 235 255
220 235 255
220 235 255
220 235 255
220 235 255
220 235 255
220 235 255
220 235 255
220 235 255
220 235 255
220 235 255
220 235 255
220 235 255
220 235 255
220 235 255
220 235 255
220 235 255
220 235 255
220 235 255
220 235 255
220 235 255
220 235 255
220 235 255
220 235 255
220 235 255
220 235 255
220 235 255
220 235 255
220 235 255
220 235 255
220 235 255
220 235 255
220 235 255
220 235 255
220 235 255
220 235 255
220 235 255
220 235 255
220 235 255
220 235 255
220 235 255
220 235 255
220 235 255
220 235 255
220 235 255
220 235 255
220 235 255
220 235 255
220 235 255
220 235 255
220 235 255
220 235 255
220 235 255
220 235 255
220 235 255
220 235 255
220 235 255
220 235 255
220 235 255
220 235 255
220 235 255
220 235 255
220 235 255
220 235 255
220 235 255
220 235 255
220 235 255
220 235 255
220 235 255
220 235 255
220 235 255
220 235 255
220 235 255
220 235 255
220 235 255
220 235 255
220 235 255
220 235 255
220 235 255
220 235 255
220 235 255
220 235 255
220 235 255
220 235 255
220 235 255
220 235 255
220 235 255
220 235 255
220 235 255
220 235 255
220 235 255
220 235 255
220 235 255
220 235 255
220 235 255
220 235 255
220 235 255
220 235 255
220 235 255
220 235 255
220 235 255
220 235 255
220 235 255
220 235 255
220 235 255
220 235 255
220 235 255
220 235 255
220 235 255
220 235 255
220 235 255
220 235 255
220 235 255
220 235 255
220 235 255
220 235 255
220 235 255
220 235 255
220 235 255
220 235 255
220 235 255
220 235 255
220 235 255
220 235 255
220 235 255
220 235 255
220 235 255
220 235 255
220 235 255
220 235 255
220 235 255
220 235 255
220 235 255
220 235 255
220 235 255
220 235 255
220 235 255
220 235 255
220 235 255
220 235 255
220 235 255
220 235 255
220 235 255
220 235 255
220 235 255
220 235 255
220 235 255
220 235 255
220 235 255
220 235 255
220 235 255
220 235 255
220 235 255
220 235 255
221 235 255
221 235 255
221 235 255
221 235 255
221 235 255
221 235 255
221 235 255
221 235 255
221 235 255
221 235 255
221 235 255
221 235 255
221 235 255
221 235 255
221 235 255
221 235 255
221 235 255
221 235 255
220 235 255
220 235 255
220 235 255
221 235 255
220 235 255
220 235 255
220 235 255
220 235 255
220 235 255
220 235 255
220 235 255
220 235 255
220 235 255
220 235 255
220 235 255
220 235 255
220 235 255
220 235 255
220 235 255
220 235 255
220 235 255
220 235 255
220 235 255
220 235 255
220 235 255
220 235 255
220 235 255
220 235 255
220 235 255
220 235 255
220 235 255
220 235 255
220 235 255
220 235 255
220 235 255
220 235 255
220 235 255
220 235 255
220 235 255
220 235 255
220 235 255
220 235 255
220 235 255
220 235 255
220 235 255
220 235 255
220 235 255
220 235 255
220 235 255
220 235 255
220 235 255
220 235 255
220 235 255
220 235 255
220 235 255
220 235 255
220 235 255
220 235 255
220 235 255
220 235 255
220 235 255
220 235 255
220 235 255
220 235 255
220 235 255
220 235 255
220 235 255
220 235 255
220 235 255
220 235 255
220 235 255
220 235 255
220 235 255
220 235 255
220 235 255
220 235 255
220 235 255
220 235 255
220 235 255
220 235 255
220 235 255
220 235 255
220 235 255
220 235 255
220 235 255
220 235 255
220 235 255
220 235 255
220 235 255
220 235 255
220 235 255
220 235 255
220 235 255
220 235 255
220 235 255
220 235 255
220 235 255
220 235 255
220 235 255
220 235 255
220 235 255
220 235 255
220 235 255
220 235 255
220 235 255
220 235 255
220 235 255
220 235 255
220 235 255
220 235 255
220 235 255
220 235 255
220 235 255
220 235 255
220 235 255
220 235 255
220 235 255
220 235 255
220 235 255
220 235 255
220 235 255
220 235 255
220 235 255
220 235 255
220 235 255
220 235 255
220 235 255
220 235 255
220 235 255
220 235 255
220 235 255
220 235 255
220 235 255
220 235 255
220 235 255
220 235 255
220 235 255
220 235 255
220 235 255
220 235 255
220 235 255
220 235 255
220 235 255
220 235 255
220 235 255
220 235 255
220 235 255
220 235 255
220 235 255
220 235 255
220 235 255
220 235 255
220 235 255
220 235 255
220 235 255
220 235 255
220 235 255
220 235 255
220 235 255
220 235 255
220 235 255
220 235 255
220 235 255
220 235 255
220 235 255
220 235 255
220 235 255
220 235 255
220 235 255
220 235 255
220 235 255
220 235 255
220 235 255
220 235 255
220 235 255
220 235 255
220 235 255
220 235 255
220 235 255
220 235 255
220 235 255
220 235 255
220 235 255
220 235 255
220 235 255
220 235 255
220 235 255
220 235 255
220 235 255
220 235 255
220 235 255
220 235 255
220 235 255
220 235 255
220 235 255
220 235 255
220 235 255
220 235 255
220 235 255
220 235 255
220 235 255
220 235 255
220 235 255
220 235 255
220 235 255
220 235 255
220 235 255
220 235 255
220 235 255
220 235 255
220 235 255
220 235 255
220 235 255
220 235 255
220 235 255
220 235 255
220 235 255
220 235 255
220 235 255
220 235 255
220 235 255
220 235 255
220 235 255
220 235 255
220 235 255
220 235 255
220 235 255
220 235 255
220 235 255
220 235 255
220 235 255
220 235 255
220 235 255
220 235 255
220 235 255
220 235 255
220 235 255
220 235 255
220 235 255
220 235 255
220 235 255
220 235 255
220 235 255
220 235 255
220 235 255
220 235 255
220 235 255
220 235 255
220 235 255
220 235 255
220 235 255
220 235 255
220 235 255
220 235 255
220 235 255
220 235 255
220 235 255
220 235 255
220 235 255
220 235 255
220 235 255
220 235 255
220 235 255
220 235 255
220 235 255
220 235 255
220 235 255
220 235 255
220 235 255
220 235 255
220 235 255
220 235 255
220 235 255
220 235 255
220 235 255
220 235 255
220 235 255
220 235 255
220 235 255
220 235 255
220 235 255
220 235 255
220 235 255
220 235 255
220 235 255
220 235 255
220 235 255
220 235 255
220 235 255
220 235 255
220 235 255
220 235 255
220 235 255
220 235 255
220 235 255
220 235 255
220 235 255
220 235 255
220 235 255
220 235 255
220 235 255
220 235 255
220 235 255
220 235 255
220 235 255
220 235 255
220 235 255
220 235 255
220 235 255
220 235 255
220 235 255
220 235 255
220 235 255
220 235 255
220 235 255
220 235 255
220 235 255
220 235 255
220 235 255
220 235 255
220 235 255
220 235 255
220 235 255
220 235 255
220 235 255
220 235 255
220 235 255
220 235 255
220 235 255
220 235 255
220 235 255
220 235 255
220 235 255
220 235 255
220 235 255
220 235 255
220 235 255
220 235 255
220 235 255
220 235 255
220 235 255
220 235 255
220 235 255
220 235 255
220 235 255
220 235 255
220 235 255
220 235 255
220 235 255
220 235 255
220 235 255
220 235 255
220 235 255
220 235 255
220 235 255
220 235 255
220 235 255
220 235 255
220 235 255
220 235 255
220 235 255
221 235 255
220 235 255
221 235 255
221 235 255
221 235 255
221 235 255
221 235 255
221 235 255
221 235 255
221 235 255
221 235 255
221 235 255
221 235 255
221 235 255
221 235 255
221 235 255
221 235 255
221 235 255
221 235 255
221 235 255
221 235 255
221 235 255
221 235 255
221 235 255
221 235 255
221 235 255
221 235 255
221 235 255
221 235 255
221 235 255
221 235 255
221 235 255
221 235 255
221 235 255
221 235 255
221 235 255
221 235 255
221 235 255
221 235 255
221 235 255
221 235 255
221 235 255
221 235 255
221 235 255
221 235 255
221 235 255
221 235 255
221 235 255
221 235 255
221 235 255
221 235 255
221 235 255
221 235 255
221 235 255
221 235 255
221 235 255
221 235 255
221 235 255
221 235 255
221 235 255
221 235 255
221 235 255
221 235 255
221 235 255
221 235 255
221 235 255
221 235 255
221 235 255
221 235 255
221 235 255
221 235 255
221 235 255
221 235 255
221 235 255
221 235 255
221 235 255
221 235 255
221 235 255
221 235 255
221 235 255
221 235 255
221 235 255
221 235 255
221 235 255
221 235 255
221 235 255
221 235 255
221 235 255
221 235 255
221 235 255
221 235 255
221 235 255
221 235 255
221 235 255
221 235 255
221 235 255
221 235 255
220 235 255
220 235 255
220 235 255
221 235 255
220 235 255
220 235 255
220 235 255
220 235 255
220 235 255
220 235 255
220 235 255
220 235 255
220 235 255
220 235 255
220 235 255
220 235 255
220 235 255
220 235 255
220 235 255
220 235 255
220 235 255
220 235 255
220 235 255
220 235 255
220 235 255
220 235 255
220 235 255
220 235 255
220 235 255
220 235 255
220 235 255
220 235 255
220 235 255
220 235 255
220 235 255
220 235 255
220 235 255
220 235 255
220 235 255
220 235 255
220 235 255
220 235 255
220 235 255
220 235 255
220 235 255
220 235 255
220 235 255
220 235 255
220 235 255
220 235 255
220 235 255
220 235 255
220 235 255
220 235 255
220 235 255
220 235 255
220 235 255
220 235 255
220 235 255
220 235 255
220 235 255
220 235 255
220 235 255
220 235 255
220 235 255
220 235 255
220 235 255
220 235 255
220 235 255
220 235 255
220 235 255
220 235 255
220 235 255
220 235 255
220 235 255
220 235 255
220 235 255
220 235 255
220 235 255
220 235 255
220 235 255
220 235 255
220 235 255
220 235 255
220 235 255
220 235 255
220 235 255
220 235 255
220 235 255
220 235 255
220 235 255
220 235 255
220 235 255
220 235 255
220 235 255
220 235 255
220 235 255
220 235 255
220 235 255
220 235 255
220 235 255
220 235 255
220 235 255
220 235 255
220 235 255
220 235 255
220 235 255
220 235 255
220 235 255
220 235 255
220 235 255
220 235 255
220 235 255
220 235 255
220 235 255
220 235 255
220 235 255
220 235 255
220 235 255
220 235 255
220 235 255
220 235 255
220 235 255
220 235 255
220 235 255
220 235 255
220 235 255
220 235 255
220 235 255
220 235 255
220 235 255
220 235 255
220 235 255
220 235 255
220 235 255
220 235 255
220 235 255
220 235 255
220 235 255
220 235 255
220 235 255
220 235 255
220 235 255
220 235 255
220 235 255
220 235 255
220 235 255
220 235 255
220 235 255
220 235 255
220 235 255
220 235 255
220 235 255
220 235 255
220 235 255
220 235 255
220 235 255
220 235 255
220 235 255
220 235 255
220 235 255
220 235 255
220 235 255
220 235 255
220 235 255
220 235 255
220 235 255
220 235 255
220 235 255
220 235 255
220 235 255
220 235 255
220 235 255
220 235 255
220 235 255
220 235 255
220 235 255
220 235 255
220 235 255
220 235 255
220 235 255
220 235 255
220 235 255
220 235 255
220 235 255
220 235 255
220 235 255
220 235 255
220 235 255
220 235 255
220 235 255
220 235 255
220 235 255
220 235 255
220 235 255
220 235 255
220 235 255
220 235 255
220 235 255
220 235 255
220 235 255
220 235 255
220 235 255
220 235 255
220 235 255
220 235 255
220 235 255
220 235 255
220 235 255
220 235 255
220 235 255
220 235 255
220 235 255
220 235 255
220 235 255
220 235 255
220 235 255
220 235 255
220 235 255
220 235 255
220 235 255
220 235 255
220 235 255
220 235 255
220 235 255
220 235 255
220 235 255
220 235 255
220 235 255
220 235 255
220 235 255
220 235 255
220 235 255
220 235 255
220 235 255
220 235 255
220 235 255
220 235 255
220 235 255
220 235 255
220 235 255
220 235 255
220 235 255
220 235 255
220 235 255
221 235 255
221 235 255
221 235 255
221 235 255
221 235 255
221 235 255
221 235 255
221 235 255
221 235 255
221 235 255
221 235 255
221 235 255
221 235 255
221 235 255
221 235 255
221 235 255
221 235 255
221 235 255
221 235 255
221 235 255
221 235 255
221 235 255
221 235 255
221 235 255
221 235 255
221 235 255
221 235 255
221 235 255
221 235 255
221 235 255
221 235 255
221 235 255
221 235 255
221 235 255
221 235 255
221 235 255
221 235 255
221 235 255
221 235 255
221 235 255
221 235 255
221 235 255
221 235 255
221 235 255
221 235 255
221 235 255
221 235 255
221 235 255
221 235 255
221 235 255
221 235 255
221 235 255
221 235 255
221 235 255
221 235 255
221 235 255
221 235 255
221 235 255
221 235 255
221 235 255
221 235 255
221 235 255
221 235 255
221 235 255
221 235 255
221 235 255
221 235 255
221 235 255
221 235 255
221 235 255
221 235 255
221 235 255
221 235 255
221 235 255
221 235 255
221 235 255
221 235 255
221 235 255
221 235 255
221 235 255
221 235 255
221 235 255
221 235 255
221 235 255
221 235 255
221 235 255
221 235 255
221 235 255
221 235 255
221 235 255
221 235 255
221 235 255
221 235 255
221 235 255
221 235 255
221 235 255
221 235 255
221 235 255
221 235 255
221 235 255
221 235 255
221 235 255
221 235 255
221 235 255
221 235 255
221 235 255
221 235 255
221 235 255
221 235 255
221 235 255
221 235 255
221 235 255
221 235 255
221 235 255
221 235 255
221 235 255
221 235 255
221 235 255
221 235 255
221 235 255
221 235 255
221 235 255
221 235 255
221 235 255
221 235 255
221 235 255
221 235 255
221 235 255
221 235 255
221 235 255
221 235 255
221 235 255
221 235 255
221 235 255
221 235 255
221 235 255
221 235 255
221 235 255
221 235 255
221 235 255
221 235 255
221 235 255
221 235 255
221 235 255
221 235 255
221 235 255
221 235 255
221 235 255
221 235 255
221 235 255
221 235 255
221 235 255
221 235 255
221 235 255
221 235 255
221 235 255
221 235 255
221 235 255
221 235 255
221 235 255
221 235 255
221 235 255
221 235 255
221 235 255
221 235 255
221 235 255
221 235 255
221 235 255
221 235 255
221 235 255
221 235 255
221 235 255
221 235 255
221 235 255
221 235 255
221 235 255
221 235 255
221 235 255
221 235 255
221 235 255
221 235 255
221 235 255
221 235 255
221 235 255
221 235 255
221 235 255
221 235 255
221 235 255
221 235 255
221 235 255
221 235 255
221 235 255
221 235 255
221 235 255
221 235 255
221 235 255
221 235 255
221 235 255
221 235 255
221 235 255
221 235 255
221 235 255
221 235 255
221 235 255
221 235 255
221 235 255
221 235 255
221 235 255
221 235 255
221 235 255
221 235 255
221 235 255
221 235 255
221 235 255
221 235 255
221 235 255
221 235 255
221 235 255
221 235 255
221 235 255
221 235 255
221 235 255
221 235 255
221 235 255
221 235 255
221 235 255
221 235 255
221 235 255
221 235 255
221 235 255
221 235 255
221 235 255
221 235 255
221 235 255
221 235 255
221 235 255
221 235 255
221 235 255
221 235 255
221 235 255
221 235 255
221 235 255
221 235 255
221 235 255
221 235 255
221 235 255
221 235 255
220 235 255
221 235 255
220 235 255
220 235 255
221 235 255
220 235 255
220 235 255
220 235 255
220 235 255
220 235 255
220 235 255
220 235 255
220 235 255
220 235 255
220 235 255
220 235 255
221 235 255
220 235 255
220 235 255
220 235 255
220 235 255
220 235 255
220 235 255
220 235 255
220 235 255
220 235 255
220 235 255
220 235 255
220 235 255
220 235 255
220 235 255
220 235 255
220 235 255
220 235 255
220 235 255
220 235 255
220 235 255
220 235 255
220 235 255
220 235 255
220 235 255
220 235 255
220 235 255
220 235 255
220 235 255
220 235 255
220 235 255
220 235 255
220 235 255
220 235 255
220 235 255
220 235 255
220 235 255
221 235 255
220 235 255
220 235 255
220 235 255
220 235 255
220 235 255
220 235 255
220 235 255
221 235 255
221 235 255
221 235 255
221 235 255
220 235 255
221 235 255
221 235 255
221 235 255
221 235 255
220 235 255
221 235 255
221 235 255
221 235 255
221 235 255
221 235 255
221 235 255
221 235 255
221 235 255
221 235 255
221 235 255
221 235 255
221 235 255
221 235 255
221 235 255
221 235 255
221 235 255
221 235 255
221 235 255
221 235 255
221 235 255
221 235 255
221 235 255
221 235 255
221 235 255
221 235 255
221 235 255
221 235 255
221 235 255
221 235 255
221 235 255
221 235 255
221 235 255
221 235 255
221 235 255
221 235 255
221 235 255
221 235 255
221 235 255
221 235 255
221 235 255
221 235 255
221 235 255
221 235 255
221 235 255
221 235 255
221 235 255
221 235 255
221 235 255
221 235 255
221 235 255
221 235 255
221 235 255
221 235 255
221 235 255
221 235 255
221 235 255
221 235 255
221 235 255
221 235 255
221 235 255
221 235 255
221 235 255
221 235 255
221 235 255
221 235 255
221 235 255
221 235 255
221 235 255
221 235 255
221 235 255
221 235 255
221 235 255
221 235 255
221 235 255
221 235 255
221 235 255
221 235 255
221 235 255
221 235 255
221 235 255
221 235 255
221 235 255
221 235 255
221 235 255
221 235 255
221 235 255
221 235 255
221 235 255
221 235 255
221 235 255
221 235 255
221 235 255
221 235 255
221 235 255
221 235 255
221 235 255
221 235 255
221 235 255
221 235 255
221 235 255
221 235 255
221 235 255
221 235 255
221 235 255
221 235 255
221 235 255
221 235 255
221 235 255
221 235 255
221 235 255
221 235 255
221 235 255
221 235 255
221 235 255
221 235 255
221 235 255
221 235 255
221 235 255
221 235 255
221 235 255
221 235 255
221 235 255
221 235 255
221 235 255
221 235 255
221 235 255
221 235 255
221 235 255
221 235 255
221 235 255
221 235 255
221 235 255
221 235 255
221 235 255
221 235 255
221 235 255
221 235 255
221 235 255
221 235 255
221 235 255
221 235 255
221 235 255
221 235 255
221 235 255
221 235 255
221 235 255
221 235 255
221 235 255
221 235 255
221 235 255
221 235 255
221 235 255
221 235 255
221 235 255
221 235 255
221 235 255
221 235 255
221 235 255
221 235 255
221 235 255
221 235 255
221 235 255
221 235 255
221 235 255
221 235 255
221 235 255
221 235 255
221 235 255
221 235 255
221 235 255
221 235 255
221 235 255
221 235 255
221 235 255
221 235 255
221 235 255
221 235 255
221 235 255
221 235 255
221 235 255
221 235 255
221 235 255
221 235 255
221 235 255
221 235 255
221 235 255
221 235 255
221 235 255
221 235 255
221 235 255
221 235 255
221 235 255
221 235 255
221 235 255
221 235 255
221 235 255
221 235 255
221 235 255
221 235 255
221 235 255
221 235 255
221 235 255
221 235 255
221 235 255
221 235 255
221 235 255
221 235 255
221 235 255
221 235 255
221 235 255
221 235 255
221 235 255
221 235 255
221 235 255
221 235 255
221 235 255
221 235 255
221 235 255
221 235 255
221 235 255
221 235 255
221 235 255
221 235 255
221 235 255
221 235 255
221 235 255
221 235 255
221 235 255
221 235 255
221 235 255
221 235 255
221 235 255
221 235 255
221 235 255
221 235 255
221 235 255
221 235 255
221 235 255
221 235 255
221 235 255
221 235 255
221 235 255
221 235 255
221 235 255
221 235 255
221 235 255
221 235 255
221 235 255
221 235 255
221 235 255
221 235 255
221 235 255
221 235 255
221 235 255
221 235 255
221 235 255
221 235 255
221 235 255
221 235 255
221 235 255
221 235 255
221 235 255
221 235 255
221 235 255
221 235 255
221 235 255
221 235 255
221 235 255
221 235 255
221 235 255
221 235 255
221 235 255
221 235 255
221 235 255
221 235 255
221 235 255
221 235 255
221 235 255
221 235 255
221 235 255
221 235 255
221 235 255
221 235 255
221 235 255
221 235 255
221 235 255
221 235 255
221 235 255
221 235 255
221 235 255
221 235 255
221 235 255
221 235 255
221 235 255
221 235 255
221 235 255
221 235 255
221 235 255
221 235 255
221 235 255
221 235 255
221 235 255
221 235 255
221 235 255
221 235 255
221 235 255
221 235 255
221 235 255
221 235 255
221 235 255
221 235 255
221 235 255
221 235 255
221 235 255
221 235 255
221 235 255
221 235 255
221 235 255
221 235 255
221 235 255
221 235 255
221 235 255
221 235 255
221 235 255
221 235 255
221 235 255
221 235 255
221 235 255
221 235 255
221 235 255
221 235 255
221 235 255
221 235 255
221 235 255
221 235 255
221 235 255
221 235 255
221 235 255
221 235 255
221 235 255
221 235 255
221 235 255
221 235 255
221 235 255
221 235 255
221 235 255
221 235 255
221 235 255
221 235 255
221 235 255
221 235 255
221 235 255
221 235 255
221 235 255
221 235 255
221 235 255
221 235 255
221 235 255
221 235 255
221 235 255
221 235 255
221 235 255
221 235 255
221 235 255
221 235 255
221 235 255
221 235 255
221 235 255
221 235 255
221 235 255
221 235 255
221 235 255
221 235 255
221 235 255
221 235 255
221 235 255
221 235 255
221 235 255
221 235 255
221 235 255
221 235 255
221 235 255
221 235 255
221 235 255
221 235 255
221 235 255
221 235 255
221 235 255
221 235 255
221 235 255
221 235 255
221 235 255
221 235 255
221 235 255
221 235 255
221 235 255
221 235 255
221 235 255
221 235 255
221 235 255
221 235 255
221 235 255
221 235 255
221 235 255
221 235 255
221 235 255
221 235 255
221 235 255
221 235 255
221 235 255
221 235 255
221 235 255
221 235 255
221 235 255
221 235 255
221 235 255
221 235 255
221 235 255
221 235 255
221 235 255
221 235 255
221 235 255
221 235 255
221 235 255
221 235 255
221 235 255
221 235 255
221 235 255
221 235 255
221 235 255
221 235 255
221 235 255
221 235 255
221 235 255
221 235 255
221 235 255
221 235 255
221 235 255
221 235 255
221 235 255
221 235 255
221 235 255
221 235 255
221 235 255
221 235 255
221 235 255
221 235 255
221 235 255
221 235 255
221 235 255
221 235 255
221 235 255
221 235 255
221 235 255
221 235 255
221 235 255
221 235 255
221 235 255
221 235 255
221 235 255
221 235 255
221 235 255
221 235 255
221 235 255
221 235 255
221 235 255
221 235 255
221 235 255
221 235 255
221 235 255
221 235 255
221 235 255
221 235 255
221 235 255
221 235 255
221 235 255
221 235 255
221 235 255
221 235 255
221 235 255
221 235 255
221 235 255
221 235 255
221 235 255
221 235 255
221 235 255
221 235 255
221 235 255
221 235 255
221 235 255
221 235 255
221 235 255
221 235 255
221 235 255
221 235 255
221 235 255
221 235 255
221 235 255
221 235 255
221 235 255
221 235 255
221 235 255
221 235 255
221 235 255
221 235 255
221 235 255
221 235 255
221 235 255
221 235 255
221 235 255
221 235 255
221 235 255
221 235 255
221 235 255
221 235 255
221 235 255
221 235 255
221 235 255
221 235 255
221 235 255
221 235 255
221 235 255
221 235 255
221 235 255
221 235 255
221 235 255
221 235 255
221 235 255
221 235 255
221 235 255
221 235 255
221 235 255
221 235 255
221 235 255
221 235 255
221 235 255
221 235 255
221 235 255
221 235 255
221 235 255
221 235 255
221 235 255
221 235 255
221 235 255
221 235 255
221 235 255
221 235 255
221 235 255
221 235 255
221 235 255
221 235 255
221 235 255
221 235 255
221 235 255
221 235 255
221 235 255
221 235 255
221 235 255
221 235 255
221 235 255
221 235 255
221 235 255
221 235 255
221 235 255
221 235 255
221 235 255
221 235 255
221 235 255
221 235 255
221 235 255
221 235 255
221 235 255
221 235 255
221 235 255
221 235 255
221 235 255
221 235 255
221 235 255
221 235 255
221 235 255
221 235 255
221 235 255
221 235 255
221 235 255
221 235 255
221 235 255
221 235 255
221 235 255
221 235 255
221 235 255
221 235 255
221 235 255
221 235 255
221 235 255
221 235 255
221 235 255
221 235 255
221 235 255
221 235 255
221 235 255
221 235 255
221 235 255
221 235 255
221 235 255
221 235 255
221 235 255
221 235 255
221 235 255
221 235 255
221 235 255
221 235 255
221 235 255
221 235 255
221 235 255
221 235 255
221 235 255
221 235 255
221 235 255
221 235 255
221 235 255
221 235 255
221 235 255
221 235 255
221 235 255
221 235 255
221 235 255
221 235 255
221 235 255
221 235 255
221 235 255
221 235 255
221 235 255
221 235 255
221 235 255
221 235 255
221 235 255
221 235 255
221 235 255
221 235 255
221 235 255
221 235 255
221 235 255
221 235 255
221 235 255
221 235 255
221 235 255
221 235 255
221 235 255
221 235 255
221 235 255
221 235 255
221 235 255
221 235 255
221 235 255
221 235 255
221 235 255
221 235 255
221 235 255
221 235 255
221 235 255
221 235 255
221 235 255
221 235 255
221 235 255
221 235 255
221 235 255
221 235 255
221 235 255
221 235 255
221 235 255
221 235 255
221 235 255
221 235 255
221 235 255
221 235 255
221 235 255
221 235 255
221 235 255
221 235 255
221 235 255
221 235 255
221 235 255
221 235 255
221 235 255
221 235 255
221 235 255
221 235 255
221 235 255
221 235 255
221 235 255
221 235 255
221 235 255
221 235 255
221 235 255
221 235 255
221 235 255
221 235 255
221 235 255
221 235 255
221 235 255
221 235 255
221 235 255
221 235 255
221 235 255
221 235 255
221 235 255
221 235 255
221 235 255
221 235 255
221 235 255
221 235 255
221 235 255
221 235 255
221 235 255
221 235 255
221 235 255
221 235 255
221 235 255
221 235 255
221 235 255
221 235 255
221 235 255
221 235 255
221 235 255
221 235 255
221 235 255
221 235 255
221 235 255
221 235 255
221 235 255
221 235 255
221 235 255
221 235 255
221 235 255
221 235 255
221 235 255
221 235 255
221 235 255
221 235 255
221 235 255
221 235 255
221 235 255
221 235 255
221 235 255
221 235 255
221 235 255
221 235 255
221 235 255
221 235 255
221 235 255
221 235 255
221 235 255
221 235 255
221 235 255
221 235 255
221 235 255
221 235 255
221 235 255
221 235 255
221 235 255
221 235 255
221 235 255
221 235 255
221 235 255
221 235 255
221 235 255
221 235 255
221 235 255
221 235 255
221 235 255
221 235 255
221 235 255
221 235 255
221 235 255
221 235 255
221 235 255
221 235 255
221 235 255
221 235 255
221 235 255
221 235 255
221 235 255
221 235 255
221 235 255
221 235 255
221 235 255
221 235 255
221 235 255
221 235 255
221 235 255
221 235 255
221 235 255
221 235 255
221 235 255
221 235 255
221 235 255
221 235 255
221 235 255
221 235 255
221 235 255
221 235 255
221 235 255
221 235 255
221 235 255
221 235 255
221 235 255
221 235 255
221 235 255
221 235 255
221 235 255
221 235 255
221 235 255
221 235 255
221 235 255
221 235 255
221 235 255
221 235 255
221 235 255
221 235 255
221 235 255
221 235 255
221 235 255
221 235 255
221 235 255
221 235 255
221 235 255
221 235 255
221 235 255
221 235 255
221 235 255
221 235 255
221 235 255
221 235 255
221 235 255
221 235 255
221 235 255
221 235 255
221 235 255
221 235 255
221 235 255
221 235 255
221 235 255
221 235 255
221 235 255
221 235 255
221 235 255
221 235 255
221 235 255
221 235 255
221 235 255
221 235 255
221 235 255
221 235 255
221 235 255
221 235 255
221 235 255
221 235 255
221 235 255
221 235 255
221 235 255
221 235 255
221 235 255
221 235 255
221 235 255
221 235 255
221 235 255
221 235 255
221 235 255
221 235 255
221 235 255
221 235 255
221 235 255
221 235 255
221 235 255
221 235 255
221 235 255
221 235 255
221 235 255
221 235 255
221 235 255
221 235 255
221 235 255
221 235 255
221 235 255
221 235 255
221 235 255
221 235 255
221 235 255
221 235 255
221 235 255
221 235 255
221 235 255
221 235 255
221 235 255
221 235 255
221 235 255
221 235 255
221 235 255
221 235 255
221 235 255
221 235 255
221 235 255
221 235 255
221 235 255
221 235 255
221 235 255
221 235 255
221 235 255
221 235 255
221 235 255
221 235 255
221 235 255
221 235 255
221 235 255
221 235 255
221 235 255
221 235 255
221 235 255
221 235 255
221 235 255
221 235 255
221 235 255
221 235 255
221 235 255
221 235 255
221 235 255
221 235 255
221 235 255
221 235 255
221 235 255
221 235 255
221 235 255
221 235 255
221 235 255
221 235 255
221 235 255
221 235 255
221 235 255
221 235 255
221 235 255
221 235 255
221 235 255
221 235 255
221 235 255
221 235 255
221 235 255
221 235 255
221 235 255
221 235 255
221 235 255
221 235 255
221 235 255
221 235 255
221 235 255
221 235 255
221 235 255
221 235 255
221 235 255
221 235 255
221 235 255
221 235 255
221 236 255
221 235 255
221 235 255
221 235 255
221 235 255
221 235 255
221 235 255
221 235 255
221 235 255
221 236 255
221 235 255
221 235 255
221 236 255
221 235 255
221 235 255
221 235 255
221 235 255
221 235 255
221 235 255
221 235 255
221 235 255
221 235 255
221 235 255
221 235 255
221 235 255
221 235 255
221 235 255
221 235 255
221 235 255
221 235 255
221 235 255
221 235 255
221 235 255
221 236 255
221 235 255
221 235 255
221 235 255
221 235 255
221 235 255
221 235 255
221 235 255
221 235 255
221 235 255
221 235 255
221 235 255
221 235 255
221 235 255
221 235 255
221 235 255
221 235 255
221 235 255
221 235 255
221 235 255
221 235 255
221 235 255
221 235 255
221 235 255
221 235 255
221 235 255
221 235 255
221 235 255
221 235 255
221 235 255
221 235 255
221 235 255
221 235 255
221 235 255
221 235 255
221 235 255
221 235 255
221 235 255
221 235 255
221 235 255
221 235 255
221 235 255
221 235 255
221 235 255
221 235 255
221 235 255
221 235 255
221 235 255
221 235 255
221 235 255
221 235 255
221 235 255
221 235 255
221 235 255
221 235 255
221 235 255
221 235 255
221 235 255
221 235 255
221 235 255
221 235 255
221 235 255
221 235 255
221 235 255
221 235 255
221 235 255
221 235 255
221 235 255
221 235 255
221 235 255
221 235 255
221 235 255
221 235 255
221 235 255
221 235 255
221 235 255
221 235 255
221 235 255
221 235 255
221 235 255
221 235 255
221 235 255
221 235 255
221 235 255
221 235 255
221 235 255
221 235 255
221 235 255
221 235 255
221 235 255
221 235 255
221 235 255
221 235 255
221 235 255
221 235 255
221 235 255
221 235 255
221 235 255
221 235 255
221 235 255
221 235 255
221 235 255
221 235 255
221 235 255
221 235 255
221 235 255
221 235 255
221 235 255
221 235 255
221 235 255
221 235 255
221 235 255
221 235 255
221 235 255
221 235 255
221 235 255
221 235 255
221 235 255
221 235 255
221 235 255
221 235 255
221 235 255
221 235 255
221 235 255
221 235 255
221 235 255
221 235 255
221 235 255
221 235 255
221 235 255
221 235 255
221 235 255
221 235 255
221 235 255
221 235 255
221 235 255
221 235 255
221 235 255
221 235 255
221 235 255
221 235 255
221 235 255
221 235 255
221 235 255
221 235 255
221 235 255
221 235 255
221 235 255
221 235 255
221 235 255
221 235 255
221 235 255
221 235 255
221 235 255
221 235 255
221 235 255
221 235 255
221 235 255
221 235 255
221 235 255
221 235 255
221 235 255
221 235 255
221 235 255
221 235 255
221 235 255
221 235 255
221 235 255
221 235 255
221 235 255
221 235 255
221 235 255
221 235 255
221 235 255
221 235 255
221 235 255
221 235 255
221 235 255
221 235 255
221 235 255
221 235 255
221 235 255
221 235 255
221 235 255
221 235 255
221 235 255
221 235 255
221 235 255
221 235 255
221 235 255
221 235 255
221 235 255
221 235 255
221 235 255
221 235 255
221 235 255
221 235 255
221 235 255
221 235 255
221 235 255
221 235 255
221 235 255
221 235 255
221 235 255
221 235 255
221 235 255
221 235 255
221 235 255
221 235 255
221 235 255
221 235 255
221 235 255
221 235 255
221 235 255
221 235 255
221 235 255
221 235 255
221 235 255
221 235 255
221 235 255
221 235 255
221 235 255
221 235 255
221 235 255
221 235 255
221 235 255
221 235 255
221 235 255
221 235 255
221 235 255
221 235 255
221 235 255
221 235 255
221 235 255
221 235 255
221 235 255
221 235 255
221 235 255
221 235 255
221 235 255
221 235 255
221 235 255
221 235 255
221 235 255
221 235 255
221 235 255
221 235 255
221 235 255
221 235 255
221 235 255
221 235 255
221 235 255
221 235 255
221 235 255
221 235 255
221 235 255
221 235 255
221 235 255
221 235 255
221 235 255
221 235 255
221 235 255
221 235 255
221 235 255
221 235 255
221 235 255
221 235 255
221 235 255
221 235 255
221 235 255
221 235 255
221 235 255
221 235 255
221 235 255
221 235 255
221 235 255
221 235 255
221 235 255
221 235 255
221 235 255
221 235 255
221 235 255
221 235 255
221 235 255
221 235 255
221 235 255
221 235 255
221 235 255
221 235 255
221 235 255
221 235 255
221 235 255
221 235 255
221 235 255
221 235 255
221 235 255
221 235 255
221 235 255
221 235 255
221 235 255
221 235 255
221 235 255
221 235 255
221 235 255
221 235 255
221 235 255
221 235 255
221 235 255
221 235 255
221 235 255
221 235 255
221 235 255
221 235 255
221 235 255
221 235 255
221 235 255
221 235 255
221 235 255
221 235 255
221 235 255
221 235 255
221 235 255
221 235 255
221 235 255
221 235 255
221 235 255
221 235 255
221 235 255
221 235 255
221 235 255
221 235 255
221 235 255
221 235 255
221 235 255
221 235 255
221 235 255
221 235 255
221 235 255
221 235 255
221 235 255
221 235 255
221 235 255
221 236 255
221 235 255
221 235 255
221 235 255
221 235 255
221 235 255
221 235 255
221 235 255
221 235 255
221 235 255
221 235 255
221 235 255
221 235 255
221 235 255
221 235 255
221 235 255
221 235 255
221 236 255
221 235 255
221 235 255
221 235 255
221 235 255
221 235 255
221 235 255
221 235 255
221 236 255
221 236 255
221 236 255
221 236 255
221 236 255
221 236 255
221 236 255
221 236 255
221 236 255
221 236 255
221 236 255
221 236 255
221 236 255
221 236 255
221 236 255
221 236 255
221 236 255
221 236 255
221 236 255
221 236 255
221 236 255
221 236 255
221 236 255
221 236 255
221 236 255
221 236 255
221 236 255
221 236 255
221 236 255
221 236 255
221 236 255
221 236 255
221 236 255
221 236 255
221 236 255
221 236 255
221 236 255
221 236 255
221 236 255
221 236 255
221 236 255
221 236 255
221 236 255
221 236 255
221 236 255
221 236 255
221 236 255
221 236 255
221 236 255
221 236 255
221 236 255
221 236 255
221 236 255
221 236 255
221 236 255
221 236 255
221 236 255
221 236 255
221 236 255
221 236 255
221 236 255
221 236 255
221 236 255
221 236 255
221 236 255
221 236 255
221 236 255
221 236 255
221 236 255
221 236 255
221 236 255
221 236 255
221 236 255
221 236 255
221 236 255
221 236 255
221 236 255
221 236 255
221 236 255
221 236 255
221 236 255
221 236 255
221 236 255
221 236 255
221 236 255
221 236 255
221 236 255
221 236 255
221 236 255
221 236 255
221 236 255
221 236 255
221 236 255
221 236 255
221 236 255
221 236 255
221 236 255
221 236 255
221 236 255
221 236 255
221 236 255
221 236 255
221 236 255
221 236 255
221 236 255
221 236 255
221 236 255
221 236 255
221 236 255
221 236 255
221 236 255
221 236 255
221 236 255
221 236 255
221 236 255
221 236 255
221 236 255
221 236 255
221 236 255
221 236 255
221 236 255
221 236 255
221 236 255
221 236 255
221 236 255
221 236 255
221 236 255
221 236 255
221 236 255
221 236 255
221 236 255
221 236 255
221 236 255
221 236 255
221 236 255
221 236 255
221 236 255
221 236 255
221 236 255
221 236 255
221 236 255
221 236 255
221 236 255
221 236 255
221 236 255
221 236 255
221 236 255
221 236 255
221 236 255
221 236 255
221 236 255
221 236 255
221 236 255
221 236 255
221 236 255
221 236 255
221 236 255
221 236 255
221 236 255
221 236 255
221 236 255
221 236 255
221 236 255
221 236 255
221 236 255
221 236 255
221 236 255
221 236 255
221 236 255
221 236 255
221 236 255
221 236 255
221 236 255
221 236 255
221 236 255
221 236 255
221 236 255
221 236 255
221 236 255
221 236 255
221 236 255
221 236 255
221 236 255
221 236 255
221 236 255
221 236 255
221 236 255
221 236 255
221 236 255
221 236 255
221 236 255
221 236 255
221 236 255
221 236 255
221 236 255
221 236 255
221 236 255
221 236 255
221 236 255
221 236 255
221 236 255
221 236 255
221 236 255
221 236 255
221 236 255
221 236 255
221 236 255
221 236 255
221 236 255
221 236 255
221 236 255
221 236 255
221 236 255
221 236 255
221 236 255
221 236 255
221 236 255
221 236 255
221 236 255
221 236 255
221 236 255
221 236 255
221 236 255
221 236 255
221 236 255
221 236 255
221 236 255
221 236 255
221 236 255
221 236 255
221 236 255
221 236 255
221 236 255
221 236 255
221 236 255
221 236 255
221 236 255
221 236 255
221 236 255
221 236 255
221 236 255
221 236 255
221 236 255
221 236 255
221 236 255
221 236 255
221 236 255
221 236 255
221 236 255
221 236 255
221 236 255
221 236 255
221 236 255
221 236 255
221 236 255
221 236 255
221 236 255
221 236 255
221 236 255
221 236 255
221 236 255
221 236 255
221 236 255
221 236 255
221 236 255
221 236 255
221 236 255
221 236 255
221 236 255
221 236 255
221 236 255
221 236 255
221 236 255
221 236 255
221 236 255
221 236 255
221 236 255
221 236 255
221 236 255
221 236 255
221 236 255
221 236 255
221 236 255
221 236 255
221 236 255
221 236 255
221 236 255
221 236 255
221 236 255
221 236 255
221 236 255
221 236 255
221 236 255
221 236 255
221 236 255
221 236 255
221 236 255
221 236 255
221 236 255
221 236 255
221 236 255
221 236 255
221 236 255
221 236 255
221 236 255
221 236 255
221 236 255
221 236 255
221 236 255
221 236 255
221 236 255
221 236 255
221 236 255
221 236 255
221 236 255
221 236 255
221 236 255
221 236 255
221 236 255
221 236 255
221 236 255
221 236 255
221 236 255
221 236 255
221 236 255
221 236 255
221 236 255
221 236 255
221 236 255
221 236 255
221 236 255
221 236 255
221 236 255
221 236 255
221 236 255
221 236 255
221 236 255
221 236 255
221 236 255
221 236 255
221 236 255
221 236 255
221 236 255
221 236 255
221 236 255
221 236 255
221 236 255
221 236 255
221 236 255
221 236 255
221 236 255
221 236 255
221 236 255
221 236 255
221 236 255
221 236 255
221 236 255
221 236 255
221 236 255
221 236 255
221 236 255
221 236 255
221 236 255
221 236 255
221 236 255
221 236 255
221 236 255
221 236 255
221 236 255
221 236 255
221 236 255
221 236 255
221 236 255
221 236 255
221 236 255
221 236 255
221 236 255
221 236 255
221 236 255
221 236 255
221 236 255
221 236 255
221 236 255
221 236 255
221 236 255
221 236 255
221 236 255
221 236 255
221 236 255
221 236 255
221 236 255
221 236 255
221 236 255
221 236 255
221 236 255
221 236 255
221 236 255
221 236 255
221 236 255
221 236 255
221 236 255
221 236 255
221 236 255
221 236 255
221 236 255
221 236 255
221 236 255
221 236 255
221 236 255
221 236 255
221 236 255
221 236 255
221 236 255
221 236 255
221 236 255
221 236 255
221 236 255
221 236 255
221 236 255
221 236 255
221 236 255
221 236 255
221 236 255
221 236 255
221 236 255
221 236 255
221 236 255
221 236 255
221 236 255
221 236 255
221 236 255
221 236 255
221 236 255
221 236 255
221 236 255
221 236 255
221 236 255
221 236 255
221 236 255
221 236 255
221 236 255
221 236 255
221 236 255
221 236 255
221 236 255
221 236 255
221 236 255
221 236 255
221 236 255
221 236 255
221 236 255
221 236 255
221 236 255
221 236 255
221 236 255
221 236 255
221 236 255
221 236 255
221 236 255
221 236 255
221 236 255
221 236 255
221 236 255
221 236 255
221 236 255
221 236 255
221 236 255
221 236 255
221 236 255
221 236 255
221 236 255
221 236 255
221 236 255
221 236 255
221 236 255
221 236 255
221 236 255
221 236 255
221 236 255
221 236 255
221 236 255
221 236 255
221 236 255
221 236 255
221 236 255
221 236 255
221 236 255
221 236 255
221 236 255
221 236 255
221 236 255
222 236 255
221 236 255
222 236 255
221 236 255
221 236 255
221 236 255
221 236 255
222 236 255
222 236 255
222 236 255
222 236 255
222 236 255
222 236 255
222 236 255
222 236 255
222 236 255
222 236 255
222 236 255
222 236 255
222 236 255
222 236 255
222 236 255
222 236 255
222 236 255
222 236 255
222 236 255
222 236 255
222 236 255
222 236 255
222 236 255
222 236 255
222 236 255
222 236 255
222 236 255
222 236 255
222 236 255
222 236 255
222 236 255
222 236 255
222 236 255
222 236 255
222 236 255
222 236 255
222 236 255
222 236 255
222 236 255
222 236 255
222 236 255
222 236 255
222 236 255
222 236 255
222 236 255
222 236 255
222 236 255
222 236 255
222 236 255
222 236 255
222 236 255
222 236 255
222 236 255
222 236 255
222 236 255
222 236 255
222 236 255
222 236 255
222 236 255
222 236 255
222 236 255
222 236 255
222 236 255
222 236 255
222 236 255
222 236 255
222 236 255
222 236 255
222 236 255
222 236 255
222 236 255
222 236 255
222 236 255
222 236 255
222 236 255
222 236 255
222 236 255
222 236 255
222 236 255
222 236 255
222 236 255
222 236 255
222 236 255
222 236 255
222 236 255
222 236 255
222 236 255
222 236 255
222 236 255
222 236 255
222 236 255
222 236 255
222 236 255
222 236 255
222 236 255
222 236 255
222 236 255
222 236 255
222 236 255
222 236 255
222 236 255
222 236 255
222 236 255
222 236 255
222 236 255
222 236 255
222 236 255
222 236 255
222 236 255
222 236 255
222 236 255
222 236 255
222 236 255
222 236 255
222 236 255
222 236 255
222 236 255
222 236 255
222 236 255
222 236 255
222 236 255
222 236 255
222 236 255
222 236 255
222 236 255
222 236 255
222 236 255
222 236 255
222 236 255
222 236 255
222 236 255
222 236 255
222 236 255
222 236 255
222 236 255
222 236 255
222 236 255
222 236 255
222 236 255
222 236 255
222 236 255
222 236 255
222 236 255
222 236 255
222 236 255
222 236 255
222 236 255
222 236 255
222 236 255
222 236 255
222 236 255
222 236 255
222 236 255
222 236 255
222 236 255
222 236 255
222 236 255
222 236 255
222 236 255
222 236 255
222 236 255
222 236 255
222 236 255
222 236 255
222 236 255
222 236 255
222 236 255
222 236 255
222 236 255
222 236 255
222 236 255
222 236 255
222 236 255
222 236 255
222 236 255
222 236 255
222 236 255
222 236 255
222 236 255
222 236 255
222 236 255
222 236 255
222 236 255
222 236 255
222 236 255
222 236 255
222 236 255
222 236 255
222 236 255
222 236 255
222 236 255
222 236 255
222 236 255
222 236 255
222 236 255
222 236 255
222 236 255
222 236 255
222 236 255
222 236 255
222 236 255
222 236 255
222 236 255
222 236 255
222 236 255
221 236 255
221 236 255
222 236 255
221 236 255
221 236 255
221 236 255
221 236 255
221 236 255
221 236 255
221 236 255
221 236 255
221 236 255
221 236 255
221 236 255
221 236 255
221 236 255
221 236 255
221 236 255
221 236 255
221 236 255
221 236 255
221 236 255
221 236 255
221 236 255
221 236 255
221 236 255
221 236 255
221 236 255
221 236 255
221 236 255
221 236 255
221 236 255
221 236 255
221 236 255
221 236 255
221 236 255
221 236 255
221 236 255
221 236 255
221 236 255
221 236 255
221 236 255
221 236 255
221 236 255
221 236 255
221 236 255
221 236 255
221 236 255
221 236 255
221 236 255
221 236 255
221 236 255
221 236 255
221 236 255
221 236 255
221 236 255
221 236 255
221 236 255
221 236 255
221 236 255
221 236 255
221 236 255
221 236 255
221 236 255
221 236 255
221 236 255
221 236 255
221 236 255
221 236 255
221 236 255
221 236 255
221 236 255
221 236 255
221 236 255
221 236 255
221 236 255
221 236 255
221 236 255
221 236 255
221 236 255
221 236 255
221 236 255
221 236 255
221 236 255
221 236 255
221 236 255
221 236 255
221 236 255
221 236 255
221 236 255
221 236 255
221 236 255
221 236 255
221 236 255
221 236 255
221 236 255
221 236 255
222 236 255
222 236 255
222 236 255
222 236 255
222 236 255
222 236 255
222 236 255
222 236 255
222 236 255
222 236 255
222 236 255
222 236 255
222 236 255
222 236 255
222 236 255
222 236 255
222 236 255
222 236 255
222 236 255
222 236 255
222 236 255
222 236 255
222 236 255
222 236 255
222 236 255
222 236 255
222 236 255
222 236 255
222 236 255
222 236 255
222 236 255
222 236 255
222 236 255
222 236 255
222 236 255
222 236 255
222 236 255
222 236 255
222 236 255
222 236 255
222 236 255
222 236 255
222 236 255
222 236 255
222 236 255
222 236 255
222 236 255
222 236 255
222 236 255
222 236 255
222 236 255
222 236 255
222 236 255
222 236 255
222 236 255
222 236 255
222 236 255
222 236 255
222 236 255
222 236 255
222 236 255
222 236 255
222 236 255
222 236 255
222 236 255
222 236 255
222 236 255
222 236 255
222 236 255
222 236 255
222 236 255
222 236 255
222 236 255
222 236 255
222 236 255
222 236 255
222 236 255
222 236 255
222 236 255
222 236 255
222 236 255
222 236 255
222 236 255
222 236 255
222 236 255
222 236 255
222 236 255
222 236 255
222 236 255
222 236 255
222 236 255
222 236 255
222 236 255
222 236 255
222 236 255
222 236 255
222 236 255
222 236 255
222 236 255
222 236 255
222 236 255
222 236 255
222 236 255
222 236 255
222 236 255
222 236 255
222 236 255
222 236 255
222 236 255
222 236 255
222 236 255
222 236 255
222 236 255
222 236 255
222 236 255
222 236 255
222 236 255
222 236 255
222 236 255
222 236 255
222 236 255
222 236 255
222 236 255
222 236 255
222 236 255
222 236 255
222 236 255
222 236 255
222 236 255
222 236 255
222 236 255
222 236 255
222 236 255
222 236 255
222 236 255
222 236 255
222 236 255
222 236 255
222 236 255
222 236 255
222 236 255
222 236 255
222 236 255
222 236 255
222 236 255
222 236 255
222 236 255
222 236 255
222 236 255
222 236 255
222 236 255
222 236 255
222 236 255
222 236 255
222 236 255
222 236 255
222 236 255
222 236 255
222 236 255
222 236 255
222 236 255
222 236 255
222 236 255
222 236 255
222 236 255
222 236 255
222 236 255
222 236 255
222 236 255
222 236 255
222 236 255
222 236 255
222 236 255
222 236 255
222 236 255
222 236 255
222 236 255
222 236 255
222 236 255
222 236 255
222 236 255
222 236 255
222 236 255
222 236 255
222 236 255
222 236 255
222 236 255
222 236 255
222 236 255
222 236 255
222 236 255
222 236 255
222 236 255
222 236 255
222 236 255
222 236 255
222 236 255
222 236 255
222 236 255
222 236 255
222 236 255
222 236 255
222 236 255
222 236 255
222 236 255
222 236 255
222 236 255
222 236 255
222 236 255
222 236 255
222 236 255
222 236 255
222 236 255
222 236 255
222 236 255
222 236 255
222 236 255
222 236 255
222 236 255
222 236 255
222 236 255
222 236 255
222 236 255
222 236 255
222 236 255
222 236 255
222 236 255
222 236 255
222 236 255
222 236 255
222 236 255
222 236 255
222 236 255
222 236 255
222 236 255
222 236 255
222 236 255
222 236 255
222 236 255
222 236 255
222 236 255
222 236 255
222 236 255
222 236 255
222 236 255
222 236 255
222 236 255
222 236 255
222 236 255
222 236 255
222 236 255
222 236 255
222 236 255
222 236 255
222 236 255
222 236 255
222 236 255
222 236 255
222 236 255
222 236 255
222 236 255
222 236 255
222 236 255
222 236 255
222 236 255
222 236 255
222 236 255
222 236 255
222 236 255
222 236 255
222 236 255
222 236 255
222 236 255
222 236 255
222 236 255
222 236 255
222 236 255
222 236 255
222 236 255
222 236 255
222 236 255
222 236 255
222 236 255
222 236 255
222 236 255
222 236 255
222 236 255
222 236 255
222 236 255
222 236 255
222 236 255
222 236 255
222 236 255
222 236 255
222 236 255
222 236 255
222 236 255
222 236 255
222 236 255
222 236 255
222 236 255
222 236 255
222 236 255
222 236 255
222 236 255
222 236 255
222 236 255
222 236 255
222 236 255
222 236 255
222 236 255
222 236 255
222 236 255
222 236 255
222 236 255
222 236 255
222 236 255
222 236 255
222 236 255
222 236 255
222 236 255
222 236 255
222 236 255
222 236 255
222 236 255
222 236 255
222 236 255
222 236 255
222 236 255
222 236 255
222 236 255
222 236 255
222 236 255
222 236 255
222 236 255
222 236 255
222 236 255
222 236 255
222 236 255
222 236 255
222 236 255
222 236 255
222 236 255
222 236 255
222 236 255
222 236 255
222 236 255
222 236 255
222 236 255
222 236 255
222 236 255
222 236 255
222 236 255
222 236 255
222 236 255
222 236 255
222 236 255
222 236 255
222 236 255
222 236 255
222 236 255
222 236 255
222 236 255
222 236 255
222 236 255
222 236 255
222 236 255
222 236 255
222 236 255
222 236 255
222 236 255
222 236 255
222 236 255
222 236 255
222 236 255
222 236 255
222 236 255
222 236 255
222 236 255
222 236 255
222 236 255
222 236 255
222 236 255
222 236 255
222 236 255
222 236 255
222 236 255
222 236 255
222 236 255
222 236 255
222 236 255
222 236 255
222 236 255
222 236 255
222 236 255
222 236 255
222 236 255
222 236 255
222 236 255
222 236 255
222 236 255
222 236 255
222 236 255
222 236 255
222 236 255
222 236 255
222 236 255
222 236 255
222 236 255
222 236 255
222 236 255
222 236 255
222 236 255
222 236 255
222 236 255
222 236 255
222 236 255
222 236 255
222 236 255
222 236 255
222 236 255
222 236 255
222 236 255
222 236 255
222 236 255
222 236 255
222 236 255
222 236 255
222 236 255
222 236 255
222 236 255
222 236 255
222 236 255
222 236 255
222 236 255
222 236 255
222 236 255
222 236 255
222 236 255
222 236 255
222 236 255
222 236 255
222 236 255
222 236 255
222 236 255
222 236 255
222 236 255
222 236 255
222 236 255
222 236 255
222 236 255
222 236 255
222 236 255
222 236 255
222 236 255
222 236 255
222 236 255
222 236 255
222 236 255
222 236 255
222 236 255
222 236 255
222 236 255
222 236 255
222 236 255
222 236 255
222 236 255
222 236 255
222 236 255
222 236 255
222 236 255
222 236 255
222 236 255
222 236 255
222 236 255
222 236 255
222 236 255
222 236 255
222 236 255
222 236 255
222 236 255
222 236 255
222 236 255
222 236 255
222 236 255
222 236 255
222 236 255
222 236 255
222 236 255
222 236 255
222 236 255
222 236 255
222 236 255
222 236 255
222 236 255
222 236 255
222 236 255
222 236 255
222 236 255
222 236 255
222 236 255
222 236 255
222 236 255
222 236 255
222 236 255
222 236 255
222 236 255
222 236 255
222 236 255
222 236 255
222 236 255
222 236 255
222 236 255
222 236 255
222 236 255
222 236 255
222 236 255
222 236 255
222 236 255
222 236 255
222 236 255
222 236 255
222 236 255
222 236 255
222 236 255
222 236 255
222 236 255
222 236 255
222 236 255
222 236 255
222 236 255
222 236 255
222 236 255
222 236 255
222 236 255
222 236 255
222 236 255
222 236 255
222 236 255
222 236 255
222 236 255
222 236 255
222 236 255
222 236 255
222 236 255
222 236 255
222 236 255
222 236 255
222 236 255
222 236 255
222 236 255
222 236 255
222 236 255
222 236 255
222 236 255
222 236 255
222 236 255
222 236 255
222 236 255
222 236 255
222 236 255
222 236 255
222 236 255
222 236 255
222 236 255
222 236 255
222 236 255
222 236 255
222 236 255
222 236 255
222 236 255
222 236 255
222 236 255
222 236 255
222 236 255
222 236 255
222 236 255
222 236 255
222 236 255
222 236 255
222 236 255
222 236 255
222 236 255
222 236 255
222 236 255
222 236 255
222 236 255
222 236 255
222 236 255
222 236 255
222 236 255
222 236 255
222 236 255
222 236 255
222 236 255
222 236 255
222 236 255
222 236 255
222 236 255
222 236 255
222 236 255
222 236 255
222 236 255
222 236 255
222 236 255
222 236 255
222 236 255
222 236 255
222 236 255
222 236 255
222 236 255
222 236 255
222 236 255
222 236 255
222 236 255
222 236 255
222 236 255
222 236 255
222 236 255
222 236 255
222 236 255
222 236 255
222 236 255
222 236 255
222 236 255
222 236 255
222 236 255
222 236 255
222 236 255
222 236 255
222 236 255
222 236 255
222 236 255
222 236 255
222 236 255
222 236 255
222 236 255
222 236 255
222 236 255
222 236 255
222 236 255
222 236 255
222 236 255
222 236 255
222 236 255
222 236 255
222 236 255
222 236 255
222 236 255
222 236 255
222 236 255
222 236 255
222 236 255
222 236 255
222 236 255
222 236 255
222 236 255
222 236 255
222 236 255
222 236 255
222 236 255
222 236 255
222 236 255
222 236 255
222 236 255
222 236 255
222 236 255
222 236 255
222 236 255
222 236 255
222 236 255
222 236 255
222 236 255
222 236 255
222 236 255
222 236 255
222 236 255
222 236 255
222 236 255
222 236 255
222 236 255
222 236 255
222 236 255
222 236 255
222 236 255
222 236 255
222 236 255
222 236 255
222 236 255
222 236 255
222 236 255
222 236 255
222 236 255
222 236 255
222 236 255
222 236 255
222 236 255
222 236 255
222 236 255
222 236 255
222 236 255
222 236 255
222 236 255
222 236 255
222 236 255
222 236 255
222 236 255
222 236 255
222 236 255
222 236 255
222 236 255
222 236 255
222 236 255
222 236 255
222 236 255
222 236 255
222 236 255
222 236 255
222 236 255
222 236 255
222 236 255
222 236 255
222 236 255
222 236 255
222 236 255
222 236 255
222 236 255
222 236 255
222 236 255
222 236 255
222 236 255
222 236 255
222 236 255
222 236 255
222 236 255
222 236 255
222 236 255
222 236 255
222 236 255
222 236 255
222 236 255
222 236 255
222 236 255
222 236 255
222 236 255
222 236 255
222 236 255
222 236 255
222 236 255
222 236 255
222 236 255
222 236 255
222 236 255
222 236 255
222 236 255
222 236 255
222 236 255
222 236 255
222 236 255
222 236 255
222 236 255
222 236 255
222 236 255
222 236 255
222 236 255
222 236 255
222 236 255
222 236 255
222 236 255
222 236 255
222 236 255
222 236 255
222 236 255
222 236 255
222 236 255
222 236 255
222 236 255
222 236 255
222 236 255
222 236 255
222 236 255
222 236 255
222 236 255
222 236 255
222 236 255
222 236 255
222 236 255
222 236 255
222 236 255
222 236 255
222 236 255
222 236 255
222 236 255
222 236 255
222 236 255
222 236 255
222 236 255
222 236 255
222 236 255
222 236 255
222 236 255
222 236 255
222 236 255
222 236 255
222 236 255
222 236 255
222 236 255
222 236 255
222 236 255
222 236 255
222 236 255
222 236 255
222 236 255
222 236 255
222 236 255
222 236 255
222 236 255
222 236 255
222 236 255
222 236 255
222 236 255
222 236 255
222 236 255
222 236 255
222 236 255
222 236 255
222 236 255
222 236 255
222 236 255
222 236 255
222 236 255
222 236 255
222 236 255
222 236 255
222 236 255
222 236 255
222 236 255
222 236 255
222 236 255
222 236 255
222 236 255
222 236 255
222 236 255
222 236 255
222 236 255
222 236 255
222 236 255
222 236 255
222 236 255
222 236 255
222 236 255
222 236 255
222 236 255
222 236 255
222 236 255
222 236 255
222 236 255
222 236 255
222 236 255
222 236 255
222 236 255
222 236 255
222 236 255
222 236 255
222 236 255
222 236 255
222 236 255
222 236 255
222 236 255
222 236 255
222 236 255
222 236 255
222 236 255
222 236 255
222 236 255
222 236 255
222 236 255
222 236 255
222 236 255
222 236 255
222 236 255
222 236 255
222 236 255
222 236 255
222 236 255
222 236 255
222 236 255
222 236 255
222 236 255
222 236 255
222 236 255
222 236 255
222 236 255
222 236 255
222 236 255
222 236 255
222 236 255
222 236 255
222 236 255
222 236 255
222 236 255
222 236 255
222 236 255
222 236 255
222 236 255
222 236 255
222 236 255
222 236 255
222 236 255
222 236 255
222 236 255
222 236 255
222 236 255
222 236 255
222 236 255
222 236 255
222 236 255
222 236 255
222 236 255
222 236 255
222 236 255
222 236 255
222 236 255
222 236 255
222 236 255
222 236 255
222 236 255
222 236 255
222 236 255
222 236 255
222 236 255
222 236 255
222 236 255
222 236 255
222 236 255
222 236 255
222 236 255
222 236 255
222 236 255
222 236 255
222 236 255
222 236 255
222 236 255
222 236 255
222 236 255
222 236 255
222 236 255
222 236 255
222 236 255
222 236 255
222 236 255
222 236 255
222 236 255
222 236 255
222 236 255
222 236 255
222 236 255
222 236 255
222 236 255
222 236 255
222 236 255
222 236 255
222 236 255
222 236 255
222 236 255
222 236 255
222 236 255
222 236 255
222 236 255
222 236 255
222 236 255
222 236 255
222 236 255
222 236 255
222 236 255
222 236 255
222 236 255
222 236 255
222 236 255
222 236 255
222 236 255
222 236 255
222 236 255
222 236 255
222 236 255
222 236 255
222 236 255
222 236 255
222 236 255
222 236 255
222 236 255
222 236 255
222 236 255
222 236 255
222 236 255
222 236 255
222 236 255
222 236 255
222 236 255
222 236 255
222 236 255
222 236 255
222 236 255
222 236 255
222 236 255
222 236 255
222 236 255
222 236 255
222 236 255
222 236 255
222 236 255
222 236 255
222 236 255
222 236 255
222 236 255
222 236 255
222 236 255
222 236 255
222 236 255
222 236 255
222 236 255
222 236 255
222 236 255
222 236 255
222 236 255
222 236 255
222 236 255
222 236 255
222 236 255
222 236 255
222 236 255
222 236 255
222 236 255
222 236 255
222 236 255
222 236 255
222 236 255
222 236 255
222 236 255
222 236 255
222 236 255
222 236 255
222 236 255
222 236 255
222 236 255
222 236 255
222 236 255
222 236 255
222 236 255
222 236 255
222 236 255
222 236 255
222 236 255
222 236 255
222 236 255
222 236 255
222 236 255
222 236 255
222 236 255
222 236 255
222 236 255
222 236 255
222 236 255
222 236 255
222 236 255
222 236 255
222 236 255
222 236 255
222 236 255
222 236 255
222 236 255
222 236 255
222 236 255
222 236 255
222 236 255
222 236 255
222 236 255
222 236 255
222 236 255
222 236 255
222 236 255
222 236 255
222 236 255
222 236 255
222 236 255
222 236 255
222 236 255
222 236 255
222 236 255
222 236 255
222 236 255
222 236 255
222 236 255
222 236 255
222 236 255
222 236 255
222 236 255
222 236 255
222 236 255
222 236 255
222 236 255
222 236 255
222 236 255
222 236 255
222 236 255
222 236 255
222 236 255
222 236 255
222 236 255
222 236 255
222 236 255
222 236 255
222 236 255
222 236 255
222 236 255
222 236 255
222 236 255
222 236 255
222 236 255
222 236 255
222 236 255
222 236 255
222 236 255
222 236 255
222 236 255
222 236 255
222 236 255
222 236 255
222 236 255
222 236 255
222 236 255
222 236 255
222 236 255
222 236 255
222 236 255
222 236 255
222 236 255
222 236 255
222 236 255
222 236 255
222 236 255
222 236 255
222 236 255
222 236 255
222 236 255
222 236 255
222 236 255
222 236 255
222 236 255
222 236 255
222 236 255
222 236 255
222 236 255
222 236 255
222 236 255
222 236 255
222 236 255
222 236 255
222 236 255
222 236 255
222 236 255
222 236 255
222 236 255
222 236 255
222 236 255
222 236 255
222 236 255
222 236 255
222 236 255
222 236 255
222 236 255
222 236 255
222 236 255
222 236 255
222 236 255
222 236 255
222 236 255
222 236 255
222 236 255
222 236 255
222 236 255
222 236 255
222 236 255
222 236 255
222 236 255
222 236 255
222 236 255
222 236 255
222 236 255
222 236 255
222 236 255
222 236 255
222 236 255
222 236 255
222 236 255
222 236 255
222 236 255
222 236 255
222 236 255
222 236 255
222 236 255
222 236 255
222 236 255
222 236 255
222 236 255
222 236 255
222 236 255
222 236 255
222 236 255
222 236 255
222 236 255
222 236 255
222 236 255
222 236 255
222 236 255
222 236 255
222 236 255
222 236 255
222 236 255
222 236 255
222 236 255
222 236 255
222 236 255
222 236 255
222 236 255
222 236 255
222 236 255
222 236 255
222 236 255
222 236 255
222 236 255
222 236 255
222 236 255
222 236 255
222 236 255
222 236 255
222 236 255
222 236 255
222 236 255
222 236 255
222 236 255
222 236 255
222 236 255
222 236 255
222 236 255
222 236 255
222 236 255
222 236 255
222 236 255
222 236 255
222 236 255
222 236 255
222 236 255
222 236 255
222 236 255
222 236 255
222 236 255
222 236 255
222 236 255
222 236 255
222 236 255
222 236 255
222 236 255
222 236 255
222 236 255
222 236 255
222 236 255
222 236 255
222 236 255
222 236 255
222 236 255
222 236 255
222 236 255
222 236 255
222 236 255
222 236 255
222 236 255
222 236 255
222 236 255
222 236 255
222 236 255
222 236 255
222 236 255
222 236 255
222 236 255
222 236 255
222 236 255
222 236 255
222 236 255
222 236 255
222 236 255
222 236 255
222 236 255
222 236 255
222 236 255
222 236 255
222 236 255
222 236 255
222 236 255
222 236 255
222 236 255
222 236 255
222 236 255
222 236 255
222 236 255
222 236 255
222 236 255
222 236 255
222 236 255
222 236 255
222 236 255
222 236 255
222 236 255
222 236 255
222 236 255
222 236 255
222 236 255
222 236 255
222 236 255
222 236 255
222 236 255
222 236 255
222 236 255
222 236 255
222 236 255
222 236 255
222 236 255
222 236 255
222 236 255
222 236 255
222 236 255
222 236 255
222 236 255
222 236 255
222 236 255
222 236 255
222 236 255
222 236 255
222 236 255
222 236 255
222 236 255
222 236 255
222 236 255
222 236 255
222 236 255
222 236 255
222 236 255
222 236 255
222 236 255
222 236 255
222 236 255
222 236 255
222 236 255
222 236 255
222 236 255
222 236 255
222 236 255
222 236 255
222 236 255
222 236 255
222 236 255
222 236 255
222 236 255
222 236 255
222 236 255
222 236 255
222 236 255
222 236 255
222 236 255
222 236 255
222 236 255
222 236 255
222 236 255
222 236 255
222 236 255
222 236 255
222 236 255
222 236 255
222 236 255
222 236 255
222 236 255
222 236 255
222 236 255
222 236 255
222 236 255
222 236 255
222 236 255
222 236 255
222 236 255
222 236 255
222 236 255
222 236 255
222 236 255
222 236 255
222 236 255
222 236 255
222 236 255
222 236 255
222 236 255
222 236 255
222 236 255
222 236 255
222 236 255
222 236 255
222 236 255
222 236 255
222 236 255
222 236 255
222 236 255
222 236 255
222 236 255
222 236 255
222 236 255
222 236 255
222 236 255
222 236 255
222 236 255
222 236 255
222 236 255
222 236 255
222 236 255
222 236 255
222 236 255
222 236 255
222 236 255
222 236 255
222 236 255
222 236 255
222 236 255
222 236 255
222 236 255
222 236 255
222 236 255
222 236 255
222 236 255
222 236 255
222 236 255
222 236 255
222 236 255
222 236 255
222 236 255
222 236 255
222 236 255
222 236 255
222 236 255
222 236 255
222 236 255
222 236 255
222 236 255
222 236 255
222 236 255
222 236 255
222 236 255
222 236 255
222 236 255
222 236 255
222 236 255
222 236 255
222 236 255
222 236 255
222 236 255
222 236 255
222 236 255
222 236 255
222 236 255
222 236 255
222 236 255
222 236 255
222 236 255
222 236 255
222 236 255
222 236 255
222 236 255
222 236 255
222 236 255
222 236 255
222 236 255
222 236 255
222 236 255
222 236 255
222 236 255
222 236 255
222 236 255
222 236 255
222 236 255
222 236 255
222 236 255
222 236 255
222 236 255
222 236 255
222 236 255
222 236 255
222 236 255
222 236 255
222 236 255
222 236 255
222 236 255
222 236 255
222 236 255
222 236 255
222 236 255
222 236 255
222 236 255
222 236 255
222 236 255
222 236 255
222 236 255
222 236 255
222 236 255
222 236 255
222 236 255
222 236 255
222 236 255
222 236 255
222 236 255
222 236 255
222 236 255
222 236 255
222 236 255
222 236 255
222 236 255
222 236 255
222 236 255
222 236 255
222 236 255
222 236 255
222 236 255
222 236 255
222 236 255
222 236 255
222 236 255
222 236 255
222 236 255
222 236 255
222 236 255
222 236 255
222 236 255
222 236 255
222 236 255
222 236 255
222 236 255
222 236 255
222 236 255
222 236 255
222 236 255
222 236 255
222 236 255
222 236 255
222 236 255
222 236 255
222 236 255
222 236 255
222 236 255
222 236 255
222 236 255
222 236 255
222 236 255
222 236 255
222 236 255
222 236 255
222 236 255
222 236 255
222 236 255
222 236 255
222 236 255
222 236 255
222 236 255
222 236 255
222 236 255
222 236 255
222 236 255
222 236 255
222 236 255
222 236 255
222 236 255
222 236 255
222 236 255
222 236 255
222 236 255
222 236 255
222 236 255
222 236 255
222 236 255
222 236 255
222 236 255
222 236 255
222 236 255
222 236 255
222 236 255
222 236 255
222 236 255
222 236 255
222 236 255
222 236 255
222 236 255
222 236 255
222 236 255
222 236 255
222 236 255
222 236 255
222 236 255
222 236 255
222 236 255
222 236 255
222 236 255
222 236 255
222 236 255
222 236 255
222 236 255
222 236 255
222 236 255
222 236 255
222 236 255
222 236 255
222 236 255
222 236 255
222 236 255
222 236 255
222 236 255
222 236 255
222 236 255
222 236 255
222 236 255
222 236 255
222 236 255
222 236 255
222 236 255
222 236 255
222 236 255
222 236 255
222 236 255
222 236 255
222 236 255
222 236 255
222 236 255
222 236 255
222 236 255
222 236 255
222 236 255
222 236 255
222 236 255
222 236 255
222 236 255
222 236 255
222 236 255
222 236 255
222 236 255
222 236 255
222 236 255
222 236 255
222 236 255
222 236 255
222 236 255
222 236 255
222 236 255
222 236 255
222 236 255
222 236 255
222 236 255
222 236 255
222 236 255
222 236 255
222 236 255
222 236 255
222 236 255
222 236 255
222 236 255
222 236 255
222 236 255
222 236 255
222 236 255
222 236 255
222 236 255
222 236 255
222 236 255
222 236 255
222 236 255
222 236 255
222 236 255
222 236 255
222 236 255
222 236 255
222 236 255
222 236 255
222 236 255
222 236 255
222 236 255
222 236 255
222 236 255
222 236 255
222 236 255
222 236 255
222 236 255
222 236 255
222 236 255
222 236 255
222 236 255
222 236 255
222 236 255
222 236 255
222 236 255
222 236 255
222 236 255
222 236 255
222 236 255
222 236 255
222 236 255
222 236 255
222 236 255
222 236 255
222 236 255
222 236 255
222 236 255
222 236 255
222 236 255
222 236 255
222 236 255
223 236 255
222 236 255
223 236 255
223 236 255
223 236 255
223 236 255
223 236 255
223 236 255
223 236 255
223 236 255
223 236 255
223 236 255
223 236 255
223 236 255
223 236 255
223 236 255
223 236 255
223 236 255
223 236 255
223 236 255
223 236 255
223 236 255
223 236 255
223 236 255
223 236 255
223 236 255
223 236 255
223 236 255
223 236 255
223 236 255
223 236 255
223 236 255
223 236 255
223 236 255
223 236 255
223 236 255
223 236 255
223 236 255
223 236 255
223 236 255
223 236 255
223 236 255
223 236 255
223 236 255
223 236 255
223 236 255
223 236 255
223 236 255
223 236 255
223 236 255
223 236 255
223 236 255
223 236 255
223 236 255
223 236 255
223 236 255
223 236 255
223 236 255
223 236 255
223 236 255
223 236 255
223 236 255
223 236 255
223 236 255
223 236 255
223 236 255
223 236 255
223 236 255
223 236 255
223 236 255
223 236 255
223 236 255
223 236 255
223 236 255
223 236 255
223 236 255
223 236 255
223 236 255
223 236 255
223 236 255
223 236 255
223 236 255
223 236 255
223 236 255
223 236 255
223 236 255
223 236 255
223 236 255
223 236 255
223 236 255
223 236 255
223 236 255
223 236 255
223 236 255
223 236 255
223 236 255
223 236 255
223 236 255
223 236 255
223 236 255
223 236 255
223 236 255
223 236 255
223 236 255
223 236 255
223 236 255
223 236 255
223 236 255
223 236 255
223 236 255
223 236 255
223 236 255
223 236 255
223 236 255
223 236 255
223 236 255
223 236 255
223 236 255
223 236 255
223 236 255
223 236 255
223 236 255
223 236 255
223 236 255
223 236 255
223 236 255
223 236 255
223 236 255
223 236 255
223 236 255
223 236 255
223 236 255
223 236 255
223 236 255
223 236 255
223 236 255
223 236 255
223 236 255
223 236 255
223 236 255
223 236 255
223 236 255
223 236 255
223 236 255
223 236 255
223 236 255
223 236 255
223 236 255
223 236 255
223 236 255
223 236 255
223 236 255
223 236 255
223 236 255
223 236 255
223 236 255
223 236 255
223 236 255
223 236 255
223 236 255
223 236 255
222 236 255
222 236 255
222 236 255
222 236 255
222 236 255
222 236 255
222 236 255
222 236 255
222 236 255
222 236 255
222 236 255
222 236 255
222 236 255
222 236 255
222 236 255
222 236 255
222 236 255
222 236 255
222 236 255
222 236 255
222 236 255
222 236 255
222 236 255
222 236 255
222 236 255
222 236 255
222 236 255
222 236 255
222 236 255
222 236 255
222 236 255
222 236 255
222 236 255
222 236 255
222 236 255
222 236 255
222 236 255
222 236 255
222 236 255
222 236 255
222 236 255
222 236 255
222 236 255
222 236 255
222 236 255
222 236 255
222 236 255
222 236 255
222 236 255
222 236 255
222 236 255
222 236 255
222 236 255
222 236 255
222 236 255
222 236 255
222 236 255
222 236 255
222 236 255
222 236 255
222 236 255
222 236 255
222 236 255
222 236 255
222 236 255
222 236 255
222 236 255
222 236 255
222 236 255
222 236 255
222 236 255
222 236 255
222 236 255
222 236 255
222 236 255
222 236 255
222 236 255
222 236 255
222 236 255
222 236 255
222 236 255
222 236 255
222 236 255
222 236 255
222 236 255
222 236 255
222 236 255
222 236 255
222 236 255
222 236 255
222 236 255
222 236 255
222 236 255
222 236 255
222 236 255
222 236 255
222 236 255
222 236 255
222 236 255
222 236 255
222 236 255
222 236 255
222 236 255
222 236 255
222 236 255
222 236 255
222 236 255
222 236 255
222 236 255
222 236 255
222 236 255
222 236 255
222 236 255
222 236 255
222 236 255
222 236 255
222 236 255
222 236 255
222 236 255
222 236 255
222 236 255
222 236 255
222 236 255
222 236 255
222 236 255
222 236 255
222 236 255
222 236 255
222 236 255
222 236 255
222 236 255
222 236 255
222 236 255
222 236 255
222 236 255
222 236 255
222 236 255
222 236 255
222 236 255
222 236 255
222 236 255
222 236 255
222 236 255
222 236 255
222 236 255
222 236 255
222 236 255
222 236 255
222 236 255
222 236 255
222 236 255
222 236 255
222 236 255
222 236 255
222 236 255
222 236 255
222 236 255
222 236 255
222 236 255
222 236 255
222 236 255
222 236 255
222 236 255
222 236 255
222 236 255
222 236 255
222 236 255
222 236 255
222 236 255
222 236 255
222 236 255
222 236 255
222 236 255
222 236 255
222 236 255
222 236 255
222 236 255
222 236 255
222 236 255
222 236 255
222 236 255
222 236 255
222 236 255
222 236 255
222 236 255
222 236 255
222 236 255
222 236 255
222 236 255
222 236 255
222 236 255
222 236 255
222 236 255
222 236 255
222 236 255
222 236 255
222 236 255
222 236 255
222 236 255
222 236 255
222 236 255
222 236 255
222 236 255
223 236 255
223 236 255
223 236 255
223 236 255
223 236 255
223 236 255
223 236 255
223 236 255
223 236 255
223 236 255
223 236 255
223 236 255
223 236 255
223 236 255
223 236 255
223 236 255
223 236 255
223 236 255
223 236 255
223 236 255
223 236 255
223 236 255
223 236 255
223 236 255
223 236 255
223 236 255
223 236 255
223 236 255
223 236 255
223 236 255
223 236 255
223 236 255
223 236 255
223 236 255
223 236 255
223 236 255
223 236 255
223 236 255
223 236 255
223 236 255
223 236 255
223 236 255
223 236 255
223 236 255
223 236 255
223 236 255
223 236 255
223 236 255
223 236 255
223 236 255
223 236 255
223 236 255
223 236 255
223 236 255
223 236 255
223 236 255
223 236 255
223 236 255
223 236 255
223 236 255
223 236 255
223 236 255
223 236 255
223 236 255
223 236 255
223 236 255
223 236 255
223 236 255
223 236 255
223 236 255
223 236 255
223 236 255
223 236 255
223 236 255
223 236 255
223 236 255
223 236 255
223 236 255
223 236 255
223 236 255
223 236 255
223 236 255
223 236 255
223 236 255
223 236 255
223 236 255
223 236 255
223 236 255
223 236 255
223 236 255
223 236 255
223 236 255
223 236 255
223 236 255
223 236 255
223 236 255
223 236 255
223 236 255
223 236 255
223 236 255
223 237 255
223 236 255
223 236 255
223 236 255
223 236 255
223 236 255
223 236 255
223 237 255
223 236 255
223 237 255
223 236 255
223 236 255
223 237 255
223 237 255
223 237 255
223 237 255
223 236 255
223 237 255
223 237 255
223 236 255
223 237 255
223 237 255
223 237 255
223 237 255
223 237 255
223 237 255
223 237 255
223 237 255
223 237 255
223 236 255
223 237 255
223 236 255
223 236 255
223 236 255
223 236 255
223 236 255
223 236 255
223 236 255
223 236 255
223 236 255
223 236 255
223 236 255
223 236 255
223 236 255
223 236 255
223 236 255
223 236 255
223 236 255
223 236 255
223 236 255
223 236 255
223 236 255
223 236 255
223 236 255
223 236 255
223 236 255
223 236 255
223 236 255
223 236 255
223 236 255
223 236 255
223 236 255
223 236 255
223 236 255
223 236 255
223 236 255
223 236 255
223 236 255
223 236 255
223 236 255
223 236 255
223 236 255
223 236 255
223 236 255
223 236 255
223 236 255
223 236 255
223 236 255
223 236 255
223 236 255
223 236 255
223 236 255
223 236 255
223 236 255
223 236 255
223 236 255
223 236 255
223 236 255
223 236 255
223 236 255
223 236 255
223 236 255
223 236 255
223 236 255
223 236 255
223 236 255
223 236 255
223 236 255
223 236 255
223 236 255
223 236 255
223 236 255
223 236 255
223 236 255
223 236 255
223 236 255
223 236 255
223 236 255
223 236 255
223 236 255
223 236 255
223 236 255
223 236 255
223 236 255
223 236 255
223 236 255
223 236 255
223 236 255
223 236 255
223 236 255
223 236 255
223 236 255
223 236 255
223 236 255
223 236 255
223 236 255
223 236 255
223 236 255
223 236 255
223 236 255
223 236 255
223 236 255
223 236 255
223 236 255
223 236 255
223 236 255
222 236 255
223 236 255
222 236 255
222 236 255
222 236 255
222 236 255
222 236 255
222 236 255
222 236 255
222 236 255
222 236 255
222 236 255
222 236 255
222 236 255
222 236 255
222 236 255
222 236 255
222 236 255
222 236 255
222 236 255
222 236 255
222 236 255
222 236 255
222 236 255
222 236 255
222 236 255
222 236 255
222 236 255
222 236 255
222 236 255
222 236 255
222 236 255
222 236 255
222 236 255
222 236 255
222 236 255
222 236 255
222 236 255
222 236 255
222 236 255
222 236 255
222 236 255
222 236 255
222 236 255
222 236 255
222 236 255
222 236 255
222 236 255
222 236 255
222 236 255
222 236 255
222 236 255
222 236 255
222 236 255
222 236 255
222 236 255
222 236 255
222 236 255
222 236 255
222 236 255
222 236 255
222 236 255
222 236 255
222 236 255
222 236 255
222 236 255
222 236 255
222 236 255
222 236 255
222 236 255
222 236 255
222 236 255
222 236 255
222 236 255
222 236 255
222 236 255
222 236 255
222 236 255
222 236 255
222 236 255
222 236 255
222 236 255
222 236 255
222 236 255
222 236 255
222 236 255
222 236 255
222 236 255
222 236 255
222 236 255
222 236 255
222 236 255
222 236 255
222 236 255
222 236 255
222 236 255
222 236 255
222 236 255
222 236 255
222 236 255
222 236 255
222 236 255
222 236 255
222 236 255
222 236 255
222 236 255
222 236 255
222 236 255
222 236 255
222 236 255
222 236 255
222 236 255
222 236 255
222 236 255
222 236 255
222 236 255
222 236 255
222 236 255
222 236 255
222 236 255
222 236 255
222 236 255
222 236 255
222 236 255
222 236 255
222 236 255
222 236 255
222 236 255
222 236 255
222 236 255
222 236 255
223 236 255
223 236 255
223 236 255
223 236 255
223 236 255
223 236 255
223 236 255
223 236 255
223 236 255
223 236 255
223 236 255
223 236 255
223 236 255
223 236 255
223 236 255
223 236 255
223 236 255
223 236 255
223 236 255
223 236 255
223 236 255
223 236 255
223 236 255
223 236 255
223 236 255
223 236 255
223 236 255
223 236 255
223 236 255
223 236 255
223 236 255
223 236 255
223 236 255
223 236 255
223 236 255
223 236 255
223 236 255
223 236 255
223 236 255
223 236 255
223 236 255
223 236 255
223 236 255
223 236 255
223 236 255
223 236 255
223 236 255
223 236 255
223 236 255
223 236 255
223 236 255
223 236 255
223 236 255
223 236 255
223 236 255
223 236 255
223 236 255
223 236 255
223 236 255
223 236 255
223 236 255
223 236 255
223 236 255
223 236 255
223 236 255
223 236 255
223 236 255
223 236 255
223 236 255
223 236 255
223 236 255
223 236 255
223 236 255
223 236 255
223 236 255
223 236 255
223 236 255
223 236 255
223 236 255
223 236 255
223 237 255
223 237 255
223 237 255
223 237 255
223 237 255
223 237 255
223 237 255
223 237 255
223 237 255
223 237 255
223 237 255
223 237 255
223 237 255
223 237 255
223 237 255
223 237 255
223 237 255
223 237 255
223 237 255
223 237 255
223 237 255
223 237 255
223 237 255
223 237 255
223 237 255
223 237 255
223 237 255
223 237 255
223 237 255
223 237 255
223 237 255
223 237 255
223 237 255
223 237 255
223 237 255
223 237 255
223 237 255
223 237 255
223 237 255
223 237 255
223 237 255
223 237 255
223 237 255
223 237 255
223 237 255
223 237 255
223 237 255
223 237 255
223 237 255
223 237 255
223 237 255
223 237 255
223 237 255
223 237 255
223 237 255
223 237 255
223 237 255
223 237 255
223 237 255
223 237 255
223 237 255
223 237 255
223 237 255
223 237 255
223 237 255
223 237 255
223 237 255
223 237 255
223 237 255
223 237 255
223 237 255
223 237 255
223 237 255
223 237 255
223 237 255
223 237 255
223 237 255
223 237 255
223 237 255
223 237 255
223 237 255
223 237 255
223 237 255
223 237 255
223 237 255
223 237 255
223 237 255
223 237 255
223 237 255
223 237 255
223 237 255
223 237 255
223 237 255
223 237 255
223 237 255
223 237 255
223 237 255
223 237 255
223 237 255
223 237 255
223 237 255
223 237 255
223 237 255
223 237 255
223 237 255
223 237 255
223 237 255
223 237 255
223 237 255
223 237 255
223 237 255
223 237 255
223 237 255
223 237 255
223 237 255
223 237 255
223 237 255
223 237 255
223 237 255
223 237 255
223 237 255
223 237 255
223 237 255
223 237 255
223 237 255
223 237 255
223 237 255
223 237 255
223 237 255
223 237 255
223 237 255
223 237 255
223 237 255
223 237 255
223 237 255
223 237 255
223 237 255
223 237 255
223 237 255
223 237 255
223 237 255
223 237 255
223 237 255
223 237 255
223 236 255
223 236 255
223 236 255
223 236 255
223 236 255
223 236 255
223 236 255
223 236 255
223 236 255
223 236 255
223 236 255
223 236 255
223 236 255
223 236 255
223 236 255
223 236 255
223 236 255
223 236 255
223 236 255
223 236 255
223 236 255
223 236 255
223 236 255
223 236 255
223 236 255
223 236 255
223 236 255
223 236 255
223 236 255
223 236 255
223 236 255
223 236 255
223 236 255
223 236 255
223 236 255
223 236 255
223 236 255
223 236 255
223 236 255
223 236 255
223 236 255
223 236 255
223 236 255
223 236 255
223 236 255
223 236 255
223 236 255
223 236 255
223 236 255
223 236 255
223 236 255
223 236 255
223 236 255
223 236 255
223 236 255
223 236 255
223 236 255
223 236 255
223 236 255
223 236 255
223 236 255
223 236 255
223 236 255
223 236 255
223 236 255
223 236 255
223 236 255
223 236 255
223 236 255
223 236 255
223 236 255
223 236 255
223 236 255
223 236 255
223 236 255
223 236 255
223 236 255
223 236 255
223 236 255
222 236 255
222 236 255
222 236 255
222 236 255
222 236 255
222 236 255
222 236 255
222 236 255
222 236 255
222 236 255
222 236 255
222 236 255
222 236 255
222 236 255
222 236 255
222 236 255
222 236 255
222 236 255
222 236 255
222 236 255
222 236 255
222 236 255
222 236 255
222 236 255
222 236 255
222 236 255
222 236 255
222 236 255
222 236 255
222 236 255
222 236 255
222 236 255
222 236 255
222 236 255
222 236 255
222 236 255
222 236 255
222 236 255
222 236 255
222 236 255
222 236 255
222 236 255
222 236 255
222 236 255
222 236 255
222 236 255
222 236 255
222 236 255
222 236 255
222 236 255
222 236 255
222 236 255
222 236 255
222 236 255
222 236 255
222 236 255
222 236 255
222 236 255
222 236 255
222 236 255
222 236 255
222 236 255
222 236 255
222 236 255
222 236 255
223 236 255
223 236 255
223 236 255
223 236 255
223 236 255
223 236 255
223 236 255
223 236 255
223 236 255
223 236 255
223 236 255
223 236 255
223 236 255
223 236 255
223 236 255
223 236 255
223 236 255
223 236 255
223 236 255
223 236 255
223 236 255
223 236 255
223 236 255
223 236 255
223 236 255
223 236 255
223 236 255
223 236 255
223 236 255
223 236 255
223 236 255
223 236 255
223 236 255
223 236 255
223 236 255
223 236 255
223 236 255
223 236 255
223 236 255
223 236 255
223 236 255
223 236 255
223 236 255
223 236 255
223 236 255
223 236 255
223 236 255
223 236 255
223 236 255
223 236 255
223 236 255
223 236 255
223 236 255
223 236 255
223 236 255
223 236 255
223 236 255
223 236 255
223 236 255
223 236 255
223 236 255
223 236 255
223 236 255
223 236 255
223 236 255
223 236 255
223 236 255
223 236 255
223 236 255
223 236 255
223 236 255
223 236 255
223 236 255
223 236 255
223 236 255
223 236 255
223 236 255
223 236 255
223 236 255
223 236 255
223 237 255
223 237 255
223 237 255
223 237 255
223 237 255
223 237 255
223 237 255
223 237 255
223 237 255
223 237 255
223 237 255
223 237 255
223 237 255
223 237 255
223 237 255
223 237 255
223 237 255
223 237 255
223 237 255
223 237 255
223 237 255
223 237 255
223 237 255
223 237 255
223 237 255
223 237 255
223 237 255
223 237 255
223 237 255
223 237 255
223 237 255
223 237 255
223 237 255
223 237 255
223 237 255
223 237 255
223 237 255
223 237 255
223 237 255
223 237 255
223 237 255
223 237 255
223 237 255
223 237 255
223 237 255
223 237 255
223 237 255
223 237 255
223 237 255
223 237 255
223 237 255
223 237 255
223 237 255
223 237 255
223 237 255
223 237 255
223 237 255
223 237 255
223 237 255
223 237 255
223 237 255
223 237 255
223 237 255
223 237 255
223 237 255
223 237 255
223 237 255
223 237 255
223 237 255
223 237 255
223 237 255
223 237 255
223 237 255
223 237 255
223 237 255
223 237 255
223 237 255
223 237 255
223 237 255
223 237 255
223 237 255
223 237 255
223 237 255
223 237 255
223 237 255
223 237 255
223 237 255
223 237 255
223 237 255
223 237 255
223 237 255
223 237 255
223 237 255
223 237 255
223 237 255
223 237 255
223 237 255
223 237 255
223 237 255
223 237 255
223 237 255
223 237 255
223 237 255
223 237 255
223 237 255
223 237 255
223 237 255
223 237 255
223 237 255
223 237 255
223 237 255
223 237 255
223 237 255
223 237 255
223 237 255
223 237 255
223 237 255
223 237 255
223 237 255
223 237 255
223 237 255
223 237 255
223 237 255
223 237 255
223 237 255
223 237 255
223 237 255
223 237 255
223 237 255
223 237 255
223 237 255
223 237 255
223 237 255
223 237 255
223 237 255
223 237 255
223 237 255
223 237 255
223 237 255
223 237 255
223 237 255
223 237 255
223 237 255
223 237 255
223 237 255
223 237 255
223 237 255
223 237 255
223 237 255
223 237 255
223 237 255
223 237 255
223 237 255
223 237 255
223 237 255
223 237 255
223 237 255
223 237 255
223 237 255
223 237 255
223 237 255
223 237 255
223 237 255
223 237 255
223 237 255
223 237 255
223 237 255
223 237 255
223 237 255
223 237 255
223 237 255
223 237 255
223 237 255
223 237 255
223 237 255
223 237 255
223 237 255
223 237 255
223 237 255
223 237 255
223 237 255
223 237 255
223 237 255
223 237 255
223 237 255
223 237 255
223 237 255
223 237 255
223 237 255
223 237 255
223 237 255
223 237 255
223 237 255
223 237 255
223 237 255
223 237 255
223 237 255
223 237 255
223 237 255
223 237 255
223 237 255
223 237 255
223 237 255
223 237 255
223 237 255
223 237 255
223 236 255
223 236 255
223 236 255
223 236 255
223 236 255
223 236 255
223 236 255
223 236 255
223 236 255
223 236 255
223 236 255
223 236 255
223 236 255
223 236 255
223 236 255
223 236 255
223 236 255
223 236 255
223 236 255
223 236 255
223 236 255
223 236 255
223 236 255
223 236 255
223 236 255
223 236 255
223 236 255
223 236 255
223 236 255
223 236 255
223 236 255
223 236 255
223 236 255
223 236 255
223 236 255
223 236 255
223 236 255
223 236 255
223 236 255
223 236 255
223 236 255
223 236 255
223 236 255
223 236 255
223 236 255
223 236 255
223 236 255
223 236 255
223 236 255
223 236 255
223 236 255
223 236 255
223 236 255
223 236 255
223 236 255
223 236 255
223 236 255
223 236 255
223 236 255
223 236 255
223 236 255
223 236 255
223 236 255
223 236 255
223 236 255
223 236 255
223 236 255
223 236 255
223 236 255
223 236 255
223 236 255
223 236 255
223 236 255
223 236 255
223 236 255
223 236 255
223 236 255
223 236 255
223 236 255
223 236 255
222 236 255
222 236 255
222 236 255
222 236 255
222 236 255
222 236 255
222 236 255
222 236 255
222 236 255
222 236 255
222 236 255
222 236 255
222 236 255
222 236 255
222 236 255
222 236 255
222 236 255
222 236 255
223 236 255
223 236 255
223 236 255
223 236 255
223 236 255
223 236 255
223 236 255
223 236 255
223 236 255
223 236 255
223 236 255
223 236 255
223 236 255
223 236 255
223 236 255
223 236 255
223 236 255
223 236 255
223 236 255
223 236 255
223 236 255
223 236 255
223 236 255
223 236 255
223 236 255
223 236 255
223 236 255
223 236 255
223 236 255
223 236 255
223 236 255
223 236 255
223 236 255
223 236 255
223 236 255
223 236 255
223 236 255
223 236 255
223 236 255
223 236 255
223 236 255
223 236 255
223 236 255
223 236 255
223 236 255
223 236 255
223 236 255
223 236 255
223 236 255
223 236 255
223 236 255
223 236 255
223 236 255
223 236 255
223 236 255
223 236 255
223 236 255
223 236 255
223 236 255
223 236 255
223 236 255
223 236 255
223 236 255
223 236 255
223 236 255
223 236 255
223 236 255
223 236 255
223 237 255
223 237 255
223 237 255
223 237 255
223 237 255
223 237 255
223 237 255
223 237 255
223 237 255
223 237 255
223 237 255
223 237 255
223 237 255
223 237 255
223 237 255
223 237 255
223 237 255
223 237 255
223 237 255
223 237 255
223 237 255
223 237 255
223 237 255
223 237 255
223 237 255
223 237 255
223 237 255
223 237 255
223 237 255
223 237 255
223 237 255
223 237 255
223 237 255
223 237 255
223 237 255
223 237 255
223 237 255
223 237 255
223 237 255
223 237 255
223 237 255
223 237 255
223 237 255
223 237 255
223 237 255
223 237 255
223 237 255
223 237 255
223 237 255
223 237 255
223 237 255
223 237 255
223 237 255
223 237 255
223 237 255
223 237 255
223 237 255
223 237 255
223 237 255
223 237 255
223 237 255
223 237 255
223 237 255
223 237 255
223 237 255
223 237 255
223 237 255
223 237 255
223 237 255
223 237 255
223 237 255
223 237 255
223 237 255
223 237 255
223 237 255
223 237 255
223 237 255
223 237 255
223 237 255
223 237 255
223 237 255
223 237 255
223 237 255
223 237 255
224 237 255
224 237 255
224 237 255
224 237 255
224 237 255
224 237 255
224 237 255
224 237 255
224 237 255
224 237 255
224 237 255
224 237 255
224 237 255
224 237 255
224 237 255
224 237 255
224 237 255
224 237 255
224 237 255
224 237 255
224 237 255
224 237 255
224 237 255
224 237 255
224 237 255
224 237 255
224 237 255
224 237 255
224 237 255
224 237 255
224 237 255
224 237 255
224 237 255
224 237 255
224 237 255
224 237 255
224 237 255
224 237 255
224 237 255
224 237 255
224 237 255
224 237 255
224 237 255
224 237 255
224 237 255
224 237 255
224 237 255
224 237 255
224 237 255
224 237 255
224 237 255
224 237 255
224 237 255
224 237 255
224 237 255
224 237 255
224 237 255
224 237 255
224 237 255
224 237 255
224 237 255
224 237 255
224 237 255
224 237 255
224 237 255
224 237 255
224 237 255
224 237 255
224 237 255
224 237 255
224 237 255
224 237 255
224 237 255
224 237 255
224 237 255
224 237 255
224 237 255
224 237 255
224 237 255
224 237 255
224 237 255
224 237 255
224 237 255
224 237 255
224 237 255
224 237 255
224 237 255
224 237 255
224 237 255
224 237 255
224 237 255
224 237 255
223 237 255
224 237 255
224 237 255
223 237 255
223 237 255
223 237 255
223 237 255
223 237 255
223 237 255
223 237 255
223 237 255
223 237 255
223 237 255
223 237 255
223 237 255
223 237 255
223 237 255
223 237 255
223 237 255
223 237 255
223 237 255
223 237 255
223 237 255
223 237 255
223 237 255
223 237 255
223 237 255
223 237 255
223 237 255
223 237 255
223 237 255
223 237 255
223 237 255
223 237 255
223 237 255
223 237 255
223 237 255
223 237 255
223 237 255
223 237 255
223 237 255
223 237 255
223 237 255
223 237 255
223 237 255
223 237 255
223 237 255
223 237 255
223 237 255
223 237 255
223 237 255
223 237 255
223 237 255
223 237 255
223 237 255
223 237 255
223 237 255
223 237 255
223 237 255
223 237 255
223 237 255
223 237 255
223 237 255
223 237 255
223 237 255
223 237 255
223 237 255
223 237 255
223 237 255
223 237 255
223 237 255
223 237 255
223 237 255
223 237 255
223 237 255
223 237 255
223 237 255
223 237 255
223 237 255
223 237 255
223 237 255
223 237 255
223 237 255
223 237 255
223 237 255
223 237 255
223 237 255
223 236 255
223 236 255
223 236 255
223 236 255
223 236 255
223 236 255
223 236 255
223 236 255
223 236 255
223 236 255
223 236 255
223 236 255
223 236 255
223 236 255
223 236 255
223 236 255
223 236 255
223 236 255
223 236 255
223 236 255
223 236 255
223 236 255
223 236 255
223 236 255
223 236 255
223 236 255
223 236 255
223 236 255
223 236 255
223 236 255
223 236 255
223 236 255
223 236 255
223 236 255
223 236 255
223 236 255
223 236 255
223 236 255
223 236 255
223 236 255
223 236 255
223 236 255
223 236 255
223 236 255
223 236 255
223 236 255
223 236 255
223 236 255
223 236 255
223 236 255
223 236 255
223 236 255
223 236 255
223 236 255
223 236 255
223 236 255
223 236 255
223 236 255
223 236 255
223 236 255
223 236 255
223 236 255
223 236 255
223 236 255
223 236 255
223 236 255
223 236 255
223 236 255
223 236 255
223 236 255
223 236 255
223 236 255
223 236 255
223 236 255
223 236 255
223 236 255
223 236 255
223 236 255
223 236 255
223 236 255
223 236 255
223 236 255
223 236 255
223 236 255
223 236 255
223 236 255
223 236 255
223 236 255
223 236 255
223 236 255
223 236 255
223 236 255
223 236 255
223 236 255
223 236 255
223 236 255
223 236 255
223 236 255
223 236 255
223 236 255
223 236 255
223 236 255
223 236 255
223 236 255
223 236 255
223 236 255
223 236 255
223 236 255
223 236 255
223 236 255
223 236 255
223 236 255
223 236 255
223 237 255
223 237 255
223 237 255
223 237 255
223 237 255
223 237 255
223 237 255
223 237 255
223 237 255
223 237 255
223 237 255
223 237 255
223 237 255
223 237 255
223 237 255
223 237 255
223 237 255
223 237 255
223 237 255
223 237 255
223 237 255
223 237 255
223 237 255
223 237 255
223 237 255
223 237 255
223 237 255
223 237 255
223 237 255
223 237 255
223 237 255
223 237 255
223 237 255
223 237 255
223 237 255
223 237 255
223 237 255
223 237 255
223 237 255
223 237 255
223 237 255
223 237 255
223 237 255
223 237 255
223 237 255
223 237 255
223 237 255
223 237 255
223 237 255
223 237 255
223 237 255
223 237 255
223 237 255
223 237 255
223 237 255
223 237 255
223 237 255
223 237 255
223 237 255
223 237 255
223 237 255
223 237 255
223 237 255
223 237 255
223 237 255
223 237 255
223 237 255
223 237 255
223 237 255
223 237 255
223 237 255
223 237 255
223 237 255
223 237 255
223 237 255
223 237 255
224 237 255
224 237 255
224 237 255
224 237 255
224 237 255
224 237 255
224 237 255
224 237 255
224 237 255
224 237 255
224 237 255
224 237 255
224 237 255
224 237 255
224 237 255
224 237 255
224 237 255
224 237 255
224 237 255
224 237 255
224 237 255
224 237 255
224 237 255
224 237 255
224 237 255
224 237 255
224 237 255
224 237 255
224 237 255
224 237 255
224 237 255
224 237 255
224 237 255
224 237 255
224 237 255
224 237 255
224 237 255
224 237 255
224 237 255
224 237 255
224 237 255
224 237 255
224 237 255
224 237 255
224 237 255
224 237 255
224 237 255
224 237 255
224 237 255
224 237 255
224 237 255
224 237 255
224 237 255
224 237 255
224 237 255
224 237 255
224 237 255
224 237 255
224 237 255
224 237 255
224 237 255
224 237 255
224 237 255
224 237 255
224 237 255
224 237 255
224 237 255
224 237 255
224 237 255
224 237 255
224 237 255
224 237 255
224 237 255
224 237 255
224 237 255
224 237 255
224 237 255
224 237 255
224 237 255
224 237 255
224 237 255
224 237 255
224 237 255
224 237 255
224 237 255
224 237 255
224 237 255
224 237 255
224 237 255
224 237 255
224 237 255
224 237 255
224 237 255
224 237 255
224 237 255
224 237 255
224 237 255
224 237 255
224 237 255
224 237 255
224 237 255
224 237 255
224 237 255
224 237 255
224 237 255
224 237 255
224 237 255
224 237 255
224 237 255
224 237 255
224 237 255
224 237 255
224 237 255
224 237 255
224 237 255
224 237 255
224 237 255
224 237 255
224 237 255
224 237 255
224 237 255
224 237 255
224 237 255
224 237 255
224 237 255
224 237 255
224 237 255
224 237 255
224 237 255
224 237 255
224 237 255
224 237 255
224 237 255
224 237 255
224 237 255
224 237 255
224 237 255
224 237 255
224 237 255
224 237 255
224 237 255
224 237 255
224 237 255
224 237 255
224 237 255
224 237 255
224 237 255
224 237 255
224 237 255
224 237 255
224 237 255
224 237 255
224 237 255
224 237 255
224 237 255
224 237 255
224 237 255
224 237 255
224 237 255
223 237 255
223 237 255
223 237 255
223 237 255
223 237 255
223 237 255
223 237 255
223 237 255
223 237 255
223 237 255
223 237 255
223 237 255
223 237 255
223 237 255
223 237 255
223 237 255
223 237 255
223 237 255
223 237 255
223 237 255
223 237 255
223 237 255
223 237 255
223 237 255
223 237 255
223 237 255
223 237 255
223 237 255
223 237 255
223 237 255
223 237 255
223 237 255
223 237 255
223 237 255
223 237 255
223 237 255
223 237 255
223 237 255
223 237 255
223 237 255
223 237 255
223 237 255
223 237 255
223 237 255
223 237 255
223 237 255
223 237 255
223 237 255
223 237 255
223 237 255
223 237 255
223 237 255
223 237 255
223 237 255
223 237 255
223 237 255
223 237 255
223 237 255
223 237 255
223 237 255
223 237 255
223 237 255
223 237 255
223 237 255
223 237 255
223 237 255
223 237 255
223 237 255
223 237 255
223 237 255
223 237 255
223 237 255
223 237 255
223 237 255
223 237 255
223 236 255
223 236 255
223 236 255
223 236 255
223 236 255
223 236 255
223 236 255
223 236 255
223 236 255
223 236 255
223 236 255
223 236 255
223 236 255
223 236 255
223 236 255
223 236 255
223 236 255
223 236 255
223 236 255
223 236 255
223 236 255
223 236 255
223 236 255
223 236 255
223 236 255
223 236 255
223 236 255
223 236 255
223 236 255
223 236 255
223 236 255
223 236 255
223 236 255
223 236 255
223 236 255
223 236 255
223 236 255
223 236 255
223 236 255
223 236 255
223 236 255
223 236 255
223 236 255
223 236 255
223 236 255
223 236 255
223 236 255
223 236 255
223 236 255
223 236 255
223 236 255
223 236 255
223 236 255
223 236 255
223 236 255
223 236 255
223 236 255
223 236 255
223 236 255
223 236 255
223 236 255
223 236 255
223 236 255
223 236 255
223 236 255
223 236 255
223 236 255
223 236 255
223 237 255
223 237 255
223 237 255
223 237 255
223 237 255
223 237 255
223 237 255
223 237 255
223 237 255
223 237 255
223 237 255
223 237 255
223 237 255
223 237 255
223 237 255
223 237 255
223 237 255
223 237 255
223 237 255
223 237 255
223 237 255
223 237 255
223 237 255
223 237 255
223 237 255
223 237 255
223 237 255
223 237 255
223 237 255
223 237 255
223 237 255
223 237 255
223 237 255
223 237 255
223 237 255
223 237 255
223 237 255
223 237 255
223 237 255
223 237 255
223 237 255
223 237 255
223 237 255
223 237 255
223 237 255
223 237 255
223 237 255
223 237 255
223 237 255
223 237 255
223 237 255
223 237 255
223 237 255
223 237 255
223 237 255
223 237 255
223 237 255
223 237 255
223 237 255
223 237 255
223 237 255
223 237 255
223 237 255
223 237 255
223 237 255
223 237 255
223 237 255
223 237 255
223 237 255
223 237 255
223 237 255
223 237 255
223 237 255
223 237 255
223 237 255
224 237 255
224 237 255
224 237 255
224 237 255
224 237 255
224 237 255
224 237 255
224 237 255
224 237 255
224 237 255
224 237 255
224 237 255
224 237 255
224 237 255
224 237 255
224 237 255
224 237 255
224 237 255
224 237 255
224 237 255
224 237 255
224 237 255
224 237 255
224 237 255
224 237 255
224 237 255
224 237 255
224 237 255
224 237 255
224 237 255
224 237 255
224 237 255
224 237 255
224 237 255
224 237 255
224 237 255
224 237 255
224 237 255
224 237 255
224 237 255
224 237 255
224 237 255
224 237 255
224 237 255
224 237 255
224 237 255
224 237 255
224 237 255
224 237 255
224 237 255
224 237 255
224 237 255
224 237 255
224 237 255
224 237 255
224 237 255
224 237 255
224 237 255
224 237 255
224 237 255
224 237 255
224 237 255
224 237 255
224 237 255
224 237 255
224 237 255
224 237 255
224 237 255
224 237 255
224 237 255
224 237 255
224 237 255
224 237 255
224 237 255
224 237 255
224 237 255
224 237 255
224 237 255
224 237 255
224 237 255
224 237 255
224 237 255
224 237 255
224 237 255
224 237 255
224 237 255
224 237 255
224 237 255
224 237 255
224 237 255
224 237 255
224 237 255
224 237 255
224 237 255
224 237 255
224 237 255
224 237 255
224 237 255
224 237 255
224 237 255
224 237 255
224 237 255
224 237 255
224 237 255
224 237 255
224 237 255
224 237 255
224 237 255
224 237 255
224 237 255
224 237 255
224 237 255
224 237 255
224 237 255
224 237 255
224 237 255
224 237 255
224 237 255
224 237 255
224 237 255
224 237 255
224 237 255
224 237 255
224 237 255
224 237 255
224 237 255
224 237 255
224 237 255
224 237 255
224 237 255
224 237 255
224 237 255
224 237 255
224 237 255
224 237 255
224 237 255
224 237 255
224 237 255
224 237 255
224 237 255
224 237 255
224 237 255
224 237 255
224 237 255
224 237 255
224 237 255
224 237 255
224 237 255
224 237 255
224 237 255
224 237 255
224 237 255
224 237 255
224 237 255
224 237 255
224 237 255
224 237 255
224 237 255
224 237 255
224 237 255
224 237 255
224 237 255
224 237 255
224 237 255
224 237 255
224 237 255
224 237 255
224 237 255
224 237 255
224 237 255
224 237 255
224 237 255
224 237 255
224 237 255
224 237 255
224 237 255
224 237 255
224 237 255
224 237 255
224 237 255
224 237 255
224 237 255
224 237 255
224 237 255
224 237 255
224 237 255
224 237 255
224 237 255
224 237 255
224 237 255
224 237 255
224 237 255
224 237 255
224 237 255
224 237 255
224 237 255
224 237 255
224 237 255
224 237 255
224 237 255
224 237 255
224 237 255
224 237 255
224 237 255
224 237 255
223 237 255
223 237 255
223 237 255
223 237 255
223 237 255
223 237 255
223 237 255
223 237 255
223 237 255
223 237 255
223 237 255
223 237 255
223 237 255
223 237 255
223 237 255
223 237 255
223 237 255
223 237 255
223 237 255
223 237 255
223 237 255
223 237 255
223 237 255
223 237 255
223 237 255
223 237 255
223 237 255
223 237 255
223 237 255
223 237 255
223 237 255
223 237 255
223 237 255
223 237 255
223 237 255
223 237 255
223 237 255
223 237 255
223 237 255
223 237 255
223 237 255
223 237 255
223 237 255
223 237 255
223 237 255
223 237 255
223 237 255
223 237 255
223 237 255
223 237 255
223 237 255
223 237 255
223 237 255
223 237 255
223 237 255
223 237 255
223 237 255
223 237 255
223 237 255
223 237 255
223 237 255
223 237 255
223 237 255
223 237 255
223 237 255
223 237 255
223 237 255
223 237 255
223 237 255
223 237 255
223 237 255
223 237 255
223 237 255
223 237 255
223 236 255
223 236 255
223 236 255
223 236 255
223 236 255
223 236 255
223 236 255
223 236 255
223 236 255
223 236 255
223 236 255
223 236 255
223 236 255
223 236 255
223 236 255
223 236 255
223 236 255
223 236 255
223 236 255
223 236 255
223 236 255
223 236 255
223 236 255
223 236 255
223 236 255
223 237 255
223 237 255
223 237 255
223 237 255
223 237 255
223 237 255
223 237 255
223 237 255
223 237 255
223 237 255
223 237 255
223 237 255
223 237 255
223 237 255
223 237 255
223 237 255
223 237 255
223 237 255
223 237 255
223 237 255
223 237 255
223 237 255
223 237 255
223 237 255
223 237 255
223 237 255
223 237 255
223 237 255
223 237 255
223 237 255
223 237 255
223 237 255
223 237 255
223 237 255
223 237 255
223 237 255
223 237 255
223 237 255
223 237 255
223 237 255
223 237 255
223 237 255
223 237 255
223 237 255
223 237 255
223 237 255
223 237 255
223 237 255
223 237 255
223 237 255
223 237 255
223 237 255
223 237 255
223 237 255
223 237 255
223 237 255
223 237 255
223 237 255
223 237 255
223 237 255
223 237 255
223 237 255
223 237 255
223 237 255
223 237 255
223 237 255
223 237 255
223 237 255
223 237 255
223 237 255
223 237 255
223 237 255
223 237 255
223 237 255
223 237 255
224 237 255
224 237 255
224 237 255
224 237 255
224 237 255
224 237 255
224 237 255
224 237 255
224 237 255
224 237 255
224 237 255
224 237 255
224 237 255
224 237 255
224 237 255
224 237 255
224 237 255
224 237 255
224 237 255
224 237 255
224 237 255
224 237 255
224 237 255
224 237 255
224 237 255
224 237 255
224 237 255
224 237 255
224 237 255
224 237 255
224 237 255
224 237 255
224 237 255
224 237 255
224 237 255
224 237 255
224 237 255
224 237 255
224 237 255
224 237 255
224 237 255
224 237 255
224 237 255
224 237 255
224 237 255
224 237 255
224 237 255
224 237 255
224 237 255
224 237 255
224 237 255
224 237 255
224 237 255
224 237 255
224 237 255
224 237 255
224 237 255
224 237 255
224 237 255
224 237 255
224 237 255
224 237 255
224 237 255
224 237 255
224 237 255
224 237 255
224 237 255
224 237 255
224 237 255
224 237 255
224 237 255
224 237 255
224 237 255
224 237 255
224 237 255
224 237 255
224 237 255
224 237 255
224 237 255
224 237 255
224 237 255
224 237 255
224 237 255
224 237 255
224 237 255
224 237 255
224 237 255
224 237 255
224 237 255
224 237 255
224 237 255
224 237 255
224 237 255
224 237 255
224 237 255
224 237 255
224 237 255
224 237 255
224 237 255
224 237 255
224 237 255
224 237 255
224 237 255
224 237 255
224 237 255
224 237 255
224 237 255
224 237 255
224 237 255
224 237 255
224 237 255
224 237 255
224 237 255
224 237 255
224 237 255
224 237 255
224 237 255
224 237 255
224 237 255
224 237 255
224 237 255
224 237 255
224 237 255
224 237 255
224 237 255
224 237 255
224 237 255
224 237 255
224 237 255
224 237 255
224 237 255
224 237 255
224 237 255
224 237 255
224 237 255
224 237 255
224 237 255
224 237 255
224 237 255
224 237 255
224 237 255
224 237 255
224 237 255
224 237 255
224 237 255
224 237 255
224 237 255
224 237 255
224 237 255
224 237 255
224 237 255
224 237 255
224 237 255
224 237 255
224 237 255
224 237 255
224 237 255
224 237 255
224 237 255
224 237 255
224 237 255
224 237 255
224 237 255
224 237 255
224 237 255
224 237 255
224 237 255
224 237 255
224 237 255
224 237 255
224 237 255
224 237 255
224 237 255
224 237 255
224 237 255
224 237 255
224 237 255
224 237 255
224 237 255
224 237 255
224 237 255
224 237 255
224 237 255
224 237 255
224 237 255
224 237 255
224 237 255
224 237 255
224 237 255
224 237 255
224 237 255
224 237 255
224 237 255
224 237 255
224 237 255
224 237 255
224 237 255
224 237 255
224 237 255
224 237 255
224 237 255
224 237 255
224 237 255
224 237 255
224 237 255
224 237 255
224 237 255
224 237 255
224 237 255
224 237 255
224 237 255
224 237 255
224 237 255
224 237 255
224 237 255
224 237 255
224 237 255
224 237 255
224 237 255
224 237 255
224 237 255
224 237 255
224 237 255
224 237 255
224 237 255
224 237 255
224 237 255
224 237 255
224 237 255
224 237 255
224 237 255
224 237 255
224 237 255
224 237 255
224 237 255
224 237 255
224 237 255
224 237 255
224 237 255
224 237 255
224 237 255
224 237 255
224 237 255
224 237 255
224 237 255
224 237 255
224 237 255
223 237 255
223 237 255
223 237 255
223 237 255
223 237 255
223 237 255
223 237 255
223 237 255
223 237 255
223 237 255
223 237 255
223 237 255
223 237 255
223 237 255
223 237 255
223 237 255
223 237 255
223 237 255
223 237 255
223 237 255
223 237 255
223 237 255
223 237 255
223 237 255
223 237 255
223 237 255
223 237 255
223 237 255
223 237 255
223 237 255
223 237 255
223 237 255
223 237 255
223 237 255
223 237 255
223 237 255
223 237 255
223 237 255
223 237 255
223 237 255
223 237 255
223 237 255
223 237 255
223 237 255
223 237 255
223 237 255
223 237 255
223 237 255
223 237 255
223 237 255
223 237 255
223 237 255
223 237 255
223 237 255
223 237 255
223 237 255
223 237 255
223 237 255
223 237 255
223 237 255
223 237 255
223 237 255
223 237 255
223 237 255
223 237 255
223 237 255
223 237 255
223 237 255
223 237 255
223 237 255
223 237 255
223 237 255
223 237 255
223 237 255
223 237 255
223 236 255
223 236 255
223 237 255
223 237 255
223 237 255
223 237 255
223 237 255
223 237 255
223 237 255
223 237 255
223 237 255
223 237 255
223 237 255
223 237 255
223 237 255
223 237 255
223 237 255
223 237 255
223 237 255
223 237 255
223 237 255
223 237 255
223 237 255
223 237 255
223 237 255
223 237 255
223 237 255
223 237 255
223 237 255
223 237 255
223 237 255
223 237 255
223 237 255
223 237 255
223 237 255
223 237 255
223 237 255
223 237 255
223 237 255
223 237 255
223 237 255
223 237 255
223 237 255
223 237 255
223 237 255
223 237 255
223 237 255
223 237 255
223 237 255
223 237 255
223 237 255
223 237 255
223 237 255
223 237 255
223 237 255
223 237 255
223 237 255
223 237 255
223 237 255
224 237 255
224 237 255
224 237 255
224 237 255
224 237 255
224 237 255
224 237 255
224 237 255
224 237 255
224 237 255
224 237 255
224 237 255
224 237 255
224 237 255
224 237 255
224 237 255
224 237 255
224 237 255
224 237 255
224 237 255
224 237 255
224 237 255
224 237 255
224 237 255
224 237 255
224 237 255
224 237 255
224 237 255
224 237 255
224 237 255
224 237 255
224 237 255
224 237 255
224 237 255
224 237 255
224 237 255
224 237 255
224 237 255
224 237 255
224 237 255
224 237 255
224 237 255
224 237 255
224 237 255
224 237 255
224 237 255
224 237 255
224 237 255
224 237 255
224 237 255
224 237 255
224 237 255
224 237 255
224 237 255
224 237 255
224 237 255
224 237 255
224 237 255
224 237 255
224 237 255
224 237 255
224 237 255
224 237 255
224 237 255
224 237 255
224 237 255
224 237 255
224 237 255
224 237 255
224 237 255
224 237 255
224 237 255
224 237 255
224 237 255
224 237 255
224 237 255
224 237 255
224 237 255
224 237 255
224 237 255
224 237 255
224 237 255
224 237 255
224 237 255
224 237 255
224 237 255
224 237 255
224 237 255
224 237 255
224 237 255
224 237 255
224 237 255
224 237 255
224 237 255
224 237 255
224 237 255
224 237 255
224 237 255
224 237 255
224 237 255
224 237 255
224 237 255
224 237 255
224 237 255
224 237 255
224 237 255
224 237 255
224 237 255
224 237 255
224 237 255
225 237 255
225 237 255
225 237 255
225 237 255
225 237 255
225 237 255
225 237 255
225 237 255
225 237 255
225 237 255
225 237 255
225 237 255
225 237 255
225 237 255
225 237 255
225 237 255
225 237 255
225 237 255
225 237 255
225 237 255
225 237 255
225 237 255
225 237 255
225 237 255
225 237 255
225 237 255
225 237 255
225 237 255
225 237 255
225 237 255
225 237 255
225 237 255
225 237 255
225 237 255
225 237 255
225 237 255
225 237 255
225 237 255
225 237 255
225 237 255
225 237 255
225 237 255
225 237 255
225 237 255
225 237 255
225 237 255
225 237 255
225 237 255
225 237 255
225 237 255
225 237 255
225 237 255
225 237 255
225 237 255
225 237 255
225 237 255
225 237 255
225 237 255
225 237 255
225 237 255
225 237 255
225 237 255
225 237 255
225 237 255
225 237 255
224 237 255
224 237 255
224 237 255
224 237 255
224 237 255
224 237 255
224 237 255
224 237 255
224 237 255
224 237 255
224 237 255
224 237 255
224 237 255
224 237 255
224 237 255
224 237 255
224 237 255
224 237 255
224 237 255
224 237 255
224 237 255
224 237 255
224 237 255
224 237 255
224 237 255
224 237 255
224 237 255
224 237 255
224 237 255
224 237 255
224 237 255
224 237 255
224 237 255
224 237 255
224 237 255
224 237 255
224 237 255
224 237 255
224 237 255
224 237 255
224 237 255
224 237 255
224 237 255
224 237 255
224 237 255
224 237 255
224 237 255
224 237 255
224 237 255
224 237 255
224 237 255
224 237 255
224 237 255
224 237 255
224 237 255
224 237 255
224 237 255
224 237 255
224 237 255
224 237 255
224 237 255
224 237 255
224 237 255
224 237 255
224 237 255
224 237 255
224 237 255
224 237 255
224 237 255
224 237 255
224 237 255
224 237 255
224 237 255
224 237 255
224 237 255
224 237 255
224 237 255
224 237 255
224 237 255
224 237 255
224 237 255
224 237 255
224 237 255
224 237 255
224 237 255
224 237 255
224 237 255
224 237 255
224 237 255
224 237 255
224 237 255
224 237 255
224 237 255
224 237 255
224 237 255
224 237 255
224 237 255
224 237 255
224 237 255
224 237 255
224 237 255
224 237 255
224 237 255
224 237 255
224 237 255
224 237 255
224 237 255
224 237 255
224 237 255
224 237 255
223 237 255
223 237 255
223 237 255
223 237 255
223 237 255
223 237 255
223 237 255
223 237 255
223 237 255
223 237 255
223 237 255
223 237 255
223 237 255
223 237 255
223 237 255
223 237 255
223 237 255
223 237 255
223 237 255
223 237 255
223 237 255
223 237 255
223 237 255
223 237 255
223 237 255
223 237 255
223 237 255
223 237 255
223 237 255
223 237 255
223 237 255
223 237 255
223 237 255
223 237 255
223 237 255
223 237 255
223 237 255
223 237 255
223 237 255
223 237 255
223 237 255
223 237 255
223 237 255
223 237 255
223 237 255
223 237 255
223 237 255
223 237 255
223 237 255
223 237 255
223 237 255
223 237 255
223 237 255
223 237 255
223 237 255
223 237 255
223 237 255
223 237 255
223 237 255
223 237 255
223 237 255
223 237 255
223 237 255
223 237 255
223 237 255
223 237 255
223 237 255
223 237 255
223 237 255
223 237 255
223 237 255
223 237 255
223 237 255
223 237 255
223 237 255
223 237 255
223 237 255
223 237 255
223 237 255
223 237 255
223 237 255
223 237 255
223 237 255
223 237 255
223 237 255
223 237 255
223 237 255
223 237 255
223 237 255
223 237 255
223 237 255
223 237 255
223 237 255
223 237 255
223 237 255
223 237 255
223 237 255
224 237 255
224 237 255
224 237 255
224 237 255
224 237 255
224 237 255
224 237 255
224 237 255
224 237 255
224 237 255
224 237 255
224 237 255
224 237 255
224 237 255
224 237 255
224 237 255
224 237 255
224 237 255
224 237 255
224 237 255
224 237 255
224 237 255
224 237 255
224 237 255
224 237 255
224 237 255
224 237 255
224 237 255
224 237 255
224 237 255
224 237 255
224 237 255
224 237 255
224 237 255
224 237 255
224 237 255
224 237 255
224 237 255
224 237 255
224 237 255
224 237 255
224 237 255
224 237 255
224 237 255
224 237 255
224 237 255
224 237 255
224 237 255
224 237 255
224 237 255
224 237 255
224 237 255
224 237 255
224 237 255
224 237 255
224 237 255
224 237 255
224 237 255
224 237 255
224 237 255
224 237 255
224 237 255
224 237 255
224 237 255
224 237 255
224 237 255
224 237 255
224 237 255
224 237 255
224 237 255
224 237 255
224 237 255
224 237 255
224 237 255
224 237 255
224 237 255
224 237 255
224 237 255
224 237 255
224 237 255
224 237 255
224 237 255
224 237 255
224 237 255
224 237 255
224 237 255
224 237 255
224 237 255
224 237 255
224 237 255
224 237 255
224 237 255
224 237 255
224 237 255
224 237 255
224 237 255
224 237 255
224 237 255
224 237 255
225 237 255
225 237 255
225 237 255
225 237 255
225 237 255
225 237 255
225 237 255
225 237 255
225 237 255
225 237 255
225 237 255
225 237 255
225 237 255
225 237 255
225 237 255
225 237 255
225 237 255
225 237 255
225 237 255
225 237 255
225 237 255
225 237 255
225 237 255
225 238 255
225 238 255
225 238 255
225 238 255
225 238 255
225 238 255
225 238 255
225 238 255
225 238 255
225 238 255
225 238 255
225 238 255
225 238 255
225 238 255
225 238 255
225 238 255
225 238 255
225 238 255
225 238 255
225 238 255
225 238 255
225 238 255
225 238 255
225 238 255
225 238 255
225 238 255
225 238 255
225 238 255
225 238 255
225 238 255
225 238 255
225 238 255
225 238 255
225 238 255
225 238 255
225 238 255
225 238 255
225 238 255
225 238 255
225 238 255
225 238 255
225 238 255
225 238 255
225 238 255
225 238 255
225 238 255
225 238 255
225 238 255
225 238 255
225 238 255
225 238 255
225 238 255
225 238 255
225 238 255
225 238 255
225 238 255
225 238 255
225 238 255
225 238 255
225 238 255
225 238 255
225 238 255
225 238 255
225 238 255
225 238 255
225 238 255
225 238 255
225 238 255
225 238 255
225 238 255
225 238 255
225 238 255
225 238 255
225 238 255
225 238 255
225 238 255
225 238 255
225 238 255
225 237 255
225 237 255
225 237 255
225 237 255
225 237 255
225 237 255
225 237 255
225 237 255
225 237 255
225 237 255
225 237 255
225 237 255
225 237 255
225 237 255
225 237 255
225 237 255
225 237 255
225 237 255
225 237 255
225 237 255
225 237 255
225 237 255
224 237 255
224 237 255
224 237 255
224 237 255
224 237 255
224 237 255
224 237 255
224 237 255
224 237 255
224 237 255
224 237 255
224 237 255
224 237 255
224 237 255
224 237 255
224 237 255
224 237 255
224 237 255
224 237 255
224 237 255
224 237 255
224 237 255
224 237 255
224 237 255
224 237 255
224 237 255
224 237 255
224 237 255
224 237 255
224 237 255
224 237 255
224 237 255
224 237 255
224 237 255
224 237 255
224 237 255
224 237 255
224 237 255
224 237 255
224 237 255
224 237 255
224 237 255
224 237 255
224 237 255
224 237 255
224 237 255
224 237 255
224 237 255
224 237 255
224 237 255
224 237 255
224 237 255
224 237 255
224 237 255
224 237 255
224 237 255
224 237 255
224 237 255
224 237 255
224 237 255
224 237 255
224 237 255
224 237 255
224 237 255
224 237 255
224 237 255
224 237 255
224 237 255
224 237 255
224 237 255
224 237 255
224 237 255
224 237 255
224 237 255
224 237 255
224 237 255
224 237 255
224 237 255
224 237 255
224 237 255
224 237 255
224 237 255
224 237 255
224 237 255
224 237 255
224 237 255
224 237 255
224 237 255
224 237 255
224 237 255
224 237 255
224 237 255
224 237 255
224 237 255
224 237 255
224 237 255
224 237 255
224 237 255
224 237 255
223 237 255
223 237 255
223 237 255
223 237 255
223 237 255
223 237 255
223 237 255
223 237 255
223 237 255
223 237 255
223 237 255
223 237 255
223 237 255
223 237 255
223 237 255
223 237 255
223 237 255
223 237 255
223 237 255
223 237 255
223 237 255
223 237 255
223 237 255
223 237 255
223 237 255
223 237 255
223 237 255
223 237 255
223 237 255
223 237 255
223 237 255
223 237 255
223 237 255
223 237 255
223 237 255
223 237 255
223 237 255
223 237 255
223 237 255
223 237 255
223 237 255
223 237 255
223 237 255
223 237 255
223 237 255
223 237 255
223 237 255
223 237 255
223 237 255
223 237 255
223 237 255
223 237 255
223 237 255
223 237 255
223 237 255
223 237 255
223 237 255
223 237 255
223 237 255
223 237 255
223 237 255
223 237 255
223 237 255
224 237 255
224 237 255
224 237 255
224 237 255
224 237 255
224 237 255
224 237 255
224 237 255
224 237 255
224 237 255
224 237 255
224 237 255
224 237 255
224 237 255
224 237 255
224 237 255
224 237 255
224 237 255
224 237 255
224 237 255
224 237 255
224 237 255
224 237 255
224 237 255
224 237 255
224 237 255
224 237 255
224 237 255
224 237 255
224 237 255
224 237 255
224 237 255
224 237 255
224 237 255
224 237 255
224 237 255
224 237 255
224 237 255
224 237 255
224 237 255
224 237 255
224 237 255
224 237 255
224 237 255
224 237 255
224 237 255
224 237 255
224 237 255
224 237 255
224 237 255
224 237 255
224 237 255
224 237 255
224 237 255
224 237 255
224 237 255
224 237 255
224 237 255
224 237 255
224 237 255
224 237 255
224 237 255
224 237 255
224 237 255
224 237 255
224 237 255
224 237 255
224 237 255
224 237 255
224 237 255
224 237 255
224 237 255
224 237 255
224 237 255
224 237 255
224 237 255
224 237 255
224 237 255
224 237 255
224 237 255
224 237 255
224 237 255
224 237 255
224 237 255
224 237 255
224 237 255
224 237 255
224 237 255
224 237 255
224 237 255
224 237 255
224 237 255
224 237 255
224 237 255
224 237 255
225 237 255
225 237 255
225 237 255
225 237 255
225 237 255
225 237 255
225 237 255
225 237 255
225 237 255
225 237 255
225 237 255
225 237 255
225 237 255
225 237 255
225 237 255
225 237 255
225 237 255
225 237 255
225 238 255
225 238 255
225 238 255
225 238 255
225 238 255
225 238 255
225 238 255
225 238 255
225 238 255
225 238 255
225 238 255
225 238 255
225 238 255
225 238 255
225 238 255
225 238 255
225 238 255
225 238 255
225 238 255
225 238 255
225 238 255
225 238 255
225 238 255
225 238 255
225 238 255
225 238 255
225 238 255
225 238 255
225 238 255
225 238 255
225 238 255
225 238 255
225 238 255
225 238 255
225 238 255
225 238 255
225 238 255
225 238 255
225 238 255
225 238 255
225 238 255
225 238 255
225 238 255
225 238 255
225 238 255
225 238 255
225 238 255
225 238 255
225 238 255
225 238 255
225 238 255
225 238 255
225 238 255
225 238 255
225 238 255
225 238 255
225 238 255
225 238 255
225 238 255
225 238 255
225 238 255
225 238 255
225 238 255
225 238 255
225 238 255
225 238 255
225 238 255
225 238 255
225 238 255
225 238 255
225 238 255
225 238 255
225 238 255
225 238 255
225 238 255
225 238 255
225 238 255
225 238 255
225 238 255
225 238 255
225 238 255
225 238 255
225 238 255
225 238 255
225 238 255
225 238 255
225 238 255
225 238 255
225 238 255
225 238 255
225 238 255
225 238 255
225 238 255
225 238 255
225 238 255
225 238 255
225 238 255
225 238 255
225 238 255
225 238 255
225 238 255
225 238 255
225 238 255
225 238 255
225 238 255
225 238 255
225 238 255
225 238 255
225 238 255
225 238 255
225 238 255
225 238 255
225 238 255
225 238 255
225 238 255
225 238 255
225 238 255
225 238 255
225 238 255
225 238 255
225 238 255
225 238 255
225 238 255
225 238 255
225 238 255
225 237 255
225 238 255
225 237 255
225 237 255
225 237 255
225 237 255
225 237 255
225 237 255
225 237 255
225 237 255
225 237 255
225 237 255
225 237 255
225 237 255
225 237 255
225 237 255
225 237 255
225 237 255
225 237 255
225 237 255
224 237 255
224 237 255
224 237 255
224 237 255
224 237 255
224 237 255
224 237 255
224 237 255
224 237 255
224 237 255
224 237 255
224 237 255
224 237 255
224 237 255
224 237 255
224 237 255
224 237 255
224 237 255
224 237 255
224 237 255
224 237 255
224 237 255
224 237 255
224 237 255
224 237 255
224 237 255
224 237 255
224 237 255
224 237 255
224 237 255
224 237 255
224 237 255
224 237 255
224 237 255
224 237 255
224 237 255
224 237 255
224 237 255
224 237 255
224 237 255
224 237 255
224 237 255
224 237 255
224 237 255
224 237 255
224 237 255
224 237 255
224 237 255
224 237 255
224 237 255
224 237 255
224 237 255
224 237 255
224 237 255
224 237 255
224 237 255
224 237 255
224 237 255
224 237 255
224 237 255
224 237 255
224 237 255
224 237 255
224 237 255
224 237 255
224 237 255
224 237 255
224 237 255
224 237 255
224 237 255
224 237 255
224 237 255
224 237 255
224 237 255
224 237 255
224 237 255
224 237 255
224 237 255
224 237 255
224 237 255
224 237 255
224 237 255
224 237 255
224 237 255
224 237 255
224 237 255
224 237 255
224 237 255
224 237 255
224 237 255
224 237 255
224 237 255
224 237 255
224 237 255
224 237 255
223 237 255
223 237 255
223 237 255
223 237 255
223 237 255
223 237 255
223 237 255
223 237 255
223 237 255
223 237 255
223 237 255
223 237 255
223 237 255
223 237 255
223 237 255
223 237 255
223 237 255
223 237 255
223 237 255
223 237 255
223 237 255
223 237 255
223 237 255
223 237 255
223 237 255
223 237 255
223 237 255
223 237 255
223 237 255
223 237 255
224 237 255
224 237 255
224 237 255
224 237 255
224 237 255
224 237 255
224 237 255
224 237 255
224 237 255
224 237 255
224 237 255
224 237 255
224 237 255
224 237 255
224 237 255
224 237 255
224 237 255
224 237 255
224 237 255
224 237 255
224 237 255
224 237 255
224 237 255
224 237 255
224 237 255
224 237 255
224 237 255
224 237 255
224 237 255
224 237 255
224 237 255
224 237 255
224 237 255
224 237 255
224 237 255
224 237 255
224 237 255
224 237 255
224 237 255
224 237 255
224 237 255
224 237 255
224 237 255
224 237 255
224 237 255
224 237 255
224 237 255
224 237 255
224 237 255
224 237 255
224 237 255
224 237 255
224 237 255
224 237 255
224 237 255
224 237 255
224 237 255
224 237 255
224 237 255
224 237 255
224 237 255
224 237 255
224 237 255
224 237 255
224 237 255
224 237 255
224 237 255
224 237 255
224 237 255
224 237 255
224 237 255
224 237 255
224 237 255
224 237 255
224 237 255
224 237 255
224 237 255
224 237 255
224 237 255
224 237 255
224 237 255
224 237 255
224 237 255
224 237 255
224 237 255
224 237 255
224 237 255
224 237 255
224 237 255
224 237 255
224 237 255
224 237 255
224 237 255
224 237 255
224 237 255
224 237 255
224 237 255
225 237 255
225 237 255
225 237 255
225 237 255
225 237 255
225 237 255
225 237 255
225 237 255
225 237 255
225 237 255
225 237 255
225 237 255
225 237 255
225 237 255
225 238 255
225 237 255
225 238 255
225 238 255
225 238 255
225 238 255
225 238 255
225 238 255
225 238 255
225 238 255
225 238 255
225 238 255
225 238 255
225 238 255
225 238 255
225 238 255
225 238 255
225 238 255
225 238 255
225 238 255
225 238 255
225 238 255
225 238 255
225 238 255
225 238 255
225 238 255
225 238 255
225 238 255
225 238 255
225 238 255
225 238 255
225 238 255
225 238 255
225 238 255
225 238 255
225 238 255
225 238 255
225 238 255
225 238 255
225 238 255
225 238 255
225 238 255
225 238 255
225 238 255
225 238 255
225 238 255
225 238 255
225 238 255
225 238 255
225 238 255
225 238 255
225 238 255
225 238 255
225 238 255
225 238 255
225 238 255
225 238 255
225 238 255
225 238 255
225 238 255
225 238 255
225 238 255
225 238 255
225 238 255
225 238 255
225 238 255
225 238 255
225 238 255
225 238 255
225 238 255
225 238 255
225 238 255
225 238 255
225 238 255
225 238 255
225 238 255
225 238 255
225 238 255
225 238 255
225 238 255
225 238 255
225 238 255
225 238 255
225 238 255
225 238 255
225 238 255
225 238 255
225 238 255
225 238 255
225 238 255
225 238 255
225 238 255
225 238 255
225 238 255
225 238 255
225 238 255
225 238 255
225 238 255
225 238 255
225 238 255
225 238 255
225 238 255
225 238 255
225 238 255
225 238 255
225 238 255
225 238 255
225 238 255
225 238 255
225 238 255
225 238 255
225 238 255
225 238 255
225 238 255
225 238 255
225 238 255
225 238 255
225 238 255
225 238 255
225 238 255
225 238 255
225 238 255
225 238 255
225 238 255
225 238 255
225 238 255
225 238 255
225 238 255
225 238 255
225 238 255
225 238 255
225 238 255
225 238 255
225 238 255
225 238 255
225 238 255
225 238 255
225 238 255
225 238 255
225 238 255
225 238 255
225 238 255
225 238 255
225 238 255
225 238 255
225 238 255
225 238 255
225 238 255
225 238 255
225 238 255
225 238 255
225 238 255
225 238 255
225 238 255
225 238 255
225 238 255
225 238 255
225 238 255
225 238 255
225 238 255
225 238 255
225 238 255
225 238 255
225 238 255
225 237 255
225 237 255
225 237 255
225 237 255
225 237 255
225 237 255
225 237 255
225 237 255
225 237 255
225 237 255
225 237 255
225 237 255
225 237 255
225 237 255
225 237 255
225 237 255
225 237 255
224 237 255
224 237 255
224 237 255
224 237 255
224 237 255
224 237 255
224 237 255
224 237 255
224 237 255
224 237 255
224 237 255
224 237 255
224 237 255
224 237 255
224 237 255
224 237 255
224 237 255
224 237 255
224 237 255
224 237 255
224 237 255
224 237 255
224 237 255
224 237 255
224 237 255
224 237 255
224 237 255
224 237 255
224 237 255
224 237 255
224 237 255
224 237 255
224 237 255
224 237 255
224 237 255
224 237 255
224 237 255
224 237 255
224 237 255
224 237 255
224 237 255
224 237 255
224 237 255
224 237 255
224 237 255
224 237 255
224 237 255
224 237 255
224 237 255
224 237 255
224 237 255
224 237 255
224 237 255
224 237 255
224 237 255
224 237 255
224 237 255
224 237 255
224 237 255
224 237 255
224 237 255
224 237 255
224 237 255
224 237 255
224 237 255
224 237 255
224 237 255
224 237 255
224 237 255
224 237 255
224 237 255
224 237 255
224 237 255
224 237 255
224 237 255
224 237 255
224 237 255
224 237 255
224 237 255
224 237 255
224 237 255
224 237 255
224 237 255
224 237 255
224 237 255
224 237 255
224 237 255
224 237 255
224 237 255
224 237 255
224 237 255
224 237 255
224 237 255
224 237 255
223 237 255
223 237 255
223 237 255
223 237 255
223 237 255
223 237 255
223 237 255
223 237 255
224 237 255
224 237 255
224 237 255
224 237 255
224 237 255
224 237 255
224 237 255
224 237 255
224 237 255
224 237 255
224 237 255
224 237 255
224 237 255
224 237 255
224 237 255
224 237 255
224 237 255
224 237 255
224 237 255
224 237 255
224 237 255
224 237 255
224 237 255
224 237 255
224 237 255
224 237 255
224 237 255
224 237 255
224 237 255
224 237 255
224 237 255
224 237 255
224 237 255
224 237 255
224 237 255
224 237 255
224 237 255
224 237 255
224 237 255
224 237 255
224 237 255
224 237 255
224 237 255
224 237 255
224 237 255
224 237 255
224 237 255
224 237 255
224 237 255
224 237 255
224 237 255
224 237 255
224 237 255
224 237 255
224 237 255
224 237 255
224 237 255
224 237 255
224 237 255
224 237 255
224 237 255
224 237 255
224 237 255
224 237 255
224 237 255
224 237 255
224 237 255
224 237 255
224 237 255
224 237 255
224 237 255
224 237 255
224 237 255
224 237 255
224 237 255
224 237 255
224 237 255
224 237 255
224 237 255
224 237 255
224 237 255
224 237 255
224 237 255
224 237 255
224 237 255
224 237 255
225 237 255
225 237 255
225 237 255
225 237 255
225 237 255
225 237 255
225 237 255
225 237 255
225 237 255
225 237 255
225 237 255
225 237 255
225 237 255
225 237 255
225 237 255
225 237 255
225 237 255
225 238 255
225 238 255
225 238 255
225 238 255
225 238 255
225 238 255
225 238 255
225 238 255
225 238 255
225 238 255
225 238 255
225 238 255
225 238 255
225 238 255
225 238 255
225 238 255
225 238 255
225 238 255
225 238 255
225 238 255
225 238 255
225 238 255
225 238 255
225 238 255
225 238 255
225 238 255
225 238 255
225 238 255
225 238 255
225 238 255
225 238 255
225 238 255
225 238 255
225 238 255
225 238 255
225 238 255
225 238 255
225 238 255
225 238 255
225 238 255
225 238 255
225 238 255
225 238 255
225 238 255
225 238 255
225 238 255
225 238 255
225 238 255
225 238 255
225 238 255
225 238 255
225 238 255
225 238 255
225 238 255
225 238 255
225 238 255
225 238 255
225 238 255
225 238 255
225 238 255
225 238 255
225 238 255
225 238 255
225 238 255
225 238 255
225 238 255
225 238 255
225 238 255
225 238 255
225 238 255
226 238 255
226 238 255
226 238 255
226 238 255
226 238 255
226 238 255
226 238 255
226 238 255
226 238 255
226 238 255
226 238 255
226 238 255
226 238 255
226 238 255
226 238 255
226 238 255
226 238 255
226 238 255
226 238 255
226 238 255
226 238 255
226 238 255
226 238 255
226 238 255
226 238 255
226 238 255
226 238 255
226 238 255
226 238 255
226 238 255
226 238 255
226 238 255
226 238 255
226 238 255
226 238 255
226 238 255
226 238 255
226 238 255
226 238 255
226 238 255
226 238 255
226 238 255
226 238 255
226 238 255
226 238 255
226 238 255
226 238 255
226 238 255
226 238 255
226 238 255
226 238 255
226 238 255
226 238 255
225 238 255
225 238 255
225 238 255
225 238 255
225 238 255
225 238 255
225 238 255
225 238 255
225 238 255
225 238 255
225 238 255
225 238 255
225 238 255
225 238 255
225 238 255
225 238 255
225 238 255
225 238 255
225 238 255
225 238 255
225 238 255
225 238 255
225 238 255
225 238 255
225 238 255
225 238 255
225 238 255
225 238 255
225 238 255
225 238 255
225 238 255
225 238 255
225 238 255
225 238 255
225 238 255
225 238 255
225 238 255
225 238 255
225 238 255
225 238 255
225 238 255
225 238 255
225 238 255
225 238 255
225 238 255
225 238 255
225 238 255
225 238 255
225 238 255
225 238 255
225 238 255
225 238 255
225 238 255
225 238 255
225 238 255
225 238 255
225 238 255
225 238 255
225 238 255
225 238 255
225 238 255
225 238 255
225 238 255
225 238 255
225 238 255
225 238 255
225 238 255
225 238 255
225 238 255
225 238 255
225 238 255
225 237 255
225 237 255
225 237 255
225 237 255
225 237 255
225 237 255
225 237 255
225 237 255
225 237 255
225 237 255
225 237 255
225 237 255
225 237 255
225 237 255
225 237 255
224 237 255
224 237 255
224 237 255
224 237 255
224 237 255
224 237 255
224 237 255
224 237 255
224 237 255
224 237 255
224 237 255
224 237 255
224 237 255
224 237 255
224 237 255
224 237 255
224 237 255
224 237 255
224 237 255
224 237 255
224 237 255
224 237 255
224 237 255
224 237 255
224 237 255
224 237 255
224 237 255
224 237 255
224 237 255
224 237 255
224 237 255
224 237 255
224 237 255
224 237 255
224 237 255
224 237 255
224 237 255
224 237 255
224 237 255
224 237 255
224 237 255
224 237 255
224 237 255
224 237 255
224 237 255
224 237 255
224 237 255
224 237 255
224 237 255
224 237 255
224 237 255
224 237 255
224 237 255
224 237 255
224 237 255
224 237 255
224 237 255
224 237 255
224 237 255
224 237 255
224 237 255
224 237 255
224 237 255
224 237 255
224 237 255
224 237 255
224 237 255
224 237 255
224 237 255
224 237 255
224 237 255
224 237 255
224 237 255
224 237 255
224 237 255
224 237 255
224 237 255
224 237 255
224 237 255
224 237 255
224 237 255
224 237 255
224 237 255
224 237 255
224 237 255
224 237 255
224 237 255
224 237 255
224 237 255
224 237 255
224 237 255
224 237 255
224 237 255
224 237 255
224 237 255
224 237 255
224 237 255
224 237 255
224 237 255
224 237 255
224 237 255
224 237 255
224 237 255
224 237 255
224 237 255
224 237 255
224 237 255
224 237 255
224 237 255
224 237 255
224 237 255
224 237 255
224 237 255
224 237 255
224 237 255
224 237 255
224 237 255
224 237 255
224 237 255
224 237 255
224 237 255
224 237 255
224 237 255
224 237 255
224 237 255
224 237 255
224 237 255
224 237 255
224 237 255
224 237 255
224 237 255
224 237 255
224 237 255
224 237 255
224 237 255
224 237 255
224 237 255
224 237 255
224 237 255
224 237 255
224 237 255
224 237 255
224 237 255
224 237 255
224 237 255
224 237 255
224 237 255
224 237 255
224 237 255
224 237 255
224 237 255
224 237 255
224 237 255
224 237 255
224 237 255
224 237 255
224 237 255
224 237 255
224 237 255
224 237 255
224 237 255
225 237 255
225 237 255
225 237 255
225 237 255
225 237 255
225 237 255
225 237 255
225 237 255
225 237 255
225 237 255
225 237 255
225 237 255
225 237 255
225 237 255
225 237 255
225 238 255
225 238 255
225 238 255
225 238 255
225 238 255
225 238 255
225 238 255
225 238 255
225 238 255
225 238 255
225 238 255
225 238 255
225 238 255
225 238 255
225 238 255
225 238 255
225 238 255
225 238 255
225 238 255
225 238 255
225 238 255
225 238 255
225 238 255
225 238 255
225 238 255
225 238 255
225 238 255
225 238 255
225 238 255
225 238 255
225 238 255
225 238 255
225 238 255
225 238 255
225 238 255
225 238 255
225 238 255
225 238 255
225 238 255
225 238 255
225 238 255
225 238 255
225 238 255
225 238 255
225 238 255
225 238 255
225 238 255
225 238 255
225 238 255
225 238 255
225 238 255
225 238 255
225 238 255
225 238 255
225 238 255
225 238 255
225 238 255
225 238 255
225 238 255
225 238 255
226 238 255
226 238 255
226 238 255
226 238 255
226 238 255
226 238 255
226 238 255
226 238 255
226 238 255
226 238 255
226 238 255
226 238 255
226 238 255
226 238 255
226 238 255
226 238 255
226 238 255
226 238 255
226 238 255
226 238 255
226 238 255
226 238 255
226 238 255
226 238 255
226 238 255
226 238 255
226 238 255
226 238 255
226 238 255
226 238 255
226 238 255
226 238 255
226 238 255
226 238 255
226 238 255
226 238 255
226 238 255
226 238 255
226 238 255
226 238 255
226 238 255
226 238 255
226 238 255
226 238 255
226 238 255
226 238 255
226 238 255
226 238 255
226 238 255
226 238 255
226 238 255
226 238 255
226 238 255
226 238 255
226 238 255
226 238 255
226 238 255
226 238 255
226 238 255
226 238 255
226 238 255
226 238 255
226 238 255
226 238 255
226 238 255
226 238 255
226 238 255
226 238 255
226 238 255
226 238 255
226 238 255
226 238 255
226 238 255
226 238 255
226 238 255
226 238 255
226 238 255
226 238 255
226 238 255
226 238 255
226 238 255
226 238 255
226 238 255
226 238 255
226 238 255
226 238 255
226 238 255
226 238 255
226 238 255
226 238 255
226 238 255
226 238 255
226 238 255
226 238 255
226 238 255
226 238 255
226 238 255
226 238 255
226 238 255
226 238 255
226 238 255
226 238 255
226 238 255
226 238 255
225 238 255
225 238 255
225 238 255
225 238 255
225 238 255
225 238 255
225 238 255
225 238 255
225 238 255
225 238 255
225 238 255
225 238 255
225 238 255
225 238 255
225 238 255
225 238 255
225 238 255
225 238 255
225 238 255
225 238 255
225 238 255
225 238 255
225 238 255
225 238 255
225 238 255
225 238 255
225 238 255
225 238 255
225 238 255
225 238 255
225 238 255
225 238 255
225 238 255
225 238 255
225 238 255
225 238 255
225 238 255
225 238 255
225 238 255
225 238 255
225 238 255
225 238 255
225 238 255
225 238 255
225 238 255
225 238 255
225 238 255
225 238 255
225 238 255
225 238 255
225 238 255
225 238 255
225 238 255
225 238 255
225 238 255
225 238 255
225 238 255
225 237 255
225 238 255
225 237 255
225 237 255
225 237 255
225 237 255
225 237 255
225 237 255
225 237 255
225 237 255
225 237 255
225 237 255
225 237 255
225 237 255
225 237 255
225 237 255
224 237 255
224 237 255
224 237 255
224 237 255
224 237 255
224 237 255
224 237 255
224 237 255
224 237 255
224 237 255
224 237 255
224 237 255
224 237 255
224 237 255
224 237 255
224 237 255
224 237 255
224 237 255
224 237 255
224 237 255
224 237 255
224 237 255
224 237 255
224 237 255
224 237 255
224 237 255
224 237 255
224 237 255
224 237 255
224 237 255
224 237 255
224 237 255
224 237 255
224 237 255
224 237 255
224 237 255
224 237 255
224 237 255
224 237 255
224 237 255
224 237 255
224 237 255
224 237 255
224 237 255
224 237 255
224 237 255
224 237 255
224 237 255
224 237 255
224 237 255
224 237 255
224 237 255
224 237 255
224 237 255
224 237 255
224 237 255
224 237 255
224 237 255
224 237 255
224 237 255
224 237 255
224 237 255
224 237 255
224 237 255
224 237 255
224 237 255
224 237 255
224 237 255
224 237 255
224 237 255
224 237 255
224 237 255
224 237 255
224 237 255
224 237 255
224 237 255
224 237 255
224 237 255
224 237 255
224 237 255
224 237 255
224 237 255
224 237 255
224 237 255
224 237 255
224 237 255
224 237 255
224 237 255
224 237 255
224 237 255
224 237 255
224 237 255
224 237 255
224 237 255
224 237 255
224 237 255
224 237 255
224 237 255
224 237 255
224 237 255
224 237 255
224 237 255
224 237 255
224 237 255
224 237 255
224 237 255
224 237 255
224 237 255
224 237 255
224 237 255
224 237 255
224 237 255
224 237 255
224 237 255
224 237 255
224 237 255
224 237 255
224 237 255
224 237 255
224 237 255
224 237 255
224 237 255
224 237 255
224 237 255
224 237 255
224 237 255
224 237 255
224 237 255
224 237 255
224 237 255
224 237 255
224 237 255
224 237 255
224 237 255
224 237 255
225 237 255
225 237 255
225 237 255
225 237 255
225 237 255
225 237 255
225 237 255
225 237 255
225 237 255
225 237 255
225 237 255
225 237 255
225 237 255
225 237 255
225 237 255
225 238 255
225 238 255
225 238 255
225 238 255
225 238 255
225 238 255
225 238 255
225 238 255
225 238 255
225 238 255
225 238 255
225 238 255
225 238 255
225 238 255
225 238 255
225 238 255
225 238 255
225 238 255
225 238 255
225 238 255
225 238 255
225 238 255
225 238 255
225 238 255
225 238 255
225 238 255
225 238 255
225 238 255
225 238 255
225 238 255
225 238 255
225 238 255
225 238 255
225 238 255
225 238 255
225 238 255
225 238 255
225 238 255
225 238 255
225 238 255
225 238 255
225 238 255
225 238 255
225 238 255
225 238 255
225 238 255
225 238 255
225 238 255
225 238 255
225 238 255
225 238 255
225 238 255
225 238 255
225 238 255
225 238 255
226 238 255
226 238 255
226 238 255
226 238 255
226 238 255
226 238 255
226 238 255
226 238 255
226 238 255
226 238 255
226 238 255
226 238 255
226 238 255
226 238 255
226 238 255
226 238 255
226 238 255
226 238 255
226 238 255
226 238 255
226 238 255
226 238 255
226 238 255
226 238 255
226 238 255
226 238 255
226 238 255
226 238 255
226 238 255
226 238 255
226 238 255
226 238 255
226 238 255
226 238 255
226 238 255
226 238 255
226 238 255
226 238 255
226 238 255
226 238 255
226 238 255
226 238 255
226 238 255
226 238 255
226 238 255
226 238 255
226 238 255
226 238 255
226 238 255
226 238 255
226 238 255
226 238 255
226 238 255
226 238 255
226 238 255
226 238 255
226 238 255
226 238 255
226 238 255
226 238 255
226 238 255
226 238 255
226 238 255
226 238 255
226 238 255
226 238 255
226 238 255
226 238 255
226 238 255
226 238 255
226 238 255
226 238 255
226 238 255
226 238 255
226 238 255
226 238 255
226 238 255
226 238 255
226 238 255
226 238 255
226 238 255
226 238 255
226 238 255
226 238 255
226 238 255
226 238 255
226 238 255
226 238 255
226 238 255
226 238 255
226 238 255
226 238 255
226 238 255
226 238 255
226 238 255
226 238 255
226 238 255
226 238 255
226 238 255
226 238 255
226 238 255
226 238 255
226 238 255
226 238 255
226 238 255
226 238 255
226 238 255
226 238 255
226 238 255
226 238 255
226 238 255
226 238 255
226 238 255
226 238 255
226 238 255
226 238 255
226 238 255
226 238 255
226 238 255
226 238 255
226 238 255
226 238 255
226 238 255
226 238 255
226 238 255
226 238 255
226 238 255
226 238 255
226 238 255
226 238 255
226 238 255
226 238 255
226 238 255
226 238 255
226 238 255
226 238 255
226 238 255
226 238 255
225 238 255
225 238 255
225 238 255
225 238 255
225 238 255
225 238 255
225 238 255
225 238 255
225 238 255
225 238 255
225 238 255
225 238 255
225 238 255
225 238 255
225 238 255
225 238 255
225 238 255
225 238 255
225 238 255
225 238 255
225 238 255
225 238 255
225 238 255
225 238 255
225 238 255
225 238 255
225 238 255
225 238 255
225 238 255
225 238 255
225 238 255
225 238 255
225 238 255
225 238 255
225 238 255
225 238 255
225 238 255
225 238 255
225 238 255
225 238 255
225 238 255
225 238 255
225 238 255
225 238 255
225 238 255
225 238 255
225 238 255
225 238 255
225 238 255
225 238 255
225 238 255
225 238 255
225 238 255
225 238 255
225 238 255
225 237 255
225 238 255
225 237 255
225 237 255
225 237 255
225 237 255
225 237 255
225 237 255
225 237 255
225 237 255
225 237 255
225 237 255
225 237 255
225 237 255
225 237 255
225 237 255
224 237 255
224 237 255
224 237 255
224 237 255
224 237 255
224 237 255
224 237 255
224 237 255
224 237 255
224 237 255
224 237 255
224 237 255
224 237 255
224 237 255
224 237 255
224 237 255
224 237 255
224 237 255
224 237 255
224 237 255
224 237 255
224 237 255
224 237 255
224 237 255
224 237 255
224 237 255
224 237 255
224 237 255
224 237 255
224 237 255
224 237 255
224 237 255
224 237 255
224 237 255
224 237 255
224 237 255
224 237 255
224 237 255
224 237 255
224 237 255
224 237 255
224 237 255
224 237 255
224 237 255
224 237 255
224 237 255
224 237 255
224 237 255
224 237 255
224 237 255
224 237 255
224 237 255
224 237 255
224 237 255
224 237 255
224 237 255
224 237 255
224 237 255
224 237 255
224 237 255
224 237 255
224 237 255
224 237 255
224 237 255
224 237 255
224 237 255
224 237 255
224 237 255
224 237 255
224 237 255
224 237 255
224 237 255
224 237 255
224 237 255
224 237 255
224 237 255
224 237 255
224 237 255
224 237 255
224 237 255
224 237 255
224 237 255
224 237 255
224 237 255
224 237 255
224 237 255
224 237 255
224 237 255
224 237 255
224 237 255
224 237 255
224 237 255
224 237 255
224 237 255
224 237 255
224 237 255
224 237 255
224 237 255
224 237 255
224 237 255
224 237 255
224 237 255
224 237 255
224 237 255
224 237 255
224 237 255
224 237 255
224 237 255
224 237 255
225 237 255
225 237 255
225 237 255
225 237 255
225 237 255
225 237 255
225 237 255
225 237 255
225 237 255
225 237 255
225 237 255
225 237 255
225 237 255
225 237 255
225 237 255
225 238 255
225 238 255
225 238 255
225 238 255
225 238 255
225 238 255
225 238 255
225 238 255
225 238 255
225 238 255
225 238 255
225 238 255
225 238 255
225 238 255
225 238 255
225 238 255
225 238 255
225 238 255
225 238 255
225 238 255
225 238 255
225 238 255
225 238 255
225 238 255
225 238 255
225 238 255
225 238 255
225 238 255
225 238 255
225 238 255
225 238 255
225 238 255
225 238 255
225 238 255
225 238 255
225 238 255
225 238 255
225 238 255
225 238 255
225 238 255
225 238 255
225 238 255
225 238 255
225 238 255
225 238 255
225 238 255
225 238 255
225 238 255
225 238 255
225 238 255
225 238 255
225 238 255
225 238 255
226 238 255
226 238 255
226 238 255
226 238 255
226 238 255
226 238 255
226 238 255
226 238 255
226 238 255
226 238 255
226 238 255
226 238 255
226 238 255
226 238 255
226 238 255
226 238 255
226 238 255
226 238 255
226 238 255
226 238 255
226 238 255
226 238 255
226 238 255
226 238 255
226 238 255
226 238 255
226 238 255
226 238 255
226 238 255
226 238 255
226 238 255
226 238 255
226 238 255
226 238 255
226 238 255
226 238 255
226 238 255
226 238 255
226 238 255
226 238 255
226 238 255
226 238 255
226 238 255
226 238 255
226 238 255
226 238 255
226 238 255
226 238 255
226 238 255
226 238 255
226 238 255
226 238 255
226 238 255
226 238 255
226 238 255
226 238 255
226 238 255
226 238 255
226 238 255
226 238 255
226 238 255
226 238 255
226 238 255
226 238 255
226 238 255
226 238 255
226 238 255
226 238 255
226 238 255
226 238 255
226 238 255
226 238 255
226 238 255
226 238 255
226 238 255
226 238 255
226 238 255
226 238 255
226 238 255
226 238 255
226 238 255
226 238 255
226 238 255
226 238 255
226 238 255
226 238 255
226 238 255
226 238 255
226 238 255
226 238 255
226 238 255
226 238 255
226 238 255
226 238 255
226 238 255
226 238 255
226 238 255
226 238 255
226 238 255
226 238 255
226 238 255
226 238 255
226 238 255
226 238 255
226 238 255
226 238 255
226 238 255
226 238 255
226 238 255
226 238 255
226 238 255
226 238 255
226 238 255
226 238 255
226 238 255
226 238 255
226 238 255
226 238 255
226 238 255
226 238 255
226 238 255
226 238 255
226 238 255
226 238 255
226 238 255
226 238 255
226 238 255
226 238 255
226 238 255
226 238 255
226 238 255
226 238 255
226 238 255
226 238 255
226 238 255
226 238 255
226 238 255
226 238 255
226 238 255
226 238 255
226 238 255
226 238 255
226 238 255
226 238 255
226 238 255
226 238 255
226 238 255
226 238 255
226 238 255
226 238 255
226 238 255
226 238 255
226 238 255
226 238 255
226 238 255
226 238 255
226 238 255
226 238 255
226 238 255
226 238 255
226 238 255
226 238 255
226 238 255
226 238 255
226 238 255
226 238 255
226 238 255
225 238 255
225 238 255
225 238 255
225 238 255
225 238 255
225 238 255
225 238 255
225 238 255
225 238 255
225 238 255
225 238 255
225 238 255
225 238 255
225 238 255
225 238 255
225 238 255
225 238 255
225 238 255
225 238 255
225 238 255
225 238 255
225 238 255
225 238 255
225 238 255
225 238 255
225 238 255
225 238 255
225 238 255
225 238 255
225 238 255
225 238 255
225 238 255
225 238 255
225 238 255
225 238 255
225 238 255
225 238 255
225 238 255
225 238 255
225 238 255
225 238 255
225 238 255
225 238 255
225 238 255
225 238 255
225 238 255
225 238 255
225 238 255
225 238 255
225 238 255
225 238 255
225 238 255
225 238 255
225 238 255
225 237 255
225 237 255
225 237 255
225 237 255
225 237 255
225 237 255
225 237 255
225 237 255
225 237 255
225 237 255
225 237 255
225 237 255
225 237 255
225 237 255
224 237 255
224 237 255
224 237 255
224 237 255
224 237 255
224 237 255
224 237 255
224 237 255
224 237 255
224 237 255
224 237 255
224 237 255
224 237 255
224 237 255
224 237 255
224 237 255
224 237 255
224 237 255
224 237 255
224 237 255
224 237 255
224 237 255
224 237 255
224 237 255
224 237 255
224 237 255
224 237 255
224 237 255
224 237 255
224 237 255
224 237 255
224 237 255
224 237 255
224 237 255
224 237 255
224 237 255
224 237 255
224 237 255
224 237 255
224 237 255
224 237 255
224 237 255
224 237 255
224 237 255
224 237 255
224 237 255
224 237 255
224 237 255
224 237 255
224 237 255
224 237 255
224 237 255
224 237 255
224 237 255
224 237 255
224 237 255
224 237 255
224 237 255
224 237 255
224 237 255
224 237 255
224 237 255
224 237 255
224 237 255
224 237 255
224 237 255
224 237 255
224 237 255
224 237 255
224 237 255
224 237 255
224 237 255
224 237 255
224 237 255
224 237 255
224 237 255
224 237 255
224 237 255
224 237 255
224 237 255
224 237 255
224 237 255
224 237 255
224 237 255
224 237 255
225 237 255
225 237 255
225 237 255
225 237 255
225 237 255
225 237 255
225 237 255
225 237 255
225 237 255
225 237 255
225 237 255
225 237 255
225 237 255
225 237 255
225 237 255
225 238 255
225 238 255
225 238 255
225 238 255
225 238 255
225 238 255
225 238 255
225 238 255
225 238 255
225 238 255
225 238 255
225 238 255
225 238 255
225 238 255
225 238 255
225 238 255
225 238 255
225 238 255
225 238 255
225 238 255
225 238 255
225 238 255
225 238 255
225 238 255
225 238 255
225 238 255
225 238 255
225 238 255
225 238 255
225 238 255
225 238 255
225 238 255
225 238 255
225 238 255
225 238 255
225 238 255
225 238 255
225 238 255
225 238 255
225 238 255
225 238 255
225 238 255
225 238 255
225 238 255
225 238 255
225 238 255
225 238 255
225 238 255
225 238 255
225 238 255
225 238 255
225 238 255
225 238 255
226 238 255
226 238 255
226 238 255
226 238 255
226 238 255
226 238 255
226 238 255
226 238 255
226 238 255
226 238 255
226 238 255
226 238 255
226 238 255
226 238 255
226 238 255
226 238 255
226 238 255
226 238 255
226 238 255
226 238 255
226 238 255
226 238 255
226 238 255
226 238 255
226 238 255
226 238 255
226 238 255
226 238 255
226 238 255
226 238 255
226 238 255
226 238 255
226 238 255
226 238 255
226 238 255
226 238 255
226 238 255
226 238 255
226 238 255
226 238 255
226 238 255
226 238 255
226 238 255
226 238 255
226 238 255
226 238 255
226 238 255
226 238 255
226 238 255
226 238 255
226 238 255
226 238 255
226 238 255
226 238 255
226 238 255
226 238 255
226 238 255
226 238 255
226 238 255
226 238 255
226 238 255
226 238 255
226 238 255
226 238 255
226 238 255
226 238 255
226 238 255
226 239 255
226 239 255
226 239 255
227 239 255
227 239 255
227 239 255
227 239 255
227 239 255
227 239 255
227 239 255
227 239 255
227 239 255
227 239 255
227 239 255
227 239 255
227 239 255
227 239 255
227 239 255
227 239 255
227 239 255
227 239 255
227 239 255
227 239 255
227 239 255
227 239 255
227 239 255
227 239 255
227 239 255
227 239 255
227 239 255
227 239 255
227 239 255
227 239 255
227 239 255
227 239 255
227 239 255
227 239 255
227 239 255
227 239 255
227 239 255
227 239 255
227 239 255
227 239 255
227 239 255
227 239 255
227 239 255
227 239 255
227 239 255
227 239 255
227 239 255
227 239 255
227 239 255
226 239 255
227 239 255
226 239 255
226 239 255
226 239 255
226 238 255
226 238 255
226 238 255
226 238 255
226 238 255
226 238 255
226 238 255
226 238 255
226 238 255
226 238 255
226 238 255
226 238 255
226 238 255
226 238 255
226 238 255
226 238 255
226 238 255
226 238 255
226 238 255
226 238 255
226 238 255
226 238 255
226 238 255
226 238 255
226 238 255
226 238 255
226 238 255
226 238 255
226 238 255
226 238 255
226 238 255
226 238 255
226 238 255
226 238 255
226 238 255
226 238 255
226 238 255
226 238 255
226 238 255
226 238 255
226 238 255
226 238 255
226 238 255
226 238 255
226 238 255
226 238 255
226 238 255
226 238 255
226 238 255
226 238 255
226 238 255
226 238 255
226 238 255
226 238 255
226 238 255
226 238 255
226 238 255
226 238 255
226 238 255
226 238 255
226 238 255
226 238 255
226 238 255
226 238 255
226 238 255
226 238 255
226 238 255
225 238 255
225 238 255
225 238 255
225 238 255
225 238 255
225 238 255
225 238 255
225 238 255
225 238 255
225 238 255
225 238 255
225 238 255
225 238 255
225 238 255
225 238 255
225 238 255
225 238 255
225 238 255
225 238 255
225 238 255
225 238 255
225 238 255
225 238 255
225 238 255
225 238 255
225 238 255
225 238 255
225 238 255
225 238 255
225 238 255
225 238 255
225 238 255
225 238 255
225 238 255
225 238 255
225 238 255
225 238 255
225 238 255
225 238 255
225 238 255
225 238 255
225 238 255
225 238 255
225 238 255
225 238 255
225 238 255
225 238 255
225 238 255
225 238 255
225 238 255
225 238 255
225 238 255
225 238 255
225 237 255
225 237 255
225 237 255
225 237 255
225 237 255
225 237 255
225 237 255
225 237 255
225 237 255
225 237 255
225 237 255
225 237 255
225 237 255
225 237 255
225 237 255
225 237 255
224 237 255
224 237 255
224 237 255
224 237 255
224 237 255
224 237 255
224 237 255
224 237 255
224 237 255
224 237 255
224 237 255
224 237 255
224 237 255
224 237 255
224 237 255
224 237 255
224 237 255
224 237 255
224 237 255
224 237 255
224 237 255
224 237 255
224 237 255
224 237 255
224 237 255
224 237 255
224 237 255
224 237 255
224 237 255
224 237 255
224 237 255
224 237 255
224 237 255
224 237 255
224 237 255
224 237 255
224 237 255
224 237 255
224 237 255
224 237 255
224 237 255
224 237 255
224 237 255
224 237 255
224 237 255
224 237 255
224 237 255
224 237 255
224 237 255
224 237 255
224 237 255
224 237 255
224 237 255
224 237 255
224 237 255
224 237 255
224 237 255
224 237 255
224 237 255
224 237 255
225 237 255
225 237 255
225 237 255
225 237 255
225 237 255
225 237 255
225 237 255
225 237 255
225 237 255
225 237 255
225 237 255
225 237 255
225 237 255
225 237 255
225 237 255
225 237 255
225 238 255
225 238 255
225 238 255
225 238 255
225 238 255
225 238 255
225 238 255
225 238 255
225 238 255
225 238 255
225 238 255
225 238 255
225 238 255
225 238 255
225 238 255
225 238 255
225 238 255
225 238 255
225 238 255
225 238 255
225 238 255
225 238 255
225 238 255
225 238 255
225 238 255
225 238 255
225 238 255
225 238 255
225 238 255
225 238 255
225 238 255
225 238 255
225 238 255
225 238 255
225 238 255
225 238 255
225 238 255
225 238 255
225 238 255
225 238 255
225 238 255
225 238 255
225 238 255
225 238 255
225 238 255
225 238 255
225 238 255
225 238 255
225 238 255
225 238 255
225 238 255
225 238 255
226 238 255
226 238 255
226 238 255
226 238 255
226 238 255
226 238 255
226 238 255
226 238 255
226 238 255
226 238 255
226 238 255
226 238 255
226 238 255
226 238 255
226 238 255
226 238 255
226 238 255
226 238 255
226 238 255
226 238 255
226 238 255
226 238 255
226 238 255
226 238 255
226 238 255
226 238 255
226 238 255
226 238 255
226 238 255
226 238 255
226 238 255
226 238 255
226 238 255
226 238 255
226 238 255
226 238 255
226 238 255
226 238 255
226 238 255
226 238 255
226 238 255
226 238 255
226 238 255
226 238 255
226 238 255
226 238 255
226 238 255
226 238 255
226 238 255
226 238 255
226 238 255
226 238 255
226 238 255
226 238 255
226 238 255
226 238 255
226 238 255
226 238 255
226 239 255
226 239 255
227 239 255
227 239 255
227 239 255
227 239 255
227 239 255
227 239 255
227 239 255
227 239 255
227 239 255
227 239 255
227 239 255
227 239 255
227 239 255
227 239 255
227 239 255
227 239 255
227 239 255
227 239 255
227 239 255
227 239 255
227 239 255
227 239 255
227 239 255
227 239 255
227 239 255
227 239 255
227 239 255
227 239 255
227 239 255
227 239 255
227 239 255
227 239 255
227 239 255
227 239 255
227 239 255
227 239 255
227 239 255
227 239 255
227 239 255
227 239 255
227 239 255
227 239 255
227 239 255
227 239 255
227 239 255
227 239 255
227 239 255
227 239 255
227 239 255
227 239 255
227 239 255
227 239 255
227 239 255
227 239 255
227 239 255
227 239 255
227 239 255
227 239 255
227 239 255
227 239 255
227 239 255
227 239 255
227 239 255
227 239 255
227 239 255
227 239 255
227 239 255
227 239 255
227 239 255
227 239 255
227 239 255
227 239 255
227 239 255
227 239 255
227 239 255
227 239 255
227 239 255
227 239 255
227 239 255
227 239 255
227 239 255
227 239 255
227 239 255
227 239 255
227 239 255
227 239 255
227 239 255
227 239 255
227 239 255
227 239 255
227 239 255
227 239 255
227 239 255
227 239 255
226 239 255
226 239 255
226 239 255
226 238 255
226 238 255
226 238 255
226 238 255
226 238 255
226 238 255
226 238 255
226 238 255
226 238 255
226 238 255
226 238 255
226 238 255
226 238 255
226 238 255
226 238 255
226 238 255
226 238 255
226 238 255
226 238 255
226 238 255
226 238 255
226 238 255
226 238 255
226 238 255
226 238 255
226 238 255
226 238 255
226 238 255
226 238 255
226 238 255
226 238 255
226 238 255
226 238 255
226 238 255
226 238 255
226 238 255
226 238 255
226 238 255
226 238 255
226 238 255
226 238 255
226 238 255
226 238 255
226 238 255
226 238 255
226 238 255
226 238 255
226 238 255
226 238 255
226 238 255
226 238 255
226 238 255
226 238 255
226 238 255
226 238 255
226 238 255
226 238 255
226 238 255
225 238 255
225 238 255
225 238 255
225 238 255
225 238 255
225 238 255
225 238 255
225 238 255
225 238 255
225 238 255
225 238 255
225 238 255
225 238 255
225 238 255
225 238 255
225 238 255
225 238 255
225 238 255
225 238 255
225 238 255
225 238 255
225 238 255
225 238 255
225 238 255
225 238 255
225 238 255
225 238 255
225 238 255
225 238 255
225 238 255
225 238 255
225 238 255
225 238 255
225 238 255
225 238 255
225 238 255
225 238 255
225 238 255
225 238 255
225 238 255
225 238 255
225 238 255
225 238 255
225 238 255
225 238 255
225 238 255
225 238 255
225 238 255
225 238 255
225 238 255
225 238 255
225 238 255
225 238 255
225 237 255
225 237 255
225 237 255
225 237 255
225 237 255
225 237 255
225 237 255
225 237 255
225 237 255
225 237 255
225 237 255
225 237 255
225 237 255
225 237 255
225 237 255
224 237 255
224 237 255
224 237 255
224 237 255
224 237 255
224 237 255
224 237 255
224 237 255
224 237 255
224 237 255
224 237 255
224 237 255
224 237 255
224 237 255
224 237 255
224 237 255
224 237 255
224 237 255
224 237 255
224 237 255
224 237 255
224 237 255
224 237 255
224 237 255
224 237 255
224 237 255
224 237 255
224 237 255
224 237 255
224 237 255
224 237 255
224 237 255
224 237 255
224 237 255
224 237 255
224 237 255
224 237 255
224 237 255
225 237 255
225 237 255
225 237 255
225 237 255
225 237 255
225 237 255
225 237 255
225 237 255
225 237 255
225 237 255
225 237 255
225 237 255
225 237 255
225 237 255
225 237 255
225 237 255
225 238 255
225 238 255
225 238 255
225 238 255
225 238 255
225 238 255
225 238 255
225 238 255
225 238 255
225 238 255
225 238 255
225 238 255
225 238 255
225 238 255
225 238 255
225 238 255
225 238 255
225 238 255
225 238 255
225 238 255
225 238 255
225 238 255
225 238 255
225 238 255
225 238 255
225 238 255
225 238 255
225 238 255
225 238 255
225 238 255
225 238 255
225 238 255
225 238 255
225 238 255
225 238 255
225 238 255
225 238 255
225 238 255
225 238 255
225 238 255
225 238 255
225 238 255
225 238 255
225 238 255
225 238 255
225 238 255
225 238 255
225 238 255
225 238 255
225 238 255
225 238 255
225 238 255
226 238 255
226 238 255
226 238 255
226 238 255
226 238 255
226 238 255
226 238 255
226 238 255
226 238 255
226 238 255
226 238 255
226 238 255
226 238 255
226 238 255
226 238 255
226 238 255
226 238 255
226 238 255
226 238 255
226 238 255
226 238 255
226 238 255
226 238 255
226 238 255
226 238 255
226 238 255
226 238 255
226 238 255
226 238 255
226 238 255
226 238 255
226 238 255
226 238 255
226 238 255
226 238 255
226 238 255
226 238 255
226 238 255
226 238 255
226 238 255
226 238 255
226 238 255
226 238 255
226 238 255
226 238 255
226 238 255
226 238 255
226 238 255
226 238 255
226 238 255
226 238 255
226 238 255
226 238 255
226 238 255
226 239 255
226 239 255
226 239 255
227 239 255
227 239 255
227 239 255
227 239 255
227 239 255
227 239 255
227 239 255
227 239 255
227 239 255
227 239 255
227 239 255
227 239 255
227 239 255
227 239 255
227 239 255
227 239 255
227 239 255
227 239 255
227 239 255
227 239 255
227 239 255
227 239 255
227 239 255
227 239 255
227 239 255
227 239 255
227 239 255
227 239 255
227 239 255
227 239 255
227 239 255
227 239 255
227 239 255
227 239 255
227 239 255
227 239 255
227 239 255
227 239 255
227 239 255
227 239 255
227 239 255
227 239 255
227 239 255
227 239 255
227 239 255
227 239 255
227 239 255
227 239 255
227 239 255
227 239 255
227 239 255
227 239 255
227 239 255
227 239 255
227 239 255
227 239 255
227 239 255
227 239 255
227 239 255
227 239 255
227 239 255
227 239 255
227 239 255
227 239 255
227 239 255
227 239 255
227 239 255
227 239 255
227 239 255
227 239 255
227 239 255
227 239 255
227 239 255
227 239 255
227 239 255
227 239 255
227 239 255
227 239 255
227 239 255
227 239 255
227 239 255
227 239 255
227 239 255
227 239 255
227 239 255
227 239 255
227 239 255
227 239 255
227 239 255
227 239 255
227 239 255
227 239 255
227 239 255
227 239 255
227 239 255
227 239 255
227 239 255
227 239 255
227 239 255
227 239 255
227 239 255
227 239 255
227 239 255
227 239 255
227 239 255
227 239 255
227 239 255
227 239 255
227 239 255
227 239 255
227 239 255
227 239 255
227 239 255
227 239 255
227 239 255
227 239 255
227 239 255
227 239 255
227 239 255
227 239 255
227 239 255
227 239 255
227 239 255
226 239 255
226 239 255
226 239 255
226 238 255
226 238 255
226 238 255
226 238 255
226 238 255
226 238 255
226 238 255
226 238 255
226 238 255
226 238 255
226 238 255
226 238 255
226 238 255
226 238 255
226 238 255
226 238 255
226 238 255
226 238 255
226 238 255
226 238 255
226 238 255
226 238 255
226 238 255
226 238 255
226 238 255
226 238 255
226 238 255
226 238 255
226 238 255
226 238 255
226 238 255
226 238 255
226 238 255
226 238 255
226 238 255
226 238 255
226 238 255
226 238 255
226 238 255
226 238 255
226 238 255
226 238 255
226 238 255
226 238 255
226 238 255
226 238 255
226 238 255
226 238 255
226 238 255
226 238 255
226 238 255
226 238 255
226 238 255
226 238 255
225 238 255
225 238 255
225 238 255
225 238 255
225 238 255
225 238 255
225 238 255
225 238 255
225 238 255
225 238 255
225 238 255
225 238 255
225 238 255
225 238 255
225 238 255
225 238 255
225 238 255
225 238 255
225 238 255
225 238 255
225 238 255
225 238 255
225 238 255
225 238 255
225 238 255
225 238 255
225 238 255
225 238 255
225 238 255
225 238 255
225 238 255
225 238 255
225 238 255
225 238 255
225 238 255
225 238 255
225 238 255
225 238 255
225 238 255
225 238 255
225 238 255
225 238 255
225 238 255
225 238 255
225 238 255
225 238 255
225 238 255
225 238 255
225 238 255
225 238 255
225 238 255
225 238 255
225 237 255
225 237 255
225 237 255
225 237 255
225 237 255
225 237 255
225 237 255
225 237 255
225 237 255
225 237 255
225 237 255
225 237 255
225 237 255
225 237 255
225 237 255
225 237 255
224 237 255
224 237 255
224 237 255
224 237 255
224 237 255
224 237 255
224 237 255
224 237 255
224 237 255
224 237 255
224 237 255
224 237 255
224 237 255
224 237 255
224 237 255
225 237 255
225 237 255
225 237 255
225 237 255
225 237 255
225 237 255
225 237 255
225 237 255
225 237 255
225 237 255
225 237 255
225 237 255
225 237 255
225 237 255
225 237 255
225 237 255
225 237 255
225 238 255
225 238 255
225 238 255
225 238 255
225 238 255
225 238 255
225 238 255
225 238 255
225 238 255
225 238 255
225 238 255
225 238 255
225 238 255
225 238 255
225 238 255
225 238 255
225 238 255
225 238 255
225 238 255
225 238 255
225 238 255
225 238 255
225 238 255
225 238 255
225 238 255
225 238 255
225 238 255
225 238 255
225 238 255
225 238 255
225 238 255
225 238 255
225 238 255
225 238 255
225 238 255
225 238 255
225 238 255
225 238 255
225 238 255
225 238 255
225 238 255
225 238 255
225 238 255
225 238 255
225 238 255
225 238 255
225 238 255
225 238 255
225 238 255
225 238 255
225 238 255
225 238 255
226 238 255
226 238 255
226 238 255
226 238 255
226 238 255
226 238 255
226 238 255
226 238 255
226 238 255
226 238 255
226 238 255
226 238 255
226 238 255
226 238 255
226 238 255
226 238 255
226 238 255
226 238 255
226 238 255
226 238 255
226 238 255
226 238 255
226 238 255
226 238 255
226 238 255
226 238 255
226 238 255
226 238 255
226 238 255
226 238 255
226 238 255
226 238 255
226 238 255
226 238 255
226 238 255
226 238 255
226 238 255
226 238 255
226 238 255
226 238 255
226 238 255
226 238 255
226 238 255
226 238 255
226 238 255
226 238 255
226 238 255
226 238 255
226 238 255
226 238 255
226 238 255
226 238 255
226 238 255
226 239 255
226 239 255
226 239 255
227 239 255
227 239 255
227 239 255
227 239 255
227 239 255
227 239 255
227 239 255
227 239 255
227 239 255
227 239 255
227 239 255
227 239 255
227 239 255
227 239 255
227 239 255
227 239 255
227 239 255
227 239 255
227 239 255
227 239 255
227 239 255
227 239 255
227 239 255
227 239 255
227 239 255
227 239 255
227 239 255
227 239 255
227 239 255
227 239 255
227 239 255
227 239 255
227 239 255
227 239 255
227 239 255
227 239 255
227 239 255
227 239 255
227 239 255
227 239 255
227 239 255
227 239 255
227 239 255
227 239 255
227 239 255
227 239 255
227 239 255
227 239 255
227 239 255
227 239 255
227 239 255
227 239 255
227 239 255
227 239 255
227 239 255
227 239 255
227 239 255
227 239 255
227 239 255
227 239 255
227 239 255
227 239 255
227 239 255
227 239 255
227 239 255
227 239 255
227 239 255
227 239 255
227 239 255
227 239 255
227 239 255
227 239 255
227 239 255
227 239 255
227 239 255
227 239 255
227 239 255
227 239 255
227 239 255
227 239 255
227 239 255
227 239 255
227 239 255
227 239 255
227 239 255
227 239 255
227 239 255
227 239 255
227 239 255
227 239 255
227 239 255
227 239 255
227 239 255
227 239 255
227 239 255
227 239 255
227 239 255
227 239 255
227 239 255
227 239 255
227 239 255
227 239 255
227 239 255
227 239 255
227 239 255
227 239 255
227 239 255
227 239 255
227 239 255
227 239 255
227 239 255
227 239 255
227 239 255
227 239 255
227 239 255
227 239 255
227 239 255
227 239 255
227 239 255
227 239 255
227 239 255
227 239 255
227 239 255
227 239 255
227 239 255
227 239 255
227 239 255
227 239 255
227 239 255
227 239 255
227 239 255
227 239 255
227 239 255
227 239 255
227 239 255
227 239 255
227 239 255
227 239 255
227 239 255
227 239 255
227 239 255
227 239 255
227 239 255
227 239 255
227 239 255
227 239 255
227 239 255
227 239 255
226 239 255
226 239 255
226 238 255
226 238 255
226 238 255
226 238 255
226 238 255
226 238 255
226 238 255
226 238 255
226 238 255
226 238 255
226 238 255
226 238 255
226 238 255
226 238 255
226 238 255
226 238 255
226 238 255
226 238 255
226 238 255
226 238 255
226 238 255
226 238 255
226 238 255
226 238 255
226 238 255
226 238 255
226 238 255
226 238 255
226 238 255
226 238 255
226 238 255
226 238 255
226 238 255
226 238 255
226 238 255
226 238 255
226 238 255
226 238 255
226 238 255
226 238 255
226 238 255
226 238 255
226 238 255
226 238 255
226 238 255
226 238 255
226 238 255
226 238 255
226 238 255
226 238 255
226 238 255
226 238 255
225 238 255
225 238 255
225 238 255
225 238 255
225 238 255
225 238 255
225 238 255
225 238 255
225 238 255
225 238 255
225 238 255
225 238 255
225 238 255
225 238 255
225 238 255
225 238 255
225 238 255
225 238 255
225 238 255
225 238 255
225 238 255
225 238 255
225 238 255
225 238 255
225 238 255
225 238 255
225 238 255
225 238 255
225 238 255
225 238 255
225 238 255
225 238 255
225 238 255
225 238 255
225 238 255
225 238 255
225 238 255
225 238 255
225 238 255
225 238 255
225 238 255
225 238 255
225 238 255
225 238 255
225 238 255
225 238 255
225 238 255
225 238 255
225 238 255
225 238 255
225 238 255
225 238 255
225 238 255
225 237 255
225 237 255
225 237 255
225 237 255
225 237 255
225 237 255
225 237 255
225 237 255
225 237 255
225 237 255
225 237 255
225 237 255
225 237 255
225 237 255
225 237 255
225 237 255
224 237 255
224 237 255
224 237 255
225 237 255
225 237 255
225 237 255
225 237 255
225 237 255
225 237 255
225 237 255
225 238 255
225 238 255
225 238 255
225 238 255
225 238 255
225 238 255
225 238 255
225 238 255
225 238 255
225 238 255
225 238 255
225 238 255
225 238 255
225 238 255
225 238 255
225 238 255
225 238 255
225 238 255
225 238 255
225 238 255
225 238 255
225 238 255
225 238 255
225 238 255
225 238 255
225 238 255
225 238 255
225 238 255
225 238 255
225 238 255
225 238 255
225 238 255
225 238 255
225 238 255
225 238 255
225 238 255
225 238 255
225 238 255
225 238 255
225 238 255
225 238 255
225 238 255
225 238 255
225 238 255
225 238 255
225 238 255
225 238 255
225 238 255
225 238 255
225 238 255
225 238 255
225 238 255
225 238 255
225 238 255
226 238 255
226 238 255
226 238 255
226 238 255
226 238 255
226 238 255
226 238 255
226 238 255
226 238 255
226 238 255
226 238 255
226 238 255
226 238 255
226 238 255
226 238 255
226 238 255
226 238 255
226 238 255
226 238 255
226 238 255
226 238 255
226 238 255
226 238 255
226 238 255
226 238 255
226 238 255
226 238 255
226 238 255
226 238 255
226 238 255
226 238 255
226 238 255
226 238 255
226 238 255
226 238 255
226 238 255
226 238 255
226 238 255
226 238 255
226 238 255
226 238 255
226 238 255
226 238 255
226 238 255
226 238 255
226 238 255
226 238 255
226 238 255
226 238 255
226 238 255
226 238 255
226 239 255
226 239 255
227 239 255
227 239 255
227 239 255
227 239 255
227 239 255
227 239 255
227 239 255
227 239 255
227 239 255
227 239 255
227 239 255
227 239 255
227 239 255
227 239 255
227 239 255
227 239 255
227 239 255
227 239 255
227 239 255
227 239 255
227 239 255
227 239 255
227 239 255
227 239 255
227 239 255
227 239 255
227 239 255
227 239 255
227 239 255
227 239 255
227 239 255
227 239 255
227 239 255
227 239 255
227 239 255
227 239 255
227 239 255
227 239 255
227 239 255
227 239 255
227 239 255
227 239 255
227 239 255
227 239 255
227 239 255
227 239 255
227 239 255
227 239 255
227 239 255
227 239 255
227 239 255
227 239 255
227 239 255
227 239 255
227 239 255
227 239 255
227 239 255
227 239 255
227 239 255
227 239 255
227 239 255
228 239 255
228 239 255
228 239 255
228 239 255
228 239 255
228 239 255
228 239 255
228 239 255
228 239 255
228 239 255
228 239 255
228 239 255
228 239 255
228 239 255
228 239 255
228 239 255
228 239 255
228 239 255
228 239 255
228 239 255
228 239 255
228 239 255
228 239 255
228 239 255
228 239 255
228 239 255
228 239 255
228 239 255
228 239 255
228 239 255
228 239 255
228 239 255
228 239 255
228 239 255
228 239 255
228 239 255
228 239 255
228 239 255
228 239 255
228 239 255
228 239 255
228 239 255
228 239 255
228 239 255
228 239 255
228 239 255
228 239 255
228 239 255
228 239 255
227 239 255
227 239 255
227 239 255
227 239 255
227 239 255
227 239 255
227 239 255
227 239 255
227 239 255
227 239 255
227 239 255
227 239 255
227 239 255
227 239 255
227 239 255
227 239 255
227 239 255
227 239 255
227 239 255
227 239 255
227 239 255
227 239 255
227 239 255
227 239 255
227 239 255
227 239 255
227 239 255
227 239 255
227 239 255
227 239 255
227 239 255
227 239 255
227 239 255
227 239 255
227 239 255
227 239 255
227 239 255
227 239 255
227 239 255
227 239 255
227 239 255
227 239 255
227 239 255
227 239 255
227 239 255
227 239 255
227 239 255
227 239 255
227 239 255
227 239 255
227 239 255
227 239 255
227 239 255
227 239 255
227 239 255
227 239 255
227 239 255
227 239 255
227 239 255
227 239 255
227 239 255
226 239 255
226 239 255
226 238 255
226 238 255
226 238 255
226 238 255
226 238 255
226 238 255
226 238 255
226 238 255
226 238 255
226 238 255
226 238 255
226 238 255
226 238 255
226 238 255
226 238 255
226 238 255
226 238 255
226 238 255
226 238 255
226 238 255
226 238 255
226 238 255
226 238 255
226 238 255
226 238 255
226 238 255
226 238 255
226 238 255
226 238 255
226 238 255
226 238 255
226 238 255
226 238 255
226 238 255
226 238 255
226 238 255
226 238 255
226 238 255
226 238 255
226 238 255
226 238 255
226 238 255
226 238 255
226 238 255
226 238 255
226 238 255
226 238 255
226 238 255
226 238 255
226 238 255
226 238 255
225 238 255
225 238 255
225 238 255
225 238 255
225 238 255
225 238 255
225 238 255
225 238 255
225 238 255
225 238 255
225 238 255
225 238 255
225 238 255
225 238 255
225 238 255
225 238 255
225 238 255
225 238 255
225 238 255
225 238 255
225 238 255
225 238 255
225 238 255
225 238 255
225 238 255
225 238 255
225 238 255
225 238 255
225 238 255
225 238 255
225 238 255
225 238 255
225 238 255
225 238 255
225 238 255
225 238 255
225 238 255
225 238 255
225 238 255
225 238 255
225 238 255
225 238 255
225 238 255
225 238 255
225 238 255
225 238 255
225 238 255
225 238 255
225 238 255
225 238 255
225 238 255
225 238 255
225 238 255
225 238 255
225 237 255
225 237 255
225 237 255
225 237 255
225 237 255
225 237 255
225 237 255
225 237 255
225 238 255
225 238 255
225 238 255
225 238 255
225 238 255
225 238 255
225 238 255
225 238 255
225 238 255
225 238 255
225 238 255
225 238 255
225 238 255
225 238 255
225 238 255
225 238 255
225 238 255
225 238 255
225 238 255
225 238 255
225 238 255
225 238 255
225 238 255
225 238 255
225 238 255
225 238 255
225 238 255
225 238 255
225 238 255
225 238 255
225 238 255
225 238 255
225 238 255
225 238 255
225 238 255
225 238 255
225 238 255
225 238 255
225 238 255
225 238 255
225 238 255
225 238 255
225 238 255
225 238 255
225 238 255
225 238 255
225 238 255
225 238 255
225 238 255
225 238 255
225 238 255
226 238 255
226 238 255
226 238 255
226 238 255
226 238 255
226 238 255
226 238 255
226 238 255
226 238 255
226 238 255
226 238 255
226 238 255
226 238 255
226 238 255
226 238 255
226 238 255
226 238 255
226 238 255
226 238 255
226 238 255
226 238 255
226 238 255
226 238 255
226 238 255
226 238 255
226 238 255
226 238 255
226 238 255
226 238 255
226 238 255
226 238 255
226 238 255
226 238 255
226 238 255
226 238 255
226 238 255
226 238 255
226 238 255
226 238 255
226 238 255
226 238 255
226 238 255
226 238 255
226 238 255
226 238 255
226 238 255
226 238 255
226 238 255
226 238 255
226 238 255
226 238 255
226 239 255
226 239 255
227 239 255
227 239 255
227 239 255
227 239 255
227 239 255
227 239 255
227 239 255
227 239 255
227 239 255
227 239 255
227 239 255
227 239 255
227 239 255
227 239 255
227 239 255
227 239 255
227 239 255
227 239 255
227 239 255
227 239 255
227 239 255
227 239 255
227 239 255
227 239 255
227 239 255
227 239 255
227 239 255
227 239 255
227 239 255
227 239 255
227 239 255
227 239 255
227 239 255
227 239 255
227 239 255
227 239 255
227 239 255
227 239 255
227 239 255
227 239 255
227 239 255
227 239 255
227 239 255
227 239 255
227 239 255
227 239 255
227 239 255
227 239 255
227 239 255
227 239 255
227 239 255
227 239 255
228 239 255
228 239 255
228 239 255
228 239 255
228 239 255
228 239 255
228 239 255
228 239 255
228 239 255
228 239 255
228 239 255
228 239 255
228 239 255
228 239 255
228 239 255
228 239 255
228 239 255
228 239 255
228 239 255
228 239 255
228 239 255
228 239 255
228 239 255
228 239 255
228 239 255
228 239 255
228 239 255
228 239 255
228 239 255
228 239 255
228 239 255
228 239 255
228 239 255
228 239 255
228 239 255
228 239 255
228 239 255
228 239 255
228 239 255
228 239 255
228 239 255
228 239 255
228 239 255
228 239 255
228 239 255
228 239 255
228 239 255
228 239 255
228 239 255
228 239 255
228 239 255
228 239 255
228 239 255
228 239 255
228 239 255
228 239 255
228 239 255
228 239 255
228 239 255
228 239 255
228 239 255
228 239 255
228 239 255
228 239 255
228 239 255
228 239 255
228 239 255
228 239 255
228 239 255
228 239 255
228 239 255
228 239 255
228 239 255
228 239 255
228 239 255
228 239 255
228 239 255
228 239 255
228 239 255
228 239 255
228 239 255
228 239 255
228 239 255
228 239 255
228 239 255
228 239 255
228 239 255
228 239 255
227 239 255
227 239 255
227 239 255
227 239 255
227 239 255
227 239 255
227 239 255
227 239 255
227 239 255
227 239 255
227 239 255
227 239 255
227 239 255
227 239 255
227 239 255
227 239 255
227 239 255
227 239 255
227 239 255
227 239 255
227 239 255
227 239 255
227 239 255
227 239 255
227 239 255
227 239 255
227 239 255
227 239 255
227 239 255
227 239 255
227 239 255
227 239 255
227 239 255
227 239 255
227 239 255
227 239 255
227 239 255
227 239 255
227 239 255
227 239 255
227 239 255
227 239 255
227 239 255
227 239 255
227 239 255
227 239 255
227 239 255
227 239 255
227 239 255
227 239 255
227 239 255
227 239 255
226 239 255
226 238 255
226 238 255
226 238 255
226 238 255
226 238 255
226 238 255
226 238 255
226 238 255
226 238 255
226 238 255
226 238 255
226 238 255
226 238 255
226 238 255
226 238 255
226 238 255
226 238 255
226 238 255
226 238 255
226 238 255
226 238 255
226 238 255
226 238 255
226 238 255
226 238 255
226 238 255
226 238 255
226 238 255
226 238 255
226 238 255
226 238 255
226 238 255
226 238 255
226 238 255
226 238 255
226 238 255
226 238 255
226 238 255
226 238 255
226 238 255
226 238 255
226 238 255
226 238 255
226 238 255
226 238 255
226 238 255
226 238 255
226 238 255
226 238 255
226 238 255
225 238 255
225 238 255
225 238 255
225 238 255
225 238 255
225 238 255
225 238 255
225 238 255
225 238 255
225 238 255
225 238 255
225 238 255
225 238 255
225 238 255
225 238 255
225 238 255
225 238 255
225 238 255
225 238 255
225 238 255
225 238 255
225 238 255
225 238 255
225 238 255
225 238 255
225 238 255
225 238 255
225 238 255
225 238 255
225 238 255
225 238 255
225 238 255
225 238 255
225 238 255
225 238 255
225 238 255
225 238 255
225 238 255
225 238 255
225 238 255
225 238 255
225 238 255
225 238 255
225 238 255
225 238 255
225 238 255
225 238 255
225 238 255
225 238 255
225 238 255
225 238 255
225 238 255
225 238 255
225 238 255
225 238 255
225 238 255
225 238 255
225 238 255
225 238 255
225 238 255
225 238 255
225 238 255
225 238 255
225 238 255
225 238 255
225 238 255
225 238 255
225 238 255
225 238 255
225 238 255
225 238 255
225 238 255
225 238 255
225 238 255
225 238 255
225 238 255
225 238 255
225 238 255
225 238 255
225 238 255
225 238 255
225 238 255
225 238 255
225 238 255
225 238 255
225 238 255
225 238 255
225 238 255
225 238 255
225 238 255
225 238 255
225 238 255
225 238 255
225 238 255
225 238 255
226 238 255
226 238 255
226 238 255
226 238 255
226 238 255
226 238 255
226 238 255
226 238 255
226 238 255
226 238 255
226 238 255
226 238 255
226 238 255
226 238 255
226 238 255
226 238 255
226 238 255
226 238 255
226 238 255
226 238 255
226 238 255
226 238 255
226 238 255
226 238 255
226 238 255
226 238 255
226 238 255
226 238 255
226 238 255
226 238 255
226 238 255
226 238 255
226 238 255
226 238 255
226 238 255
226 238 255
226 238 255
226 238 255
226 238 255
226 238 255
226 238 255
226 238 255
226 238 255
226 238 255
226 238 255
226 238 255
226 238 255
226 238 255
226 238 255
226 238 255
226 238 255
226 239 255
227 239 255
227 239 255
227 239 255
227 239 255
227 239 255
227 239 255
227 239 255
227 239 255
227 239 255
227 239 255
227 239 255
227 239 255
227 239 255
227 239 255
227 239 255
227 239 255
227 239 255
227 239 255
227 239 255
227 239 255
227 239 255
227 239 255
227 239 255
227 239 255
227 239 255
227 239 255
227 239 255
227 239 255
227 239 255
227 239 255
227 239 255
227 239 255
227 239 255
227 239 255
227 239 255
227 239 255
227 239 255
227 239 255
227 239 255
227 239 255
227 239 255
227 239 255
227 239 255
227 239 255
227 239 255
227 239 255
227 239 255
227 239 255
228 239 255
228 239 255
228 239 255
228 239 255
228 239 255
228 239 255
228 239 255
228 239 255
228 239 255
228 239 255
228 239 255
228 239 255
228 239 255
228 239 255
228 239 255
228 239 255
228 239 255
228 239 255
228 239 255
228 239 255
228 239 255
228 239 255
228 239 255
228 239 255
228 239 255
228 239 255
228 239 255
228 239 255
228 239 255
228 239 255
228 239 255
228 239 255
228 239 255
228 239 255
228 239 255
228 239 255
228 239 255
228 239 255
228 239 255
228 239 255
228 239 255
228 239 255
228 239 255
228 239 255
228 239 255
228 239 255
228 239 255
228 239 255
228 239 255
228 239 255
228 239 255
228 239 255
228 239 255
228 239 255
228 239 255
228 239 255
228 239 255
228 239 255
228 239 255
228 239 255
228 239 255
228 239 255
228 239 255
228 239 255
228 239 255
228 239 255
228 239 255
228 239 255
228 239 255
228 239 255
228 239 255
228 239 255
228 239 255
228 239 255
228 239 255
228 239 255
228 239 255
228 239 255
228 239 255
228 239 255
228 239 255
228 239 255
228 239 255
228 239 255
228 239 255
228 239 255
228 239 255
228 239 255
228 239 255
228 239 255
228 239 255
228 239 255
228 239 255
228 239 255
228 239 255
228 239 255
228 239 255
228 239 255
228 239 255
228 239 255
228 239 255
228 239 255
228 239 255
228 239 255
228 239 255
228 239 255
228 239 255
228 239 255
228 239 255
228 239 255
228 239 255
228 239 255
228 239 255
228 239 255
228 239 255
227 239 255
227 239 255
227 239 255
227 239 255
227 239 255
227 239 255
227 239 255
227 239 255
227 239 255
227 239 255
227 239 255
227 239 255
227 239 255
227 239 255
227 239 255
227 239 255
227 239 255
227 239 255
227 239 255
227 239 255
227 239 255
227 239 255
227 239 255
227 239 255
227 239 255
227 239 255
227 239 255
227 239 255
227 239 255
227 239 255
227 239 255
227 239 255
227 239 255
227 239 255
227 239 255
227 239 255
227 239 255
227 239 255
227 239 255
227 239 255
227 239 255
227 239 255
227 239 255
227 239 255
227 239 255
227 239 255
227 239 255
226 239 255
226 239 255
226 239 255
226 238 255
226 238 255
226 238 255
226 238 255
226 238 255
226 238 255
226 238 255
226 238 255
226 238 255
226 238 255
226 238 255
226 238 255
226 238 255
226 238 255
226 238 255
226 238 255
226 238 255
226 238 255
226 238 255
226 238 255
226 238 255
226 238 255
226 238 255
226 238 255
226 238 255
226 238 255
226 238 255
226 238 255
226 238 255
226 238 255
226 238 255
226 238 255
226 238 255
226 238 255
226 238 255
226 238 255
226 238 255
226 238 255
226 238 255
226 238 255
226 238 255
226 238 255
226 238 255
226 238 255
226 238 255
226 238 255
226 238 255
226 238 255
226 238 255
226 238 255
225 238 255
225 238 255
225 238 255
225 238 255
225 238 255
225 238 255
225 238 255
225 238 255
225 238 255
225 238 255
225 238 255
225 238 255
225 238 255
225 238 255
225 238 255
225 238 255
225 238 255
225 238 255
225 238 255
225 238 255
225 238 255
225 238 255
225 238 255
225 238 255
225 238 255
225 238 255
225 238 255
225 238 255
225 238 255
225 238 255
225 238 255
225 238 255
225 238 255
225 238 255
225 238 255
225 238 255
225 238 255
225 238 255
225 238 255
225 238 255
225 238 255
225 238 255
225 238 255
225 238 255
225 238 255
225 238 255
225 238 255
225 238 255
225 238 255
225 238 255
225 238 255
225 238 255
225 238 255
225 238 255
225 238 255
225 238 255
225 238 255
225 238 255
225 238 255
225 238 255
225 238 255
225 238 255
225 238 255
225 238 255
225 238 255
225 238 255
225 238 255
225 238 255
225 238 255
225 238 255
225 238 255
225 238 255
225 238 255
225 238 255
225 238 255
225 238 255
226 238 255
226 238 255
226 238 255
226 238 255
226 238 255
226 238 255
226 238 255
226 238 255
226 238 255
226 238 255
226 238 255
226 238 255
226 238 255
226 238 255
226 238 255
226 238 255
226 238 255
226 238 255
226 238 255
226 238 255
226 238 255
226 238 255
226 238 255
226 238 255
226 238 255
226 238 255
226 238 255
226 238 255
226 238 255
226 238 255
226 238 255
226 238 255
226 238 255
226 238 255
226 238 255
226 238 255
226 238 255
226 238 255
226 238 255
226 238 255
226 238 255
226 238 255
226 238 255
226 238 255
226 238 255
226 238 255
226 238 255
226 238 255
226 238 255
226 238 255
226 239 255
226 239 255
226 239 255
227 239 255
227 239 255
227 239 255
227 239 255
227 239 255
227 239 255
227 239 255
227 239 255
227 239 255
227 239 255
227 239 255
227 239 255
227 239 255
227 239 255
227 239 255
227 239 255
227 239 255
227 239 255
227 239 255
227 239 255
227 239 255
227 239 255
227 239 255
227 239 255
227 239 255
227 239 255
227 239 255
227 239 255
227 239 255
227 239 255
227 239 255
227 239 255
227 239 255
227 239 255
227 239 255
227 239 255
227 239 255
227 239 255
227 239 255
227 239 255
227 239 255
227 239 255
227 239 255
227 239 255
227 239 255
228 239 255
228 239 255
228 239 255
228 239 255
228 239 255
228 239 255
228 239 255
228 239 255
228 239 255
228 239 255
228 239 255
228 239 255
228 239 255
228 239 255
228 239 255
228 239 255
228 239 255
228 239 255
228 239 255
228 239 255
228 239 255
228 239 255
228 239 255
228 239 255
228 239 255
228 239 255
228 239 255
228 239 255
228 239 255
228 239 255
228 239 255
228 239 255
228 239 255
228 239 255
228 239 255
228 239 255
228 239 255
228 239 255
228 239 255
228 239 255
228 240 255
228 240 255
228 240 255
228 240 255
228 240 255
228 240 255
228 240 255
228 240 255
228 240 255
228 240 255
228 240 255
228 240 255
228 240 255
228 240 255
228 240 255
228 240 255
228 240 255
228 240 255
228 240 255
228 240 255
228 240 255
228 240 255
228 240 255
228 240 255
228 240 255
228 240 255
228 240 255
228 240 255
228 240 255
228 240 255
228 240 255
228 240 255
228 240 255
228 240 255
228 240 255
228 240 255
228 240 255
228 240 255
228 240 255
228 240 255
228 240 255
228 240 255
228 240 255
228 240 255
228 240 255
228 240 255
228 240 255
228 240 255
228 240 255
228 240 255
228 240 255
228 240 255
228 240 255
228 240 255
228 240 255
228 240 255
228 240 255
228 239 255
228 239 255
228 239 255
228 239 255
228 239 255
228 239 255
228 239 255
228 239 255
228 239 255
228 239 255
228 239 255
228 239 255
228 239 255
228 239 255
228 239 255
228 239 255
228 239 255
228 239 255
228 239 255
228 239 255
228 239 255
228 239 255
228 239 255
228 239 255
228 239 255
228 239 255
228 239 255
228 239 255
228 239 255
228 239 255
228 239 255
228 239 255
228 239 255
228 239 255
228 239 255
228 239 255
228 239 255
228 239 255
228 239 255
228 239 255
227 239 255
227 239 255
227 239 255
227 239 255
227 239 255
227 239 255
227 239 255
227 239 255
227 239 255
227 239 255
227 239 255
227 239 255
227 239 255
227 239 255
227 239 255
227 239 255
227 239 255
227 239 255
227 239 255
227 239 255
227 239 255
227 239 255
227 239 255
227 239 255
227 239 255
227 239 255
227 239 255
227 239 255
227 239 255
227 239 255
227 239 255
227 239 255
227 239 255
227 239 255
227 239 255
227 239 255
227 239 255
227 239 255
227 239 255
227 239 255
227 239 255
227 239 255
227 239 255
227 239 255
227 239 255
226 239 255
226 239 255
226 238 255
226 238 255
226 238 255
226 238 255
226 238 255
226 238 255
226 238 255
226 238 255
226 238 255
226 238 255
226 238 255
226 238 255
226 238 255
226 238 255
226 238 255
226 238 255
226 238 255
226 238 255
226 238 255
226 238 255
226 238 255
226 238 255
226 238 255
226 238 255
226 238 255
226 238 255
226 238 255
226 238 255
226 238 255
226 238 255
226 238 255
226 238 255
226 238 255
226 238 255
226 238 255
226 238 255
226 238 255
226 238 255
226 238 255
226 238 255
226 238 255
226 238 255
226 238 255
226 238 255
226 238 255
226 238 255
226 238 255
226 238 255
226 238 255
226 238 255
226 238 255
225 238 255
225 238 255
225 238 255
225 238 255
225 238 255
225 238 255
225 238 255
225 238 255
225 238 255
225 238 255
225 238 255
225 238 255
225 238 255
225 238 255
225 238 255
225 238 255
225 238 255
225 238 255
225 238 255
225 238 255
225 238 255
225 238 255
225 238 255
225 238 255
225 238 255
225 238 255
225 238 255
225 238 255
225 238 255
225 238 255
225 238 255
225 238 255
225 238 255
225 238 255
225 238 255
225 238 255
225 238 255
225 238 255
225 238 255
225 238 255
225 238 255
225 238 255
225 238 255
225 238 255
225 238 255
225 238 255
225 238 255
225 238 255
225 238 255
225 238 255
225 238 255
225 238 255
225 238 255
225 238 255
225 238 255
225 238 255
225 238 255
225 238 255
225 238 255
226 238 255
226 238 255
226 238 255
226 238 255
226 238 255
226 238 255
226 238 255
226 238 255
226 238 255
226 238 255
226 238 255
226 238 255
226 238 255
226 238 255
226 238 255
226 238 255
226 238 255
226 238 255
226 238 255
226 238 255
226 238 255
226 238 255
226 238 255
226 238 255
226 238 255
226 238 255
226 238 255
226 238 255
226 238 255
226 238 255
226 238 255
226 238 255
226 238 255
226 238 255
226 238 255
226 238 255
226 238 255
226 238 255
226 238 255
226 238 255
226 238 255
226 238 255
226 238 255
226 238 255
226 238 255
226 238 255
226 238 255
226 238 255
226 238 255
226 238 255
226 239 255
226 239 255
227 239 255
227 239 255
227 239 255
227 239 255
227 239 255
227 239 255
227 239 255
227 239 255
227 239 255
227 239 255
227 239 255
227 239 255
227 239 255
227 239 255
227 239 255
227 239 255
227 239 255
227 239 255
227 239 255
227 239 255
227 239 255
227 239 255
227 239 255
227 239 255
227 239 255
227 239 255
227 239 255
227 239 255
227 239 255
227 239 255
227 239 255
227 239 255
227 239 255
227 239 255
227 239 255
227 239 255
227 239 255
227 239 255
227 239 255
227 239 255
227 239 255
227 239 255
227 239 255
227 239 255
228 239 255
228 239 255
228 239 255
228 239 255
228 239 255
228 239 255
228 239 255
228 239 255
228 239 255
228 239 255
228 239 255
228 239 255
228 239 255
228 239 255
228 239 255
228 239 255
228 239 255
228 239 255
228 239 255
228 239 255
228 239 255
228 239 255
228 239 255
228 239 255
228 239 255
228 239 255
228 239 255
228 239 255
228 239 255
228 239 255
228 239 255
228 239 255
228 239 255
228 240 255
228 240 255
228 240 255
228 240 255
228 240 255
228 240 255
228 240 255
228 240 255
228 240 255
228 240 255
228 240 255
228 240 255
228 240 255
228 240 255
228 240 255
228 240 255
228 240 255
228 240 255
228 240 255
228 240 255
229 240 255
229 240 255
229 240 255
229 240 255
229 240 255
229 240 255
229 240 255
229 240 255
229 240 255
229 240 255
229 240 255
229 240 255
229 240 255
229 240 255
229 240 255
226 238 249
225 237 246
224 236 242
223 236 241
224 236 244
223 235 240
220 233 230
216 230 223
211 226 207
213 227 212
216 230 221
215 229 215
211 226 206
216 229 220
209 224 198
211 226 206
209 224 199
216 230 220
209 224 199
214 228 215
211 226 204
209 224 201
208 223 196
214 228 214
215 229 217
214 228 214
220 233 231
218 231 224
216 230 221
216 230 220
215 229 217
222 235 238
222 234 237
223 235 240
224 236 244
227 239 252
227 239 252
228 240 255
228 240 255
228 240 255
228 240 255
228 240 255
228 240 255
228 240 255
228 240 255
228 240 255
228 240 255
228 240 255
228 240 255
228 240 255
228 240 255
228 240 255
228 240 255
228 240 255
228 240 255
228 240 255
228 239 255
228 239 255
228 239 255
228 239 255
228 239 255
228 239 255
228 239 255
228 239 255
228 239 255
228 239 255
228 239 255
228 239 255
228 239 255
228 239 255
228 239 255
228 239 255
228 239 255
228 239 255
228 239 255
228 239 255
228 239 255
228 239 255
228 239 255
228 239 255
228 239 255
228 239 255
228 239 255
228 239 255
228 239 255
228 239 255
228 239 255
228 239 255
228 239 255
227 239 255
227 239 255
227 239 255
227 239 255
227 239 255
227 239 255
227 239 255
227 239 255
227 239 255
227 239 255
227 239 255
227 239 255
227 239 255
227 239 255
227 239 255
227 239 255
227 239 255
227 239 255
227 239 255
227 239 255
227 239 255
227 239 255
227 239 255
227 239 255
227 239 255
227 239 255
227 239 255
227 239 255
227 239 255
227 239 255
227 239 255
227 239 255
227 239 255
227 239 255
227 239 255
227 239 255
227 239 255
227 239 255
227 239 255
227 239 255
227 239 255
227 239 255
227 239 255
227 239 255
226 239 255
226 238 255
226 238 255
226 238 255
226 238 255
226 238 255
226 238 255
226 238 255
226 238 255
226 238 255
226 238 255
226 238 255
226 238 255
226 238 255
226 238 255
226 238 255
226 238 255
226 238 255
226 238 255
226 238 255
226 238 255
226 238 255
226 238 255
226 238 255
226 238 255
226 238 255
226 238 255
226 238 255
226 238 255
226 238 255
226 238 255
226 238 255
226 238 255
226 238 255
226 238 255
226 238 255
226 238 255
226 238 255
226 238 255
226 238 255
226 238 255
226 238 255
226 238 255
226 238 255
226 238 255
226 238 255
226 238 255
226 238 255
226 238 255
226 238 255
226 238 255
226 238 255
226 238 255
226 238 255
225 238 255
225 238 255
225 238 255
225 238 255
225 238 255
225 238 255
225 238 255
225 238 255
225 238 255
225 238 255
225 238 255
225 238 255
225 238 255
225 238 255
225 238 255
225 238 255
225 238 255
225 238 255
225 238 255
225 238 255
225 238 255
225 238 255
225 238 255
225 238 255
225 238 255
225 238 255
225 238 255
225 238 255
225 238 255
225 238 255
225 238 255
225 238 255
225 238 255
225 238 255
225 238 255
225 238 255
225 238 255
225 238 255
225 238 255
226 238 255
226 238 255
226 238 255
226 238 255
226 238 255
226 238 255
226 238 255
226 238 255
226 238 255
226 238 255
226 238 255
226 238 255
226 238 255
226 238 255
226 238 255
226 238 255
226 238 255
226 238 255
226 238 255
226 238 255
226 238 255
226 238 255
226 238 255
226 238 255
226 238 255
226 238 255
226 238 255
226 238 255
226 238 255
226 238 255
226 238 255
226 238 255
226 238 255
226 238 255
226 238 255
226 238 255
226 238 255
226 238 255
226 238 255
226 238 255
226 238 255
226 238 255
226 238 255
226 238 255
226 238 255
226 238 255
226 238 255
226 238 255
226 238 255
226 238 255
226 238 255
226 239 255
226 239 255
226 239 255
227 239 255
227 239 255
227 239 255
227 239 255
227 239 255
227 239 255
227 239 255
227 239 255
227 239 255
227 239 255
227 239 255
227 239 255
227 239 255
227 239 255
227 239 255
227 239 255
227 239 255
227 239 255
227 239 255
227 239 255
227 239 255
227 239 255
227 239 255
227 239 255
227 239 255
227 239 255
227 239 255
227 239 255
227 239 255
227 239 255
227 239 255
227 239 255
227 239 255
227 239 255
227 239 255
227 239 255
227 239 255
227 239 255
227 239 255
227 239 255
227 239 255
227 239 255
227 239 255
228 239 255
228 239 255
228 239 255
228 239 255
228 239 255
228 239 255
228 239 255
228 239 255
228 239 255
228 239 255
228 239 255
228 239 255
228 239 255
228 239 255
228 239 255
228 239 255
228 239 255
228 239 255
228 239 255
228 239 255
228 239 255
228 239 255
228 239 255
228 239 255
228 239 255
228 239 255
228 239 255
228 239 255
228 239 255
228 239 255
228 240 255
228 240 255
228 240 255
228 240 255
228 240 255
228 240 255
228 240 255
228 240 255
228 240 255
228 240 255
228 240 255
228 240 255
228 240 255
228 240 255
228 240 255
229 240 255
229 240 255
229 240 255
229 240 255
229 240 255
229 240 255
229 240 255
229 240 255
229 240 255
229 240 255
229 240 255
229 240 255
229 240 255
228 239 254
227 238 250
216 229 218
216 230 221
211 226 207
213 227 211
204 220 184
208 223 196
198 216 161
199 216 165
199 216 165
192 211 140
192 211 137
185 206 102
185 206 105
185 205 105
177 200 62
174 198 25
175 198 0
177 199 0
174 197 0
175 198 0
175 198 0
174 198 0
174 198 0
177 199 0
174 197 0
175 198 0
176 199 0
175 198 0
174 198 0
176 199 0
176 198 0
175 198 0
175 198 0
176 199 0
174 197 0
174 198 0
173 197 0
176 198 0
175 198 0
175 198 0
175 198 0
176 199 0
173 197 0
175 198 0
176 199 0
175 198 0
176 199 0
175 198 0
174 197 0
173 197 0
175 198 0
175 198 0
174 198 0
175 198 0
177 199 36
176 199 44
178 201 67
187 207 111
188 208 125
187 207 117
194 212 142
191 210 133
196 214 151
203 220 179
199 216 163
205 221 186
211 226 203
209 224 198
216 230 221
217 230 223
223 235 240
225 237 248
228 239 254
228 240 255
228 240 255
228 240 255
228 240 255
228 240 255
228 240 255
228 240 255
228 240 255
228 240 255
228 240 255
228 240 255
228 239 255
228 239 255
228 239 255
228 239 255
228 239 255
228 239 255
228 239 255
228 239 255
228 239 255
228 239 255
228 239 255
228 239 255
228 239 255
228 239 255
228 239 255
228 239 255
228 239 255
228 239 255
228 239 255
228 239 255
228 239 255
228 239 255
228 239 255
228 239 255
228 239 255
228 239 255
228 239 255
228 239 255
228 239 255
228 239 255
228 239 255
227 239 255
227 239 255
227 239 255
227 239 255
227 239 255
227 239 255
227 239 255
227 239 255
227 239 255
227 239 255
227 239 255
227 239 255
227 239 255
227 239 255
227 239 255
227 239 255
227 239 255
227 239 255
227 239 255
227 239 255
227 239 255
227 239 255
227 239 255
227 239 255
227 239 255
227 239 255
227 239 255
227 239 255
227 239 255
227 239 255
227 239 255
227 239 255
227 239 255
227 239 255
227 239 255
227 239 255
227 239 255
227 239 255
227 239 255
227 239 255
227 239 255
227 239 255
227 239 255
226 239 255
226 239 255
226 238 255
226 238 255
226 238 255
226 238 255
226 238 255
226 238 255
226 238 255
226 238 255
226 238 255
226 238 255
226 238 255
226 238 255
226 238 255
226 238 255
226 238 255
226 238 255
226 238 255
226 238 255
226 238 255
226 238 255
226 238 255
226 238 255
226 238 255
226 238 255
226 238 255
226 238 255
226 238 255
226 238 255
226 238 255
226 238 255
226 238 255
226 238 255
226 238 255
226 238 255
226 238 255
226 238 255
226 238 255
226 238 255
226 238 255
226 238 255
226 238 255
226 238 255
226 238 255
226 238 255
226 238 255
226 238 255
226 238 255
226 238 255
226 238 255
226 238 255
226 238 255
225 238 255
225 238 255
225 238 255
225 238 255
225 238 255
225 238 255
225 238 255
225 238 255
225 238 255
225 238 255
225 238 255
225 238 255
225 238 255
225 238 255
225 238 255
225 238 255
225 238 255
225 238 255
225 238 255
225 238 255
225 238 255
225 238 255
225 238 255
226 238 255
226 238 255
226 238 255
226 238 255
226 238 255
226 238 255
226 238 255
226 238 255
226 238 255
226 238 255
226 238 255
226 238 255
226 238 255
226 238 255
226 238 255
226 238 255
226 238 255
226 238 255
226 238 255
226 238 255
226 238 255
226 238 255
226 238 255
226 238 255
226 238 255
226 238 255
226 238 255
226 238 255
226 238 255
226 238 255
226 238 255
226 238 255
226 238 255
226 238 255
226 238 255
226 238 255
226 238 255
226 238 255
226 238 255
226 238 255
226 238 255
226 238 255
226 238 255
226 238 255
226 238 255
226 238 255
226 238 255
226 238 255
226 238 255
226 238 255
226 238 255
226 238 255
226 238 255
226 239 255
226 239 255
227 239 255
227 239 255
227 239 255
227 239 255
227 239 255
227 239 255
227 239 255
227 239 255
227 239 255
227 239 255
227 239 255
227 239 255
227 239 255
227 239 255
227 239 255
227 239 255
227 239 255
227 239 255
227 239 255
227 239 255
227 239 255
227 239 255
227 239 255
227 239 255
227 239 255
227 239 255
227 239 255
227 239 255
227 239 255
227 239 255
227 239 255
227 239 255
227 239 255
227 239 255
227 239 255
227 239 255
227 239 255
227 239 255
227 239 255
227 239 255
227 239 255
227 239 255
227 239 255
228 239 255
228 239 255
228 239 255
228 239 255
228 239 255
228 239 255
228 239 255
228 239 255
228 239 255
228 239 255
228 239 255
228 239 255
228 239 255
228 239 255
228 239 255
228 239 255
228 239 255
228 239 255
228 239 255
228 239 255
228 239 255
228 239 255
228 239 255
228 239 255
228 239 255
228 239 255
228 239 255
228 239 255
228 239 255
228 240 255
228 240 255
228 240 255
228 240 255
228 240 255
228 240 255
228 240 255
228 240 255
228 240 255
228 240 255
228 240 255
229 240 255
229 240 255
229 240 255
229 240 255
229 240 255
229 240 255
229 240 255
229 240 255
229 240 255
229 240 255
229 240 255
229 240 255
229 240 255
229 240 255
228 239 254
226 238 249
221 233 233
214 228 215
211 225 201
207 222 191
199 217 167
198 216 159
190 209 130
190 209 130
186 206 105
184 204 92
174 198 0
174 198 0
175 198 0
174 197 0
174 198 0
175 198 0
175 198 0
176 199 0
173 197 0
174 198 0
175 198 0
173 197 0
175 198 0
174 198 0
176 199 0
175 198 0
174 198 0
176 198 0
174 198 0
175 198 0
175 198 0
176 198 0
173 197 0
173 197 0
176 199 0
176 199 0
175 198 0
174 198 0
174 198 0
174 198 0
175 198 0
177 199 0
175 198 0
175 198 0
176 199 0
175 198 0
173 197 0
173 197 0
174 198 0
176 198 0
176 198 0
174 197 0
174 198 0
173 197 0
175 198 0
174 197 0
173 197 0
175 198 0
175 198 0
175 198 0
175 198 0
173 197 0
175 198 0
174 197 0
176 199 0
173 197 0
175 198 0
176 199 0
175 198 0
174 198 0
175 198 0
175 198 0
175 198 0
175 198 0
174 197 0
174 197 0
174 198 0
174 198 0
174 198 0
176 199 0
175 198 0
175 198 0
175 198 0
174 197 0
175 198 36
177 200 57
179 201 72
185 205 99
190 209 125
192 211 137
204 220 179
207 223 194
212 226 207
215 229 215
222 235 238
221 234 236
228 239 253
228 240 255
228 240 255
228 240 255
228 240 255
228 240 255
228 240 255
228 240 255
228 240 255
228 240 255
228 240 255
228 239 255
228 239 255
228 239 255
228 239 255
228 239 255
228 239 255
228 239 255
228 239 255
228 239 255
228 239 255
228 239 255
228 239 255
228 239 255
228 239 255
228 239 255
228 239 255
228 239 255
228 239 255
228 239 255
228 239 255
228 239 255
228 239 255
228 239 255
228 239 255
228 239 255
228 239 255
228 239 255
228 239 255
227 239 255
227 239 255
227 239 255
227 239 255
227 239 255
227 239 255
227 239 255
227 239 255
227 239 255
227 239 255
227 239 255
227 239 255
227 239 255
227 239 255
227 239 255
227 239 255
227 239 255
227 239 255
227 239 255
227 239 255
227 239 255
227 239 255
227 239 255
227 239 255
227 239 255
227 239 255
227 239 255
227 239 255
227 239 255
227 239 255
227 239 255
227 239 255
227 239 255
227 239 255
227 239 255
227 239 255
227 239 255
227 239 255
227 239 255
227 239 255
227 239 255
227 239 255
227 239 255
226 239 255
226 239 255
226 238 255
226 238 255
226 238 255
226 238 255
226 238 255
226 238 255
226 238 255
226 238 255
226 238 255
226 238 255
226 238 255
226 238 255
226 238 255
226 238 255
226 238 255
226 238 255
226 238 255
226 238 255
226 238 255
226 238 255
226 238 255
226 238 255
226 238 255
226 238 255
226 238 255
226 238 255
226 238 255
226 238 255
226 238 255
226 238 255
226 238 255
226 238 255
226 238 255
226 238 255
226 238 255
226 238 255
226 238 255
226 238 255
226 238 255
226 238 255
226 238 255
226 238 255
226 238 255
226 238 255
226 238 255
226 238 255
226 238 255
226 238 255
226 238 255
226 238 255
226 238 255
226 238 255
225 238 255
225 238 255
225 238 255
225 238 255
225 238 255
225 238 255
225 238 255
225 238 255
226 238 255
226 238 255
226 238 255
226 238 255
226 238 255
226 238 255
226 238 255
226 238 255
226 238 255
226 238 255
226 238 255
226 238 255
226 238 255
226 238 255
226 238 255
226 238 255
226 238 255
226 238 255
226 238 255
226 238 255
226 238 255
226 238 255
226 238 255
226 238 255
226 238 255
226 238 255
226 238 255
226 238 255
226 238 255
226 238 255
226 238 255
226 238 255
226 238 255
226 238 255
226 238 255
226 238 255
226 238 255
226 238 255
226 238 255
226 238 255
226 238 255
226 238 255
226 238 255
226 238 255
226 238 255
226 238 255
226 238 255
226 238 255
226 238 255
226 238 255
226 238 255
226 239 255
226 239 255
227 239 255
227 239 255
227 239 255
227 239 255
227 239 255
227 239 255
227 239 255
227 239 255
227 239 255
227 239 255
227 239 255
227 239 255
227 239 255
227 239 255
227 239 255
227 239 255
227 239 255
227 239 255
227 239 255
227 239 255
227 239 255
227 239 255
227 239 255
227 239 255
227 239 255
227 239 255
227 239 255
227 239 255
227 239 255
227 239 255
227 239 255
227 239 255
227 239 255
227 239 255
227 239 255
227 239 255
227 239 255
227 239 255
227 239 255
227 239 255
227 239 255
227 239 255
228 239 255
228 239 255
228 239 255
228 239 255
228 239 255
228 239 255
228 239 255
228 239 255
228 239 255
228 239 255
228 239 255
228 239 255
228 239 255
228 239 255
228 239 255
228 239 255
228 239 255
228 239 255
228 239 255
228 239 255
228 239 255
228 239 255
228 239 255
228 239 255
228 239 255
228 239 255
228 239 255
228 239 255
228 240 255
228 240 255
228 240 255
228 240 255
228 240 255
228 240 255
228 240 255
228 240 255
228 240 255
228 240 255
228 240 255
228 240 255
229 240 255
229 240 255
229 240 255
229 240 255
229 240 255
229 240 255
229 240 255
229 240 255
229 240 255
229 240 255
229 240 255
229 240 255
229 240 255
228 239 254
224 236 242
220 232 228
212 226 207
213 227 211
201 217 167
199 216 165
194 213 144
187 207 111
182 203 88
177 199 25
173 197 0
176 199 0
174 198 0
173 197 0
176 199 0
176 198 0
174 198 0
174 198 0
175 198 0
175 198 0
172 197 0
173 197 0
174 198 0
174 197 0
175 198 0
175 198 0
174 198 0
175 198 0
176 199 0
175 198 0
174 197 0
174 198 0
175 198 0
176 198 0
175 198 0
175 198 0
174 198 0
175 198 0
176 199 0
175 198 0
176 199 0
174 198 0
176 199 0
174 198 0
174 198 0
174 198 0
174 197 0
175 198 0
175 198 0
175 198 0
175 198 0
174 198 0
175 198 0
175 198 0
173 197 0
175 198 0
175 198 0
173 197 0
174 198 0
175 198 0
173 197 0
175 198 0
174 198 0
174 197 0
173 197 0
175 198 0
176 199 0
174 198 0
175 198 0
176 198 0
175 198 0
176 199 0
174 198 0
175 198 0
175 198 0
175 198 0
176 199 0
174 198 0
175 198 0
174 197 0
174 197 0
174 198 0
173 197 0
176 199 0
176 199 0
178 200 0
175 198 0
174 197 0
175 198 0
176 199 0
175 198 0
174 198 0
173 197 0
177 199 0
175 198 0
176 198 0
175 198 0
173 197 0
175 198 0
174 197 0
175 198 0
175 198 0
175 198 0
175 198 0
175 198 0
175 198 0
175 198 0
175 198 0
176 199 51
185 205 99
189 208 120
191 210 133
199 216 167
206 222 191
207 222 191
213 227 212
220 233 231
223 235 241
228 240 255
228 240 255
228 240 255
228 240 255
228 240 255
228 240 255
228 240 255
228 240 255
228 240 255
228 239 255
228 239 255
228 239 255
228 239 255
228 239 255
228 239 255
228 239 255
228 239 255
228 239 255
228 239 255
228 239 255
228 239 255
228 239 255
228 239 255
228 239 255
228 239 255
228 239 255
228 239 255
228 239 255
228 239 255
228 239 255
228 239 255
228 239 255
228 239 255
228 239 255
228 239 255
228 239 255
227 239 255
227 239 255
227 239 255
227 239 255
227 239 255
227 239 255
227 239 255
227 239 255
227 239 255
227 239 255
227 239 255
227 239 255
227 239 255
227 239 255
227 239 255
227 239 255
227 239 255
227 239 255
227 239 255
227 239 255
227 239 255
227 239 255
227 239 255
227 239 255
227 239 255
227 239 255
227 239 255
227 239 255
227 239 255
227 239 255
227 239 255
227 239 255
227 239 255
227 239 255
227 239 255
227 239 255
227 239 255
227 239 255
227 239 255
227 239 255
227 239 255
227 239 255
227 239 255
226 239 255
226 238 255
226 238 255
226 238 255
226 238 255
226 238 255
226 238 255
226 238 255
226 238 255
226 238 255
226 238 255
226 238 255
226 238 255
226 238 255
226 238 255
226 238 255
226 238 255
226 238 255
226 238 255
226 238 255
226 238 255
226 238 255
226 238 255
226 238 255
226 238 255
226 238 255
226 238 255
226 238 255
226 238 255
226 238 255
226 238 255
226 238 255
226 238 255
226 238 255
226 238 255
226 238 255
226 238 255
226 238 255
226 238 255
226 238 255
226 238 255
226 238 255
226 238 255
226 238 255
226 238 255
226 238 255
226 238 255
226 238 255
226 238 255
226 238 255
226 238 255
226 238 255
226 238 255
226 238 255
226 238 255
226 238 255
226 238 255
226 238 255
226 238 255
226 238 255
226 238 255
226 238 255
226 238 255
226 238 255
226 238 255
226 238 255
226 238 255
226 238 255
226 238 255
226 238 255
226 238 255
226 238 255
226 238 255
226 238 255
226 238 255
226 238 255
226 238 255
226 238 255
226 238 255
226 238 255
226 238 255
226 238 255
226 238 255
226 238 255
226 238 255
226 238 255
226 238 255
226 238 255
226 238 255
226 238 255
226 238 255
226 238 255
226 238 255
226 238 255
226 238 255
226 238 255
226 238 255
226 239 255
226 239 255
227 239 255
227 239 255
227 239 255
227 239 255
227 239 255
227 239 255
227 239 255
227 239 255
227 239 255
227 239 255
227 239 255
227 239 255
227 239 255
227 239 255
227 239 255
227 239 255
227 239 255
227 239 255
227 239 255
227 239 255
227 239 255
227 239 255
227 239 255
227 239 255
227 239 255
227 239 255
227 239 255
227 239 255
227 239 255
227 239 255
227 239 255
227 239 255
227 239 255
227 239 255
227 239 255
227 239 255
227 239 255
227 239 255
227 239 255
227 239 255
227 239 255
227 239 255
227 239 255
227 239 255
228 239 255
228 239 255
228 239 255
228 239 255
228 239 255
228 239 255
228 239 255
228 239 255
228 239 255
228 239 255
228 239 255
228 239 255
228 239 255
228 239 255
228 239 255
228 239 255
228 239 255
228 239 255
228 239 255
228 239 255
228 239 255
228 239 255
228 239 255
228 239 255
228 239 255
228 239 255
228 240 255
228 240 255
228 240 255
228 240 255
228 240 255
228 240 255
228 240 255
228 240 255
228 240 255
228 240 255
228 240 255
229 240 255
229 240 255
229 240 255
229 240 255
229 240 255
229 240 255
229 240 255
229 240 255
229 240 255
229 240 255
229 240 255
229 240 255
229 240 255
229 240 255
228 239 253
223 235 240
217 230 221
213 227 207
204 220 182
202 219 177
192 211 137
185 206 105
178 201 62
174 198 0
175 198 0
175 198 0
174 198 0
175 198 0
176 199 0
175 198 0
176 199 0
173 197 0
174 198 0
174 198 0
175 198 0
175 198 0
173 197 0
175 198 0
175 198 0
175 198 0
174 198 0
172 197 0
173 197 0
175 198 0
173 197 0
175 198 0
176 199 0
176 199 0
174 197 0
175 198 0
174 198 0
175 198 0
174 198 0
176 198 0
174 198 0
174 198 0
174 198 0
174 198 0
177 199 0
174 198 0
175 198 0
175 198 0
176 199 0
173 197 0
175 198 0
174 197 0
175 198 0
175 198 0
174 198 0
174 198 0
175 198 0
174 197 0
175 198 0
175 198 0
175 198 0
175 198 0
174 198 0
174 198 0
174 197 0
174 198 0
174 198 0
173 197 0
175 198 0
174 198 0
174 198 0
175 198 0
175 198 0
175 198 0
176 198 0
173 197 0
174 198 0
174 197 0
173 197 0
175 198 0
175 198 0
174 198 0
174 198 0
175 198 0
174 198 0
175 198 0
175 198 0
174 197 0
175 198 0
175 198 0
174 198 0
175 198 0
174 198 0
175 198 0
174 198 0
176 199 0
175 198 0
175 198 0
175 198 0
175 198 0
174 197 0
176 198 0
175 198 0
175 198 0
176 198 0
175 198 0
174 198 0
176 198 0
174 198 0
175 198 0
175 198 0
175 198 0
174 197 0
175 198 0
175 198 0
174 198 0
173 197 0
175 198 0
175 198 0
174 197 0
173 197 0
175 198 0
176 199 0
174 198 0
175 198 0
174 198 0
176 199 0
178 201 57
190 210 128
190 210 133
194 213 147
199 217 167
212 227 209
216 230 220
221 234 236
223 235 241
228 240 255
228 240 255
228 240 255
228 240 255
228 240 255
228 240 255
228 240 255
228 240 255
228 239 255
228 239 255
228 239 255
228 239 255
228 239 255
228 239 255
228 239 255
228 239 255
228 239 255
228 239 255
228 239 255
228 239 255
228 239 255
228 239 255
228 239 255
228 239 255
228 239 255
228 239 255
228 239 255
228 239 255
228 239 255
228 239 255
228 239 255
228 239 255
228 239 255
228 239 255
228 239 255
227 239 255
227 239 255
227 239 255
227 239 255
227 239 255
227 239 255
227 239 255
227 239 255
227 239 255
227 239 255
227 239 255
227 239 255
227 239 255
227 239 255
227 239 255
227 239 255
227 239 255
227 239 255
227 239 255
227 239 255
227 239 255
227 239 255
227 239 255
227 239 255
227 239 255
227 239 255
227 239 255
227 239 255
227 239 255
227 239 255
227 239 255
227 239 255
227 239 255
227 239 255
227 239 255
227 239 255
227 239 255
227 239 255
227 239 255
227 239 255
227 239 255
227 239 255
227 239 255
226 239 255
226 238 255
226 238 255
226 238 255
226 238 255
226 238 255
226 238 255
226 238 255
226 238 255
226 238 255
226 238 255
226 238 255
226 238 255
226 238 255
226 238 255
226 238 255
226 238 255
226 238 255
226 238 255
226 238 255
226 238 255
226 238 255
226 238 255
226 238 255
226 238 255
226 238 255
226 238 255
226 238 255
226 238 255
226 238 255
226 238 255
226 238 255
226 238 255
226 238 255
226 238 255
226 238 255
226 238 255
226 238 255
226 238 255
226 238 255
226 238 255
226 238 255
226 238 255
226 238 255
226 238 255
226 238 255
226 238 255
226 238 255
226 238 255
226 238 255
226 238 255
226 238 255
226 238 255
226 238 255
226 238 255
226 238 255
226 238 255
226 238 255
226 238 255
226 238 255
226 238 255
226 238 255
226 238 255
226 238 255
226 238 255
226 238 255
226 238 255
226 238 255
226 238 255
226 238 255
226 238 255
226 238 255
226 238 255
226 238 255
226 238 255
226 238 255
226 238 255
226 238 255
226 238 255
226 238 255
226 238 255
226 238 255
226 239 255
226 239 255
227 239 255
227 239 255
227 239 255
227 239 255
227 239 255
227 239 255
227 239 255
227 239 255
227 239 255
227 239 255
227 239 255
227 239 255
227 239 255
227 239 255
227 239 255
227 239 255
227 239 255
227 239 255
227 239 255
227 239 255
227 239 255
227 239 255
227 239 255
227 239 255
227 239 255
227 239 255
227 239 255
227 239 255
227 239 255
227 239 255
227 239 255
227 239 255
227 239 255
227 239 255
227 239 255
227 239 255
227 239 255
227 239 255
227 239 255
227 239 255
227 239 255
227 239 255
227 239 255
228 239 255
228 239 255
228 239 255
228 239 255
228 239 255
228 239 255
228 239 255
228 239 255
228 239 255
228 239 255
228 239 255
228 239 255
228 239 255
228 239 255
228 239 255
228 239 255
228 239 255
228 239 255
228 239 255
228 239 255
228 239 255
228 239 255
228 239 255
228 239 255
228 239 255
228 239 255
228 240 255
228 240 255
228 240 255
228 240 255
228 240 255
228 240 255
228 240 255
228 240 255
228 240 255
228 240 255
228 240 255
229 240 255
229 240 255
229 240 255
229 240 255
229 240 255
229 240 255
229 240 255
229 240 255
229 240 255
229 240 255
229 240 255
229 240 255
229 240 255
229 240 255
229 240 255
223 235 238
219 232 228
213 227 209
206 222 189
195 213 151
186 207 111
180 202 76
176 199 25
175 198 0
174 198 0
175 198 0
174 197 0
174 198 0
176 199 0
174 198 0
175 198 0
176 199 0
176 198 0
173 197 0
174 198 0
176 199 0
174 198 0
173 197 0
175 198 0
174 197 0
176 199 0
175 198 0
175 198 0
176 198 0
176 199 0
175 198 0
176 198 0
174 198 0
175 198 0
174 198 0
175 198 0
175 198 0
174 197 0
175 198 0
174 198 0
175 198 0
174 198 0
176 198 0
175 198 0
173 197 0
175 198 0
174 197 0
175 198 0
175 198 0
175 198 0
175 198 0
174 197 0
174 198 0
174 198 0
175 198 0
176 199 0
175 198 0
175 198 0
174 197 0
175 198 0
176 199 0
174 198 0
173 197 0
174 198 0
175 198 0
175 198 0
174 198 0
174 198 0
174 198 0
174 197 0
175 198 0
174 198 0
176 198 0
175 198 0
174 198 0
173 197 0
175 198 0
174 198 0
175 198 0
174 198 0
177 199 0
174 198 0
175 198 0
174 197 0
176 199 0
175 198 0
173 197 0
173 197 0
175 198 0
174 198 0
175 198 0
175 198 0
174 198 0
175 198 0
175 198 0
174 198 0
175 198 0
175 198 0
175 198 0
174 197 0
174 198 0
174 198 0
175 198 0
174 197 0
176 199 0
173 197 0
174 198 0
177 199 0
174 197 0
175 198 0
176 198 0
174 198 0
174 198 0
175 198 0
176 199 0
176 199 0
175 198 0
174 198 0
175 198 0
173 197 0
175 198 0
174 197 0
177 199 0
173 197 0
176 199 0
175 198 0
175 198 0
174 198 0
175 198 0
175 198 0
174 197 0
175 198 0
177 199 0
173 197 0
175 198 0
177 199 0
174 197 0
174 198 0
175 198 0
173 197 0
174 198 0
176 198 0
175 198 0
179 201 67
183 204 95
192 211 137
198 215 155
208 224 198
210 225 201
217 231 226
225 237 246
228 240 255
228 240 255
228 240 255
228 240 255
228 240 255
228 240 255
228 240 255
228 240 255
228 239 255
228 239 255
228 239 255
228 239 255
228 239 255
228 239 255
228 239 255
228 239 255
228 239 255
228 239 255
228 239 255
228 239 255
228 239 255
228 239 255
228 239 255
228 239 255
228 239 255
228 239 255
228 239 255
228 239 255
228 239 255
228 239 255
228 239 255
228 239 255
228 239 255
228 239 255
227 239 255
227 239 255
227 239 255
227 239 255
227 239 255
227 239 255
227 239 255
227 239 255
227 239 255
227 239 255
227 239 255
227 239 255
227 239 255
227 239 255
227 239 255
227 239 255
227 239 255
227 239 255
227 239 255
227 239 255
227 239 255
227 239 255
227 239 255
227 239 255
227 239 255
227 239 255
227 239 255
227 239 255
227 239 255
227 239 255
227 239 255
227 239 255
227 239 255
227 239 255
227 239 255
227 239 255
227 239 255
227 239 255
227 239 255
227 239 255
227 239 255
227 239 255
227 239 255
226 239 255
226 239 255
226 238 255
226 238 255
226 238 255
226 238 255
226 238 255
226 238 255
226 238 255
226 238 255
226 238 255
226 238 255
226 238 255
226 238 255
226 238 255
226 238 255
226 238 255
226 238 255
226 238 255
226 238 255
226 238 255
226 238 255
226 238 255
226 238 255
226 238 255
226 238 255
226 238 255
226 238 255
226 238 255
226 238 255
226 238 255
226 238 255
226 238 255
226 238 255
226 238 255
226 238 255
226 238 255
226 238 255
226 238 255
226 238 255
226 238 255
226 238 255
226 238 255
226 238 255
226 238 255
226 238 255
226 238 255
226 238 255
226 238 255
226 238 255
226 238 255
226 238 255
226 238 255
226 238 255
226 238 255
226 238 255
226 238 255
226 238 255
226 238 255
226 238 255
226 238 255
226 238 255
226 238 255
226 238 255
226 238 255
226 238 255
226 238 255
226 238 255
226 239 255
226 239 255
227 239 255
227 239 255
227 239 255
227 239 255
227 239 255
227 239 255
227 239 255
227 239 255
227 239 255
227 239 255
227 239 255
227 239 255
227 239 255
227 239 255
227 239 255
227 239 255
227 239 255
227 239 255
227 239 255
227 239 255
227 239 255
227 239 255
227 239 255
227 239 255
227 239 255
227 239 255
227 239 255
227 239 255
227 239 255
227 239 255
227 239 255
227 239 255
227 239 255
227 239 255
227 239 255
227 239 255
227 239 255
227 239 255
227 239 255
227 239 255
227 239 255
227 239 255
227 239 255
228 239 255
228 239 255
228 239 255
228 239 255
228 239 255
228 239 255
228 239 255
228 239 255
228 239 255
228 239 255
228 239 255
228 239 255
228 239 255
228 239 255
228 239 255
228 239 255
228 239 255
228 239 255
228 239 255
228 239 255
228 239 255
228 239 255
228 239 255
228 239 255
228 239 255
228 239 255
228 240 255
228 240 255
228 240 255
228 240 255
228 240 255
228 240 255
228 240 255
228 240 255
228 240 255
228 240 255
229 240 255
229 240 255
229 240 255
229 240 255
229 240 255
229 240 255
229 240 255
229 240 255
229 240 255
229 240 255
229 240 255
229 240 255
229 240 255
229 240 255
229 240 255
229 240 255
225 237 244
219 232 227
215 228 215
206 222 186
189 208 122
184 205 102
176 199 25
175 198 0
175 198 0
175 198 0
175 198 0
175 198 0
172 197 0
175 198 0
175 198 0
175 198 0
174 198 0
176 199 0
174 198 0
177 199 0
176 199 0
175 198 0
175 198 0
173 197 0
175 198 0
174 198 0
174 198 0
175 198 0
174 197 0
174 198 0
174 198 0
174 198 0
175 198 0
175 198 0
174 198 0
175 198 0
174 198 0
175 198 0
176 199 0
174 198 0
174 197 0
174 198 0
175 198 0
174 198 0
176 199 0
176 199 0
173 197 0
174 197 0
174 198 0
174 198 0
174 198 0
174 198 0
176 199 0
175 198 0
173 197 0
176 199 0
174 197 0
175 198 0
173 197 0
174 198 0
175 198 0
174 197 0
175 198 0
175 198 0
174 198 0
174 198 0
174 198 0
176 199 0
174 197 0
176 199 0
176 198 0
175 198 0
174 198 0
174 198 0
174 198 0
174 198 0
175 198 0
175 198 0
176 198 0
175 198 0
175 198 0
175 198 0
174 197 0
174 198 0
174 198 0
175 198 0
176 199 0
175 198 0
175 198 0
175 198 0
175 198 0
175 198 0
176 199 0
174 198 0
175 198 0
174 198 0
175 198 0
175 198 0
175 198 0
174 198 0
172 197 0
176 198 0
175 198 0
174 197 0
174 198 0
176 198 0
175 198 0
174 198 0
174 198 0
175 198 0
175 198 0
175 198 0
174 198 0
175 198 0
175 198 0
174 198 0
174 197 0
174 198 0
174 198 0
173 197 0
175 198 0
175 198 0
175 198 0
175 198 0
173 197 0
175 198 0
175 198 0
173 197 0
175 198 0
174 197 0
174 198 0
175 198 0
175 198 0
175 198 0
175 198 0
177 199 0
175 198 0
175 198 0
175 198 0
176 199 0
174 198 0
175 198 0
176 198 0
175 198 0
175 198 0
175 198 0
174 198 0
176 199 0
174 198 0
174 198 0
174 197 0
176 199 0
175 198 0
175 198 0
176 199 0
175 198 0
174 198 0
173 197 0
178 200 62
190 210 128
192 211 135
203 220 179
211 226 206
217 231 224
221 233 234
228 239 253
228 240 255
228 240 255
228 240 255
228 240 255
228 240 255
228 240 255
228 240 255
228 239 255
228 239 255
228 239 255
228 239 255
228 239 255
228 239 255
228 239 255
228 239 255
228 239 255
228 239 255
228 239 255
228 239 255
228 239 255
228 239 255
228 239 255
228 239 255
228 239 255
228 239 255
228 239 255
228 239 255
228 239 255
228 239 255
228 239 255
228 239 255
228 239 255
228 239 255
227 239 255
227 239 255
227 239 255
227 239 255
227 239 255
227 239 255
227 239 255
227 239 255
227 239 255
227 239 255
227 239 255
227 239 255
227 239 255
227 239 255
227 239 255
227 239 255
227 239 255
227 239 255
227 239 255
227 239 255
227 239 255
227 239 255
227 239 255
227 239 255
227 239 255
227 239 255
227 239 255
227 239 255
227 239 255
227 239 255
227 239 255
227 239 255
227 239 255
227 239 255
227 239 255
227 239 255
227 239 255
227 239 255
227 239 255
227 239 255
227 239 255
227 239 255
227 239 255
226 239 255
226 239 255
226 238 255
226 238 255
226 238 255
226 238 255
226 238 255
226 238 255
226 238 255
226 238 255
226 238 255
226 238 255
226 238 255
226 238 255
226 238 255
226 238 255
226 238 255
226 238 255
226 238 255
226 238 255
226 238 255
226 238 255
226 238 255
226 238 255
226 238 255
226 238 255
226 238 255
226 238 255
226 238 255
226 238 255
226 238 255
226 238 255
226 238 255
226 238 255
226 238 255
226 238 255
226 238 255
226 238 255
226 238 255
226 238 255
226 238 255
226 238 255
226 238 255
226 238 255
226 238 255
226 238 255
226 238 255
226 238 255
226 238 255
226 238 255
226 238 255
226 238 255
226 238 255
226 238 255
226 239 255
226 239 255
227 239 255
227 239 255
227 239 255
227 239 255
227 239 255
227 239 255
227 239 255
227 239 255
227 239 255
227 239 255
227 239 255
227 239 255
227 239 255
227 239 255
227 239 255
227 239 255
227 239 255
227 239 255
227 239 255
227 239 255
227 239 255
227 239 255
227 239 255
227 239 255
227 239 255
227 239 255
227 239 255
227 239 255
227 239 255
227 239 255
227 239 255
227 239 255
227 239 255
227 239 255
227 239 255
227 239 255
227 239 255
227 239 255
227 239 255
227 239 255
227 239 255
227 239 255
227 239 255
228 239 255
228 239 255
228 239 255
228 239 255
228 239 255
228 239 255
228 239 255
228 239 255
228 239 255
228 239 255
228 239 255
228 239 255
228 239 255
228 239 255
228 239 255
228 239 255
228 239 255
228 239 255
228 239 255
228 239 255
228 239 255
228 239 255
228 239 255
228 239 255
228 239 255
228 239 255
228 240 255
228 240 255
228 240 255
228 240 255
228 240 255
228 240 255
228 240 255
228 240 255
228 240 255
228 240 255
229 240 255
229 240 255
229 240 255
229 240 255
229 240 255
229 240 255
229 240 255
229 240 255
229 240 255
229 240 255
229 240 255
229 240 255
229 240 255
229 240 255
229 240 255
229 240 255
226 238 249
217 231 223
208 223 194
202 219 175
193 212 142
185 206 105
176 199 44
174 197 0
174 197 0
174 198 0
175 198 0
175 198 0
173 197 0
175 198 0
174 198 0
174 198 0
176 199 0
175 198 0
175 198 0
173 197 0
174 198 0
176 199 0
176 198 0
176 198 0
175 198 0
175 198 0
175 198 0
175 198 0
174 197 0
174 198 0
175 198 0
176 199 0
177 199 0
175 198 0
174 198 0
173 197 0
174 197 0
174 198 0
172 197 0
175 198 0
175 198 0
175 198 0
175 198 0
173 197 0
174 198 0
175 198 0
174 198 0
175 198 0
175 198 0
172 197 0
176 199 0
176 199 0
174 197 0
174 198 0
175 198 0
175 198 0
175 198 0
174 198 0
175 198 0
174 198 0
175 198 0
176 199 0
176 199 0
175 198 0
172 197 0
176 199 0
173 197 0
176 199 0
175 198 0
175 198 0
176 198 0
174 197 0
174 197 0
174 198 0
175 198 0
174 197 0
174 198 0
175 198 0
174 197 0
174 198 0
176 199 0
175 198 0
173 197 0
174 198 0
175 198 0
175 198 0
173 197 0
175 198 0
175 198 0
173 197 0
177 199 0
175 198 0
175 198 0
175 198 0
177 199 0
175 198 0
175 198 0
174 198 0
176 199 0
176 199 0
175 198 0
173 197 0
173 197 0
175 198 0
174 198 0
174 198 0
175 198 0
175 198 0
174 198 0
174 197 0
176 198 0
177 199 0
175 198 0
173 197 0
175 198 0
175 198 0
174 198 0
176 199 0
174 198 0
175 198 0
175 198 0
175 198 0
175 198 0
173 197 0
174 198 0
174 198 0
175 198 0
175 198 0
176 199 0
174 198 0
174 198 0
175 198 0
173 197 0
174 198 0
175 198 0
174 198 0
175 198 0
177 199 0
174 198 0
173 197 0
175 198 0
174 198 0
174 197 0
175 198 0
177 199 0
174 198 0
175 198 0
175 198 0
173 197 0
174 198 0
174 198 0
173 197 0
173 197 0
175 198 0
173 197 0
175 198 0
174 198 0
175 198 0
174 198 0
175 198 0
175 198 0
175 198 0
174 198 0
175 198 0
174 197 0
176 199 0
175 198 0
175 198 0
176 199 0
175 198 0
174 198 0
175 198 0
175 198 0
182 203 84
196 214 151
200 217 169
205 221 188
212 226 207
221 234 236
228 240 255
228 240 255
228 240 255
228 240 255
228 240 255
228 240 255
228 240 255
228 240 255
228 239 255
228 239 255
228 239 255
228 239 255
228 239 255
228 239 255
228 239 255
228 239 255
228 239 255
228 239 255
228 239 255
228 239 255
228 239 255
228 239 255
228 239 255
228 239 255
228 239 255
228 239 255
228 239 255
228 239 255
228 239 255
228 239 255
228 239 255
228 239 255
228 239 255
228 239 255
227 239 255
227 239 255
227 239 255
227 239 255
227 239 255
227 239 255
227 239 255
227 239 255
227 239 255
227 239 255
227 239 255
227 239 255
227 239 255
227 239 255
227 239 255
227 239 255
227 239 255
227 239 255
227 239 255
227 239 255
227 239 255
227 239 255
227 239 255
227 239 255
227 239 255
227 239 255
227 239 255
227 239 255
227 239 255
227 239 255
227 239 255
227 239 255
227 239 255
227 239 255
227 239 255
227 239 255
227 239 255
227 239 255
227 239 255
227 239 255
227 239 255
227 239 255
227 239 255
226 239 255
226 239 255
226 238 255
226 238 255
226 238 255
226 238 255
226 238 255
226 238 255
226 238 255
226 238 255
226 238 255
226 238 255
226 238 255
226 238 255
226 238 255
226 238 255
226 238 255
226 238 255
226 238 255
226 238 255
226 238 255
226 238 255
226 238 255
226 238 255
226 238 255
226 238 255
226 238 255
226 238 255
226 238 255
226 238 255
226 238 255
226 238 255
226 238 255
226 238 255
226 238 255
226 238 255
226 238 255
226 238 255
226 238 255
226 238 255
226 239 255
226 239 255
227 239 255
227 239 255
227 239 255
227 239 255
227 239 255
227 239 255
227 239 255
227 239 255
227 239 255
227 239 255
227 239 255
227 239 255
227 239 255
227 239 255
227 239 255
227 239 255
227 239 255
227 239 255
227 239 255
227 239 255
227 239 255
227 239 255
227 239 255
227 239 255
227 239 255
227 239 255
227 239 255
227 239 255
227 239 255
227 239 255
227 239 255
227 239 255
227 239 255
227 239 255
227 239 255
227 239 255
227 239 255
227 239 255
227 239 255
227 239 255
227 239 255
227 239 255
227 239 255
227 239 255
228 239 255
228 239 255
228 239 255
228 239 255
228 239 255
228 239 255
228 239 255
228 239 255
228 239 255
228 239 255
228 239 255
228 239 255
228 239 255
228 239 255
228 239 255
228 239 255
228 239 255
228 239 255
228 239 255
228 239 255
228 239 255
228 239 255
228 239 255
228 239 255
228 239 255
228 239 255
228 240 255
228 240 255
228 240 255
228 240 255
228 240 255
228 240 255
228 240 255
228 240 255
228 240 255
229 240 255
229 240 255
229 240 255
229 240 255
229 240 255
229 240 255
229 240 255
229 240 255
229 240 255
229 240 255
229 240 255
229 240 255
229 240 255
229 240 255
229 240 255
229 240 255
229 240 255
226 237 246
216 230 221
212 227 207
193 212 142
196 213 147
182 203 88
175 198 0
175 198 0
174 198 0
174 198 0
176 199 0
173 197 0
174 198 0
174 198 0
175 198 0
174 197 0
175 198 0
175 198 0
174 198 0
175 198 0
175 198 0
175 198 0
176 198 0
174 198 0
172 197 0
175 198 0
174 198 0
175 198 0
174 198 0
175 198 0
175 198 0
175 198 0
174 197 0
176 198 0
174 197 0
173 197 0
175 198 0
176 199 0
174 198 0
174 198 0
174 198 0
174 198 0
173 197 0
174 198 0
174 198 0
175 198 0
174 198 0
175 198 0
174 198 0
173 197 0
174 198 0
173 197 0
175 198 0
174 198 0
175 198 0
173 197 0
173 197 0
174 198 0
176 199 0
174 198 0
175 198 0
174 197 0
176 198 0
175 198 0
174 198 0
174 198 0
176 199 0
174 198 0
174 198 0
175 198 0
175 198 0
174 198 0
176 199 0
174 198 0
175 198 0
175 198 0
175 198 0
174 198 0
176 198 0
174 197 0
175 198 0
176 199 0
174 198 0
176 199 0
174 198 0
173 197 0
174 198 0
175 198 0
174 198 0
175 198 0
176 198 0
175 198 0
175 198 0
175 198 0
174 198 0
175 198 0
176 199 0
174 198 0
174 198 0
174 198 0
174 197 0
173 197 0
175 198 0
174 198 0
175 198 0
174 198 0
175 198 0
174 198 0
175 198 0
175 198 0
176 199 0
176 198 0
176 199 0
175 198 0
175 198 0
174 197 0
176 199 0
174 198 0
175 198 0
174 197 0
173 197 0
174 197 0
175 198 0
173 197 0
172 197 0
175 198 0
175 198 0
175 198 0
173 197 0
175 198 0
176 198 0
174 198 0
174 198 0
173 197 0
174 198 0
177 199 0
174 198 0
175 198 0
176 199 0
173 197 0
174 198 0
175 198 0
176 199 0
174 198 0
174 197 0
173 197 0
173 197 0
174 197 0
175 198 0
174 198 0
174 198 0
174 198 0
174 198 0
175 198 0
176 198 0
176 199 0
175 198 0
176 199 0
174 198 0
173 197 0
172 197 0
176 199 0
174 198 0
175 198 0
175 198 0
175 198 0
175 198 0
176 198 0
174 197 0
176 199 0
175 198 0
174 198 0
176 199 0
175 198 0
175 198 0
176 199 0
174 198 0
174 197 0
175 198 0
176 199 0
174 197 0
173 197 0
175 198 0
176 199 0
175 198 0
175 198 25
185 206 108
193 212 142
197 215 157
210 225 204
216 230 220
222 234 237
228 240 255
228 240 255
228 240 255
228 240 255
228 240 255
228 240 255
228 240 255
228 239 255
228 239 255
228 239 255
228 239 255
228 239 255
228 239 255
228 239 255
228 239 255
228 239 255
228 239 255
228 239 255
228 239 255
228 239 255
228 239 255
228 239 255
228 239 255
228 239 255
228 239 255
228 239 255
228 239 255
228 239 255
228 239 255
228 239 255
228 239 255
228 239 255
228 239 255
227 239 255
227 239 255
227 239 255
227 239 255
227 239 255
227 239 255
227 239 255
227 239 255
227 239 255
227 239 255
227 239 255
227 239 255
227 239 255
227 239 255
227 239 255
227 239 255
227 239 255
227 239 255
227 239 255
227 239 255
227 239 255
227 239 255
227 239 255
227 239 255
227 239 255
227 239 255
227 239 255
227 239 255
227 239 255
227 239 255
227 239 255
227 239 255
227 239 255
227 239 255
227 239 255
227 239 255
227 239 255
227 239 255
227 239 255
227 239 255
227 239 255
227 239 255
227 239 255
227 239 255
226 239 255
226 239 255
226 238 255
226 238 255
226 238 255
226 238 255
226 238 255
226 238 255
226 238 255
226 238 255
226 238 255
226 238 255
226 238 255
226 238 255
226 238 255
226 238 255
226 238 255
226 238 255
226 238 255
226 238 255
226 238 255
226 238 255
226 238 255
226 238 255
226 238 255
226 238 255
226 239 255
226 239 255
227 239 255
227 239 255
227 239 255
227 239 255
227 239 255
227 239 255
227 239 255
227 239 255
227 239 255
227 239 255
227 239 255
227 239 255
227 239 255
227 239 255
227 239 255
227 239 255
227 239 255
227 239 255
227 239 255
227 239 255
227 239 255
227 239 255
227 239 255
227 239 255
227 239 255
227 239 255
227 239 255
227 239 255
227 239 255
227 239 255
227 239 255
227 239 255
227 239 255
227 239 255
227 239 255
227 239 255
227 239 255
227 239 255
227 239 255
227 239 255
227 239 255
227 239 255
227 239 255
227 239 255
228 239 255
228 239 255
228 239 255
228 239 255
228 239 255
228 239 255
228 239 255
228 239 255
228 239 255
228 239 255
228 239 255
228 239 255
228 239 255
228 239 255
228 239 255
228 239 255
228 239 255
228 239 255
228 239 255
228 239 255
228 239 255
228 239 255
228 239 255
228 239 255
228 239 255
228 239 255
228 240 255
228 240 255
228 240 255
228 240 255
228 240 255
228 240 255
228 240 255
228 240 255
228 240 255
228 240 255
229 240 255
229 240 255
229 240 255
229 240 255
229 240 255
229 240 255
229 240 255
229 240 255
229 240 255
229 240 255
229 240 255
229 240 255
229 240 255
229 240 255
229 240 255
229 240 255
229 240 255
225 237 245
217 230 221
204 220 181
201 218 173
190 209 128
180 202 72
175 198 0
175 198 0
175 198 0
173 197 0
176 199 0
174 198 0
174 198 0
175 198 0
174 198 0
173 197 0
174 198 0
175 198 0
175 198 0
175 198 0
175 198 0
174 198 0
175 198 0
175 198 0
173 197 0
174 198 0
174 198 0
175 198 0
175 198 0
176 199 0
175 198 0
176 199 0
175 198 0
174 198 0
174 198 0
177 199 0
174 198 0
175 198 0
175 198 0
174 197 0
174 198 0
174 198 0
175 198 0
175 198 0
174 198 0
175 198 0
174 197 0
174 198 0
174 197 0
176 199 0
174 197 0
173 197 0
175 198 0
175 198 0
173 197 0
175 198 0
176 199 0
175 198 0
174 198 0
174 197 0
176 198 0
175 198 0
174 198 0
175 198 0
175 198 0
174 198 0
173 197 0
173 197 0
176 198 0
174 197 0
174 198 0
175 198 0
175 198 0
174 198 0
174 197 0
174 197 0
176 198 0
175 198 0
174 198 0
175 198 0
174 198 0
175 198 0
174 198 0
174 198 0
173 197 0
174 198 0
174 198 0
174 198 0
173 197 0
175 198 0
174 198 0
173 197 0
175 198 0
175 198 0
172 196 0
175 198 0
175 198 0
173 197 0
175 198 0
173 197 0
174 197 0
174 198 0
174 198 0
175 198 0
176 199 0
175 198 0
175 198 0
174 198 0
175 198 0
175 198 0
174 198 0
174 197 0
174 198 0
176 199 0
175 198 0
173 197 0
172 197 0
175 198 0
175 198 0
174 198 0
174 197 0
175 198 0
173 197 0
175 198 0
176 199 0
175 198 0
175 198 0
174 197 0
175 198 0
175 198 0
178 199 0
172 197 0
175 198 0
176 198 0
174 197 0
173 197 0
175 198 0
176 198 0
173 197 0
174 198 0
175 198 0
174 197 0
173 197 0
174 198 0
175 198 0
175 198 0
175 198 0
175 198 0
173 197 0
176 199 0
176 199 0
175 198 0
174 198 0
174 197 0
175 198 0
175 198 0
175 198 0
174 198 0
175 198 0
175 198 0
175 198 0
175 198 0
175 198 0
175 198 0
174 198 0
175 198 0
174 197 0
174 198 0
175 198 0
176 199 0
174 198 0
174 198 0
172 197 0
176 199 0
174 198 0
176 199 0
174 198 0
173 197 0
175 198 0
174 198 0
173 197 0
177 199 0
174 198 0
175 198 0
175 198 0
175 198 0
176 198 0
175 198 0
176 199 0
174 197 0
174 198 0
175 198 0
175 198 0
176 199 0
174 198 0
175 198 0
174 198 0
175 198 0
177 200 44
187 207 105
194 212 142
206 222 189
212 227 207
219 232 227
226 238 249
228 240 255
228 240 255
228 240 255
228 240 255
228 240 255
228 240 255
228 240 255
228 239 255
228 239 255
228 239 255
228 239 255
228 239 255
228 239 255
228 239 255
228 239 255
228 239 255
228 239 255
228 239 255
228 239 255
228 239 255
228 239 255
228 239 255
228 239 255
228 239 255
228 239 255
228 239 255
228 239 255
228 239 255
228 239 255
228 239 255
228 239 255
228 239 255
228 239 255
227 239 255
227 239 255
227 239 255
227 239 255
227 239 255
227 239 255
227 239 255
227 239 255
227 239 255
227 239 255
227 239 255
227 239 255
227 239 255
227 239 255
227 239 255
227 239 255
227 239 255
227 239 255
227 239 255
227 239 255
227 239 255
227 239 255
227 239 255
227 239 255
227 239 255
227 239 255
227 239 255
227 239 255
227 239 255
227 239 255
227 239 255
227 239 255
227 239 255
227 239 255
227 239 255
227 239 255
227 239 255
227 239 255
227 239 255
227 239 255
227 239 255
227 239 255
227 239 255
227 239 255
226 239 255
226 239 255
226 238 255
226 238 255
226 238 255
226 238 255
226 238 255
226 238 255
226 238 255
226 238 255
226 238 255
226 238 255
226 239 255
226 239 255
227 239 255
227 239 255
227 239 255
227 239 255
227 239 255
227 239 255
227 239 255
227 239 255
227 239 255
227 239 255
227 239 255
227 239 255
227 239 255
227 239 255
227 239 255
227 239 255
227 239 255
227 239 255
227 239 255
227 239 255
227 239 255
227 239 255
227 239 255
227 239 255
227 239 255
227 239 255
227 239 255
227 239 255
227 239 255
227 239 255
227 239 255
227 239 255
227 239 255
227 239 255
227 239 255
227 239 255
227 239 255
227 239 255
227 239 255
227 239 255
227 239 255
227 239 255
227 239 255
227 239 255
228 239 255
228 239 255
228 239 255
228 239 255
228 239 255
228 239 255
228 239 255
228 239 255
228 239 255
228 239 255
228 239 255
228 239 255
228 239 255
228 239 255
228 239 255
228 239 255
228 239 255
228 239 255
228 239 255
228 239 255
228 239 255
228 239 255
228 239 255
228 239 255
228 239 255
228 239 255
228 239 255
228 240 255
228 240 255
228 240 255
228 240 255
228 240 255
228 240 255
228 240 255
228 240 255
228 240 255
228 240 255
229 240 255
229 240 255
229 240 255
229 240 255
229 240 255
229 240 255
229 240 255
229 240 255
229 240 255
229 240 255
229 240 255
229 240 255
229 240 255
229 240 255
229 240 255
229 240 255
229 240 255
227 239 250
219 232 228
205 221 186
201 218 171
192 211 137
188 207 111
176 199 0
174 198 0
173 197 0
174 198 0
176 199 0
175 198 0
174 198 0
172 197 0
175 198 0
175 198 0
173 197 0
174 198 0
176 198 0
174 197 0
175 198 0
176 199 0
176 199 0
175 198 0
176 199 0
176 198 0
174 198 0
175 198 0
176 199 0
174 198 0
175 198 0
173 197 0
173 197 0
174 197 0
175 198 0
175 198 0
176 199 0
174 198 0
174 198 0
174 198 0
174 198 0
175 198 0
175 198 0
175 198 0
174 197 0
174 198 0
176 198 0
175 198 0
175 198 0
174 197 0
174 198 0
174 198 0
175 198 0
174 198 0
174 197 0
176 199 0
173 197 0
176 199 0
175 198 0
176 198 0
175 198 0
174 197 0
175 198 0
174 198 0
175 198 0
176 198 0
175 198 0
176 199 0
174 198 0
174 198 0
174 198 0
172 197 0
174 197 0
174 198 0
176 199 0
175 198 0
176 198 0
176 198 0
174 198 0
173 197 0
174 197 0
175 198 0
175 198 0
173 197 0
176 199 0
175 198 0
174 197 0
175 198 0
174 198 0
174 197 0
176 198 0
174 197 0
174 198 0
175 198 0
175 198 0
175 198 0
174 198 0
173 197 0
174 198 0
174 198 0
175 198 0
174 198 0
173 197 0
174 197 0
174 197 0
174 198 0
174 198 0
176 199 0
174 198 0
175 198 0
175 198 0
174 198 0
175 198 0
174 198 0
174 198 0
174 198 0
174 198 0
176 198 0
175 198 0
174 198 0
174 198 0
175 198 0
174 198 0
174 198 0
176 198 0
175 197 0
175 198 0
173 197 0
174 198 0
172 197 0
173 197 0
174 198 0
175 198 0
176 199 0
173 197 0
174 197 0
175 198 0
173 197 0
176 199 0
176 199 0
175 198 0
176 199 0
174 198 0
175 198 0
176 199 0
174 198 0
173 197 0
176 199 0
175 198 0
175 198 0
174 198 0
176 198 0
174 198 0
174 198 0
174 198 0
174 198 0
175 198 0
174 198 0
174 198 0
174 198 0
173 197 0
175 198 0
173 197 0
174 198 0
174 198 0
175 198 0
174 198 0
175 198 0
175 198 0
175 198 0
175 198 0
173 197 0
175 198 0
175 198 0
173 197 0
175 198 0
173 197 0
175 198 0
172 197 0
174 198 0
174 198 0
175 198 0
176 199 0
175 198 0
175 198 0
175 198 0
175 198 0
175 198 0
174 198 0
177 199 0
173 197 0
175 198 0
173 197 0
174 198 0
175 198 0
174 198 0
174 198 0
175 198 0
175 198 0
176 198 0
173 197 0
176 199 0
175 198 0
175 198 0
174 198 0
174 198 0
176 199 0
174 198 0
174 198 0
175 198 0
175 198 36
184 205 99
192 211 137
197 215 157
208 224 198
218 232 228
226 238 249
228 240 255
228 240 255
228 240 255
228 240 255
228 240 255
228 240 255
228 240 255
228 239 255
228 239 255
228 239 255
228 239 255
228 239 255
228 239 255
228 239 255
228 239 255
228 239 255
228 239 255
228 239 255
228 239 255
228 239 255
228 239 255
228 239 255
228 239 255
228 239 255
228 239 255
228 239 255
228 239 255
228 239 255
228 239 255
228 239 255
228 239 255
228 239 255
228 239 255
227 239 255
227 239 255
227 239 255
227 239 255
227 239 255
227 239 255
227 239 255
227 239 255
227 239 255
227 239 255
227 239 255
227 239 255
227 239 255
227 239 255
227 239 255
227 239 255
227 239 255
227 239 255
227 239 255
227 239 255
227 239 255
227 239 255
227 239 255
227 239 255
227 239 255
227 239 255
227 239 255
227 239 255
227 239 255
227 239 255
227 239 255
227 239 255
227 239 255
227 239 255
227 239 255
227 239 255
227 239 255
227 239 255
227 239 255
227 239 255
227 239 255
227 239 255
227 239 255
227 239 255
227 239 255
226 239 255
226 239 255
226 238 255
226 238 255
227 239 255
227 239 255
227 239 255
227 239 255
227 239 255
227 239 255
227 239 255
227 239 255
227 239 255
227 239 255
227 239 255
227 239 255
227 239 255
227 239 255
227 239 255
227 239 255
227 239 255
227 239 255
227 239 255
227 239 255
227 239 255
227 239 255
227 239 255
227 239 255
227 239 255
227 239 255
227 239 255
227 239 255
227 239 255
227 239 255
227 239 255
227 239 255
227 239 255
227 239 255
227 239 255
227 239 255
227 239 255
227 239 255
227 239 255
227 239 255
227 239 255
228 239 255
228 239 255
228 239 255
228 239 255
228 239 255
228 239 255
228 239 255
228 239 255
228 239 255
228 239 255
228 239 255
228 239 255
228 239 255
228 239 255
228 239 255
228 239 255
228 239 255
228 239 255
228 239 255
228 239 255
228 239 255
228 239 255
228 239 255
228 239 255
228 239 255
228 239 255
228 239 255
228 240 255
228 240 255
228 240 255
228 240 255
228 240 255
228 240 255
228 240 255
228 240 255
228 240 255
228 240 255
229 240 255
229 240 255
229 240 255
229 240 255
229 240 255
229 240 255
229 240 255
229 240 255
229 240 255
229 240 255
229 240 255
229 240 255
229 240 255
229 240 255
229 240 255
229 240 255
229 240 255
229 240 254
223 235 240
215 229 218
205 221 184
193 212 140
184 204 88
174 198 0
175 198 0
176 199 0
174 198 0
175 198 0
175 198 0
174 198 0
176 198 0
176 199 0
173 197 0
174 198 0
175 198 0
173 197 0
176 198 0
175 198 0
174 198 0
174 197 0
174 198 0
175 198 0
174 198 0
175 198 0
175 198 0
176 199 0
174 197 0
173 197 0
175 198 0
176 199 0
176 198 0
173 197 0
175 198 0
174 198 0
173 197 0
175 198 0
174 198 0
174 198 0
173 197 0
174 197 0
175 198 0
175 198 0
175 198 0
175 198 0
174 197 0
176 199 0
174 198 0
175 198 0
174 198 0
175 198 0
175 198 0
176 198 0
175 198 0
174 198 0
176 198 0
175 198 0
175 198 0
175 198 0
175 198 0
175 198 0
174 198 0
177 199 0
172 197 0
173 197 0
174 198 0
175 198 0
174 197 0
174 198 0
176 198 0
176 199 0
176 198 0
175 198 0
175 198 0
174 197 0
176 198 0
175 198 0
174 198 0
173 197 0
175 198 0
174 197 0
176 199 0
175 198 0
174 197 0
175 198 0
175 198 0
175 198 0
175 198 0
174 198 0
174 198 0
174 197 0
175 198 0
176 199 0
174 197 0
174 198 0
175 198 0
174 198 0
173 197 0
174 198 0
174 198 0
174 198 0
174 198 0
176 198 0
174 197 0
174 198 0
175 198 0
174 198 0
175 198 0
175 198 0
174 198 0
176 199 0
174 198 0
174 198 0
174 198 0
175 198 0
174 197 0
176 199 0
174 197 0
174 198 0
176 198 0
174 198 0
176 198 0
175 198 0
175 198 0
173 197 0
172 197 0
173 197 0
175 198 0
174 198 0
174 198 0
174 198 0
175 198 0
174 197 0
175 198 0
175 198 0
173 197 0
175 198 0
175 198 0
174 198 0
175 198 0
174 198 0
174 197 0
176 199 0
175 198 0
176 198 0
174 198 0
173 197 0
175 198 0
175 198 0
176 199 0
176 199 0
175 198 0
176 199 0
173 197 0
174 197 0
175 198 0
174 198 0
176 199 0
175 198 0
173 197 0
176 199 0
175 198 0
174 197 0
175 198 0
172 197 0
176 198 0
174 198 0
174 198 0
175 198 0
175 198 0
174 198 0
175 198 0
175 198 0
175 198 0
172 197 0
174 198 0
174 197 0
174 198 0
174 198 0
174 198 0
174 198 0
176 199 0
175 198 0
174 198 0
177 199 0
175 198 0
174 198 0
175 198 0
174 198 0
175 198 0
173 197 0
174 198 0
175 198 0
173 197 0
173 197 0
175 198 0
174 198 0
175 198 0
175 198 0
176 199 0
173 197 0
175 198 0
174 198 0
175 198 0
175 198 0
176 198 0
174 197 0
174 197 0
174 198 0
174 197 0
174 198 0
175 198 0
176 198 0
173 197 0
175 198 0
176 199 0
175 198 0
175 198 0
175 198 0
174 198 0
174 198 25
184 205 99
191 210 135
203 219 179
210 225 203
219 232 228
226 238 249
228 240 255
228 240 255
228 240 255
228 240 255
228 240 255
228 240 255
228 240 255
228 239 255
228 239 255
228 239 255
228 239 255
228 239 255
228 239 255
228 239 255
228 239 255
228 239 255
228 239 255
228 239 255
228 239 255
228 239 255
228 239 255
228 239 255
228 239 255
228 239 255
228 239 255
228 239 255
228 239 255
228 239 255
228 239 255
228 239 255
228 239 255
228 239 255
228 239 255
228 239 255
227 239 255
227 239 255
227 239 255
227 239 255
227 239 255
227 239 255
227 239 255
227 239 255
227 239 255
227 239 255
227 239 255
227 239 255
227 239 255
227 239 255
227 239 255
227 239 255
227 239 255
227 239 255
227 239 255
227 239 255
227 239 255
227 239 255
227 239 255
227 239 255
227 239 255
227 239 255
227 239 255
227 239 255
227 239 255
227 239 255
227 239 255
227 239 255
227 239 255
227 239 255
227 239 255
227 239 255
227 239 255
227 239 255
227 239 255
227 239 255
227 239 255
227 239 255
227 239 255
227 239 255
227 239 255
227 239 255
227 239 255
227 239 255
227 239 255
227 239 255
227 239 255
227 239 255
227 239 255
227 239 255
227 239 255
227 239 255
227 239 255
227 239 255
227 239 255
227 239 255
227 239 255
227 239 255
227 239 255
227 239 255
227 239 255
227 239 255
227 239 255
227 239 255
227 239 255
227 239 255
227 239 255
227 239 255
227 239 255
227 239 255
227 239 255
227 239 255
227 239 255
228 239 255
228 239 255
228 239 255
228 239 255
228 239 255
228 239 255
228 239 255
228 239 255
228 239 255
228 239 255
228 239 255
228 239 255
228 239 255
228 239 255
228 239 255
228 239 255
228 239 255
228 239 255
228 239 255
228 239 255
228 239 255
228 239 255
228 239 255
228 239 255
228 239 255
228 239 255
228 239 255
228 240 255
228 240 255
228 240 255
228 240 255
228 240 255
228 240 255
228 240 255
228 240 255
228 240 255
228 240 255
229 240 255
229 240 255
229 240 255
229 240 255
229 240 255
229 240 255
229 240 255
229 240 255
229 240 255
229 240 255
229 240 255
229 240 255
229 240 255
229 240 255
229 240 255
229 240 255
229 240 255
229 240 255
228 239 252
221 233 231
207 222 189
201 218 173
189 209 125
179 201 72
175 198 0
175 198 0
172 197 0
177 199 0
174 197 0
176 198 0
175 198 0
174 198 0
177 199 0
174 197 0
175 198 0
174 198 0
173 197 0
174 197 0
176 199 0
176 198 0
173 197 0
176 198 0
173 197 0
176 199 0
174 198 0
174 197 0
176 199 0
174 198 0
176 199 0
175 198 0
174 198 0
175 198 0
174 197 0
175 198 0
174 198 0
174 198 0
173 197 0
175 198 0
174 198 0
176 199 0
176 199 0
174 198 0
174 198 0
175 198 0
176 199 0
175 198 0
175 198 0
174 197 0
174 197 0
174 198 0
174 197 0
174 198 0
174 197 0
174 198 0
174 197 0
175 198 0
176 199 0
174 198 0
173 197 0
174 198 0
175 198 0
173 197 0
173 197 0
173 197 0
175 198 0
174 198 0
176 198 0
175 198 0
174 198 0
175 198 0
173 197 0
174 198 0
174 198 0
173 197 0
174 197 0
174 197 0
176 199 0
173 197 0
174 198 0
175 198 0
174 197 0
173 197 0
174 198 0
174 197 0
175 198 0
175 198 0
174 198 0
175 198 0
175 198 0
175 198 0
175 198 0
175 198 0
174 198 0
174 198 0
175 198 0
175 198 0
175 198 0
175 198 0
175 198 0
176 199 0
175 198 0
175 198 0
173 197 0
174 197 0
174 198 0
175 198 0
175 198 0
173 197 0
176 199 0
174 197 0
175 198 0
176 199 0
175 198 0
174 198 0
173 197 0
175 198 0
174 198 0
174 198 0
175 198 0
174 197 0
176 198 0
174 198 0
174 198 0
176 199 0
175 198 0
176 199 0
173 197 0
174 198 0
174 197 0
176 199 0
174 198 0
175 198 0
173 197 0
174 198 0
177 199 0
174 198 0
175 198 0
174 198 0
174 198 0
174 198 0
174 198 0
173 197 0
174 198 0
176 199 0
174 198 0
175 198 0
174 198 0
174 198 0
173 197 0
176 198 0
175 198 0
174 198 0
174 198 0
173 197 0
173 197 0
175 198 0
175 198 0
173 197 0
174 198 0
176 199 0
175 198 0
175 198 0
174 198 0
174 198 0
176 198 0
174 198 0
174 198 0
175 198 0
176 199 0
175 198 0
174 198 0
174 198 0
174 198 0
176 198 0
175 198 0
176 199 0
176 199 0
176 199 0
173 197 0
175 198 0
175 198 0
175 198 0
174 197 0
176 198 0
176 198 0
174 198 0
174 197 0
175 198 0
173 197 0
174 197 0
174 198 0
175 198 0
176 199 0
177 199 0
174 198 0
175 198 0
175 198 0
173 197 0
174 198 0
174 198 0
175 198 0
175 198 0
176 199 0
173 197 0
174 198 0
173 197 0
176 199 0
175 198 0
174 198 0
177 199 0
174 198 0
176 199 0
175 198 0
175 198 0
174 197 0
173 197 0
176 199 0
174 198 0
175 198 0
174 198 0
175 198 0
174 198 0
176 199 0
174 198 0
176 199 0
174 198 0
176 199 0
174 198 0
175 198 0
172 197 0
174 198 0
174 198 0
183 204 95
186 207 117
207 222 188
207 223 193
217 231 226
226 238 249
228 240 255
228 240 255
228 240 255
228 240 255
228 240 255
228 240 255
228 240 255
228 239 255
228 239 255
228 239 255
228 239 255
228 239 255
228 239 255
228 239 255
228 239 255
228 239 255
228 239 255
228 239 255
228 239 255
228 239 255
228 239 255
228 239 255
228 239 255
228 239 255
228 239 255
228 239 255
228 239 255
228 239 255
228 239 255
228 239 255
228 239 255
228 239 255
228 239 255
228 239 255
227 239 255
227 239 255
227 239 255
227 239 255
227 239 255
227 239 255
227 239 255
227 239 255
227 239 255
227 239 255
227 239 255
227 239 255
227 239 255
227 239 255
227 239 255
227 239 255
227 239 255
227 239 255
227 239 255
227 239 255
227 239 255
227 239 255
227 239 255
227 239 255
227 239 255
227 239 255
227 239 255
227 239 255
227 239 255
227 239 255
227 239 255
227 239 255
227 239 255
227 239 255
227 239 255
227 239 255
227 239 255
227 239 255
227 239 255
227 239 255
227 239 255
227 239 255
227 239 255
227 239 255
227 239 255
227 239 255
227 239 255
227 239 255
227 239 255
227 239 255
227 239 255
227 239 255
227 239 255
227 239 255
227 239 255
227 239 255
227 239 255
227 239 255
227 239 255
227 239 255
227 239 255
227 239 255
227 239 255
227 239 255
227 239 255
228 239 255
228 239 255
228 239 255
228 239 255
228 239 255
228 239 255
228 239 255
228 239 255
228 239 255
228 239 255
228 239 255
228 239 255
228 239 255
228 239 255
228 239 255
228 239 255
228 239 255
228 239 255
228 239 255
228 239 255
228 239 255
228 239 255
228 239 255
228 239 255
228 239 255
228 239 255
228 239 255
228 240 255
228 240 255
228 240 255
228 240 255
228 240 255
228 240 255
228 240 255
228 240 255
228 240 255
228 240 255
229 240 255
229 240 255
229 240 255
229 240 255
229 240 255
229 240 255
229 240 255
229 240 255
229 240 255
229 240 255
229 240 255
229 240 255
229 240 255
229 240 255
229 240 255
229 240 255
229 240 255
229 240 255
229 240 255
226 237 246
215 229 220
209 224 196
200 217 167
184 205 95
177 200 51
175 198 0
176 198 0
175 198 0
177 199 0
175 198 0
175 198 0
174 198 0
176 198 0
174 198 0
174 197 0
175 198 0
173 197 0
174 197 0
176 199 0
174 198 0
174 198 0
176 198 0
175 198 0
174 198 0
176 199 0
174 198 0
175 198 0
175 198 0
175 198 0
175 198 0
174 198 0
176 199 0
175 198 0
176 199 0
176 198 0
176 199 0
175 198 0
176 199 0
175 198 0
176 199 0
173 197 0
175 198 0
176 199 0
173 197 0
175 198 0
175 198 0
175 198 0
176 198 0
175 198 0
176 198 0
174 198 0
175 198 0
175 198 0
175 198 0
174 198 0
174 197 0
172 197 0
174 197 0
174 197 0
174 198 0
174 197 0
173 197 0
176 199 0
175 198 0
174 198 0
175 198 0
173 197 0
174 198 0
176 199 0
176 199 0
175 198 0
177 199 0
175 198 0
176 198 0
175 198 0
174 198 0
173 197 0
175 198 0
174 198 0
174 198 0
175 198 0
173 197 0
173 197 0
175 198 0
174 198 0
174 198 0
174 198 0
177 199 0
175 198 0
175 198 0
175 198 0
175 198 0
174 198 0
176 199 0
173 197 0
174 197 0
175 198 0
175 198 0
174 198 0
174 198 0
174 198 0
173 197 0
174 198 0
174 197 0
174 198 0
175 198 0
175 198 0
174 198 0
175 198 0
174 198 0
176 199 0
176 198 0
175 198 0
174 197 0
175 198 0
175 198 0
175 198 0
174 197 0
173 197 0
174 198 0
175 198 0
175 198 0
176 199 0
174 198 0
175 198 0
173 197 0
175 198 0
175 198 0
175 198 0
176 199 0
174 198 0
173 197 0
176 198 0
175 198 0
173 197 0
173 197 0
176 198 0
175 198 0
176 199 0
175 198 0
174 198 0
173 197 0
175 198 0
174 197 0
174 198 0
177 199 0
173 197 0
176 199 0
174 198 0
174 197 0
173 197 0
174 198 0
175 198 0
176 199 0
175 198 0
175 198 0
174 198 0
175 198 0
173 197 0
175 198 0
174 198 0
173 197 0
176 199 0
174 198 0
173 197 0
173 197 0
174 198 0
174 198 0
175 198 0
174 197 0
176 199 0
174 198 0
175 198 0
176 199 0
174 198 0
175 198 0
175 198 0
173 197 0
175 198 0
175 198 0
175 198 0
176 199 0
175 198 0
175 198 0
175 198 0
175 198 0
173 197 0
174 198 0
175 198 0
174 197 0
175 198 0
174 198 0
175 198 0
173 197 0
174 198 0
175 198 0
176 199 0
174 197 0
174 198 0
175 198 0
176 199 0
173 197 0
174 198 0
174 198 0
174 198 0
175 198 0
174 198 0
174 198 0
175 198 0
174 197 0
172 197 0
176 199 0
175 198 0
175 198 0
176 198 0
174 198 0
175 198 0
175 198 0
175 198 0
174 198 0
175 198 0
174 197 0
174 198 0
174 198 0
175 198 0
173 197 0
177 199 0
175 198 0
176 199 0
173 197 0
173 197 0
176 199 0
175 198 0
176 199 0
176 198 0
176 199 0
174 198 0
175 198 0
174 198 0
175 198 0
173 197 0
174 198 0
176 199 0
175 198 25
187 207 108
195 214 151
208 223 194
212 227 211
222 235 238
228 240 255
228 240 255
228 240 255
228 240 255
228 240 255
228 240 255
228 240 255
228 240 255
228 239 255
228 239 255
228 239 255
228 239 255
228 239 255
228 239 255
228 239 255
228 239 255
228 239 255
228 239 255
228 239 255
228 239 255
228 239 255
228 239 255
228 239 255
228 239 255
228 239 255
228 239 255
228 239 255
228 239 255
228 239 255
228 239 255
228 239 255
228 239 255
228 239 255
228 239 255
228 239 255
227 239 255
227 239 255
227 239 255
227 239 255
227 239 255
227 239 255
227 239 255
227 239 255
227 239 255
227 239 255
227 239 255
227 239 255
227 239 255
227 239 255
227 239 255
227 239 255
227 239 255
227 239 255
227 239 255
227 239 255
227 239 255
227 239 255
227 239 255
227 239 255
227 239 255
227 239 255
227 239 255
227 239 255
227 239 255
227 239 255
227 239 255
227 239 255
227 239 255
227 239 255
227 239 255
227 239 255
227 239 255
227 239 255
227 239 255
227 239 255
227 239 255
227 239 255
227 239 255
227 239 255
227 239 255
227 239 255
227 239 255
227 239 255
227 239 255
227 239 255
227 239 255
227 239 255
227 239 255
228 239 255
228 239 255
228 239 255
228 239 255
228 239 255
228 239 255
228 239 255
228 239 255
228 239 255
228 239 255
228 239 255
228 239 255
228 239 255
228 239 255
228 239 255
228 239 255
228 239 255
228 239 255
228 239 255
228 239 255
228 239 255
228 239 255
228 239 255
228 239 255
228 239 255
228 239 255
228 239 255
228 239 255
228 240 255
228 240 255
228 240 255
228 240 255
228 240 255
228 240 255
228 240 255
228 240 255
228 240 255
228 240 255
229 240 255
229 240 255
229 240 255
229 240 255
229 240 255
229 240 255
229 240 255
229 240 255
229 240 255
229 240 255
229 240 255
229 240 255
229 240 255
229 240 255
229 240 255
229 240 255
229 240 255
229 240 255
229 240 255
225 237 244
219 232 226
206 222 186
194 212 147
185 206 99
176 199 25
176 199 0
175 198 0
175 198 0
176 199 0
176 199 0
174 197 0
175 198 0
173 197 0
176 199 0
177 199 0
175 198 0
172 197 0
175 198 0
175 198 0
176 199 0
174 198 0
174 197 0
175 198 0
175 198 0
175 198 0
173 197 0
174 197 0
175 198 0
175 198 0
174 197 0
174 198 0
173 197 0
174 198 0
175 198 0
174 197 0
175 198 0
176 199 0
172 197 0
174 198 0
176 199 0
174 198 0
176 199 0
175 198 0
175 198 0
175 198 0
175 198 0
173 197 0
173 197 0
174 198 0
176 198 0
174 198 0
175 198 0
175 198 0
174 198 0
175 198 0
174 198 0
174 198 0
175 198 0
174 197 0
175 198 0
174 197 0
175 198 0
175 198 0
175 198 0
175 198 0
173 197 0
174 198 0
174 197 0
173 197 0
174 198 0
175 198 0
174 198 0
175 198 0
175 198 0
175 198 0
175 198 0
175 198 0
174 198 0
174 197 0
174 198 0
175 198 0
174 198 0
176 198 0
175 198 0
175 198 0
175 198 0
175 198 0
176 199 0
175 198 0
175 198 0
173 197 0
175 198 0
174 198 0
175 198 0
176 198 0
174 198 0
174 198 0
175 198 0
176 198 0
174 198 0
174 198 0
175 198 0
175 198 0
175 198 0
174 198 0
176 199 0
173 197 0
175 198 0
175 198 0
174 198 0
174 197 0
175 198 0
175 198 0
174 198 0
174 198 0
174 198 0
173 197 0
172 196 0
174 198 0
173 197 0
174 197 0
174 198 0
174 198 0
172 197 0
174 198 0
175 198 0
175 198 0
174 197 0
173 197 0
174 197 0
173 196 0
176 198 0
174 197 0
174 197 0
174 198 0
174 198 0
172 196 0
173 197 0
174 197 0
175 198 0
174 197 0
175 198 0
172 197 0
175 198 0
175 198 0
174 198 0
176 198 0
174 198 0
176 199 0
173 197 0
175 198 0
174 198 0
174 197 0
175 198 0
175 198 0
175 198 0
176 199 0
174 198 0
173 197 0
174 198 0
173 197 0
175 198 0
174 198 0
174 198 0
174 198 0
174 198 0
174 197 0
175 198 0
174 197 0
174 198 0
175 198 0
175 198 0
174 198 0
175 198 0
173 197 0
176 199 0
173 197 0
175 198 0
174 198 0
175 198 0
174 198 0
174 198 0
175 198 0
175 198 0
175 198 0
175 198 0
174 197 0
174 198 0
175 198 0
174 198 0
174 198 0
175 198 0
173 197 0
175 198 0
174 198 0
176 199 0
173 197 0
175 198 0
174 197 0
174 198 0
175 198 0
174 197 0
174 198 0
173 197 0
175 198 0
175 198 0
174 198 0
174 198 0
174 198 0
174 198 0
175 198 0
175 198 0
173 197 0
173 197 0
175 198 0
175 198 0
174 198 0
174 198 0
174 198 0
174 197 0
174 198 0
174 198 0
176 199 0
175 198 0
177 199 0
174 198 0
178 200 0
177 199 0
175 198 0
174 197 0
176 199 0
175 198 0
175 198 0
176 198 0
176 199 0
174 198 0
174 198 0
174 198 0
175 198 0
174 198 0
176 199 0
173 197 0
174 198 0
176 199 0
174 198 0
175 198 0
172 197 0
174 198 0
176 199 0
174 198 0
175 198 0
176 199 0
174 198 0
175 198 0
178 200 36
188 208 122
202 219 179
209 224 198
215 229 217
226 238 249
228 240 255
228 240 255
228 240 255
228 240 255
228 240 255
228 240 255
228 240 255
228 240 255
228 239 255
228 239 255
228 239 255
228 239 255
228 239 255
228 239 255
228 239 255
228 239 255
228 239 255
228 239 255
228 239 255
228 239 255
228 239 255
228 239 255
228 239 255
228 239 255
228 239 255
228 239 255
228 239 255
228 239 255
228 239 255
228 239 255
228 239 255
228 239 255
228 239 255
228 239 255
227 239 255
227 239 255
227 239 255
227 239 255
227 239 255
227 239 255
227 239 255
227 239 255
227 239 255
227 239 255
227 239 255
227 239 255
227 239 255
227 239 255
227 239 255
227 239 255
227 239 255
227 239 255
227 239 255
227 239 255
227 239 255
227 239 255
227 239 255
227 239 255
227 239 255
227 239 255
227 239 255
227 239 255
227 239 255
227 239 255
227 239 255
227 239 255
227 239 255
227 239 255
227 239 255
227 239 255
227 239 255
227 239 255
227 239 255
227 239 255
227 239 255
227 239 255
227 239 255
228 239 255
228 239 255
228 239 255
228 239 255
228 239 255
228 239 255
228 239 255
228 239 255
228 239 255
228 239 255
228 239 255
228 239 255
228 239 255
228 239 255
228 239 255
228 239 255
228 239 255
228 239 255
228 239 255
228 239 255
228 239 255
228 239 255
228 239 255
228 239 255
228 239 255
228 239 255
228 239 255
228 240 255
228 240 255
228 240 255
228 240 255
228 240 255
228 240 255
228 240 255
228 240 255
228 240 255
228 240 255
229 240 255
229 240 255
229 240 255
229 240 255
229 240 255
229 240 255
229 240 255
229 240 255
229 240 255
229 240 255
229 240 255
229 240 255
229 240 255
229 240 255
229 240 255
229 240 255
229 240 255
229 240 255
229 240 255
229 240 255
228 239 250
218 231 226
209 224 198
200 217 163
184 205 95
173 197 0
174 197 0
174 198 0
174 198 0
175 198 0
175 198 0
176 198 0
175 198 0
176 199 0
174 197 0
175 198 0
174 198 0
176 199 0
175 198 0
173 197 0
176 198 0
176 199 0
174 198 0
176 198 0
176 199 0
176 198 0
174 198 0
175 198 0
174 198 0
174 197 0
175 198 0
175 198 0
175 198 0
174 198 0
173 197 0
175 198 0
174 198 0
175 198 0
173 197 0
175 198 0
175 198 0
175 198 0
175 198 0
174 198 0
175 198 0
174 198 0
176 199 0
175 198 0
174 198 0
174 197 0
174 198 0
175 198 0
174 198 0
174 198 0
175 198 0
176 199 0
175 198 0
175 198 0
175 198 0
175 198 0
173 197 0
175 198 0
174 198 0
176 199 0
175 198 0
176 199 0
174 198 0
175 198 0
176 198 0
175 198 0
175 198 0
176 198 0
174 197 0
175 198 0
174 198 0
174 198 0
176 198 0
174 197 0
174 197 0
174 198 0
174 198 0
176 199 0
174 197 0
174 198 0
176 199 0
173 197 0
176 199 0
174 197 0
174 198 0
175 198 0
174 198 0
175 198 0
175 198 0
174 198 0
174 197 0
174 198 0
175 198 0
175 198 0
176 198 0
175 198 0
173 197 0
174 198 0
173 197 0
175 198 0
175 198 0
174 197 0
176 198 0
174 198 0
173 197 0
175 198 0
175 198 0
175 198 0
174 197 0
174 197 0
174 197 0
172 197 0
175 198 0
174 198 0
173 197 0
175 198 0
174 197 0
173 197 0
174 197 0
175 198 0
174 198 0
174 198 0
174 197 0
174 198 0
175 198 0
175 198 0
174 197 0
174 198 0
174 197 0
177 199 0
174 198 0
174 197 0
175 198 0
175 198 0
175 198 0
175 198 0
174 197 0
174 198 0
175 198 0
174 198 0
174 198 0
175 198 0
174 198 0
173 197 0
174 197 0
174 198 0
174 198 0
175 198 0
174 198 0
174 198 0
174 198 0
174 198 0
174 197 0
175 198 0
175 198 0
175 198 0
174 198 0
175 198 0
173 197 0
174 198 0
174 197 0
176 199 0
174 198 0
175 198 0
174 197 0
174 198 0
176 199 0
173 197 0
175 198 0
175 198 0
173 197 0
175 198 0
174 198 0
174 198 0
173 197 0
175 198 0
175 198 0
175 198 0
175 198 0
176 198 0
173 197 0
173 197 0
174 198 0
175 198 0
173 197 0
174 198 0
175 198 0
174 198 0
173 197 0
176 199 0
176 198 0
176 198 0
174 197 0
175 198 0
174 198 0
173 197 0
174 197 0
174 198 0
174 198 0
176 199 0
175 198 0
174 197 0
174 197 0
174 198 0
173 197 0
173 197 0
176 199 0
175 198 0
176 198 0
175 198 0
176 198 0
176 198 0
176 199 0
174 198 0
175 198 0
175 198 0
173 197 0
175 198 0
175 198 0
174 198 0
174 198 0
176 199 0
173 197 0
174 198 0
175 198 0
173 197 0
175 198 0
174 198 0
174 198 0
176 199 0
175 198 0
176 199 0
175 198 0
173 197 0
176 198 0
174 198 0
174 198 0
175 198 0
175 198 0
175 198 0
176 198 0
175 198 0
174 197 0
176 198 0
175 198 0
175 198 0
174 198 0
175 198 0
177 199 0
176 198 0
174 198 0
175 198 0
174 198 0
174 198 0
176 199 0
175 198 0
175 198 0
175 198 0
174 198 0
174 197 0
174 198 0
175 198 0
186 207 111
200 217 165
201 218 171
217 231 223
224 236 244
228 240 255
228 240 255
228 240 255
228 240 255
228 240 255
228 240 255
228 240 255
228 240 255
228 239 255
228 239 255
228 239 255
228 239 255
228 239 255
228 239 255
228 239 255
228 239 255
228 239 255
228 239 255
228 239 255
228 239 255
228 239 255
228 239 255
228 239 255
228 239 255
228 239 255
228 239 255
228 239 255
228 239 255
228 239 255
228 239 255
228 239 255
228 239 255
228 239 255
228 239 255
228 239 255
227 239 255
227 239 255
227 239 255
227 239 255
227 239 255
227 239 255
227 239 255
227 239 255
227 239 255
227 239 255
227 239 255
227 239 255
227 239 255
227 239 255
227 239 255
227 239 255
227 239 255
227 239 255
227 239 255
227 239 255
227 239 255
227 239 255
227 239 255
227 239 255
227 239 255
227 239 255
227 239 255
227 239 255
227 239 255
227 239 255
227 239 255
228 239 255
228 239 255
228 239 255
228 239 255
228 239 255
228 239 255
228 239 255
228 239 255
228 239 255
228 239 255
228 239 255
228 239 255
228 239 255
228 239 255
228 239 255
228 239 255
228 239 255
228 239 255
228 239 255
228 239 255
228 239 255
228 239 255
228 239 255
228 239 255
228 239 255
228 239 255
228 239 255
228 240 255
228 240 255
228 240 255
228 240 255
228 240 255
228 240 255
228 240 255
228 240 255
228 240 255
228 240 255
228 240 255
229 240 255
229 240 255
229 240 255
229 240 255
229 240 255
229 240 255
229 240 255
229 240 255
229 240 255
229 240 255
229 240 255
229 240 255
229 240 255
229 240 255
229 240 255
229 240 255
229 240 255
229 240 255
229 240 255
229 240 255
228 239 252
217 230 221
211 225 203
197 214 153
185 205 102
178 200 36
174 198 0
176 199 0
176 199 0
174 198 0
175 198 0
174 198 0
174 198 0
176 199 0
174 198 0
175 198 0
174 198 0
176 199 0
175 198 0
176 199 0
175 198 0
175 198 0
175 198 0
173 197 0
174 198 0
174 198 0
175 198 0
177 199 0
175 198 0
175 198 0
175 198 0
175 198 0
175 198 0
173 197 0
174 198 0
175 198 0
175 198 0
175 198 0
176 199 0
176 198 0
174 198 0
174 198 0
175 198 0
173 197 0
174 198 0
172 197 0
174 197 0
175 198 0
175 198 0
175 198 0
173 197 0
174 198 0
174 198 0
175 198 0
176 199 0
175 198 0
176 198 0
174 198 0
176 199 0
172 196 0
174 197 0
175 198 0
175 198 0
176 198 0
175 198 0
173 197 0
175 198 0
174 197 0
175 198 0
176 199 0
175 198 0
175 198 0
174 198 0
174 198 0
174 197 0
174 198 0
175 198 0
175 198 0
174 197 0
174 197 0
173 197 0
174 197 0
174 198 0
174 198 0
175 198 0
174 198 0
174 197 0
173 197 0
173 197 0
173 197 0
174 197 0
174 198 0
175 198 0
176 199 0
174 198 0
175 198 0
175 198 0
175 198 0
175 198 0
173 197 0
175 198 0
174 197 0
175 198 0
175 198 0
174 197 0
174 198 0
173 197 0
175 198 0
176 199 0
174 197 0
176 199 0
174 197 0
175 198 0
174 198 0
173 197 0
175 198 0
174 197 0
175 198 0
175 198 0
174 197 0
175 198 0
176 198 0
175 198 0
175 198 0
175 198 0
174 198 0
175 198 0
175 198 0
174 198 0
173 197 0
175 198 0
175 198 0
174 198 0
173 197 0
175 198 0
175 198 0
174 198 0
174 198 0
172 197 0
174 198 0
175 198 0
174 197 0
175 198 0
175 198 0
174 198 0
175 198 0
176 199 0
175 198 0
175 198 0
174 198 0
174 197 0
175 198 0
174 198 0
173 197 0
176 199 0
175 198 0
175 198 0
175 198 0
175 198 0
174 198 0
177 199 0
175 198 0
174 198 0
173 197 0
173 197 0
174 198 0
175 198 0
175 198 0
175 198 0
176 199 0
175 198 0
174 198 0
174 198 0
176 199 0
174 198 0
173 197 0
174 198 0
176 199 0
174 198 0
174 197 0
175 198 0
174 198 0
175 198 0
173 197 0
174 198 0
174 197 0
174 197 0
175 198 0
176 198 0
176 199 0
176 199 0
174 198 0
174 197 0
175 198 0
175 198 0
173 197 0
176 198 0
174 198 0
170 196 0
174 198 0
173 197 0
176 198 0
174 197 0
174 198 0
174 198 0
175 198 0
174 197 0
175 198 0
175 198 0
175 198 0
175 198 0
175 198 0
173 197 0
174 198 0
174 198 0
174 198 0
173 197 0
176 198 0
175 198 0
174 197 0
173 197 0
174 197 0
175 198 0
174 198 0
173 197 0
175 198 0
176 199 0
173 197 0
175 198 0
175 198 0
174 198 0
174 198 0
176 198 0
174 198 0
173 197 0
175 198 0
173 197 0
174 198 0
174 198 0
175 198 0
174 198 0
174 198 0
175 198 0
176 198 0
173 197 0
174 198 0
174 198 0
175 198 0
175 198 0
174 197 0
174 198 0
174 198 0
174 198 0
174 198 0
175 198 0
175 198 0
175 198 0
175 198 0
175 198 0
174 198 0
175 198 0
175 198 0
174 198 0
174 198 0
175 198 0
174 198 0
174 198 0
175 198 0
174 198 0
174 197 0
175 198 0
175 198 0
174 197 0
174 197 0
174 198 0
175 198 0
178 201 72
191 210 128
196 214 149
211 226 207
221 234 236
225 237 246
228 240 255
228 240 255
228 240 255
228 240 255
228 240 255
228 240 255
228 240 255
228 240 255
228 239 255
228 239 255
228 239 255
228 239 255
228 239 255
228 239 255
228 239 255
228 239 255
228 239 255
228 239 255
228 239 255
228 239 255
228 239 255
228 239 255
228 239 255
228 239 255
228 239 255
228 239 255
228 239 255
228 239 255
228 239 255
228 239 255
228 239 255
228 239 255
228 239 255
228 239 255
228 239 255
227 239 255
227 239 255
227 239 255
227 239 255
227 239 255
227 239 255
227 239 255
227 239 255
227 239 255
227 239 255
227 239 255
227 239 255
227 239 255
227 239 255
227 239 255
227 239 255
227 239 255
227 239 255
227 239 255
228 239 255
228 239 255
228 239 255
228 239 255
228 239 255
228 239 255
228 239 255
228 239 255
228 239 255
228 239 255
228 239 255
228 239 255
228 239 255
228 239 255
228 239 255
228 239 255
228 239 255
228 239 255
228 239 255
228 239 255
228 239 255
228 239 255
228 239 255
228 239 255
228 239 255
228 239 255
228 239 255
228 239 255
228 240 255
228 240 255
228 240 255
228 240 255
228 240 255
228 240 255
228 240 255
228 240 255
228 240 255
228 240 255
229 240 255
229 240 255
229 240 255
229 240 255
229 240 255
229 240 255
229 240 255
229 240 255
229 240 255
229 240 255
229 240 255
229 240 255
229 240 255
229 240 255
229 240 255
229 240 255
229 240 255
229 240 255
229 240 255
229 240 255
229 240 255
229 240 254
220 232 228
213 228 211
198 216 159
190 209 125
177 199 36
174 197 0
176 199 0
174 198 0
174 198 0
174 197 0
175 198 0
174 198 0
174 198 0
175 198 0
175 198 0
175 198 0
174 198 0
175 198 0
174 198 0
175 198 0
176 199 0
175 198 0
175 198 0
175 198 0
174 198 0
176 199 0
175 198 0
175 198 0
177 199 0
176 199 0
175 198 0
174 198 0
176 198 0
174 197 0
175 198 0
175 198 0
172 197 0
173 197 0
175 198 0
175 198 0
175 198 0
175 198 0
175 198 0
175 198 0
175 198 0
173 197 0
176 198 0
176 198 0
175 198 0
175 198 0
175 198 0
173 197 0
175 198 0
175 198 0
176 199 0
174 198 0
175 198 0
174 198 0
174 198 0
172 197 0
175 198 0
176 199 0
175 198 0
174 197 0
174 198 0
174 197 0
175 198 0
174 198 0
175 198 0
175 198 0
174 197 0
175 198 0
174 198 0
173 197 0
175 198 0
175 198 0
175 198 0
174 198 0
176 199 0
174 198 0
174 198 0
173 197 0
174 197 0
174 197 0
174 198 0
174 197 0
174 197 0
174 197 0
175 198 0
176 199 0
174 197 0
174 197 0
175 198 0
173 197 0
174 197 0
174 197 0
173 197 0
174 198 0
174 198 0
174 198 0
175 198 0
175 198 0
175 198 0
175 198 0
175 198 0
176 198 0
175 198 0
175 198 0
174 198 0
173 197 0
174 198 0
174 198 0
176 199 0
173 197 0
176 198 0
173 197 0
174 198 0
175 198 0
174 197 0
173 197 0
172 196 0
175 198 0
174 197 0
175 198 0
175 198 0
173 197 0
174 198 0
174 198 0
176 199 0
174 198 0
175 198 0
173 197 0
174 198 0
174 197 0
174 198 0
175 198 0
173 197 0
175 198 0
172 196 0
174 197 0
174 197 0
174 198 0
175 198 0
172 196 0
175 198 0
174 198 0
175 198 0
174 198 0
175 198 0
172 196 0
175 198 0
174 197 0
174 198 0
175 198 0
173 197 0
175 198 0
174 198 0
174 197 0
174 197 0
173 197 0
174 198 0
175 198 0
175 198 0
174 198 0
173 197 0
173 196 0
175 198 0
177 199 0
174 198 0
174 198 0
174 197 0
174 198 0
175 198 0
175 198 0
175 198 0
174 197 0
174 198 0
173 197 0
175 198 0
175 198 0
175 198 0
175 198 0
175 198 0
175 198 0
175 198 0
175 198 0
175 198 0
176 199 0
175 198 0
175 198 0
174 198 0
175 198 0
174 198 0
174 198 0
174 197 0
174 197 0
174 197 0
175 198 0
174 198 0
175 198 0
175 198 0
175 198 0
176 198 0
174 198 0
176 198 0
174 198 0
175 198 0
175 198 0
174 198 0
175 198 0
174 197 0
174 197 0
174 198 0
177 199 0
174 197 0
175 198 0
175 198 0
173 197 0
174 197 0
176 199 0
174 198 0
175 198 0
175 198 0
174 198 0
175 198 0
176 198 0
174 198 0
175 198 0
174 198 0
176 199 0
175 198 0
175 198 0
174 198 0
175 198 0
173 197 0
173 197 0
176 199 0
174 198 0
174 198 0
176 198 0
175 198 0
174 197 0
175 198 0
174 198 0
176 199 0
176 199 0
175 198 0
176 198 0
175 198 0
176 199 0
174 198 0
173 197 0
174 198 0
176 199 0
174 197 0
174 198 0
174 197 0
174 198 0
175 198 0
176 199 0
175 198 0
174 198 0
174 197 0
174 197 0
174 197 0
172 197 0
175 198 0
175 198 0
173 197 0
177 199 0
175 198 0
174 198 0
175 198 0
175 198 0
174 198 0
175 198 0
174 198 0
174 197 0
174 198 0
174 198 0
174 198 0
173 197 0
176 198 0
175 198 0
175 198 0
174 198 25
189 209 130
201 218 169
206 222 188
222 235 240
226 238 249
228 240 255
228 240 255
228 240 255
228 240 255
228 240 255
228 240 255
228 240 255
228 240 255
228 239 255
228 239 255
228 239 255
228 239 255
228 239 255
228 239 255
228 239 255
228 239 255
228 239 255
228 239 255
228 239 255
228 239 255
228 239 255
228 239 255
228 239 255
228 239 255
228 239 255
228 239 255
228 239 255
228 239 255
228 239 255
228 239 255
228 239 255
228 239 255
228 239 255
228 239 255
228 239 255
228 239 255
227 239 255
227 239 255
227 239 255
227 239 255
227 239 255
227 239 255
227 239 255
228 239 255
228 239 255
228 239 255
228 239 255
228 239 255
228 239 255
228 239 255
228 239 255
228 239 255
228 239 255
228 239 255
228 239 255
228 239 255
228 239 255
228 239 255
228 239 255
228 239 255
228 239 255
228 239 255
228 239 255
228 239 255
228 239 255
228 239 255
228 239 255
228 239 255
228 239 255
228 239 255
228 239 255
228 239 255
228 240 255
228 240 255
228 240 255
228 240 255
228 240 255
228 240 255
228 240 255
228 240 255
228 240 255
229 240 255
229 240 255
229 240 255
229 240 255
229 240 255
229 240 255
229 240 255
229 240 255
229 240 255
229 240 255
229 240 255
229 240 255
229 240 255
229 240 255
229 240 255
229 240 255
229 240 255
229 240 255
229 240 255
229 240 255
229 240 255
229 240 255
229 240 255
225 237 244
210 225 199
203 219 179
189 209 122
180 201 62
174 198 0
174 197 0
175 198 0
173 197 0
175 198 0
175 198 0
174 198 0
176 199 0
176 199 0
174 197 0
175 198 0
174 198 0
173 197 0
175 198 0
175 198 0
175 198 0
176 199 0
176 199 0
174 198 0
176 199 0
175 198 0
173 197 0
175 198 0
174 198 0
174 198 0
175 198 0
175 198 0
173 197 0
175 198 0
174 198 0
177 199 0
175 198 0
175 198 0
176 198 0
175 198 0
176 199 0
175 198 0
175 198 0
174 198 0
173 197 0
175 198 0
175 198 0
175 198 0
176 199 0
174 198 0
175 198 0
176 199 0
175 198 0
174 197 0
175 198 0
175 198 0
176 199 0
174 198 0
176 199 0
174 198 0
175 198 0
175 198 0
173 197 0
174 197 0
174 197 0
174 198 0
176 199 0
175 198 0
173 197 0
174 198 0
175 198 0
174 198 0
175 198 0
173 197 0
174 198 0
174 198 0
174 198 0
175 198 0
173 197 0
177 199 0
174 198 0
175 198 0
173 197 0
175 198 0
175 198 0
175 197 0
174 197 0
174 197 0
174 197 0
173 197 0
175 198 0
173 197 0
175 198 0
174 198 0
176 199 0
175 198 0
174 197 0
175 198 0
174 198 0
173 197 0
175 198 0
174 197 0
175 198 0
175 198 0
174 198 0
174 197 0
176 199 0
176 198 0
175 198 0
174 198 0
175 198 0
173 197 0
173 197 0
175 198 0
175 198 0
173 197 0
174 198 0
174 197 0
175 198 0
175 198 0
174 198 0
175 198 0
174 197 0
173 197 0
174 198 0
176 199 0
173 197 0
175 198 0
174 198 0
174 197 0
174 198 0
174 198 0
175 198 0
174 197 0
175 198 0
173 197 0
173 197 0
174 198 0
173 197 0
174 197 0
175 198 0
174 198 0
173 197 0
175 198 0
174 198 0
174 198 0
176 199 0
174 198 0
174 198 0
174 197 0
175 198 0
174 197 0
173 196 0
174 197 0
174 198 0
173 197 0
174 197 0
175 198 0
175 198 0
174 197 0
174 198 0
174 198 0
175 198 0
175 198 0
175 198 0
174 198 0
175 198 0
174 197 0
175 198 0
175 198 0
173 197 0
175 198 0
173 197 0
175 198 0
174 197 0
174 198 0
176 199 0
174 198 0
173 197 0
175 198 0
174 198 0
173 197 0
174 198 0
173 197 0
175 198 0
173 197 0
175 198 0
174 198 0
176 198 0
175 198 0
176 199 0
175 198 0
173 197 0
176 199 0
175 198 0
175 198 0
175 198 0
175 198 0
175 198 0
175 198 0
173 197 0
175 198 0
173 197 0
173 197 0
174 198 0
174 197 0
174 197 0
175 198 0
175 198 0
175 198 0
174 197 0
173 197 0
174 198 0
175 198 0
174 198 0
174 197 0
175 198 0
173 197 0
175 198 0
173 197 0
175 198 0
174 198 0
174 197 0
173 197 0
174 198 0
175 198 0
175 198 0
175 198 0
175 198 0
174 198 0
176 199 0
175 198 0
172 197 0
175 198 0
174 197 0
174 198 0
174 198 0
174 197 0
174 197 0
174 198 0
174 198 0
175 198 0
175 198 0
175 198 0
174 198 0
176 199 0
175 198 0
176 199 0
173 197 0
175 198 0
175 198 0
176 198 0
175 198 0
175 198 0
175 198 0
173 197 0
173 197 0
174 198 0
175 198 0
173 197 0
176 199 0
176 199 0
172 197 0
174 198 0
175 198 0
175 198 0
176 198 0
175 198 0
175 198 0
175 198 0
177 199 0
175 198 0
176 199 0
174 198 0
174 198 0
172 197 0
175 198 0
175 198 0
172 196 0
175 198 0
173 197 0
175 198 0
174 197 0
176 199 0
176 198 0
175 198 0
173 197 0
175 198 0
173 197 0
173 197 0
174 197 0
174 198 0
174 197 0
176 199 0
174 198 0
175 198 36
183 204 88
193 212 144
210 225 203
215 229 217
226 237 248
228 240 255
228 240 255
228 240 255
228 240 255
228 240 255
228 240 255
228 240 255
228 240 255
228 239 255
228 239 255
228 239 255
228 239 255
228 239 255
228 239 255
228 239 255
228 239 255
228 239 255
228 239 255
228 239 255
228 239 255
228 239 255
228 239 255
228 239 255
228 239 255
228 239 255
228 239 255
228 239 255
228 239 255
228 239 255
228 239 255
228 239 255
228 239 255
228 239 255
228 239 255
228 239 255
228 239 255
227 239 255
227 239 255
228 239 255
228 239 255
228 239 255
228 239 255
228 239 255
228 239 255
228 239 255
228 239 255
228 239 255
228 239 255
228 239 255
228 239 255
228 239 255
228 239 255
228 239 255
228 239 255
228 239 255
228 239 255
228 239 255
228 239 255
228 239 255
228 239 255
228 239 255
228 240 255
228 240 255
228 240 255
228 240 255
228 240 255
228 240 255
228 240 255
228 240 255
228 240 255
228 240 255
228 240 255
229 240 255
229 240 255
229 240 255
229 240 255
229 240 255
229 240 255
229 240 255
229 240 255
229 240 255
229 240 255
229 240 255
229 240 255
229 240 255
229 240 255
229 240 255
229 240 255
229 240 255
229 240 255
229 240 255
229 240 255
229 240 255
229 240 255
228 239 253
217 231 223
201 218 175
189 209 130
184 205 92
176 199 0
176 199 0
175 198 0
174 198 0
175 198 0
177 199 0
175 198 0
176 199 0
175 198 0
175 198 0
175 198 0
175 198 0
177 199 0
174 198 0
174 198 0
174 198 0
176 199 0
175 198 0
175 198 0
175 198 0
176 199 0
175 198 0
176 199 0
174 198 0
175 198 0
173 197 0
175 198 0
174 197 0
174 197 0
174 198 0
175 198 0
174 198 0
175 198 0
175 198 0
176 198 0
174 198 0
173 197 0
175 198 0
174 198 0
175 198 0
174 198 0
174 198 0
174 197 0
174 198 0
174 198 0
174 198 0
175 198 0
173 197 0
175 198 0
174 197 0
173 197 0
175 198 0
175 198 0
174 197 0
175 198 0
175 198 0
175 198 0
174 197 0
173 197 0
175 198 0
175 198 0
173 197 0
175 198 0
173 197 0
173 197 0
175 198 0
176 198 0
176 199 0
173 197 0
175 198 0
175 198 0
175 198 0
173 197 0
174 198 0
174 198 0
175 198 0
175 198 0
174 198 0
175 198 0
174 197 0
175 198 0
175 198 0
175 198 0
175 198 0
175 198 0
174 197 0
175 198 0
174 198 0
173 197 0
174 198 0
175 198 0
175 198 0
176 198 0
173 197 0
175 198 0
174 198 0
175 198 0
176 199 0
174 198 0
174 198 0
173 197 0
175 198 0
174 197 0
175 198 0
174 197 0
174 197 0
175 198 0
175 198 0
173 197 0
175 198 0
175 198 0
174 197 0
176 199 0
174 197 0
173 197 0
174 197 0
173 197 0
174 197 0
175 198 0
173 197 0
175 198 0
174 198 0
175 198 0
175 198 0
174 198 0
175 198 0
175 198 0
173 197 0
175 198 0
173 197 0
174 197 0
173 197 0
175 198 0
175 198 0
173 196 0
173 197 0
170 195 0
176 198 0
175 198 0
175 198 0
176 198 0
174 197 0
174 198 0
174 197 0
175 198 0
175 198 0
174 198 0
175 198 0
174 198 0
175 198 0
173 197 0
174 197 0
175 198 0
176 198 0
175 198 0
174 197 0
175 198 0
173 197 0
175 198 0
174 198 0
173 197 0
174 197 0
174 197 0
175 198 0
175 198 0
174 197 0
174 197 0
173 197 0
176 199 0
174 198 0
174 197 0
175 198 0
175 198 0
176 198 0
174 198 0
175 198 0
175 198 0
173 197 0
174 198 0
175 198 0
173 197 0
174 198 0
175 198 0
174 198 0
172 197 0
174 198 0
176 198 0
174 197 0
175 198 0
173 197 0
176 199 0
175 198 0
174 198 0
174 198 0
175 198 0
174 198 0
175 198 0
174 198 0
174 197 0
175 198 0
175 198 0
175 198 0
174 198 0
176 199 0
175 198 0
174 198 0
171 196 0
175 198 0
174 198 0
174 198 0
174 198 0
175 198 0
176 199 0
174 198 0
173 197 0
176 198 0
174 198 0
175 198 0
173 197 0
176 198 0
173 197 0
175 198 0
175 198 0
173 197 0
175 198 0
174 198 0
174 198 0
175 198 0
175 198 0
173 197 0
175 198 0
173 197 0
175 198 0
176 199 0
172 197 0
175 198 0
174 198 0
174 198 0
174 198 0
174 198 0
174 198 0
175 198 0
174 197 0
174 198 0
176 198 0
175 198 0
175 198 0
174 198 0
175 198 0
173 197 0
176 199 0
175 198 0
174 197 0
174 198 0
176 199 0
174 198 0
175 198 0
175 198 0
174 198 0
172 197 0
175 198 0
173 197 0
176 199 0
174 198 0
174 198 0
173 197 0
174 198 0
174 198 0
174 198 0
174 198 0
174 198 0
174 198 0
175 198 0
175 198 0
175 198 0
173 197 0
173 197 0
174 198 0
175 198 0
174 197 0
175 198 0
173 197 0
174 197 0
173 197 0
175 198 0
174 198 0
176 199 0
173 197 0
174 197 0
175 198 0
175 198 0
174 198 0
173 197 0
175 198 0
174 198 0
175 198 0
174 198 0
174 198 0
177 199 0
176 199 0
174 198 0
185 205 102
196 214 153
208 223 194
215 229 217
224 236 241
228 240 255
228 240 255
228 240 255
228 240 255
228 240 255
228 240 255
228 240 255
228 240 255
228 240 255
228 239 255
228 239 255
228 239 255
228 239 255
228 239 255
228 239 255
228 239 255
228 239 255
228 239 255
228 239 255
228 239 255
228 239 255
228 239 255
228 239 255
228 239 255
228 239 255
228 239 255
228 239 255
228 239 255
228 239 255
228 239 255
228 239 255
228 239 255
228 239 255
228 239 255
228 239 255
228 239 255
228 239 255
228 239 255
228 239 255
228 239 255
228 239 255
228 239 255
228 239 255
228 239 255
228 239 255
228 239 255
228 239 255
228 239 255
228 239 255
228 239 255
228 239 255
228 240 255
228 240 255
228 240 255
228 240 255
228 240 255
228 240 255
228 240 255
228 240 255
228 240 255
228 240 255
229 240 255
229 240 255
229 240 255
229 240 255
229 240 255
229 240 255
229 240 255
229 240 255
229 240 255
229 240 255
229 240 255
229 240 255
229 240 255
229 240 255
229 240 255
229 240 255
229 240 255
229 240 255
229 240 255
229 240 255
229 240 255
229 240 255
229 240 255
229 240 255
224 236 241
213 227 207
199 217 165
189 208 122
176 199 44
174 197 0
176 199 0
174 198 0
174 198 0
175 198 0
175 198 0
175 198 0
173 197 0
174 198 0
175 198 0
175 198 0
175 198 0
174 197 0
173 197 0
174 198 0
175 198 0
175 198 0
175 198 0
174 198 0
175 198 0
174 198 0
174 198 0
173 197 0
176 199 0
174 198 0
175 198 0
174 197 0
173 197 0
174 197 0
176 199 0
176 199 0
174 198 0
174 198 0
176 199 0
174 197 0
174 198 0
174 198 0
175 198 0
174 197 0
174 198 0
175 198 0
175 198 0
173 197 0
174 198 0
177 199 0
175 198 0
173 197 0
177 199 0
176 199 0
173 197 0
175 198 0
176 198 0
174 198 0
174 197 0
175 198 0
174 198 0
175 198 0
176 198 0
175 198 0
175 198 0
175 198 0
175 198 0
175 198 0
175 198 0
174 198 0
174 198 0
176 198 0
175 198 0
174 197 0
176 198 0
172 197 0
175 198 0
175 198 0
175 198 0
174 198 0
174 198 0
175 198 0
174 197 0
175 198 0
175 198 0
175 198 0
176 199 0
174 197 0
174 197 0
174 197 0
175 198 0
175 198 0
173 197 0
175 198 0
173 197 0
175 198 0
174 198 0
176 199 0
174 197 0
175 198 0
175 198 0
175 198 0
175 198 0
174 198 0
174 197 0
173 197 0
174 198 0
174 198 0
175 198 0
174 197 0
174 198 0
175 198 0
173 197 0
174 198 0
174 198 0
174 197 0
174 197 0
174 198 0
174 197 0
174 198 0
175 198 0
176 198 0
175 198 0
175 198 0
176 198 0
174 198 0
174 197 0
173 197 0
174 197 0
175 198 0
175 198 0
174 198 0
175 198 0
174 197 0
172 196 0
174 197 0
174 198 0
175 198 0
173 197 0
173 196 0
174 198 0
173 196 0
176 199 0
176 199 0
173 197 0
175 198 0
174 198 0
174 198 0
173 197 0
174 197 0
173 197 0
175 198 0
174 197 0
174 197 0
174 198 0
174 198 0
176 199 0
174 197 0
175 198 0
174 197 0
175 198 0
173 197 0
175 198 0
175 198 0
175 198 0
174 197 0
172 197 0
173 197 0
173 197 0
173 197 0
172 196 0
174 197 0
175 198 0
173 197 0
174 198 0
176 198 0
174 198 0
175 198 0
176 198 0
174 197 0
174 198 0
173 197 0
175 198 0
177 199 0
174 198 0
175 198 0
174 198 0
175 198 0
175 198 0
174 198 0
177 199 0
175 198 0
174 197 0
174 198 0
174 198 0
176 198 0
176 199 0
174 198 0
174 198 0
173 197 0
175 198 0
175 198 0
175 198 0
174 198 0
174 197 0
173 197 0
174 197 0
175 198 0
174 197 0
173 197 0
174 197 0
174 198 0
174 197 0
173 197 0
175 198 0
174 198 0
175 198 0
175 198 0
175 198 0
175 198 0
175 198 0
175 198 0
175 198 0
174 197 0
175 198 0
175 198 0
175 198 0
175 198 0
176 198 0
176 199 0
176 198 0
173 197 0
175 198 0
174 198 0
176 199 0
175 198 0
173 197 0
173 197 0
174 198 0
175 198 0
176 199 0
174 198 0
174 197 0
174 197 0
174 198 0
174 198 0
175 198 0
175 198 0
175 198 0
176 199 0
172 197 0
174 197 0
174 198 0
174 198 0
174 198 0
173 197 0
174 198 0
175 198 0
177 199 0
175 198 0
176 199 0
174 198 0
175 198 0
175 198 0
175 198 0
175 198 0
175 198 0
175 198 0
174 198 0
173 197 0
175 198 0
175 198 0
174 198 0
174 198 0
174 197 0
175 198 0
173 197 0
175 198 0
174 198 0
174 198 0
174 198 0
176 198 0
175 198 0
174 198 0
174 197 0
174 197 0
173 197 0
176 199 0
174 198 0
174 198 0
174 197 0
175 198 0
174 198 0
174 198 0
175 198 0
175 198 0
175 198 0
174 198 0
174 198 0
173 197 0
173 197 0
175 198 0
175 198 0
174 198 0
176 199 0
175 198 0
174 198 0
175 198 0
175 198 0
173 197 0
176 198 0
174 198 0
175 198 0
175 198 0
176 199 0
180 202 80
200 217 161
208 223 194
216 230 221
226 238 248
228 240 255
228 240 255
228 240 255
228 240 255
228 240 255
228 240 255
228 240 255
228 240 255
228 240 255
228 239 255
228 239 255
228 239 255
228 239 255
228 239 255
228 239 255
228 239 255
228 239 255
228 239 255
228 239 255
228 239 255
228 239 255
228 239 255
228 239 255
228 239 255
228 239 255
228 239 255
228 239 255
228 239 255
228 239 255
228 239 255
228 239 255
228 239 255
228 239 255
228 239 255
228 239 255
228 239 255
228 239 255
228 239 255
228 239 255
228 239 255
228 239 255
228 240 255
228 240 255
228 240 255
228 240 255
228 240 255
228 240 255
228 240 255
228 240 255
228 240 255
228 240 255
229 240 255
229 240 255
229 240 255
229 240 255
229 240 255
229 240 255
229 240 255
229 240 255
229 240 255
229 240 255
229 240 255
229 240 255
229 240 255
229 240 255
229 240 255
229 240 255
229 240 255
229 240 255
229 240 255
229 240 255
229 240 255
229 240 255
229 240 255
229 240 255
229 240 254
220 233 233
210 225 203
189 209 122
181 203 84
177 199 0
174 198 0
175 198 0
174 198 0
176 199 0
174 198 0
174 198 0
174 198 0
172 197 0
176 198 0
175 198 0
177 199 0
176 199 0
175 198 0
177 199 0
173 197 0
175 198 0
174 197 0
175 198 0
175 198 0
175 198 0
175 198 0
175 198 0
175 198 0
174 198 0
174 198 0
175 198 0
175 198 0
175 198 0
174 198 0
176 198 0
175 198 0
174 198 0
174 198 0
174 198 0
175 198 0
174 197 0
174 198 0
174 198 0
174 197 0
175 198 0
176 199 0
172 197 0
175 198 0
176 199 0
175 198 0
175 198 0
174 198 0
174 198 0
175 198 0
174 198 0
173 197 0
175 198 0
176 199 0
174 197 0
174 197 0
174 197 0
176 198 0
175 198 0
175 198 0
174 198 0
174 198 0
176 198 0
174 198 0
176 199 0
174 198 0
174 198 0
177 199 0
174 198 0
175 198 0
175 198 0
173 197 0
176 198 0
175 198 0
174 198 0
176 198 0
175 198 0
174 198 0
175 198 0
174 197 0
176 199 0
175 198 0
176 199 0
174 197 0
175 198 0
174 197 0
176 198 0
176 198 0
173 197 0
174 198 0
176 199 0
175 198 0
173 197 0
175 198 0
174 197 0
175 198 0
173 197 0
176 199 0
174 198 0
176 199 0
176 198 0
175 198 0
174 198 0
174 198 0
174 198 0
175 198 0
173 197 0
176 198 0
175 198 0
174 198 0
175 198 0
174 198 0
175 198 0
173 197 0
176 199 0
174 198 0
175 198 0
176 199 0
174 198 0
174 198 0
174 197 0
174 197 0
173 197 0
174 197 0
174 197 0
177 199 0
174 197 0
173 196 0
174 198 0
174 198 0
174 197 0
177 199 0
174 198 0
175 198 0
174 198 0
173 197 0
176 198 0
175 198 0
175 198 0
174 198 0
175 198 0
174 197 0
174 197 0
174 198 0
174 197 0
174 198 0
174 197 0
175 198 0
174 197 0
174 197 0
174 198 0
174 197 0
174 197 0
173 196 0
174 197 0
175 198 0
174 197 0
174 198 0
173 197 0
175 198 0
173 197 0
176 198 0
173 197 0
176 198 0
172 196 0
173 197 0
175 198 0
172 196 0
174 197 0
174 198 0
176 199 0
173 197 0
175 198 0
175 198 0
175 198 0
174 197 0
174 198 0
174 197 0
173 197 0
176 199 0
174 198 0
175 198 0
174 197 0
174 198 0
175 198 0
173 197 0
173 197 0
174 198 0
175 198 0
173 197 0
171 196 0
173 197 0
175 198 0
174 198 0
175 198 0
174 198 0
174 197 0
175 198 0
176 199 0
175 198 0
174 198 0
174 198 0
174 198 0
174 197 0
175 198 0
174 197 0
174 198 0
174 197 0
176 199 0
174 198 0
176 199 0
175 198 0
173 197 0
174 198 0
174 198 0
174 198 0
174 198 0
173 197 0
174 198 0
173 197 0
174 198 0
176 199 0
175 198 0
174 198 0
174 198 0
174 197 0
175 198 0
175 198 0
175 198 0
175 198 0
175 198 0
175 198 0
176 198 0
174 198 0
175 198 0
176 198 0
176 199 0
175 198 0
174 198 0
176 198 0
175 198 0
174 198 0
176 198 0
174 198 0
174 197 0
174 197 0
175 198 0
175 198 0
173 197 0
174 198 0
176 199 0
175 198 0
176 198 0
174 198 0
175 198 0
174 198 0
172 197 0
174 198 0
175 198 0
174 198 0
174 197 0
176 199 0
175 198 0
173 197 0
176 198 0
174 197 0
174 198 0
175 198 0
175 198 0
173 197 0
174 198 0
176 199 0
174 198 0
175 198 0
174 198 0
176 199 0
174 197 0
176 199 0
176 198 0
176 199 0
173 197 0
174 198 0
176 198 0
174 198 0
174 198 0
175 198 0
176 198 0
175 198 0
174 198 0
174 198 0
176 199 0
174 198 0
175 198 0
174 198 0
175 198 0
175 198 0
174 198 0
175 198 0
175 198 0
174 198 0
174 197 0
174 197 0
175 198 0
176 199 0
176 199 0
175 198 0
174 198 0
174 197 0
175 198 0
175 198 0
174 198 0
175 198 0
175 198 0
175 198 0
175 198 0
174 197 0
174 198 0
173 197 0
172 197 0
175 198 25
178 200 62
195 213 149
199 217 171
218 231 226
225 237 245
228 240 255
228 240 255
228 240 255
228 240 255
228 240 255
228 240 255
228 240 255
228 240 255
228 240 255
228 239 255
228 239 255
228 239 255
228 239 255
228 239 255
228 239 255
228 239 255
228 239 255
228 239 255
228 239 255
228 239 255
228 239 255
228 239 255
228 239 255
228 239 255
228 239 255
228 239 255
228 239 255
228 239 255
228 239 255
228 239 255
228 239 255
228 240 255
228 240 255
228 240 255
228 240 255
228 240 255
228 240 255
228 240 255
228 240 255
228 240 255
228 240 255
229 240 255
229 240 255
229 240 255
229 240 255
229 240 255
229 240 255
229 240 255
229 240 255
229 240 255
229 240 255
229 240 255
229 240 255
229 240 255
229 240 255
229 240 255
229 240 255
229 240 255
229 240 255
229 240 255
229 240 255
229 240 255
229 240 255
229 240 255
229 240 255
229 240 255
222 234 234
211 226 203
202 219 175
187 207 114
175 198 25
175 198 0
175 198 0
176 199 0
176 199 0
175 198 0
175 198 0
176 199 0
174 198 0
174 198 0
175 198 0
174 198 0
175 198 0
174 197 0
174 197 0
174 198 0
174 197 0
176 198 0
175 198 0
175 198 0
176 199 0
174 197 0
174 197 0
175 198 0
175 198 0
176 199 0
174 198 0
175 198 0
175 198 0
175 198 0
175 198 0
175 198 0
174 198 0
173 197 0
174 198 0
175 198 0
173 197 0
174 197 0
175 198 0
173 197 0
174 197 0
175 198 0
173 197 0
174 198 0
175 198 0
176 198 0
173 197 0
176 198 0
174 198 0
175 198 0
173 197 0
175 198 0
174 198 0
175 198 0
174 198 0
173 197 0
174 198 0
175 198 0
174 198 0
174 198 0
175 198 0
175 198 0
175 198 0
173 197 0
174 198 0
175 198 0
175 198 0
174 198 0
175 198 0
175 198 0
174 198 0
174 198 0
176 198 0
174 198 0
174 197 0
175 198 0
176 198 0
174 197 0
174 198 0
172 197 0
175 198 0
174 198 0
174 198 0
174 198 0
174 197 0
174 198 0
174 197 0
173 197 0
174 198 0
174 197 0
174 197 0
174 198 0
175 198 0
174 198 0
176 198 0
175 198 0
174 197 0
173 197 0
176 198 0
173 197 0
175 198 0
175 198 0
174 198 0
174 198 0
173 197 0
173 197 0
175 198 0
174 198 0
174 198 0
178 199 0
175 198 0
175 198 0
174 198 0
174 198 0
174 197 0
173 196 0
174 197 0
175 198 0
173 197 0
174 198 0
173 197 0
173 197 0
175 198 0
174 197 0
175 198 0
174 198 0
174 198 0
174 198 0
174 198 0
174 198 0
173 197 0
174 197 0
175 198 0
175 198 0
175 198 0
175 198 0
174 198 0
175 198 0
174 197 0
175 198 0
172 196 0
175 197 0
174 198 0
173 197 0
174 198 0
174 197 0
175 198 0
173 196 0
173 197 0
173 197 0
173 197 0
175 198 0
175 198 0
173 197 0
173 196 0
175 198 0
173 197 0
175 198 0
173 196 0
174 197 0
172 196 0
173 197 0
175 198 0
174 198 0
175 198 0
175 198 0
171 196 0
174 198 0
174 197 0
174 197 0
173 197 0
174 198 0
175 198 0
173 197 0
173 197 0
174 197 0
173 196 0
174 197 0
174 198 0
175 198 0
174 197 0
175 198 0
175 198 0
175 198 0
173 197 0
174 198 0
174 198 0
176 198 0
175 198 0
175 198 0
174 197 0
173 197 0
175 198 0
176 198 0
175 198 0
174 197 0
174 198 0
174 198 0
174 197 0
175 198 0
175 198 0
174 197 0
175 198 0
174 198 0
174 198 0
174 198 0
174 198 0
174 198 0
173 197 0
174 198 0
174 198 0
175 198 0
175 198 0
175 198 0
175 198 0
174 197 0
175 198 0
174 198 0
174 198 0
174 197 0
175 198 0
175 198 0
175 198 0
173 197 0
175 198 0
175 198 0
175 198 0
175 198 0
175 198 0
176 198 0
175 198 0
175 198 0
175 198 0
174 198 0
173 197 0
175 198 0
173 197 0
173 197 0
173 197 0
174 198 0
173 197 0
174 198 0
175 198 0
174 197 0
175 198 0
175 198 0
175 198 0
175 198 0
174 198 0
175 198 0
174 198 0
174 198 0
176 199 0
174 198 0
175 198 0
175 198 0
174 198 0
175 198 0
174 197 0
175 198 0
176 199 0
174 198 0
175 198 0
174 198 0
175 198 0
175 198 0
175 198 0
175 198 0
173 197 0
175 198 0
175 198 0
176 199 0
175 198 0
174 198 0
174 198 0
174 198 0
175 198 0
176 198 0
176 199 0
174 198 0
175 198 0
174 198 0
174 197 0
174 198 0
175 198 0
175 198 0
173 197 0
174 197 0
175 198 0
175 198 0
176 199 0
176 199 0
175 198 0
175 198 0
175 198 0
175 198 0
174 197 0
175 198 0
174 198 0
175 198 0
173 197 0
174 198 0
174 198 0
176 198 0
174 198 0
174 198 0
174 198 0
174 198 0
175 198 0
173 197 0
175 198 0
174 197 0
175 198 0
176 198 0
175 198 0
175 198 0
175 198 0
175 198 0
175 198 0
175 198 0
173 197 0
175 198 0
175 198 0
175 198 0
175 198 0
176 199 0
174 198 0
174 198 0
175 198 0
175 198 25
182 203 92
194 213 147
206 222 188
215 229 217
227 239 252
228 240 255
228 240 255
228 240 255
228 240 255
228 240 255
228 240 255
228 240 255
228 240 255
228 240 255
228 239 255
228 239 255
228 239 255
228 239 255
228 239 255
228 239 255
228 239 255
228 239 255
228 239 255
228 239 255
228 239 255
228 239 255
228 240 255
228 240 255
228 240 255
228 240 255
228 240 255
228 240 255
228 240 255
228 240 255
228 240 255
228 240 255
228 240 255
229 240 255
229 240 255
229 240 255
229 240 255
229 240 255
229 240 255
229 240 255
229 240 255
229 240 255
229 240 255
229 240 255
229 240 255
229 240 255
229 240 255
229 240 255
229 240 255
229 240 255
229 240 255
229 240 255
229 240 255
229 240 255
229 240 255
229 240 255
229 240 255
228 239 253
220 233 231
211 226 201
188 208 120
181 203 88
175 198 0
173 197 0
175 198 0
176 199 0
174 198 0
176 199 0
174 198 0
174 198 0
175 198 0
176 199 0
175 198 0
176 199 0
175 198 0
174 198 0
173 197 0
174 198 0
173 197 0
175 198 0
175 198 0
176 199 0
175 198 0
174 198 0
175 198 0
174 198 0
176 199 0
174 198 0
174 197 0
174 197 0
176 198 0
175 198 0
174 198 0
173 197 0
175 198 0
174 197 0
174 198 0
174 197 0
173 197 0
173 197 0
175 198 0
175 198 0
174 197 0
175 198 0
175 198 0
174 198 0
174 198 0
175 198 0
175 198 0
174 197 0
173 197 0
174 198 0
173 197 0
174 198 0
172 197 0
174 198 0
175 198 0
175 198 0
175 198 0
174 198 0
173 197 0
175 198 0
175 198 0
175 198 0
174 198 0
175 198 0
175 198 0
175 198 0
176 199 0
175 198 0
174 198 0
174 198 0
174 198 0
176 199 0
175 198 0
175 198 0
173 197 0
173 197 0
174 197 0
173 197 0
174 198 0
175 198 0
175 198 0
174 198 0
174 198 0
174 198 0
174 198 0
176 199 0
176 199 0
174 198 0
176 199 0
174 198 0
175 198 0
174 197 0
173 197 0
173 197 0
174 198 0
176 199 0
174 197 0
175 198 0
174 197 0
174 198 0
174 197 0
175 198 0
173 197 0
175 198 0
175 198 0
176 198 0
175 198 0
175 198 0
176 199 0
174 198 0
174 197 0
173 197 0
173 197 0
175 198 0
175 198 0
174 198 0
173 197 0
175 198 0
174 198 0
173 197 0
175 198 0
176 199 0
175 198 0
173 197 0
176 199 0
175 198 0
174 198 0
175 198 0
173 197 0
174 198 0
174 198 0
175 198 0
175 198 0
174 198 0
175 198 0
173 197 0
173 197 0
175 198 0
174 198 0
174 198 0
173 197 0
175 198 0
175 198 0
175 198 0
174 198 0
173 197 0
175 198 0
175 198 0
173 197 0
174 198 0
172 196 0
175 197 0
173 197 0
174 198 0
175 198 0
176 198 0
175 198 0
172 196 0
175 198 0
175 198 0
174 198 0
174 198 0
173 196 0
174 197 0
173 197 0
174 197 0
176 199 0
172 196 0
173 197 0
174 197 0
175 198 0
175 198 0
174 198 0
174 194 19
182 190 65
182 187 69
184 186 79
179 187 65
182 190 61
176 190 44
173 196 0
174 198 0
175 198 0
175 198 0
174 198 0
175 198 0
173 197 0
173 197 0
174 198 0
175 198 0
175 198 0
175 198 0
176 198 0
173 197 0
175 198 0
175 198 0
174 198 0
173 197 0
176 199 0
175 198 0
176 198 0
174 198 0
175 197 0
175 198 0
175 198 0
175 198 0
176 199 0
173 197 0
175 198 0
174 197 0
175 198 0
173 196 0
175 198 0
175 198 0
175 198 0
174 197 0
174 197 0
174 198 0
174 197 0
174 197 0
174 198 0
174 197 0
173 197 0
174 197 0
175 198 0
173 197 0
174 198 0
176 198 0
174 198 0
174 197 0
174 198 0
175 198 0
174 197 0
174 198 0
174 197 0
175 198 0
174 198 0
174 197 0
175 198 0
174 198 0
173 197 0
175 198 0
174 198 0
174 198 0
175 198 0
175 198 0
176 199 0
175 198 0
174 197 0
174 197 0
173 197 0
176 199 0
175 198 0
174 198 0
175 198 0
174 198 0
175 198 0
174 198 0
175 198 0
175 198 0
174 197 0
175 198 0
174 197 0
173 197 0
173 197 0
173 197 0
175 198 0
175 198 0
174 197 0
173 197 0
175 198 0
175 198 0
174 198 0
175 198 0
174 198 0
175 198 0
174 198 0
172 196 0
173 197 0
175 198 0
175 198 0
176 198 0
175 198 0
175 198 0
175 198 0
175 198 0
175 198 0
176 198 0
174 197 0
175 198 0
173 197 0
174 198 0
174 197 0
174 198 0
175 198 0
174 198 0
175 198 0
175 198 0
175 198 0
175 198 0
175 198 0
173 197 0
175 198 0
175 198 0
176 198 0
173 197 0
175 198 0
174 197 0
175 198 0
174 198 0
174 198 0
173 197 0
174 198 0
174 198 0
175 198 0
175 198 0
175 198 0
174 198 0
175 198 0
177 199 0
173 197 0
175 198 0
175 198 0
176 199 0
175 198 0
174 197 0
176 199 0
176 199 0
174 197 0
175 198 0
175 198 0
176 198 0
174 198 0
175 198 0
174 197 0
174 198 0
173 197 0
175 198 0
175 198 36
186 206 99
201 218 171
208 224 196
217 230 224
228 239 253
228 240 255
228 240 255
228 240 255
228 240 255
228 240 255
228 240 255
228 240 255
228 240 255
228 240 255
228 239 255
228 239 255
228 239 255
228 239 255
228 240 255
228 240 255
228 240 255
228 240 255
228 240 255
228 240 255
228 240 255
228 240 255
228 240 255
229 240 255
229 240 255
229 240 255
229 240 255
229 240 255
229 240 255
229 240 255
229 240 255
229 240 255
229 240 255
229 240 255
229 240 255
229 240 255
229 240 255
229 240 255
229 240 255
229 240 255
229 240 255
229 240 255
229 240 255
229 240 255
229 240 255
229 240 255
229 240 255
229 240 255
225 237 245
216 230 220
205 220 181
185 206 105
179 201 62
174 198 0
174 197 0
174 197 0
175 198 0
175 198 0
173 197 0
175 198 0
175 198 0
175 198 0
176 198 0
176 199 0
175 198 0
175 198 0
174 198 0
173 197 0
174 197 0
175 198 0
174 198 0
175 198 0
176 199 0
175 198 0
175 198 0
174 197 0
174 198 0
177 199 0
175 198 0
175 198 0
174 197 0
175 198 0
174 198 0
175 198 0
175 198 0
176 199 0
176 199 0
175 198 0
173 197 0
176 199 0
176 199 0
174 198 0
173 197 0
174 198 0
174 197 0
175 198 0
175 198 0
175 198 0
174 198 0
174 198 0
172 196 0
176 198 0
176 199 0
174 197 0
174 198 0
174 198 0
174 198 0
174 198 0
176 199 0
175 198 0
173 197 0
176 199 0
174 198 0
173 197 0
174 198 0
175 198 0
174 197 0
175 198 0
173 197 0
175 198 0
175 198 0
174 198 0
175 198 0
176 199 0
174 198 0
174 198 0
175 198 0
173 197 0
174 198 0
174 198 0
175 198 0
175 198 0
174 198 0
175 198 0
175 198 0
177 199 0
175 198 0
173 197 0
175 198 0
175 198 0
175 198 0
175 198 0
175 197 0
175 198 0
174 197 0
174 198 0
175 198 0
175 198 0
173 196 0
174 197 0
173 197 0
175 198 0
174 198 0
173 197 0
173 197 0
173 197 0
175 198 0
174 197 0
174 198 0
174 197 0
175 198 0
174 197 0
174 198 0
173 197 0
174 198 0
175 198 0
174 197 0
174 198 0
175 198 0
175 198 0
175 198 0
173 197 0
175 198 0
175 198 0
174 198 0
174 198 0
173 196 0
174 197 0
175 198 0
176 198 0
174 197 0
176 198 0
174 197 0
175 198 0
174 197 0
173 197 0
175 198 0
175 198 0
172 196 0
174 198 0
173 197 0
174 198 0
175 198 0
174 197 0
175 198 0
173 197 0
173 197 0
175 198 0
174 197 0
175 198 0
174 198 0
174 198 0
174 197 0
173 197 0
174 197 0
173 197 0
175 197 0
174 197 0
174 198 0
174 197 0
173 197 0
174 197 0
176 198 0
174 198 0
173 197 0
174 198 0
173 196 0
174 197 0
173 196 0
175 198 0
173 197 0
174 197 0
174 197 0
174 197 0
174 198 0
174 198 0
177 199 0
175 194 25
181 186 70
190 181 101
192 180 113
189 178 114
187 177 114
186 177 114
187 177 114
188 178 114
191 179 114
191 179 109
186 184 90
176 189 49
175 198 0
172 197 0
173 197 0
174 198 0
174 198 0
174 197 0
176 199 0
174 197 0
175 198 0
174 197 0
174 198 0
174 197 0
174 198 0
175 198 0
174 197 0
174 198 0
175 197 0
173 197 0
174 197 0
173 197 0
175 198 0
174 197 0
175 198 0
174 197 0
176 199 0
173 197 0
172 197 0
174 197 0
175 198 0
175 198 0
175 198 0
173 197 0
174 197 0
174 198 0
173 197 0
175 198 0
174 198 0
175 198 0
174 198 0
176 199 0
174 198 0
174 197 0
175 198 0
175 198 0
174 197 0
173 197 0
175 198 0
175 198 0
175 198 0
173 197 0
174 198 0
173 197 0
174 198 0
174 198 0
174 198 0
174 197 0
175 198 0
176 198 0
177 199 0
176 198 0
175 198 0
174 197 0
174 197 0
174 197 0
175 198 0
175 198 0
174 198 0
175 198 0
175 198 0
173 197 0
175 198 0
175 198 0
175 198 0
173 197 0
174 198 0
173 197 0
176 199 0
174 198 0
174 198 0
173 197 0
175 198 0
175 198 0
173 197 0
175 198 0
175 198 0
175 198 0
176 199 0
175 198 0
174 198 0
176 199 0
174 198 0
175 198 0
173 197 0
173 197 0
175 198 0
175 198 0
175 198 0
175 198 0
175 198 0
175 198 0
175 198 0
175 198 0
174 198 0
173 197 0
174 198 0
174 198 0
176 199 0
174 197 0
174 198 0
174 197 0
175 198 0
173 197 0
175 198 0
174 198 0
174 198 0
173 197 0
173 197 0
174 197 0
175 198 0
175 198 0
175 198 0
174 197 0
174 198 0
175 198 0
174 197 0
173 197 0
175 198 0
174 198 0
174 198 0
175 198 0
174 198 0
175 198 0
175 198 0
174 198 0
175 198 0
175 198 0
174 198 0
174 198 0
175 198 0
173 197 0
174 198 0
174 198 0
176 199 0
175 198 0
175 198 0
173 197 0
175 198 0
173 197 0
176 199 0
174 198 0
173 197 0
173 197 0
175 198 0
177 199 0
174 198 0
174 197 0
175 198 0
175 198 0
176 199 0
176 198 0
174 198 25
187 207 114
199 216 163
215 229 220
220 233 233
228 239 254
228 240 255
228 240 255
228 240 255
228 240 255
228 240 255
228 240 255
228 240 255
228 240 255
228 240 255
228 240 255
228 240 255
228 240 255
229 240 255
229 240 255
229 240 255
229 240 255
229 240 255
229 240 255
229 240 255
229 240 255
229 240 255
229 240 255
229 240 255
229 240 255
229 240 255
229 240 255
229 240 255
229 240 255
229 240 255
229 240 255
229 240 255
229 240 255
229 240 255
229 240 255
229 240 255
229 240 255
229 240 255
229 240 255
223 235 238
208 223 193
199 216 163
192 211 135
175 198 25
174 198 0
175 198 0
174 197 0
175 198 0
175 198 0
176 199 0
176 199 0
176 199 0
175 198 0
176 199 0
175 198 0
175 198 0
175 198 0
175 198 0
174 198 0
174 198 0
176 199 0
173 197 0
176 199 0
174 198 0
174 197 0
175 198 0
173 197 0
175 198 0
175 198 0
175 198 0
174 198 0
175 198 0
174 198 0
175 198 0
174 197 0
175 198 0
174 197 0
175 198 0
173 197 0
174 198 0
173 197 0
174 198 0
174 198 0
175 198 0
174 197 0
173 197 0
175 198 0
175 198 0
173 197 0
174 197 0
174 198 0
175 198 0
175 198 0
172 197 0
176 199 0
176 198 0
175 198 0
175 198 0
174 198 0
175 198 0
175 198 0
175 198 0
174 197 0
174 198 0
174 198 0
173 197 0
174 198 0
175 198 0
174 197 0
175 198 0
174 198 0
175 198 0
175 198 0
173 197 0
173 197 0
175 198 0
174 198 0
175 198 0
173 197 0
178 200 0
175 198 0
174 198 0
175 198 0
175 198 0
175 198 0
174 197 0
175 198 0
173 197 0
175 198 0
174 198 0
175 198 0
176 199 0
174 198 0
176 198 0
173 197 0
175 198 0
175 198 0
176 199 0
173 197 0
174 198 0
176 199 0
175 198 0
174 198 0
174 198 0
176 199 0
174 197 0
175 198 0
174 197 0
175 198 0
175 198 0
174 198 0
174 197 0
174 198 0
175 198 0
173 197 0
176 199 0
176 198 0
174 198 0
174 197 0
176 199 0
173 197 0
175 198 0
173 197 0
173 197 0
175 198 0
175 198 0
173 197 0
174 198 0
174 197 0
175 198 0
172 196 0
174 197 0
175 198 0
175 198 0
175 198 0
175 198 0
172 197 0
174 197 0
174 197 0
174 197 0
174 198 0
175 198 0
175 198 0
173 197 0
174 198 0
174 198 0
175 198 0
174 198 0
174 197 0
174 198 0
174 198 0
174 198 0
176 198 0
173 197 0
174 197 0
175 198 0
174 198 0
174 198 0
173 196 0
173 196 0
173 197 0
175 198 0
174 197 0
173 197 0
174 197 0
173 197 0
175 198 0
174 197 0
173 196 0
173 197 0
174 197 0
174 197 0
174 198 0
175 198 0
173 196 0
172 196 0
173 196 0
174 197 0
174 198 0
174 197 0
171 193 0
182 184 75
193 180 112
190 178 114
185 176 114
181 174 114
179 173 114
177 172 114
176 172 114
177 172 114
178 173 114
180 174 114
182 175 114
186 177 114
192 179 113
186 182 91
176 194 34
174 197 0
176 199 0
176 198 0
173 197 0
174 197 0
175 198 0
176 199 0
173 197 0
174 197 0
174 198 0
174 198 0
174 197 0
174 197 0
173 197 0
175 198 0
175 198 0
175 198 0
173 197 0
175 198 0
174 197 0
172 197 0
175 198 0
175 198 0
176 198 0
174 198 0
173 197 0
174 197 0
174 197 0
174 198 0
174 198 0
173 197 0
175 198 0
174 198 0
173 197 0
174 198 0
174 197 0
173 197 0
174 198 0
175 198 0
174 198 0
174 198 0
176 199 0
176 199 0
173 197 0
173 197 0
174 197 0
174 197 0
174 198 0
175 198 0
175 198 0
175 198 0
173 197 0
176 199 0
173 197 0
172 197 0
175 198 0
175 198 0
175 198 0
174 198 0
175 198 0
174 198 0
174 198 0
176 199 0
175 198 0
174 197 0
175 198 0
174 198 0
174 197 0
175 198 0
174 197 0
176 199 0
175 198 0
175 198 0
174 198 0
173 197 0
175 198 0
174 198 0
175 198 0
174 198 0
177 199 0
173 197 0
173 197 0
176 199 0
176 199 0
175 198 0
174 198 0
176 199 0
173 197 0
175 198 0
176 199 0
176 199 0
174 197 0
174 197 0
174 197 0
174 197 0
173 197 0
175 198 0
174 198 0
173 197 0
175 198 0
176 199 0
174 198 0
174 198 0
174 198 0
174 198 0
174 198 0
175 198 0
176 199 0
175 198 0
175 198 0
172 197 0
174 197 0
174 198 0
174 198 0
174 198 0
173 197 0
174 198 0
175 198 0
175 198 0
174 198 0
174 198 0
175 198 0
174 198 0
174 198 0
175 198 0
175 198 0
173 197 0
175 198 0
176 199 0
175 198 0
174 198 0
174 198 0
173 197 0
174 198 0
173 197 0
174 198 0
174 198 0
173 197 0
174 198 0
174 198 0
175 198 0
175 198 0
174 197 0
175 198 0
174 198 0
172 197 0
175 198 0
173 197 0
175 198 0
174 197 0
174 198 0
175 198 0
174 198 0
175 198 0
175 198 0
173 197 0
175 198 0
174 198 0
174 198 0
175 198 0
174 198 0
174 198 0
177 199 0
180 202 62
187 207 114
203 220 182
216 230 220
222 235 240
228 240 255
228 240 255
228 240 255
228 240 255
229 240 255
229 240 255
229 240 255
229 240 255
229 240 255
229 240 255
229 240 255
229 240 255
229 240 255
229 240 255
229 240 255
229 240 255
229 240 255
229 240 255
229 240 255
229 240 255
229 240 255
229 240 255
229 240 255
229 240 255
229 240 255
229 240 255
229 240 255
229 240 255
229 240 255
229 240 255
222 234 236
210 225 199
201 218 171
184 205 95
174 198 0
174 198 0
175 198 0
176 199 0
176 198 0
173 197 0
176 199 0
176 198 0
176 199 0
175 198 0
176 198 0
174 198 0
174 198 0
175 198 0
175 198 0
174 198 0
176 198 0
175 198 0
175 198 0
174 198 0
176 199 0
174 198 0
175 198 0
176 199 0
174 197 0
173 197 0
175 198 0
175 198 0
174 198 0
174 198 0
176 198 0
175 198 0
175 198 0
176 198 0
175 198 0
175 198 0
176 199 0
174 197 0
173 197 0
175 198 0
174 198 0
173 197 0
174 198 0
175 198 0
175 198 0
175 198 0
175 198 0
175 198 0
175 198 0
174 197 0
174 198 0
175 198 0
175 198 0
173 197 0
172 197 0
176 199 0
175 198 0
174 197 0
177 199 0
175 198 0
174 197 0
175 198 0
175 198 0
174 198 0
176 199 0
176 198 0
175 198 0
176 198 0
176 199 0
175 198 0
173 197 0
173 197 0
175 198 0
175 198 0
174 198 0
175 198 0
175 198 0
174 197 0
174 197 0
176 199 0
174 198 0
175 198 0
174 198 0
174 198 0
174 198 0
175 198 0
175 198 0
175 198 0
175 198 0
174 198 0
176 198 0
175 198 0
174 197 0
174 198 0
176 199 0
174 197 0
174 198 0
174 198 0
175 198 0
175 198 0
173 197 0
177 199 0
174 197 0
173 197 0
174 198 0
171 196 0
174 198 0
173 197 0
173 197 0
173 197 0
173 197 0
174 198 0
174 198 0
173 197 0
173 197 0
175 198 0
173 197 0
175 198 0
174 198 0
173 197 0
174 198 0
175 198 0
174 197 0
175 198 0
174 197 0
173 197 0
174 197 0
174 198 0
174 197 0
174 198 0
174 197 0
172 197 0
175 198 0
174 198 0
174 197 0
174 198 0
172 196 0
176 198 0
174 198 0
172 196 0
174 198 0
174 198 0
174 197 0
174 197 0
174 197 0
173 197 0
174 197 0
175 198 0
173 197 0
173 196 0
173 196 0
173 196 0
175 198 0
173 197 0
176 199 0
172 196 0
174 198 0
175 198 0
175 198 0
174 197 0
174 198 0
175 198 0
174 197 0
175 197 0
174 198 0
174 198 0
174 197 0
173 197 0
172 196 0
175 198 0
173 197 0
173 197 0
174 198 0
174 196 0
175 198 0
175 198 0
173 197 0
172 195 0
174 198 0
173 196 0
176 191 37
187 177 95
192 179 114
185 176 114
181 174 114
177 172 114
174 171 114
172 170 114
171 170 114
170 169 114
170 169 114
171 170 114
173 170 114
175 171 114
178 173 114
182 175 114
188 178 114
193 180 110
175 185 53
173 197 0
174 197 0
173 197 0
175 198 0
173 196 0
174 197 0
175 198 0
174 198 0
173 197 0
173 197 0
174 198 0
174 197 0
173 197 0
173 197 0
174 197 0
174 197 0
173 197 0
173 197 0
173 197 0
174 197 0
175 198 0
175 198 0
174 198 0
175 198 0
175 198 0
174 198 0
175 198 0
175 198 0
174 197 0
175 198 0
174 197 0
173 197 0
174 198 0
173 197 0
174 198 0
174 198 0
176 199 0
174 197 0
174 198 0
174 198 0
177 199 0
174 197 0
174 197 0
176 199 0
175 198 0
173 197 0
175 198 0
174 198 0
173 197 0
175 198 0
175 198 0
174 198 0
174 198 0
175 198 0
175 198 0
174 197 0
175 198 0
174 198 0
174 197 0
175 198 0
174 198 0
175 198 0
175 198 0
174 198 0
175 198 0
175 198 0
173 197 0
174 198 0
174 198 0
175 198 0
174 198 0
175 198 0
175 198 0
174 198 0
175 198 0
174 198 0
176 198 0
175 198 0
176 198 0
174 198 0
175 198 0
174 197 0
175 198 0
173 197 0
176 198 0
174 198 0
174 197 0
174 197 0
175 198 0
175 198 0
175 198 0
174 197 0
174 198 0
173 197 0
174 198 0
173 197 0
175 198 0
176 199 0
175 198 0
172 197 0
174 198 0
175 198 0
174 198 0
173 197 0
175 198 0
173 197 0
173 197 0
176 199 0
174 198 0
174 198 0
175 198 0
175 198 0
177 199 0
175 198 0
174 197 0
176 198 0
175 198 0
173 197 0
173 197 0
173 197 0
174 198 0
175 198 0
173 197 0
175 198 0
174 197 0
173 197 0
174 197 0
173 197 0
174 198 0
174 198 0
175 198 0
174 197 0
174 198 0
175 198 0
174 198 0
175 198 0
175 198 0
175 198 0
176 199 0
175 198 0
173 197 0
174 198 0
175 198 0
175 198 0
174 198 0
174 197 0
176 199 0
173 197 0
176 198 0
176 198 0
175 198 0
174 198 0
174 198 0
174 198 0
174 197 0
174 198 0
174 198 0
175 198 0
174 198 0
176 199 0
174 198 0
176 199 0
174 198 0
174 198 0
175 198 0
175 198 0
174 198 0
180 202 84
195 213 151
204 221 186
217 231 224
229 240 255
229 240 255
229 240 255
229 240 255
229 240 255
229 240 255
229 240 255
229 240 255
229 240 255
229 240 255
229 240 255
229 240 255
229 240 255
229 240 255
229 240 255
229 240 255
229 240 255
229 240 255
229 240 255
229 240 255
229 240 255
229 240 254
216 230 220
207 222 191
194 212 144
177 200 57
175 198 0
174 197 0
175 198 0
174 198 0
175 198 0
175 198 0
175 198 0
176 199 0
174 198 0
175 198 0
175 198 0
174 198 0
175 198 0
174 198 0
174 198 0
175 198 0
176 198 0
175 198 0
174 198 0
176 198 0
175 198 0
176 199 0
174 197 0
174 197 0
175 198 0
175 198 0
175 198 0
175 198 0
174 197 0
175 198 0
174 198 0
174 198 0
174 198 0
174 197 0
174 198 0
174 198 0
176 199 0
175 198 0
175 198 0
174 198 0
175 198 0
176 199 0
174 198 0
177 199 0
176 199 0
175 198 0
175 198 0
173 197 0
174 197 0
176 198 0
174 198 0
174 197 0
174 198 0
174 198 0
175 198 0
175 198 0
175 198 0
174 198 0
174 197 0
175 198 0
174 198 0
173 197 0
175 198 0
174 197 0
173 197 0
173 197 0
176 199 0
173 197 0
174 198 0
176 198 0
176 198 0
174 198 0
176 199 0
175 198 0
174 198 0
174 197 0
173 197 0
174 198 0
174 197 0
175 198 0
174 198 0
174 197 0
173 197 0
175 198 0
176 199 0
173 197 0
172 197 0
174 198 0
174 198 0
173 197 0
172 197 0
173 197 0
175 198 0
175 198 0
175 198 0
173 197 0
174 198 0
174 198 0
175 198 0
175 198 0
174 198 0
175 198 0
174 198 0
175 198 0
175 198 0
174 198 0
173 197 0
174 198 0
174 198 0
177 199 0
174 197 0
174 197 0
175 198 0
173 197 0
174 197 0
174 198 0
172 196 0
173 197 0
174 197 0
177 199 0
173 197 0
177 199 0
174 198 0
175 198 0
175 198 0
174 198 0
174 198 0
175 198 0
174 197 0
176 198 0
173 197 0
174 198 0
174 198 0
175 198 0
175 198 0
173 197 0
175 198 0
173 197 0
175 198 0
173 196 0
174 197 0
175 198 0
174 198 0
174 197 0
172 196 0
173 197 0
173 197 0
173 197 0
176 198 0
174 198 0
174 197 0
173 197 0
172 195 0
174 197 0
174 198 0
175 198 0
173 197 0
175 198 0
173 197 0
177 199 0
174 197 0
172 196 0
172 196 0
175 197 0
174 197 0
175 198 0
175 198 0
173 195 0
173 196 0
176 198 0
174 197 0
173 195 0
174 198 0
173 197 0
175 198 0
174 196 0
174 198 0
174 197 0
174 197 0
175 198 0
173 196 0
174 198 0
175 198 0
174 186 45
192 179 106
190 179 114
184 176 114
179 174 114
176 172 114
172 170 114
170 169 114
168 168 114
166 168 114
166 167 114
166 167 114
166 168 114
168 168 114
170 169 114
173 171 114
177 172 114
181 174 114
187 177 114
194 180 113
178 182 63
173 196 0
174 197 0
176 199 0
173 197 0
175 198 0
175 198 0
174 197 0
175 198 0
175 198 0
176 198 0
174 198 0
173 196 0
174 198 0
172 196 0
172 197 0
174 197 0
174 197 0
175 198 0
174 198 0
175 198 0
173 197 0
174 198 0
175 197 0
176 198 0
175 198 0
174 198 0
175 198 0
174 198 0
176 198 0
174 198 0
174 197 0
174 197 0
174 197 0
174 197 0
173 197 0
174 198 0
175 198 0
174 198 0
174 198 0
175 198 0
175 198 0
174 198 0
174 198 0
176 199 0
175 198 0
176 199 0
173 197 0
176 198 0
174 198 0
174 197 0
173 197 0
174 197 0
173 197 0
174 197 0
174 198 0
175 198 0
173 197 0
174 198 0
173 197 0
176 198 0
174 197 0
174 197 0
174 198 0
177 199 0
175 198 0
175 198 0
173 197 0
174 197 0
172 197 0
175 198 0
174 198 0
174 198 0
172 197 0
175 198 0
174 198 0
175 198 0
175 198 0
174 198 0
175 198 0
174 198 0
174 198 0
173 197 0
175 198 0
174 197 0
174 197 0
175 198 0
174 198 0
176 199 0
173 197 0
175 198 0
175 198 0
174 198 0
174 198 0
174 198 0
174 198 0
175 198 0
174 198 0
175 198 0
175 198 0
174 197 0
175 198 0
174 198 0
175 198 0
174 198 0
175 198 0
175 198 0
173 197 0
176 198 0
173 197 0
175 198 0
175 198 0
177 199 0
174 198 0
175 198 0
173 197 0
175 198 0
175 198 0
176 199 0
173 197 0
175 198 0
173 197 0
173 197 0
174 198 0
174 198 0
174 198 0
175 198 0
174 197 0
174 197 0
173 197 0
176 199 0
175 198 0
175 198 0
174 197 0
174 197 0
176 198 0
174 197 0
175 198 0
176 199 0
173 197 0
176 198 0
174 198 0
173 197 0
175 198 0
175 198 0
175 198 0
176 198 0
175 198 0
174 198 0
174 197 0
175 198 0
174 198 0
175 198 0
173 197 0
174 197 0
175 198 0
175 198 0
174 197 0
176 199 0
173 197 0
175 198 0
177 199 0
174 198 0
174 198 0
176 198 0
173 197 0
174 198 0
175 198 0
174 197 0
174 198 0
175 198 0
229 240 255
229 240 255
229 240 255
229 240 255
229 240 255
229 240 255
229 240 255
229 240 255
229 240 255
229 240 255
229 240 255
229 240 255
229 240 255
229 240 255
229 240 255
229 240 255
229 240 255
229 240 254
217 230 220
206 222 188
193 212 140
179 202 72
176 198 0
176 199 0
175 198 0
176 198 0
176 199 0
174 198 0
176 199 0
173 197 0
174 198 0
175 198 0
175 198 0
178 200 0
174 198 0
175 198 0
174 198 0
175 198 0
174 198 0
177 199 0
175 198 0
176 199 0
176 199 0
173 197 0
175 198 0
174 198 0
173 197 0
174 198 0
175 198 0
174 197 0
176 198 0
174 198 0
175 198 0
174 198 0
175 198 0
175 198 0
174 198 0
175 198 0
175 198 0
174 197 0
174 198 0
174 197 0
174 198 0
175 198 0
174 198 0
174 198 0
175 198 0
173 197 0
174 198 0
175 198 0
176 199 0
174 198 0
174 198 0
174 198 0
175 198 0
174 198 0
175 198 0
174 198 0
175 198 0
175 198 0
174 197 0
176 199 0
176 199 0
176 198 0
175 198 0
174 198 0
175 198 0
175 198 0
175 198 0
175 198 0
175 198 0
174 198 0
175 198 0
175 198 0
174 198 0
174 198 0
176 199 0
175 198 0
175 198 0
174 197 0
174 198 0
175 198 0
175 198 0
174 198 0
175 198 0
174 197 0
175 198 0
174 197 0
175 198 0
174 198 0
174 197 0
175 198 0
174 198 0
174 198 0
174 198 0
175 198 0
176 199 0
176 198 0
174 198 0
175 198 0
175 198 0
174 197 0
175 198 0
175 198 0
174 197 0
175 198 0
174 197 0
174 197 0
175 198 0
174 197 0
173 197 0
174 197 0
175 198 0
175 198 0
173 197 0
174 198 0
174 198 0
174 198 0
175 198 0
173 197 0
173 197 0
175 198 0
176 198 0
176 199 0
173 197 0
173 197 0
173 197 0
176 198 0
175 198 0
173 197 0
175 198 0
174 198 0
174 197 0
174 197 0
174 198 0
174 197 0
173 197 0
173 197 0
172 195 0
175 198 0
173 197 0
174 198 0
176 199 0
174 198 0
173 197 0
173 197 0
175 198 0
173 197 0
174 198 0
175 198 0
173 197 0
174 197 0
170 194 0
174 197 0
175 198 0
175 198 0
174 197 0
174 197 0
173 197 0
177 199 0
172 196 0
173 197 0
175 198 0
174 197 0
175 198 0
175 198 0
175 197 0
173 197 0
172 196 0
175 198 0
174 197 0
174 197 0
173 196 0
174 197 0
173 197 0
173 196 0
175 198 0
175 197 0
172 195 0
175 198 0
171 195 0
174 197 0
175 197 0
174 197 0
174 197 0
173 197 0
173 196 0
174 197 0
172 187 28
192 179 105
191 179 114
185 176 114
180 174 114
175 172 114
172 170 114
169 169 114
167 168 114
165 167 114
164 166 114
163 166 114
163 166 114
164 166 114
165 167 114
167 168 114
169 169 114
173 171 114
177 173 114
182 175 114
187 177 114
194 180 112
175 181 53
173 197 0
172 196 0
175 198 0
173 197 0
175 198 0
176 198 0
175 198 0
175 198 0
174 197 0
173 197 0
174 198 0
173 197 0
175 198 0
174 197 0
173 197 0
173 197 0
173 197 0
175 198 0
173 197 0
175 198 0
173 197 0
175 198 0
175 198 0
174 197 0
176 199 0
172 197 0
177 199 0
173 197 0
174 198 0
174 198 0
175 198 0
174 198 0
174 197 0
176 199 0
173 197 0
175 198 0
176 199 0
172 197 0
174 198 0
174 198 0
174 197 0
174 197 0
174 197 0
173 197 0
175 198 0
176 199 0
175 198 0
175 198 0
172 196 0
175 198 0
174 198 0
174 198 0
174 198 0
174 198 0
174 198 0
174 198 0
175 198 0
175 198 0
175 198 0
174 198 0
173 197 0
174 198 0
174 198 0
174 198 0
174 197 0
175 198 0
176 198 0
173 197 0
174 197 0
174 198 0
174 198 0
174 198 0
173 197 0
174 198 0
175 198 0
174 197 0
175 198 0
175 198 0
174 198 0
175 198 0
173 197 0
175 198 0
175 198 0
174 198 0
173 197 0
175 198 0
173 197 0
174 198 0
175 198 0
174 197 0
175 198 0
173 197 0
174 197 0
176 198 0
174 198 0
175 198 0
174 198 0
174 197 0
175 198 0
174 197 0
174 197 0
173 197 0
176 199 0
173 197 0
173 197 0
175 198 0
174 197 0
174 198 0
174 198 0
174 197 0
174 197 0
175 198 0
174 198 0
175 198 0
176 198 0
177 199 0
175 198 0
175 198 0
175 198 0
174 197 0
175 198 0
174 197 0
174 197 0
176 198 0
175 198 0
174 198 0
174 198 0
176 199 0
175 198 0
175 198 0
176 198 0
176 199 0
174 198 0
175 198 0
175 198 0
175 198 0
175 198 0
175 198 0
175 198 0
176 199 0
174 198 0
175 198 0
173 197 0
174 198 0
174 198 0
175 198 0
175 198 0
175 198 0
176 199 0
174 198 0
176 198 0
175 198 0
175 198 0
174 198 0
176 199 0
174 198 0
174 197 0
174 198 0
174 198 0
175 198 0
175 198 0
175 198 0
175 198 0
175 198 0
176 198 0
174 198 0
175 198 0
175 198 0
175 198 0
229 240 255
229 240 255
229 240 255
229 240 255
229 240 255
229 240 255
229 240 255
229 240 255
229 240 255
229 240 255
229 240 255
229 240 255
229 240 255
227 238 249
214 228 214
202 219 177
184 205 105
177 199 44
174 198 0
175 198 0
175 198 0
174 198 0
175 198 0
175 198 0
175 198 0
176 199 0
174 198 0
176 198 0
175 198 0
175 198 0
175 198 0
176 199 0
175 198 0
175 198 0
174 197 0
175 198 0
176 199 0
175 198 0
175 198 0
173 197 0
172 197 0
174 198 0
174 198 0
174 198 0
173 197 0
174 197 0
173 197 0
175 198 0
176 199 0
175 198 0
175 198 0
174 198 0
176 199 0
174 198 0
174 198 0
176 199 0
174 198 0
173 197 0
175 198 0
174 198 0
175 198 0
174 198 0
176 199 0
174 198 0
176 199 0
175 198 0
175 198 0
175 198 0
173 197 0
175 198 0
173 197 0
176 198 0
175 198 0
175 198 0
176 199 0
176 199 0
174 198 0
174 198 0
175 198 0
173 197 0
174 198 0
175 198 0
174 198 0
174 198 0
173 197 0
173 197 0
175 198 0
177 199 0
176 198 0
175 198 0
174 198 0
173 197 0
174 197 0
177 199 0
176 198 0
173 197 0
174 198 0
175 198 0
176 198 0
174 198 0
176 199 0
174 198 0
175 198 0
174 198 0
174 198 0
174 197 0
174 198 0
174 198 0
174 197 0
174 198 0
171 196 0
175 198 0
174 197 0
175 198 0
173 197 0
173 197 0
174 198 0
172 196 0
174 198 0
174 198 0
173 197 0
174 198 0
174 198 0
174 197 0
175 198 0
174 198 0
174 198 0
175 198 0
175 198 0
173 197 0
173 197 0
174 198 0
173 197 0
172 196 0
174 197 0
175 198 0
172 196 0
174 197 0
175 198 0
174 197 0
175 198 0
173 197 0
175 198 0
174 198 0
173 197 0
175 198 0
174 197 0
175 198 0
176 199 0
174 197 0
173 197 0
176 199 0
174 197 0
176 199 0
173 197 0
176 198 0
173 197 0
173 197 0
172 196 0
176 199 0
174 197 0
175 198 0
175 198 0
174 197 0
175 198 0
173 196 0
175 198 0
174 197 0
173 196 0
172 196 0
174 197 0
173 196 0
172 196 0
174 197 0
174 197 0
174 197 0
173 197 0
173 197 0
174 197 0
175 198 0
173 196 0
174 198 0
174 197 0
174 197 0
172 195 0
174 197 0
174 196 0
171 194 0
173 196 0
171 196 0
173 197 0
174 197 0
174 197 0
175 198 0
174 197 0
175 198 0
175 197 0
172 195 0
173 197 0
174 197 0
174 197 0
174 197 0
174 197 0
175 198 0
173 195 0
172 196 0
174 197 0
172 192 0
186 175 92
193 180 114
187 177 114
182 175 114
177 173 114
173 171 114
170 169 114
167 168 114
165 167 114
164 166 114
162 166 114
162 166 114
162 166 114
162 166 114
164 166 114
165 167 114
168 168 114
171 169 114
174 171 114
178 173 114
184 176 114
190 179 114
191 178 104
171 187 25
173 197 0
173 197 0
173 196 0
176 198 0
174 196 0
173 197 0
174 198 0
173 197 0
174 197 0
175 198 0
172 196 0
173 197 0
176 198 0
175 198 0
172 196 0
173 196 0
175 198 0
175 198 0
174 197 0
175 198 0
174 197 0
172 196 0
176 198 0
173 197 0
173 197 0
175 198 0
174 198 0
174 198 0
174 198 0
174 197 0
174 197 0
175 198 0
174 198 0
175 198 0
174 198 0
173 197 0
175 198 0
175 198 0
175 198 0
174 198 0
176 199 0
175 198 0
174 198 0
176 198 0
174 198 0
174 198 0
174 197 0
174 198 0
176 199 0
174 198 0
176 199 0
173 197 0
174 197 0
176 199 0
175 198 0
174 198 0
172 197 0
175 198 0
176 199 0
174 198 0
175 198 0
175 198 0
175 198 0
174 197 0
175 198 0
174 198 0
172 196 0
174 198 0
174 198 0
175 198 0
174 198 0
173 197 0
173 197 0
174 197 0
174 198 0
174 198 0
175 198 0
173 197 0
172 197 0
176 199 0
175 198 0
173 197 0
174 197 0
175 198 0
175 198 0
174 198 0
175 198 0
175 198 0
174 198 0
174 197 0
176 199 0
174 197 0
174 198 0
172 196 0
175 198 0
174 198 0
174 198 0
175 198 0
174 198 0
175 198 0
174 197 0
174 198 0
174 198 0
176 199 0
174 198 0
173 197 0
176 198 0
174 198 0
174 197 0
172 197 0
174 197 0
173 197 0
175 198 0
174 197 0
175 198 0
174 198 0
174 197 0
174 198 0
173 197 0
174 198 0
174 198 0
176 199 0
175 198 0
175 198 0
175 198 0
174 198 0
174 198 0
175 198 0
175 198 0
175 198 0
175 198 0
174 197 0
175 198 0
175 198 0
175 198 0
174 198 0
175 198 0
175 198 0
176 199 0
173 197 0
174 198 0
176 198 0
176 198 0
174 197 0
175 198 0
174 197 0
173 197 0
176 199 0
175 198 0
174 197 0
174 198 0
175 198 0
175 198 0
174 198 0
173 197 0
176 198 0
175 198 0
173 197 0
174 198 0
175 198 0
174 198 0
176 199 0
175 198 0
175 198 0
175 198 0
174 197 0
174 198 0
174 197 0
229 240 255
229 240 255
229 240 255
229 240 255
229 240 255
229 240 255
229 240 255
229 240 255
229 240 255
229 239 253
214 228 211
202 219 175
186 206 105
176 199 25
175 198 0
174 198 0
175 198 0
176 198 0
176 199 0
174 198 0
175 198 0
175 198 0
177 199 0
175 198 0
175 198 0
176 198 0
176 199 0
174 198 0
175 198 0
174 198 0
175 198 0
174 198 0
173 197 0
174 198 0
174 197 0
174 197 0
174 197 0
173 197 0
175 198 0
176 199 0
175 198 0
173 197 0
174 197 0
175 198 0
175 198 0
174 198 0
175 198 0
176 198 0
174 198 0
174 198 0
174 198 0
174 198 0
175 198 0
173 197 0
175 198 0
175 198 0
174 198 0
173 197 0
175 198 0
173 197 0
174 198 0
173 197 0
174 198 0
174 197 0
176 198 0
174 198 0
175 198 0
172 196 0
176 198 0
175 198 0
175 198 0
175 198 0
174 197 0
174 198 0
175 198 0
176 199 0
174 197 0
175 198 0
174 198 0
176 199 0
176 198 0
174 197 0
174 198 0
175 198 0
175 198 0
175 198 0
176 199 0
176 198 0
174 198 0
174 198 0
174 198 0
175 198 0
177 199 0
175 198 0
175 198 0
176 199 0
174 197 0
174 197 0
174 197 0
175 198 0
173 197 0
173 197 0
173 197 0
175 198 0
175 198 0
175 198 0
175 198 0
173 197 0
175 198 0
174 197 0
175 198 0
174 198 0
173 197 0
174 198 0
175 198 0
175 198 0
174 198 0
175 198 0
176 198 0
174 197 0
174 197 0
174 198 0
175 198 0
173 197 0
176 199 0
174 198 0
173 197 0
175 198 0
176 199 0
175 198 0
174 198 0
175 198 0
175 198 0
173 197 0
175 198 0
175 198 0
175 198 0
173 197 0
174 198 0
175 198 0
175 198 0
174 198 0
175 198 0
173 197 0
175 198 0
174 198 0
175 198 0
173 197 0
176 199 0
175 198 0
174 198 0
174 198 0
175 198 0
172 196 0
174 197 0
173 197 0
175 198 0
174 197 0
174 197 0
173 197 0
173 197 0
173 197 0
174 198 0
175 198 0
175 198 0
174 198 0
172 196 0
173 197 0
175 198 0
171 195 0
174 197 0
174 197 0
174 197 0
174 197 0
174 198 0
174 197 0
174 197 0
172 196 0
173 196 0
173 196 0
173 196 0
172 197 0
176 198 0
174 198 0
174 197 0
173 197 0
175 198 0
171 195 0
173 196 0
172 195 0
174 197 0
175 198 0
173 196 0
174 197 0
174 197 0
173 197 0
174 197 0
171 195 0
174 196 0
173 197 0
175 197 0
175 197 0
174 196 0
172 195 0
175 198 0
174 197 0
175 198 0
170 172 45
197 182 114
191 179 114
185 176 114
180 174 114
176 172 114
172 170 114
169 169 114
167 168 114
165 167 114
163 166 114
162 166 114
162 165 114
162 165 114
162 166 114
163 166 114
165 167 114
167 168 114
169 169 114
173 170 114
177 172 114
182 175 114
187 177 114
194 180 114
182 176 82
174 197 0
175 198 0
173 196 0
174 198 0
174 197 0
174 198 0
172 196 0
174 197 0
173 196 0
174 198 0
175 198 0
174 197 0
174 197 0
172 195 0
176 198 0
175 198 0
175 198 0
175 198 0
175 198 0
173 196 0
174 198 0
174 198 0
175 198 0
173 197 0
174 198 0
176 199 0
173 197 0
174 197 0
175 198 0
174 198 0
174 197 0
175 198 0
174 197 0
172 197 0
174 198 0
174 198 0
173 197 0
174 197 0
174 197 0
173 197 0
173 197 0
175 198 0
174 198 0
173 197 0
175 198 0
176 198 0
173 197 0
175 198 0
174 198 0
174 197 0
173 197 0
173 197 0
174 197 0
174 198 0
173 197 0
175 198 0
175 198 0
174 198 0
176 199 0
174 197 0
175 198 0
175 198 0
176 199 0
174 198 0
174 198 0
173 197 0
175 198 0
175 198 0
176 199 0
173 197 0
175 198 0
173 197 0
176 199 0
175 198 0
174 198 0
175 198 0
174 198 0
173 197 0
174 198 0
174 198 0
174 198 0
174 198 0
175 198 0
174 198 0
176 199 0
174 197 0
174 197 0
174 198 0
173 197 0
173 197 0
174 197 0
174 198 0
177 199 0
176 199 0
175 198 0
174 197 0
174 197 0
174 198 0
174 198 0
174 198 0
174 197 0
174 198 0
174 197 0
175 198 0
174 197 0
175 198 0
174 198 0
174 198 0
175 198 0
174 198 0
174 198 0
175 198 0
175 198 0
175 198 0
173 197 0
175 198 0
174 198 0
175 198 0
174 197 0
175 198 0
174 197 0
175 198 0
175 198 0
175 198 0
174 197 0
173 197 0
174 198 0
176 199 0
175 198 0
174 198 0
174 198 0
174 197 0
175 198 0
175 198 0
175 198 0
176 199 0
175 198 0
176 198 0
175 198 0
173 197 0
175 198 0
175 198 0
174 198 0
174 198 0
174 198 0
174 198 0
174 198 0
175 198 0
174 197 0
175 198 0
173 197 0
176 198 0
175 198 0
175 198 0
175 198 0
174 198 0
174 198 0
174 198 0
175 198 0
176 198 0
174 197 0
174 198 0
175 198 0
174 198 0
173 197 0
176 199 0
175 198 0
174 198 0
229 240 255
229 240 255
229 240 255
229 240 255
229 240 255
223 235 240
212 226 204
202 219 171
185 206 99
174 198 25
172 197 0
174 198 0
174 197 0
174 198 0
176 198 0
174 197 0
175 198 0
174 197 0
176 199 0
174 198 0
173 197 0
175 198 0
174 198 0
175 198 0
174 197 0
174 198 0
175 198 0
174 198 0
174 198 0
173 197 0
175 198 0
176 199 0
175 198 0
173 197 0
175 198 0
176 199 0
174 198 0
176 198 0
174 198 0
174 198 0
174 198 0
174 198 0
175 198 0
176 198 0
175 198 0
175 198 0
174 198 0
174 197 0
175 198 0
176 198 0
175 198 0
175 198 0
175 198 0
175 198 0
176 199 0
176 199 0
175 198 0
174 197 0
174 197 0
173 197 0
176 199 0
174 197 0
175 198 0
173 197 0
174 198 0
174 198 0
174 198 0
174 198 0
175 198 0
174 198 0
175 198 0
174 197 0
175 198 0
175 198 0
175 198 0
174 198 0
176 199 0
173 197 0
173 197 0
174 198 0
174 198 0
175 198 0
174 197 0
173 197 0
173 197 0
176 198 0
174 198 0
175 198 0
175 198 0
174 198 0
173 197 0
174 198 0
173 197 0
174 198 0
175 198 0
175 198 0
173 197 0
174 198 0
175 198 0
174 197 0
174 198 0
175 198 0
175 198 0
174 198 0
175 198 0
174 198 0
174 198 0
174 198 0
174 198 0
174 197 0
176 198 0
173 197 0
173 197 0
175 198 0
174 197 0
174 198 0
173 197 0
175 198 0
173 197 0
175 198 0
174 198 0
176 198 0
175 198 0
173 197 0
173 197 0
174 197 0
174 198 0
173 197 0
174 198 0
174 197 0
173 196 0
174 198 0
174 198 0
174 198 0
174 198 0
174 197 0
174 197 0
175 198 0
174 197 0
173 197 0
173 197 0
175 198 0
174 197 0
173 197 0
174 197 0
174 198 0
174 198 0
174 198 0
174 198 0
175 198 0
173 196 0
173 197 0
174 198 0
174 197 0
173 197 0
174 197 0
174 198 0
174 197 0
174 197 0
174 198 0
176 199 0
174 197 0
176 198 0
174 197 0
173 197 0
173 196 0
172 196 0
173 196 0
174 198 0
173 196 0
174 197 0
174 196 0
173 196 0
173 197 0
172 195 0
176 198 0
172 195 0
174 198 0
174 197 0
173 197 0
173 196 0
173 196 0
174 197 0
171 195 0
172 196 0
176 198 0
171 194 0
171 194 0
173 197 0
173 196 0
172 195 0
169 193 0
173 196 0
173 196 0
173 196 0
174 197 0
172 196 0
172 196 0
174 196 0
174 198 0
174 198 0
173 195 0
175 198 0
174 197 0
173 197 0
174 197 0
169 187 0
183 172 88
195 181 114
189 178 114
184 176 114
180 174 114
176 172 114
173 170 114
170 169 114
167 168 114
165 167 114
164 166 114
163 166 114
162 166 114
162 166 114
163 166 114
164 166 114
165 167 114
167 168 114
170 169 114
173 170 114
176 172 114
180 174 114
185 176 114
191 179 114
195 180 109
168 182 11
174 197 0
174 197 0
173 197 0
173 197 0
174 198 0
174 197 0
173 197 0
175 198 0
174 197 0
175 197 0
174 197 0
173 197 0
173 197 0
174 197 0
174 197 0
175 198 0
174 197 0
172 196 0
174 197 0
173 197 0
175 198 0
173 197 0
175 198 0
174 197 0
175 198 0
175 198 0
172 196 0
175 198 0
174 197 0
175 198 0
174 197 0
173 197 0
175 198 0
173 197 0
175 198 0
174 198 0
174 197 0
174 197 0
172 197 0
176 199 0
174 197 0
176 198 0
175 198 0
174 197 0
175 198 0
174 198 0
174 197 0
174 198 0
174 198 0
175 198 0
174 198 0
175 198 0
174 197 0
175 198 0
175 198 0
175 198 0
174 198 0
174 198 0
173 197 0
175 198 0
175 198 0
176 199 0
174 198 0
175 198 0
172 197 0
174 197 0
175 198 0
175 198 0
175 198 0
175 198 0
172 197 0
174 198 0
175 198 0
174 197 0
176 198 0
174 198 0
174 198 0
176 198 0
175 198 0
174 198 0
172 197 0
174 198 0
174 197 0
175 198 0
175 198 0
175 198 0
175 198 0
176 198 0
175 198 0
174 198 0
176 198 0
174 198 0
175 198 0
172 197 0
174 198 0
175 198 0
175 198 0
172 197 0
175 198 0
174 198 0
174 198 0
174 197 0
175 198 0
174 197 0
175 198 0
174 198 0
174 197 0
174 197 0
175 198 0
176 198 0
173 197 0
174 198 0
175 198 0
175 198 0
173 197 0
175 198 0
174 198 0
173 197 0
176 198 0
174 198 0
175 198 0
175 198 0
174 198 0
175 198 0
177 199 0
173 197 0
175 198 0
174 198 0
176 199 0
175 198 0
175 198 0
174 198 0
176 198 0
174 198 0
174 197 0
174 197 0
175 198 0
175 198 0
174 198 0
174 197 0
175 198 0
175 198 0
174 198 0
174 197 0
174 198 0
175 198 0
176 198 0
174 198 0
173 197 0
175 198 0
174 198 0
176 199 0
174 198 0
175 198 0
174 198 0
174 198 0
174 198 0
176 199 0
174 198 0
174 197 0
175 198 0
174 198 0
174 198 0
173 197 0
174 197 0
174 198 0
174 198 0
229 240 255
224 236 241
210 225 201
197 215 159
187 207 105
177 199 25
175 198 0
174 198 0
176 199 0
177 199 0
174 198 0
173 197 0
173 197 0
176 199 0
174 197 0
174 198 0
176 199 0
175 198 0
174 198 0
175 198 0
174 198 0
174 198 0
175 198 0
175 198 0
175 198 0
175 198 0
175 198 0
176 199 0
173 197 0
175 198 0
173 197 0
175 198 0
175 198 0
175 198 0
174 198 0
173 197 0
175 198 0
174 197 0
173 197 0
174 198 0
175 198 0
175 198 0
175 198 0
174 198 0
174 198 0
175 198 0
176 199 0
176 199 0
175 198 0
175 198 0
174 197 0
174 197 0
175 198 0
175 198 0
176 198 0
174 198 0
176 199 0
173 197 0
174 197 0
174 197 0
175 198 0
177 199 0
172 197 0
175 198 0
177 199 0
176 198 0
174 198 0
173 197 0
175 198 0
174 198 0
176 198 0
176 198 0
175 198 0
175 198 0
176 199 0
174 198 0
173 197 0
174 198 0
174 198 0
174 198 0
174 197 0
173 197 0
174 198 0
174 198 0
175 198 0
175 198 0
172 197 0
174 198 0
175 198 0
173 197 0
173 197 0
175 198 0
174 198 0
173 197 0
175 198 0
174 197 0
174 198 0
173 197 0
174 198 0
174 197 0
176 198 0
175 198 0
174 198 0
174 198 0
175 198 0
175 198 0
173 197 0
176 199 0
174 198 0
175 198 0
175 198 0
174 197 0
176 199 0
173 197 0
175 198 0
175 198 0
174 198 0
175 198 0
174 197 0
172 197 0
174 198 0
174 198 0
175 198 0
172 196 0
174 197 0
174 198 0
173 197 0
174 197 0
174 198 0
173 197 0
174 197 0
172 196 0
176 198 0
174 197 0
172 197 0
176 199 0
175 198 0
173 197 0
174 197 0
174 197 0
174 198 0
175 198 0
174 198 0
176 199 0
173 197 0
175 198 0
175 198 0
173 197 0
173 197 0
174 198 0
173 197 0
174 197 0
176 198 0
173 197 0
175 198 0
177 199 0
174 197 0
175 198 0
174 198 0
173 197 0
174 198 0
173 196 0
172 196 0
173 197 0
175 197 0
174 197 0
176 198 0
176 199 0
173 197 0
174 198 0
173 197 0
173 197 0
174 196 0
175 198 0
174 197 0
173 197 0
174 197 0
175 197 0
174 197 0
175 197 0
173 196 0
173 196 0
174 197 0
171 194 0
172 195 0
171 195 0
175 197 0
173 197 0
173 196 0
172 195 0
171 194 0
171 195 0
171 196 0
173 196 0
174 197 0
172 196 0
168 191 54
153 176 92
151 174 97
143 167 111
149 173 96
159 183 76
168 191 41
171 194 0
171 194 0
174 196 0
160 167 0
194 179 106
194 181 114
189 178 114
184 176 114
180 174 114
177 172 114
174 171 114
171 170 114
169 169 114
167 168 114
165 167 114
165 167 114
164 167 114
164 166 114
164 167 114
165 167 114
167 168 114
168 168 114
171 170 114
173 171 114
177 172 114
181 174 114
185 176 114
190 179 114
196 182 114
168 167 45
174 197 0
173 197 0
172 196 0
175 197 0
174 197 0
175 198 0
173 197 0
174 197 0
174 197 0
174 196 0
175 198 0
174 197 0
173 196 0
174 197 0
174 197 0
174 197 0
172 196 0
174 197 0
173 197 0
175 198 0
175 198 0
175 198 0
175 198 0
175 198 0
175 198 0
173 197 0
173 197 0
175 198 0
174 197 0
176 198 0
175 198 0
174 197 0
175 198 0
173 197 0
173 197 0
176 198 0
174 198 0
175 198 0
174 197 0
176 199 0
175 198 0
175 198 0
176 198 0
175 198 0
174 198 0
174 197 0
174 198 0
174 198 0
175 198 0
175 198 0
175 198 0
174 197 0
173 197 0
174 197 0
175 198 0
174 197 0
173 197 0
175 198 0
174 198 0
174 198 0
173 197 0
173 197 0
175 198 0
173 197 0
174 198 0
175 198 0
173 197 0
175 198 0
173 197 0
175 198 0
175 198 0
174 197 0
172 197 0
175 198 0
175 198 0
175 198 0
175 198 0
174 197 0
174 198 0
175 198 0
174 197 0
174 198 0
175 198 0
175 198 0
175 198 0
175 198 0
176 199 0
174 197 0
174 198 0
175 198 0
174 198 0
174 197 0
174 198 0
174 198 0
174 198 0
173 197 0
175 198 0
175 198 0
173 197 0
175 198 0
174 197 0
175 198 0
174 198 0
174 198 0
174 198 0
173 197 0
173 197 0
173 197 0
174 197 0
176 199 0
175 198 0
173 197 0
175 198 0
175 198 0
176 198 0
173 197 0
176 198 0
175 198 0
175 198 0
174 197 0
176 198 0
176 199 0
174 197 0
175 198 0
174 198 0
174 198 0
175 198 0
173 197 0
174 198 0
174 198 0
175 198 0
174 198 0
175 198 0
175 198 0
175 198 0
174 197 0
175 198 0
174 198 0
175 198 0
175 198 0
175 198 0
174 198 0
175 198 0
174 197 0
176 199 0
174 198 0
176 199 0
176 198 0
176 199 0
173 197 0
174 198 0
176 199 0
177 199 0
172 197 0
175 198 0
175 198 0
174 198 0
175 198 0
174 198 0
175 198 0
174 198 0
174 198 0
174 198 0
175 198 0
175 198 0
173 197 0
172 196 0
187 207 117
174 198 0
175 198 0
175 198 0
176 198 0
175 198 0
176 198 0
174 198 0
175 198 0
172 197 0
173 197 0
175 198 0
174 198 0
176 199 0
176 199 0
174 198 0
175 198 0
174 198 0
174 198 0
173 197 0
174 198 0
174 198 0
174 198 0
175 198 0
175 198 0
176 199 0
175 198 0
176 199 0
173 197 0
175 198 0
178 200 0
177 199 0
174 198 0
176 199 0
174 197 0
173 197 0
174 197 0
174 198 0
175 198 0
175 198 0
177 199 0
174 197 0
174 198 0
173 197 0
175 198 0
173 197 0
175 198 0
175 198 0
172 197 0
175 198 0
173 197 0
174 198 0
174 197 0
174 198 0
174 198 0
173 197 0
174 197 0
175 198 0
176 198 0
176 199 0
175 198 0
175 198 0
174 197 0
174 198 0
174 198 0
175 198 0
176 199 0
177 199 0
174 198 0
174 198 0
175 198 0
176 199 0
176 199 0
176 199 0
176 199 0
173 197 0
175 198 0
176 199 0
175 198 0
175 198 0
175 198 0
174 198 0
175 198 0
176 199 0
175 198 0
175 198 0
173 197 0
174 198 0
175 198 0
174 198 0
176 198 0
174 198 0
174 198 0
174 198 0
176 199 0
174 197 0
173 197 0
177 199 0
173 197 0
174 198 0
174 198 0
175 198 0
174 198 0
174 198 0
175 198 0
176 198 0
175 198 0
175 198 0
175 198 0
174 197 0
174 198 0
174 197 0
172 197 0
174 198 0
176 198 0
176 199 0
173 197 0
175 198 0
175 198 0
176 198 0
176 199 0
173 197 0
175 198 0
175 198 0
175 198 0
175 198 0
174 197 0
175 198 0
174 197 0
175 198 0
174 198 0
173 197 0
174 198 0
175 198 0
177 199 0
173 197 0
176 199 0
174 197 0
175 198 0
175 198 0
175 198 0
173 197 0
175 198 0
175 198 0
173 197 0
173 197 0
175 198 0
174 197 0
174 198 0
172 196 0
175 198 0
174 198 0
171 196 0
174 198 0
175 198 0
175 198 0
173 196 0
174 198 0
175 197 0
173 197 0
172 196 0
173 197 0
172 196 0
175 198 0
172 196 0
173 196 0
175 198 0
174 197 0
173 196 0
175 198 0
173 197 0
173 197 0
174 197 0
174 197 0
172 196 0
174 197 0
173 197 0
172 196 0
174 197 0
174 197 0
173 195 0
174 198 0
171 195 0
175 198 0
172 195 0
173 197 0
172 194 0
173 197 0
173 196 0
173 196 0
174 197 0
174 197 0
172 196 0
154 178 80
131 157 128
88 118 165
64 100 180
62 99 181
61 99 181
61 99 181
61 99 181
62 99 180
62 99 181
100 129 155
123 149 133
158 179 75
157 154 11
199 183 113
194 181 114
190 178 114
185 176 114
182 175 114
178 173 114
175 172 114
173 171 114
171 170 114
169 169 114
168 168 114
167 168 114
166 167 114
166 167 114
166 168 114
167 168 114
168 169 114
170 169 114
172 170 114
175 171 114
178 173 114
182 175 114
185 176 114
190 179 114
196 181 114
177 167 75
173 193 0
172 196 0
172 196 0
173 196 0
174 197 0
172 195 0
174 197 0
174 197 0
174 197 0
174 198 0
174 197 0
173 197 0
172 196 0
176 198 0
172 196 0
175 198 0
175 198 0
175 198 0
174 198 0
174 197 0
173 197 0
175 198 0
174 198 0
175 198 0
173 197 0
173 197 0
174 197 0
175 198 0
174 197 0
174 197 0
175 198 0
174 197 0
174 198 0
175 198 0
175 198 0
174 198 0
175 198 0
174 197 0
172 197 0
175 198 0
174 197 0
174 197 0
174 198 0
174 197 0
173 197 0
173 197 0
173 197 0
173 197 0
174 198 0
173 197 0
174 197 0
174 198 0
175 198 0
174 198 0
175 198 0
174 197 0
175 198 0
173 197 0
175 198 0
174 198 0
174 198 0
174 197 0
174 197 0
174 197 0
175 198 0
175 198 0
175 198 0
175 198 0
174 198 0
175 198 0
174 198 0
173 197 0
172 197 0
174 198 0
174 198 0
175 198 0
173 197 0
174 197 0
175 198 0
173 197 0
173 197 0
175 198 0
176 199 0
177 199 0
172 197 0
176 198 0
174 197 0
175 198 0
175 198 0
174 198 0
175 198 0
176 199 0
176 199 0
173 197 0
173 197 0
176 198 0
176 199 0
173 197 0
174 198 0
173 197 0
175 198 0
174 198 0
175 198 0
175 198 0
175 198 0
174 198 0
174 197 0
172 197 0
175 198 0
173 197 0
176 199 0
174 197 0
175 198 0
175 198 0
174 198 0
175 198 0
175 198 0
176 199 0
173 197 0
173 197 0
175 198 0
174 198 0
175 198 0
175 198 0
175 198 0
174 197 0
173 197 0
175 198 0
175 198 0
175 198 0
174 197 0
175 198 0
176 198 0
175 198 0
174 198 0
175 198 0
174 197 0
174 198 0
175 198 0
174 198 0
174 198 0
175 198 0
175 198 0
176 198 0
175 198 0
175 198 0
176 198 0
173 197 0
174 198 0
176 199 0
175 198 0
172 197 0
176 199 0
175 198 0
175 198 0
175 198 0
175 198 0
176 199 0
176 199 0
175 198 0
173 197 0
174 198 0
176 198 0
175 198 0
175 198 0
174 197 0
174 197 0
173 197 0
175 198 0
174 198 0
174 198 0
177 199 0
176 199 0
174 198 0
175 198 0
175 198 0
175 198 0
174 198 0
177 199 0
176 199 0
176 198 0
175 198 0
174 197 0
174 198 0
175 198 0
174 197 0
175 198 0
174 197 0
175 198 0
176 198 0
174 198 0
175 198 0
174 197 0
174 198 0
175 198 0
178 200 0
173 197 0
174 197 0
175 198 0
174 197 0
175 198 0
173 197 0
174 198 0
174 198 0
174 198 0
176 198 0
175 198 0
176 199 0
173 197 0
175 198 0
174 197 0
175 198 0
174 198 0
175 198 0
174 197 0
174 198 0
176 199 0
173 197 0
174 198 0
175 198 0
175 198 0
174 198 0
176 199 0
173 197 0
175 198 0
176 198 0
174 197 0
176 198 0
174 198 0
174 198 0
175 198 0
175 198 0
175 198 0
173 197 0
173 197 0
173 197 0
176 199 0
174 198 0
174 198 0
174 198 0
174 197 0
174 198 0
174 198 0
174 198 0
174 197 0
173 197 0
175 198 0
175 198 0
173 197 0
174 197 0
174 198 0
174 198 0
175 198 0
175 198 0
174 198 0
175 198 0
174 197 0
175 198 0
174 198 0
174 197 0
175 198 0
175 198 0
175 198 0
172 197 0
173 197 0
174 197 0
175 198 0
174 198 0
173 197 0
174 197 0
174 198 0
176 198 0
175 198 0
174 197 0
175 198 0
174 197 0
176 198 0
175 198 0
174 198 0
173 197 0
175 198 0
175 198 0
173 197 0
174 198 0
175 198 0
176 198 0
176 198 0
172 197 0
174 197 0
174 198 0
176 199 0
175 198 0
174 197 0
174 198 0
175 198 0
174 198 0
175 198 0
175 198 0
175 198 0
175 198 0
175 198 0
174 197 0
174 198 0
176 199 0
174 197 0
174 197 0
174 198 0
173 197 0
175 198 0
175 198 0
174 198 0
174 197 0
174 198 0
174 197 0
173 197 0
173 197 0
175 198 0
174 198 0
172 196 0
175 198 0
174 198 0
174 197 0
174 198 0
173 197 0
174 197 0
175 198 0
176 199 0
173 196 0
173 196 0
173 196 0
174 197 0
174 197 0
174 198 0
172 196 0
172 195 0
173 196 0
172 196 0
173 197 0
174 197 0
173 197 0
176 198 0
173 196 0
173 197 0
175 197 0
171 193 0
175 198 0
171 195 0
175 198 0
172 195 0
173 196 0
173 196 0
174 197 0
174 197 0
173 196 0
174 197 0
175 198 0
174 197 0
175 197 0
159 182 78
95 124 159
62 99 181
62 99 181
61 99 181
61 99 181
61 99 181
61 99 181
61 99 181
61 99 181
62 99 181
62 99 181
61 99 180
62 99 180
61 98 179
91 112 157
182 170 129
195 181 114
191 179 114
187 177 114
184 175 114
180 174 114
178 173 114
175 172 114
173 171 114
172 170 114
170 169 114
170 169 114
169 169 114
169 169 114
169 169 114
170 169 114
171 170 114
172 170 114
174 171 114
177 172 114
180 174 114
183 175 114
187 177 114
191 179 114
196 182 114
177 167 74
169 184 0
175 198 0
174 197 0
174 197 0
173 197 0
173 197 0
174 197 0
174 197 0
174 197 0
173 196 0
173 196 0
174 198 0
174 197 0
174 197 0
175 198 0
174 197 0
172 197 0
174 198 0
175 198 0
173 197 0
175 197 0
175 198 0
174 197 0
174 197 0
174 197 0
174 197 0
174 197 0
176 199 0
175 198 0
174 198 0
174 197 0
175 198 0
173 197 0
175 198 0
174 197 0
174 197 0
174 198 0
175 198 0
174 198 0
174 198 0
174 197 0
173 197 0
174 197 0
175 198 0
174 198 0
175 198 0
171 195 0
174 198 0
173 197 0
175 198 0
174 198 0
175 198 0
174 198 0
174 197 0
175 198 0
174 198 0
173 197 0
174 198 0
175 198 0
175 198 0
174 197 0
173 197 0
175 198 0
174 198 0
173 197 0
173 197 0
173 197 0
176 198 0
176 198 0
175 198 0
172 196 0
173 197 0
174 198 0
176 199 0
175 198 0
176 198 0
175 198 0
176 198 0
175 198 0
175 198 0
174 198 0
173 197 0
174 198 0
174 198 0
175 198 0
175 198 0
174 198 0
173 197 0
174 198 0
173 197 0
173 197 0
174 198 0
174 198 0
172 196 0
174 197 0
175 198 0
174 198 0
174 198 0
175 198 0
176 199 0
175 198 0
176 199 0
175 198 0
176 199 0
174 198 0
174 198 0
175 198 0
173 197 0
175 198 0
173 197 0
175 198 0
174 197 0
174 198 0
174 198 0
174 197 0
174 197 0
174 197 0
175 198 0
175 198 0
174 197 0
175 198 0
173 197 0
173 197 0
176 199 0
173 197 0
175 198 0
174 198 0
175 198 0
175 198 0
173 197 0
174 198 0
175 198 0
175 198 0
174 198 0
174 198 0
173 197 0
174 198 0
175 198 0
173 197 0
176 199 0
174 197 0
174 198 0
174 198 0
176 198 0
175 198 0
175 198 0
176 199 0
175 198 0
177 199 0
175 198 0
174 198 0
175 198 0
173 197 0
175 198 0
174 198 0
175 198 0
177 199 0
173 197 0
174 197 0
174 197 0
175 198 0
173 197 0
175 198 0
176 199 0
174 198 0
173 197 0
175 198 0
175 198 0
174 198 0
175 198 0
175 198 0
175 198 0
176 198 0
174 198 0
175 198 0
174 198 0
173 197 0
174 198 0
174 197 0
175 198 0
173 197 0
174 197 0
176 198 0
175 198 0
174 198 0
175 198 0
174 197 0
175 198 0
174 198 0
174 198 0
175 198 0
174 198 0
174 198 0
174 197 0
175 198 0
175 198 0
175 198 0
176 199 0
176 199 0
175 198 0
175 198 0
176 199 0
174 197 0
175 198 0
175 198 0
174 198 0
176 199 0
177 199 0
174 198 0
175 198 0
175 198 0
175 198 0
174 197 0
173 197 0
176 198 0
174 198 0
175 198 0
174 198 0
175 198 0
174 198 0
174 198 0
174 198 0
174 198 0
175 198 0
174 198 0
176 199 0
175 198 0
175 198 0
174 197 0
175 198 0
175 198 0
173 197 0
174 198 0
175 198 0
175 198 0
175 198 0
175 198 0
173 197 0
176 199 0
175 198 0
176 198 0
174 198 0
175 198 0
175 198 0
174 198 0
174 198 0
174 197 0
176 199 0
175 198 0
175 198 0
173 197 0
175 198 0
175 198 0
175 198 0
174 197 0
175 198 0
175 198 0
176 198 0
173 197 0
174 198 0
176 199 0
174 198 0
174 198 0
175 198 0
176 198 0
175 198 0
176 199 0
175 198 0
173 197 0
174 198 0
173 197 0
174 197 0
176 199 0
177 199 0
174 198 0
173 197 0
175 198 0
175 198 0
175 198 0
175 198 0
175 198 0
175 198 0
175 198 0
175 198 0
172 196 0
174 198 0
175 198 0
174 197 0
175 198 0
176 199 0
173 197 0
175 198 0
172 197 0
174 197 0
173 197 0
174 198 0
177 199 0
174 197 0
174 198 0
173 196 0
175 198 0
173 197 0
175 198 0
175 198 0
174 197 0
174 197 0
176 199 0
172 196 0
174 198 0
173 197 0
175 198 0
175 198 0
175 198 0
173 196 0
173 196 0
174 198 0
172 196 0
173 197 0
175 198 0
174 198 0
173 197 0
174 198 0
175 198 0
174 197 0
173 196 0
174 197 0
174 198 0
173 197 0
175 198 0
172 196 0
174 197 0
174 198 0
173 197 0
172 196 0
174 197 0
173 197 0
174 197 0
173 196 0
175 198 0
174 196 0
174 197 0
174 197 0
172 195 0
173 196 0
173 196 0
173 197 0
174 197 0
175 198 0
173 196 0
172 196 0
173 196 0
173 196 0
173 196 0
173 196 0
175 198 0
170 194 0
168 191 51
115 142 142
62 99 181
62 99 181
62 99 181
62 99 181
61 98 181
62 99 181
61 99 181
61 99 181
62 99 181
61 99 181
61 99 181
61 98 181
61 98 180
62 99 179
62 99 180
62 99 181
62 99 180
127 134 156
188 177 115
189 178 114
178 170 111
170 164 110
181 174 114
178 173 114
177 172 114
175 172 114
174 171 114
173 170 114
172 170 114
172 170 114
173 170 114
173 171 114
174 171 114
176 172 114
177 173 114
180 174 114
182 175 114
185 176 114
189 178 114
193 180 114
197 182 114
167 160 56
164 175 0
173 196 0
173 196 0
173 196 0
172 196 0
173 196 0
175 198 0
173 196 0
174 197 0
174 197 0
174 197 0
174 197 0
173 196 0
173 197 0
175 198 0
175 198 0
174 197 0
174 197 0
174 197 0
174 197 0
174 197 0
174 197 0
174 197 0
174 198 0
174 198 0
176 198 0
175 198 0
175 198 0
174 198 0
173 197 0
173 197 0
174 197 0
173 197 0
173 196 0
173 197 0
174 198 0
174 197 0
174 198 0
174 197 0
173 196 0
174 198 0
174 198 0
175 198 0
175 198 0
174 197 0
174 198 0
174 197 0
174 197 0
174 198 0
175 198 0
174 197 0
175 198 0
175 198 0
175 198 0
175 198 0
174 198 0
175 198 0
175 198 0
175 198 0
175 198 0
175 198 0
175 198 0
174 198 0
174 197 0
173 197 0
175 198 0
173 197 0
174 198 0
173 197 0
174 197 0
175 198 0
174 198 0
174 197 0
174 198 0
175 198 0
176 199 0
173 197 0
176 198 0
173 197 0
175 198 0
175 198 0
174 198 0
174 197 0
174 198 0
175 198 0
175 198 0
175 198 0
175 198 0
171 196 0
175 198 0
175 198 0
174 198 0
174 198 0
176 198 0
175 198 0
175 198 0
174 198 0
175 198 0
175 198 0
174 197 0
174 197 0
174 198 0
175 198 0
175 198 0
173 197 0
174 197 0
173 197 0
175 198 0
176 198 0
173 197 0
173 197 0
174 198 0
174 198 0
175 198 0
174 198 0
175 198 0
174 198 0
176 199 0
174 197 0
176 199 0
174 198 0
176 198 0
175 198 0
174 198 0
174 198 0
173 197 0
174 197 0
175 198 0
174 197 0
174 198 0
174 198 0
174 198 0
175 198 0
173 197 0
174 198 0
174 197 0
175 198 0
175 198 0
174 197 0
175 198 0
173 197 0
174 198 0
174 197 0
176 199 0
174 198 0
174 198 0
174 198 0
176 198 0
174 198 0
176 198 0
174 198 0
175 198 0
174 197 0
175 198 0
177 199 0
173 197 0
175 198 0
175 198 0
174 197 0
174 198 0
174 198 0
174 197 0
174 198 0
175 198 0
173 197 0
173 197 0
174 198 0
175 198 0
175 198 0
175 198 0
175 198 0
174 198 0
174 198 0
174 198 0
175 198 0
172 197 0
173 197 0
176 198 0
174 198 0
174 198 0
174 197 0
173 197 0
173 197 0
176 198 0
174 197 0
175 198 0
175 198 0
175 198 0
175 198 0
174 197 0
175 198 0
175 198 0
176 199 0
174 198 0
176 199 0
175 198 0
174 198 0
174 198 0
175 198 0
175 198 0
174 198 0
175 198 0
174 198 0
174 198 0
173 197 0
174 198 0
175 198 0
176 199 0
174 198 0
175 198 0
175 198 0
174 197 0
175 198 0
173 197 0
174 198 0
176 199 0
174 197 0
173 197 0
172 197 0
174 198 0
176 199 0
175 198 0
175 198 0
174 198 0
175 198 0
175 198 0
174 198 0
174 198 0
176 199 0
174 198 0
174 198 0
175 198 0
173 197 0
174 198 0
176 198 0
174 197 0
173 197 0
174 198 0
173 197 0
174 198 0
174 198 0
175 198 0
173 197 0
174 197 0
175 198 0
174 197 0
176 198 0
174 198 0
174 198 0
173 197 0
173 197 0
175 198 0
175 198 0
174 198 0
174 198 0
174 197 0
173 197 0
175 198 0
174 197 0
173 197 0
174 197 0
175 198 0
175 198 0
174 198 0
175 198 0
174 197 0
173 197 0
174 198 0
174 198 0
174 197 0
174 198 0
175 198 0
173 197 0
174 198 0
174 198 0
174 197 0
174 198 0
173 197 0
175 198 0
175 198 0
174 197 0
175 198 0
175 198 0
172 197 0
174 197 0
174 198 0
175 198 0
174 197 0
175 198 0
174 198 0
174 198 0
174 198 0
174 198 0
173 197 0
174 198 0
174 198 0
175 198 0
175 198 0
173 197 0
173 197 0
172 196 0
175 198 0
172 197 0
175 198 0
175 198 0
174 198 0
174 198 0
174 197 0
174 198 0
176 199 0
175 198 0
175 198 0
175 198 0
175 198 0
173 196 0
175 198 0
173 196 0
174 198 0
173 196 0
172 195 0
173 197 0
172 196 0
173 197 0
173 197 0
174 197 0
175 198 0
176 198 0
174 197 0
173 197 0
173 197 0
173 196 0
173 197 0
175 198 0
175 198 0
173 197 0
174 197 0
172 195 0
172 196 0
173 196 0
173 196 0
173 197 0
174 197 0
172 195 0
172 196 0
173 196 0
171 195 0
174 197 0
171 195 0
171 195 0
173 196 0
173 196 0
173 197 0
174 197 0
173 195 0
173 196 0
156 180 78
83 115 167
62 99 176
62 99 179
62 99 180
62 99 180
62 99 181
62 99 181
61 99 181
62 99 181
62 99 181
62 99 181
62 99 181
61 99 181
61 99 181
62 99 181
62 99 181
61 98 178
62 99 177
61 98 177
62 98 176
94 114 166
120 123 110
53 71 69
54 73 71
71 84 76
123 125 92
180 174 114
178 173 114
178 173 114
177 172 114
176 172 114
176 172 114
176 172 114
177 172 114
178 173 114
179 173 114
181 174 114
183 175 114
185 176 114
188 178 114
191 179 114
195 181 114
199 183 114
162 157 41
163 171 0
174 197 0
172 196 0
174 197 0
173 195 0
172 195 0
172 195 0
174 197 0
174 196 0
173 197 0
174 196 0
175 198 0
175 198 0
172 195 0
173 196 0
174 198 0
175 198 0
173 196 0
175 198 0
173 197 0
174 197 0
174 197 0
174 198 0
174 197 0
175 198 0
173 197 0
174 197 0
174 197 0
174 197 0
175 198 0
173 196 0
174 197 0
176 199 0
174 198 0
174 197 0
174 197 0
175 198 0
176 199 0
173 197 0
174 197 0
175 198 0
175 198 0
174 198 0
174 198 0
175 198 0
174 197 0
174 197 0
175 198 0
173 197 0
174 197 0
174 198 0
176 198 0
175 198 0
173 197 0
174 197 0
175 198 0
174 198 0
176 199 0
174 198 0
174 198 0
174 198 0
174 198 0
175 198 0
176 199 0
173 197 0
174 198 0
175 198 0
175 198 0
174 198 0
175 198 0
174 198 0
174 198 0
175 198 0
173 197 0
174 197 0
175 198 0
175 198 0
173 197 0
176 199 0
175 198 0
173 197 0
173 197 0
175 198 0
175 198 0
174 197 0
174 198 0
174 197 0
175 198 0
176 199 0
173 197 0
174 198 0
175 198 0
176 198 0
174 198 0
174 198 0
174 197 0
177 199 0
175 198 0
172 197 0
173 197 0
174 198 0
174 198 0
174 197 0
173 197 0
175 198 0
176 199 0
174 198 0
175 198 0
175 198 0
174 198 0
176 199 0
174 198 0
174 198 0
175 198 0
173 197 0
175 198 0
173 197 0
176 198 0
174 198 0
174 198 0
174 198 0
174 198 0
174 198 0
176 199 0
175 198 0
175 198 0
173 197 0
173 197 0
175 198 0
175 198 0
175 198 0
175 198 0
174 198 0
176 198 0
175 198 0
174 198 0
176 199 0
174 198 0
174 198 0
175 198 0
174 197 0
173 197 0
175 198 0
176 199 0
175 198 0
174 198 0
174 198 0
175 198 0
175 198 0
175 198 0
175 198 0
174 198 0
174 198 0
174 197 0
175 198 0
175 198 0
175 198 0
174 198 0
175 198 0
174 198 0
175 198 0
174 198 0
175 198 0
176 199 0
174 198 0
174 198 0
175 198 0
175 198 0
175 198 0
173 197 0
173 197 0
174 198 0
174 198 0
175 198 0
175 198 0
175 198 0
175 198 0
176 198 0
175 198 0
173 197 0
176 198 0
175 198 0
175 198 0
174 198 0
174 198 0
174 198 0
175 198 0
175 198 0
175 198 0
173 197 0
173 197 0
174 198 0
172 197 0
176 199 0
177 199 0
173 197 0
174 198 0
175 198 0
173 197 0
174 198 0
174 198 0
174 198 0
175 198 0
175 198 0
174 198 0
176 198 0
176 198 0
175 198 0
174 198 0
173 197 0
175 198 0
174 198 0
176 199 0
175 198 0
173 197 0
175 198 0
174 198 0
176 199 0
175 198 0
175 198 0
175 198 0
174 198 0
175 198 0
174 198 0
174 198 0
175 198 0
175 198 0
174 198 0
176 199 0
175 198 0
175 198 0
175 198 0
175 198 0
175 198 0
174 197 0
175 198 0
175 198 0
174 198 0
173 197 0
174 198 0
173 197 0
175 198 0
175 198 0
173 197 0
174 198 0
174 198 0
174 197 0
173 197 0
175 198 0
175 198 0
176 198 0
175 198 0
175 198 0
172 196 0
175 198 0
175 198 0
174 198 0
174 197 0
173 197 0
176 199 0
174 197 0
173 197 0
175 198 0
176 199 0
173 197 0
174 198 0
173 197 0
176 199 0
173 197 0
172 197 0
174 197 0
174 197 0
173 197 0
175 198 0
174 198 0
175 198 0
174 198 0
174 197 0
174 197 0
174 198 0
174 197 0
174 198 0
175 198 0
175 198 0
174 198 0
173 197 0
174 198 0
173 197 0
176 199 0
174 197 0
174 198 0
175 197 0
174 197 0
172 197 0
173 197 0
174 198 0
175 198 0
174 198 0
174 198 0
175 198 0
174 197 0
171 195 0
175 198 0
175 198 0
172 196 0
173 197 0
175 198 0
173 196 0
174 198 0
175 198 0
174 197 0
172 195 0
173 197 0
176 199 0
175 198 0
174 197 0
173 197 0
173 197 0
174 197 0
173 197 0
174 197 0
172 196 0
174 197 0
173 197 0
174 198 0
173 196 0
175 198 0
174 197 0
174 196 0
175 197 0
173 197 0
173 197 0
175 198 0
173 196 0
172 195 0
171 195 0
173 197 0
175 198 0
171 195 0
172 195 0
171 194 0
175 197 0
171 195 0
171 194 0
175 198 0
172 195 0
172 196 0
172 194 0
173 197 0
172 195 0
171 194 0
174 197 0
173 196 0
172 194 0
160 182 74
78 111 166
63 100 178
62 99 175
62 99 178
62 99 179
61 98 180
62 99 181
63 100 181
62 99 181
61 98 181
62 99 179
62 99 181
62 99 180
61 99 181
61 98 180
61 99 181
61 99 181
62 99 180
61 99 180
63 100 181
62 99 177
61 97 169
61 96 168
50 69 85
52 69 66
53 70 66
53 70 67
81 93 80
177 170 112
182 175 114
181 174 114
180 174 114
180 174 114
180 174 114
181 174 114
182 175 114
183 175 114
184 176 114
186 177 114
188 178 114
191 179 114
194 180 114
197 182 114
187 174 93
157 153 0
162 171 0
171 194 0
172 195 0
174 197 0
174 196 0
173 196 0
172 197 0
172 196 0
174 196 0
172 195 0
173 195 0
173 197 0
172 195 0
173 196 0
174 197 0
175 198 0
173 196 0
173 196 0
175 198 0
175 198 0
174 197 0
174 197 0
174 197 0
173 196 0
175 197 0
175 198 0
173 197 0
174 197 0
175 198 0
176 198 0
173 197 0
175 198 0
172 196 0
175 198 0
174 197 0
175 198 0
174 197 0
175 198 0
176 199 0
173 196 0
175 198 0
175 198 0
173 196 0
175 198 0
175 198 0
174 197 0
174 197 0
175 198 0
173 197 0
173 197 0
175 198 0
174 198 0
173 197 0
173 197 0
174 198 0
174 197 0
175 198 0
174 198 0
174 197 0
173 197 0
175 198 0
173 197 0
175 198 0
175 198 0
175 198 0
176 198 0
175 198 0
174 198 0
174 198 0
175 198 0
174 197 0
174 198 0
172 196 0
173 197 0
175 198 0
175 198 0
174 197 0
174 197 0
176 198 0
174 198 0
174 198 0
175 198 0
174 198 0
176 199 0
175 198 0
174 197 0
174 197 0
175 198 0
173 197 0
174 198 0
175 198 0
176 199 0
173 197 0
176 198 0
173 197 0
175 198 0
174 198 0
174 197 0
172 197 0
175 198 0
175 198 0
175 198 0
173 197 0
173 197 0
174 198 0
175 198 0
173 197 0
175 198 0
174 197 0
174 197 0
173 197 0
173 197 0
174 198 0
174 197 0
174 198 0
174 197 0
175 198 0
175 198 0
174 198 0
173 197 0
173 197 0
175 198 0
174 198 0
175 198 0
175 198 0
176 198 0
174 198 0
174 198 0
174 198 0
174 198 0
174 198 0
175 198 0
174 198 0
175 198 0
175 198 0
176 199 0
175 198 0
175 198 0
174 198 0
174 197 0
174 198 0
175 198 0
175 198 0
174 198 0
176 198 0
174 198 0
175 198 0
176 199 0
175 198 0
174 198 0
173 197 0
175 198 0
175 198 0
173 197 0
175 198 0
175 198 0
176 198 0
175 198 0
176 199 0
174 198 0
173 197 0
174 198 0
175 198 0
175 198 0
175 198 0
175 198 0
175 198 0
173 197 0
175 198 0
175 198 0
173 197 0
174 198 0
177 199 0
176 199 0
174 198 0
176 198 0
175 198 0
174 198 0
175 198 0
174 198 0
174 198 0
174 198 0
175 198 0
174 197 0
175 198 0
175 198 0
174 198 0
175 198 0
175 198 0
174 198 0
175 198 0
174 198 0
175 198 0
175 198 0
175 198 0
174 198 0
176 199 0
175 198 0
175 198 0
177 199 0
173 197 0
174 198 0
176 199 0
174 197 0
175 198 0
173 197 0
173 197 0
175 198 0
174 198 0
175 198 0
175 198 0
174 198 0
175 198 0
176 199 0
174 198 0
175 198 0
174 198 0
175 198 0
175 198 0
174 198 0
174 198 0
174 198 0
174 198 0
174 198 0
175 198 0
175 198 0
174 198 0
176 198 0
175 198 0
174 197 0
175 198 0
175 198 0
175 198 0
174 198 0
174 198 0
175 198 0
174 198 0
176 199 0
175 198 0
175 198 0
173 197 0
174 198 0
175 198 0
175 198 0
173 197 0
175 198 0
174 197 0
174 198 0
173 197 0
175 198 0
176 199 0
175 198 0
174 198 0
175 198 0
174 198 0
176 199 0
175 198 0
173 197 0
174 197 0
174 198 0
175 198 0
174 197 0
174 198 0
174 198 0
174 198 0
175 198 0
176 199 0
175 198 0
174 198 0
175 198 0
174 198 0
174 198 0
173 197 0
176 199 0
176 199 0
175 198 0
175 198 0
175 198 0
174 198 0
175 198 0
174 198 0
175 198 0
174 197 0
177 199 0
174 198 0
175 198 0
174 197 0
176 198 0
174 197 0
173 196 0
174 197 0
173 197 0
175 198 0
174 197 0
173 197 0
175 198 0
174 197 0
173 197 0
173 197 0
176 199 0
175 198 0
173 197 0
174 198 0
171 196 0
174 198 0
174 197 0
175 198 0
174 197 0
174 197 0
172 196 0
174 198 0
173 197 0
173 197 0
172 196 0
175 198 0
173 197 0
174 197 0
174 198 0
173 197 0
174 197 0
173 196 0
174 197 0
175 198 0
173 196 0
175 198 0
174 197 0
172 196 0
173 197 0
173 197 0
174 197 0
171 194 0
173 197 0
173 197 0
175 198 0
171 195 0
173 196 0
171 195 0
174 198 0
174 198 0
172 194 0
175 198 0
173 195 0
173 196 0
171 194 0
170 194 0
170 193 0
173 197 0
173 196 0
170 194 0
172 195 0
167 191 0
173 196 0
169 193 0
158 182 72
77 110 167
62 99 177
62 99 177
62 99 176
62 99 180
62 99 180
62 99 180
62 99 181
62 99 180
62 99 179
62 99 180
62 99 180
62 99 181
62 99 179
62 99 180
61 99 180
62 99 180
62 99 179
62 99 179
61 98 180
61 98 178
62 98 172
62 99 173
62 99 172
59 93 156
45 62 69
48 64 58
52 69 67
55 73 69
115 118 89
186 176 114
185 176 114
184 176 114
184 176 114
184 176 114
185 176 114
186 177 114
187 177 114
188 178 114
190 178 114
192 179 114
194 181 114
197 182 114
198 182 111
161 157 36
156 153 0
162 169 0
172 195 0
173 195 0
174 196 0
173 195 0
173 195 0
175 197 0
173 195 0
172 194 0
172 195 0
173 196 0
172 196 0
173 195 0
173 196 0
174 197 0
174 197 0
176 198 0
173 196 0
173 197 0
174 197 0
174 197 0
175 198 0
174 197 0
174 197 0
173 197 0
173 197 0
175 197 0
175 198 0
175 198 0
174 197 0
175 198 0
174 197 0
174 198 0
173 197 0
175 198 0
173 197 0
174 198 0
175 198 0
174 197 0
172 196 0
176 198 0
175 198 0
175 198 0
176 198 0
175 198 0
174 197 0
174 197 0
174 197 0
174 197 0
172 197 0
174 197 0
174 198 0
174 198 0
175 198 0
173 197 0
175 198 0
172 196 0
172 197 0
174 197 0
174 197 0
175 198 0
174 197 0
174 198 0
174 198 0
174 198 0
173 197 0
175 198 0
176 199 0
174 198 0
175 198 0
173 197 0
176 199 0
174 198 0
175 198 0
176 199 0
174 197 0
173 197 0
173 197 0
174 198 0
175 198 0
175 198 0
173 197 0
174 198 0
175 198 0
176 199 0
175 198 0
175 198 0
176 199 0
175 197 0
176 199 0
174 198 0
175 198 0
174 198 0
174 198 0
172 196 0
174 198 0
175 198 0
172 196 0
174 198 0
175 198 0
175 198 0
174 198 0
176 199 0
176 199 0
173 197 0
175 198 0
176 199 0
175 198 0
174 198 0
175 198 0
175 198 0
173 197 0
174 198 0
176 199 0
173 197 0
174 198 0
175 198 0
174 197 0
175 198 0
175 198 0
174 198 0
175 198 0
174 197 0
173 197 0
176 198 0
173 197 0
175 198 0
174 198 0
173 197 0
175 198 0
174 198 0
173 197 0
173 197 0
174 198 0
174 198 0
176 199 0
175 198 0
174 198 0
174 198 0
173 197 0
174 197 0
173 197 0
174 197 0
174 198 0
174 198 0
174 198 0
175 198 0
176 198 0
174 198 0
174 198 0
175 198 0
176 198 0
174 198 0
175 198 0
175 198 0
174 198 0
177 199 0
175 198 0
175 198 0
177 199 0
174 198 0
175 198 0
175 198 0
173 197 0
174 198 0
174 198 0
173 197 0
174 197 0
175 198 0
174 197 0
174 198 0
175 198 0
174 198 0
176 198 0
175 198 0
175 198 0
174 198 0
176 199 0
175 198 0
173 197 0
174 197 0
174 198 0
175 198 0
174 198 0
174 198 0
176 198 0
173 197 0
173 197 0
175 198 0
174 198 0
174 198 0
174 198 0
174 198 0
175 198 0
173 197 0
174 198 0
176 198 0
175 198 0
173 197 0
175 198 0
173 197 0
174 197 0
175 198 0
175 198 0
176 198 0
175 198 0
173 197 0
176 199 0
174 198 0
175 198 0
175 198 0
175 198 0
177 199 0
175 198 0
175 198 0
175 198 0
174 197 0
174 197 0
176 199 0
175 198 0
176 199 0
175 198 0
177 199 0
175 198 0
174 197 0
175 198 0
173 197 0
174 198 0
173 197 0
174 198 0
174 197 0
173 197 0
175 198 0
174 198 0
175 198 0
173 197 0
176 199 0
174 198 0
175 198 0
173 197 0
175 198 0
173 197 0
175 198 0
174 198 0
175 198 0
174 198 0
174 198 0
174 198 0
175 198 0
173 197 0
175 198 0
175 198 0
174 198 0
175 198 0
175 198 0
175 198 0
175 198 0
174 198 0
174 197 0
174 198 0
174 198 0
176 199 0
173 197 0
174 198 0
175 198 0
175 198 0
174 197 0
174 198 0
175 198 0
174 198 0
174 198 0
175 198 0
174 198 0
173 197 0
175 198 0
174 198 0
174 197 0
174 197 0
175 198 0
174 198 0
175 198 0
174 198 0
175 198 0
173 197 0
174 198 0
174 198 0
173 197 0
176 198 0
174 198 0
175 198 0
173 197 0
175 198 0
174 198 0
174 198 0
175 198 0
172 196 0
175 198 0
175 198 0
175 198 0
174 197 0
173 197 0
173 197 0
175 198 0
173 197 0
174 198 0
175 198 0
174 197 0
173 197 0
175 198 0
174 198 0
174 197 0
174 197 0
175 198 0
174 198 0
173 197 0
174 198 0
173 196 0
175 198 0
172 196 0
174 197 0
172 195 0
171 195 0
174 197 0
173 197 0
175 197 0
175 197 0
174 196 0
172 196 0
174 197 0
172 196 0
174 197 0
173 196 0
172 195 0
175 198 0
174 197 0
173 196 0
175 197 0
173 196 0
172 196 0
170 193 0
171 195 0
172 195 0
174 197 0
171 194 0
168 191 0
171 193 0
175 198 0
174 196 0
171 195 0
170 192 0
171 194 0
170 195 0
173 196 18
107 135 141
62 99 171
62 99 176
61 99 179
62 99 176
63 100 180
62 99 180
62 99 177
62 99 177
62 99 179
62 99 179
62 99 180
62 99 180
61 99 179
61 98 179
61 99 179
62 99 179
62 99 180
61 99 180
62 98 174
62 99 179
62 99 179
62 99 177
62 98 174
62 99 177
61 97 168
57 89 150
48 64 63
49 65 58
51 67 58
54 72 68
162 155 102
189 178 114
189 178 114
189 178 114
189 178 114
189 178 114
190 179 114
191 179 114
192 180 114
194 180 114
195 181 114
198 182 114
192 178 103
161 156 34
156 152 0
155 152 0
167 180 0
171 194 0
173 195 0
174 197 0
174 197 0
174 196 0
174 196 0
174 195 0
173 197 0
174 197 0
173 195 0
174 197 0
172 195 0
174 196 0
173 197 0
173 196 0
175 198 0
175 198 0
173 196 0
173 196 0
174 197 0
173 196 0
175 198 0
174 197 0
174 197 0
173 197 0
172 196 0
174 198 0
174 197 0
174 197 0
175 198 0
172 196 0
174 197 0
173 197 0
174 198 0
174 197 0
174 198 0
175 198 0
175 198 0
173 197 0
173 197 0
173 197 0
174 197 0
175 198 0
173 197 0
175 198 0
173 197 0
173 197 0
174 198 0
175 198 0
172 197 0
174 198 0
173 197 0
175 198 0
174 197 0
174 197 0
174 198 0
175 198 0
175 198 0
175 198 0
174 197 0
173 197 0
175 198 0
174 197 0
174 198 0
175 198 0
175 198 0
175 198 0
176 198 0
172 196 0
175 198 0
176 199 0
175 198 0
175 198 0
175 198 0
176 199 0
174 197 0
173 197 0
174 197 0
174 198 0
174 197 0
176 198 0
175 198 0
174 198 0
175 198 0
176 199 0
173 197 0
174 198 0
177 199 0
174 197 0
175 198 0
175 198 0
174 198 0
175 198 0
174 198 0
173 197 0
173 197 0
174 198 0
172 197 0
173 197 0
173 197 0
174 198 0
174 198 0
175 198 0
173 197 0
174 198 0
174 198 0
172 196 0
174 197 0
174 198 0
173 197 0
175 198 0
174 198 0
175 198 0
175 198 0
175 198 0
176 199 0
175 198 0
174 198 0
175 198 0
175 198 0
175 198 0
175 198 0
175 198 0
175 198 0
174 197 0
174 198 0
174 198 0
175 198 0
175 198 0
175 198 0
175 198 0
176 198 0
174 198 0
174 197 0
175 198 0
173 197 0
174 198 0
175 198 0
175 198 0
174 197 0
177 199 0
174 198 0
175 198 0
175 198 0
174 198 0
174 198 0
176 198 0
176 198 0
173 197 0
174 198 0
174 197 0
174 198 0
175 198 0
174 197 0
176 198 0
176 199 0
175 198 0
174 198 0
175 198 0
175 198 0
176 198 0
174 198 0
175 198 0
175 198 0
176 198 0
175 198 0
175 198 0
175 198 0
175 198 0
175 198 0
177 199 0
174 197 0
174 198 0
175 198 0
173 197 0
176 199 0
175 198 0
174 198 0
176 199 0
174 198 0
175 198 0
174 197 0
175 198 0
175 198 0
174 198 0
175 198 0
174 198 0
174 198 0
173 197 0
174 197 0
174 198 0
175 198 0
174 198 0
175 198 0
175 198 0
175 198 0
174 197 0
174 198 0
175 198 0
174 198 0
175 198 0
174 197 0
175 198 0
174 198 0
174 198 0
174 197 0
176 198 0
175 198 0
175 198 0
174 197 0
174 198 0
175 198 0
176 199 0
176 199 0
173 197 0
175 198 0
173 197 0
174 197 0
175 198 0
174 197 0
174 198 0
175 198 0
174 198 0
175 198 0
175 198 0
174 198 0
174 198 0
174 198 0
175 198 0
175 198 0
175 198 0
174 198 0
175 198 0
174 197 0
174 198 0
175 198 0
175 198 0
175 198 0
175 198 0
175 198 0
173 197 0
174 198 0
173 197 0
174 198 0
175 198 0
174 198 0
174 198 0
175 198 0
174 198 0
174 197 0
173 197 0
174 198 0
175 198 0
175 198 0
172 197 0
176 199 0
175 198 0
172 196 0
174 197 0
176 198 0
175 198 0
174 198 0
175 198 0
174 198 0
176 199 0
173 197 0
173 197 0
175 198 0
174 198 0
175 198 0
174 198 0
174 198 0
175 198 0
175 198 0
175 198 0
174 197 0
176 198 0
175 198 0
174 198 0
177 199 0
174 197 0
174 198 0
173 196 0
175 198 0
175 198 0
174 197 0
174 198 0
173 197 0
175 198 0
173 197 0
176 199 0
176 199 0
174 197 0
174 197 0
174 197 0
173 197 0
175 198 0
174 198 0
174 198 0
173 197 0
173 197 0
175 198 0
173 197 0
174 197 0
173 197 0
174 197 0
175 198 0
174 197 0
175 198 0
174 198 0
173 197 0
172 196 0
175 198 0
172 196 0
175 197 0
173 197 0
176 198 0
174 197 0
174 198 0
173 196 0
176 198 0
175 198 0
174 197 0
174 197 0
174 198 0
172 196 0
171 194 0
174 196 0
175 198 0
173 197 0
173 197 0
173 196 0
173 196 0
171 195 0
174 197 0
172 195 0
172 196 0
171 194 0
172 195 0
175 198 0
171 195 0
173 197 0
169 193 0
171 195 0
167 190 0
173 196 0
170 193 0
173 195 0
171 194 0
172 195 0
171 194 0
137 161 105
64 100 173
62 99 175
61 98 174
62 98 172
62 99 178
62 99 180
62 99 178
62 99 176
62 99 179
62 99 178
62 99 181
61 99 181
62 98 176
61 98 179
62 99 178
62 99 180
62 99 178
62 99 180
62 99 178
62 99 177
62 99 175
62 98 175
62 99 176
62 99 173
62 99 175
62 98 172
63 99 173
54 79 118
46 62 54
51 67 56
51 70 62
126 124 89
194 180 114
194 180 114
193 180 114
193 180 114
194 180 114
194 181 114
195 181 114
196 182 114
198 182 114
197 182 111
177 167 76
158 154 16
156 153 0
156 153 0
155 152 0
167 183 0
173 195 0
172 195 0
170 192 0
174 196 0
172 194 0
172 195 0
173 195 0
174 196 0
173 195 0
173 196 0
172 194 0
172 196 0
175 197 0
173 197 0
175 198 0
174 197 0
174 197 0
177 199 0
174 197 0
172 195 0
175 198 0
173 196 0
175 197 0
174 197 0
173 195 0
172 195 0
176 199 0
173 197 0
174 197 0
174 197 0
174 197 0
174 198 0
174 197 0
174 197 0
176 199 0
176 198 0
175 198 0
174 198 0
174 197 0
174 198 0
174 198 0
175 198 0
174 198 0
174 197 0
174 197 0
172 197 0
175 198 0
173 197 0
174 198 0
175 198 0
173 197 0
173 197 0
173 197 0
176 198 0
176 199 0
175 198 0
174 198 0
173 197 0
174 198 0
175 198 0
174 198 0
174 198 0
173 197 0
173 197 0
174 197 0
174 198 0
174 198 0
174 197 0
174 198 0
174 197 0
175 198 0
174 198 0
174 198 0
176 199 0
175 198 0
173 197 0
174 198 0
173 197 0
176 199 0
174 197 0
176 199 0
175 198 0
174 198 0
174 197 0
174 197 0
174 198 0
175 198 0
174 198 0
174 198 0
174 197 0
175 198 0
174 198 0
174 198 0
176 199 0
174 198 0
175 198 0
176 199 0
176 199 0
173 197 0
174 198 0
175 198 0
175 198 0
174 198 0
173 197 0
172 197 0
176 199 0
174 197 0
175 198 0
176 199 0
174 198 0
174 197 0
175 198 0
176 199 0
175 198 0
173 197 0
175 198 0
174 197 0
176 199 0
176 199 0
174 198 0
176 199 0
174 197 0
175 198 0
175 198 0
175 198 0
175 198 0
173 197 0
175 198 0
174 198 0
174 197 0
174 198 0
174 198 0
174 198 0
173 197 0
173 197 0
175 198 0
173 197 0
174 198 0
173 197 0
175 198 0
176 198 0
174 198 0
173 197 0
174 198 0
173 197 0
175 198 0
176 199 0
175 198 0
174 197 0
175 198 0
174 198 0
174 198 0
175 198 0
175 198 0
176 199 0
174 198 0
173 197 0
174 198 0
174 198 0
174 198 0
174 198 0
173 197 0
173 197 0
174 198 0
174 198 0
177 199 0
175 198 0
175 198 0
174 198 0
175 198 0
175 198 0
173 197 0
174 197 0
176 199 0
175 198 0
174 198 0
174 197 0
175 198 0
175 198 0
174 197 0
175 198 0
175 198 0
175 198 0
173 197 0
176 198 0
176 199 0
173 197 0
175 198 0
174 198 0
175 198 0
173 197 0
176 199 0
174 198 0
175 198 0
175 198 0
174 198 0
176 198 0
174 198 0
175 198 0
175 198 0
175 198 0
175 198 0
176 199 0
174 198 0
173 197 0
173 197 0
175 198 0
173 197 0
175 198 0
175 198 0
176 199 0
173 197 0
174 198 0
174 198 0
174 198 0
174 197 0
173 197 0
174 197 0
175 198 0
174 198 0
175 198 0
174 198 0
174 197 0
173 197 0
175 198 0
176 199 0
174 198 0
173 197 0
173 197 0
176 199 0
176 198 0
175 198 0
175 198 0
174 198 0
175 198 0
173 197 0
174 197 0
175 198 0
174 198 0
174 198 0
175 198 0
174 197 0
174 198 0
175 198 0
174 198 0
174 198 0
174 198 0
174 198 0
175 198 0
173 197 0
174 197 0
174 198 0
174 198 0
175 198 0
172 197 0
176 199 0
175 198 0
175 198 0
174 198 0
176 198 0
175 198 0
174 198 0
175 198 0
174 197 0
176 198 0
174 198 0
174 198 0
175 198 0
175 198 0
174 198 0
176 199 0
174 197 0
175 198 0
175 198 0
174 198 0
173 197 0
174 197 0
173 197 0
174 197 0
174 198 0
173 196 0
175 198 0
175 198 0
174 197 0
173 197 0
175 198 0
173 196 0
175 198 0
174 198 0
174 197 0
174 198 0
174 197 0
174 198 0
173 197 0
174 197 0
174 198 0
176 198 0
175 198 0
174 197 0
173 196 0
174 198 0
173 197 0
171 196 0
173 197 0
173 196 0
173 196 0
174 197 0
174 198 0
174 198 0
173 197 0
173 197 0
172 196 0
176 199 0
171 194 0
173 197 0
173 196 0
174 197 0
175 198 0
174 198 0
173 196 0
174 198 0
174 196 0
175 198 0
174 197 0
174 197 0
174 197 0
173 197 0
174 197 0
174 197 0
173 196 0
168 191 0
171 195 0
174 197 0
172 195 0
172 195 0
172 196 0
172 195 0
172 196 0
171 195 0
174 197 0
173 197 0
172 195 0
172 196 0
170 193 0
173 196 0
171 195 0
169 192 0
170 194 0
170 192 0
171 194 0
160 183 62
73 106 163
63 99 175
62 99 168
62 99 173
63 99 175
62 99 178
63 99 177
62 99 179
62 99 180
62 99 179
61 99 179
62 99 176
62 99 177
63 100 178
62 99 181
62 99 176
62 99 177
62 99 175
62 99 174
62 99 176
62 99 178
62 98 173
62 99 174
61 98 175
62 99 176
61 98 169
63 99 173
62 98 170
61 96 163
47 64 64
49 65 54
51 69 60
83 92 73
198 183 114
198 182 114
198 182 114
198 182 114
198 183 114
197 181 111
191 177 102
180 170 83
177 167 75
158 155 25
154 152 0
156 153 0
155 152 0
156 153 0
155 154 0
170 188 0
172 193 0
172 195 0
170 192 0
172 193 0
173 193 0
173 196 0
173 194 0
173 195 0
174 197 0
173 197 0
174 197 0
172 195 0
174 197 0
174 197 0
174 197 0
174 197 0
173 196 0
174 198 0
173 197 0
174 197 0
174 197 0
175 197 0
174 197 0
174 197 0
174 197 0
174 198 0
174 197 0
174 197 0
174 197 0
173 197 0
174 198 0
175 198 0
175 198 0
173 196 0
174 197 0
172 196 0
174 197 0
173 196 0
176 198 0
174 198 0
174 198 0
174 198 0
174 197 0
173 196 0
174 197 0
174 198 0
174 198 0
173 197 0
174 198 0
173 197 0
172 197 0
174 197 0
172 196 0
175 198 0
174 197 0
175 198 0
175 198 0
173 197 0
173 197 0
174 198 0
173 197 0
173 197 0
174 198 0
174 198 0
175 198 0
173 197 0
175 198 0
174 198 0
172 197 0
174 198 0
175 198 0
176 198 0
175 198 0
175 198 0
174 198 0
175 198 0
173 197 0
173 197 0
173 197 0
175 198 0
174 197 0
174 198 0
174 197 0
173 197 0
174 198 0
175 198 0
173 197 0
174 197 0
174 197 0
174 197 0
174 198 0
175 198 0
177 199 0
176 199 0
175 198 0
175 198 0
173 197 0
175 198 0
174 198 0
175 198 0
174 197 0
174 198 0
175 198 0
172 197 0
175 198 0
174 197 0
175 198 0
174 198 0
173 197 0
175 198 0
174 198 0
174 198 0
174 198 0
175 198 0
176 199 0
173 197 0
174 198 0
174 198 0
175 198 0
174 198 0
175 198 0
175 198 0
174 198 0
175 198 0
174 198 0
173 197 0
174 197 0
173 197 0
176 199 0
173 197 0
176 199 0
174 197 0
173 197 0
175 198 0
174 198 0
174 198 0
174 198 0
175 198 0
173 197 0
175 198 0
174 197 0
175 198 0
174 198 0
175 198 0
176 198 0
176 198 0
175 198 0
174 197 0
174 198 0
174 197 0
174 197 0
174 197 0
175 198 0
176 199 0
173 197 0
175 198 0
176 198 0
175 198 0
174 198 0
174 197 0
174 198 0
174 198 0
174 198 0
174 198 0
174 198 0
176 198 0
174 197 0
175 198 0
175 198 0
174 198 0
174 198 0
174 197 0
176 198 0
174 198 0
173 197 0
176 199 0
174 198 0
174 198 0
174 198 0
174 198 0
175 198 0
175 198 0
174 197 0
175 198 0
175 198 0
173 197 0
174 198 0
173 197 0
174 198 0
174 198 0
174 198 0
176 199 0
175 198 0
174 198 0
174 197 0
175 198 0
174 198 0
175 198 0
175 198 0
176 199 0
175 198 0
174 198 0
175 198 0
175 198 0
173 197 0
174 198 0
174 198 0
175 198 0
175 198 0
175 198 0
175 198 0
175 198 0
173 197 0
173 197 0
174 198 0
174 197 0
174 198 0
175 198 0
175 198 0
176 199 0
174 197 0
173 197 0
174 198 0
174 198 0
175 198 0
175 198 0
174 198 0
176 199 0
175 198 0
174 197 0
175 198 0
176 199 0
173 197 0
175 198 0
175 198 0
175 198 0
174 197 0
174 198 0
173 197 0
174 198 0
175 198 0
175 198 0
175 198 0
175 198 0
175 198 0
174 198 0
174 197 0
174 198 0
175 198 0
174 197 0
175 198 0
176 198 0
176 199 0
174 197 0
174 198 0
175 198 0
175 198 0
174 198 0
175 198 0
174 197 0
174 198 0
175 198 0
175 198 0
174 198 0
174 198 0
175 198 0
176 198 0
174 198 0
172 197 0
175 198 0
174 198 0
176 199 0
176 199 0
174 197 0
174 197 0
174 198 0
172 196 0
173 197 0
174 197 0
175 198 0
172 197 0
175 198 0
176 198 0
174 198 0
174 198 0
175 198 0
174 198 0
173 196 0
174 197 0
175 198 0
173 197 0
173 197 0
173 197 0
174 197 0
172 196 0
175 198 0
173 197 0
175 198 0
174 197 0
174 197 0
173 197 0
174 198 0
173 197 0
175 198 0
174 197 0
176 198 0
176 198 0
174 197 0
174 198 0
175 198 0
174 198 0
173 197 0
173 197 0
174 198 0
172 196 0
175 198 0
174 197 0
174 197 0
173 196 0
173 197 0
174 197 0
175 198 0
171 195 0
174 197 0
172 195 0
173 197 0
170 194 0
171 194 0
173 197 0
171 194 0
175 198 0
170 193 0
171 195 0
171 194 0
171 194 0
172 195 0
171 194 0
171 194 0
171 194 0
172 196 0
172 196 0
169 192 0
172 195 0
174 197 0
171 194 0
170 194 0
175 198 0
170 193 0
169 193 0
169 192 0
131 156 117
61 98 168
62 99 174
63 99 175
61 98 174
62 98 171
62 99 179
62 99 175
62 99 176
62 99 178
62 99 178
62 99 176
62 99 178
62 99 177
62 98 173
62 99 178
62 99 178
62 99 179
62 99 175
63 99 177
62 99 174
63 99 172
62 98 171
62 98 173
62 99 173
62 99 176
62 98 170
63 99 172
62 98 166
62 98 162
53 79 114
49 65 56
50 67 59
72 84 53
157 154 25
164 158 45
163 158 47
163 158 39
161 156 34
156 153 16
156 153 0
156 153 0
155 153 0
156 153 0
153 151 0
155 152 0
154 151 0
155 152 0
161 168 0
170 191 0
171 190 0
171 192 0
173 194 0
172 194 0
173 196 0
172 195 0
173 194 0
174 196 0
173 196 0
175 196 0
173 196 0
173 196 0
174 196 0
169 192 0
174 196 0
173 196 0
174 197 0
175 198 0
173 196 0
173 197 0
173 197 0
174 197 0
173 197 0
173 197 0
174 197 0
174 197 0
172 195 0
174 197 0
175 198 0
173 197 0
174 197 0
174 197 0
175 198 0
174 198 0
174 198 0
175 198 0
175 198 0
174 198 0
173 196 0
174 198 0
175 198 0
174 198 0
173 197 0
173 197 0
174 197 0
174 197 0
173 197 0
173 197 0
173 197 0
173 197 0
175 198 0
174 197 0
174 198 0
173 196 0
173 197 0
175 198 0
175 198 0
175 198 0
175 198 0
173 197 0
175 198 0
173 197 0
175 198 0
174 198 0
173 197 0
174 197 0
175 198 0
174 197 0
175 198 0
174 198 0
177 199 0
174 198 0
174 198 0
172 197 0
174 197 0
175 198 0
175 198 0
175 198 0
175 198 0
175 198 0
173 197 0
175 198 0
176 199 0
174 198 0
174 198 0
174 198 0
175 198 0
176 199 0
176 198 0
173 197 0
175 198 0
174 198 0
174 198 0
174 198 0
176 198 0
174 198 0
174 198 0
175 198 0
172 197 0
175 198 0
174 198 0
174 198 0
175 198 0
174 197 0
175 198 0
174 197 0
174 198 0
174 198 0
175 198 0
174 198 0
175 198 0
173 197 0
174 198 0
174 198 0
175 198 0
173 197 0
176 199 0
175 198 0
175 198 0
174 198 0
175 198 0
174 197 0
173 197 0
173 197 0
175 198 0
174 198 0
175 198 0
173 197 0
174 198 0
175 198 0
174 198 0
173 197 0
175 198 0
173 197 0
174 197 0
174 197 0
175 198 0
173 197 0
174 198 0
173 197 0
175 198 0
174 198 0
176 199 0
175 198 0
173 197 0
173 197 0
175 198 0
174 198 0
174 197 0
175 198 0
174 198 0
175 198 0
173 197 0
177 199 0
175 198 0
173 197 0
174 197 0
174 197 0
176 198 0
174 197 0
174 198 0
176 198 0
174 198 0
174 198 0
174 197 0
174 198 0
175 198 0
174 197 0
176 199 0
173 197 0
174 198 0
175 198 0
174 197 0
175 198 0
175 198 0
174 197 0
174 197 0
174 198 0
174 198 0
176 199 0
175 198 0
174 198 0
174 198 0
175 198 0
174 197 0
174 197 0
176 199 0
175 198 0
174 198 0
175 198 0
174 198 0
174 197 0
175 198 0
174 198 0
174 198 0
176 199 0
173 197 0
173 197 0
172 197 0
175 198 0
175 198 0
175 198 0
175 198 0
174 198 0
174 198 0
173 197 0
175 198 0
175 198 0
174 197 0
176 199 0
173 197 0
174 198 0
175 198 0
174 197 0
176 198 0
175 198 0
174 197 0
174 198 0
174 197 0
174 197 0
174 197 0
176 198 0
175 198 0
173 197 0
175 198 0
175 198 0
173 197 0
176 199 0
174 198 0
173 197 0
176 199 0
173 197 0
174 197 0
176 199 0
174 198 0
175 198 0
173 197 0
176 198 0
174 198 0
175 198 0
175 198 0
174 198 0
174 197 0
176 199 0
175 198 0
176 198 0
174 198 0
176 199 0
174 198 0
174 198 0
173 197 0
175 198 0
173 197 0
176 198 0
174 198 0
174 198 0
174 198 0
175 198 0
175 198 0
175 198 0
175 198 0
174 197 0
175 198 0
174 198 0
173 196 0
175 198 0
174 197 0
176 198 0
174 197 0
174 198 0
172 197 0
175 198 0
176 198 0
176 198 0
173 197 0
174 197 0
174 198 0
174 197 0
174 198 0
175 198 0
175 198 0
174 198 0
175 198 0
176 199 0
176 199 0
174 198 0
174 197 0
174 198 0
175 198 0
174 198 0
174 197 0
173 197 0
175 198 0
174 197 0
173 196 0
174 198 0
175 198 0
174 197 0
175 198 0
174 198 0
173 197 0
174 197 0
176 198 0
175 198 0
174 197 0
176 198 0
173 197 0
175 198 0
174 198 0
174 197 0
174 198 0
174 197 0
174 197 0
173 197 0
174 198 0
174 198 0
173 196 0
174 197 0
174 197 0
173 197 0
173 197 0
174 198 0
174 197 0
175 198 0
172 196 0
172 196 0
171 195 0
176 198 0
173 195 0
172 195 0
169 193 0
173 196 0
174 197 0
172 195 0
175 198 0
173 197 0
171 194 0
172 195 0
171 194 0
171 195 0
174 197 0
172 194 0
169 192 0
171 194 0
172 194 0
174 197 0
171 195 0
167 190 0
168 192 0
166 189 0
86 116 149
62 98 166
62 98 169
62 99 173
62 99 175
63 99 176
62 99 174
62 99 176
62 99 176
62 99 177
62 99 176
62 99 172
62 99 174
62 99 177
62 99 176
61 98 173
62 99 176
62 99 177
62 99 178
62 99 174
62 99 178
63 99 174
62 99 175
62 99 175
62 99 168
62 99 171
62 99 171
62 99 173
62 98 165
62 98 158
60 94 156
47 61 43
49 65 50
90 99 53
153 151 0
154 152 0
152 150 0
152 149 0
156 153 0
151 149 0
154 152 0
155 151 0
153 151 0
154 151 0
154 150 0
154 151 0
153 150 0
153 148 0
169 183 0
170 190 0
171 192 0
172 193 0
172 194 0
173 195 0
174 194 0
172 193 0
171 194 0
171 193 0
173 195 0
173 196 0
174 197 0
173 194 0
173 196 0
173 197 0
172 195 0
171 194 0
174 197 0
174 197 0
175 198 0
174 197 0
173 197 0
174 197 0
174 197 0
174 198 0
173 196 0
173 196 0
173 197 0
175 197 0
173 197 0
172 195 0
175 198 0
174 197 0
174 197 0
173 197 0
174 197 0
174 197 0
174 197 0
174 198 0
175 198 0
174 198 0
173 197 0
173 197 0
173 197 0
173 197 0
174 197 0
174 198 0
175 198 0
173 196 0
175 198 0
176 199 0
176 199 0
173 197 0
175 197 0
174 197 0
174 197 0
175 198 0
174 198 0
173 197 0
174 198 0
174 197 0
173 196 0
175 198 0
175 198 0
174 198 0
175 198 0
174 198 0
175 198 0
173 197 0
175 198 0
173 197 0
174 197 0
173 197 0
176 199 0
175 198 0
175 198 0
177 199 0
175 198 0
174 198 0
174 197 0
174 198 0
174 198 0
175 198 0
175 198 0
173 197 0
174 198 0
174 197 0
176 198 0
175 198 0
175 198 0
174 197 0
174 198 0
175 198 0
174 198 0
172 197 0
176 198 0
173 197 0
174 197 0
173 197 0
173 197 0
173 197 0
174 197 0
176 198 0
173 197 0
174 198 0
173 197 0
174 198 0
176 198 0
174 198 0
174 198 0
175 198 0
174 198 0
175 198 0
172 196 0
173 197 0
174 197 0
175 198 0
175 198 0
175 198 0
174 198 0
174 198 0
174 197 0
174 198 0
176 198 0
173 197 0
173 197 0
175 198 0
174 198 0
174 198 0
175 198 0
174 197 0
175 198 0
173 197 0
173 197 0
176 198 0
175 198 0
175 198 0
174 198 0
174 198 0
174 198 0
175 198 0
174 198 0
174 198 0
175 198 0
174 198 0
174 198 0
174 198 0
176 198 0
174 197 0
176 199 0
174 198 0
174 198 0
175 198 0
174 197 0
175 198 0
175 198 0
176 199 0
175 198 0
175 198 0
175 198 0
175 198 0
175 198 0
174 198 0
174 198 0
174 198 0
174 198 0
173 197 0
174 198 0
174 198 0
175 198 0
174 197 0
176 198 0
175 198 0
176 198 0
173 197 0
176 199 0
176 199 0
175 198 0
174 198 0
174 198 0
175 198 0
174 198 0
174 198 0
174 198 0
175 198 0
173 197 0
176 198 0
174 197 0
175 198 0
174 198 0
176 199 0
173 197 0
173 197 0
175 198 0
174 198 0
175 198 0
174 198 0
174 198 0
174 198 0
173 197 0
174 197 0
176 198 0
174 197 0
175 198 0
175 198 0
174 198 0
175 198 0
174 197 0
173 197 0
174 198 0
174 198 0
172 197 0
174 198 0
174 197 0
174 197 0
173 197 0
174 198 0
176 198 0
175 198 0
175 198 0
174 197 0
176 198 0
174 198 0
175 198 0
175 198 0
174 198 0
174 198 0
177 199 0
174 198 0
173 197 0
174 197 0
173 197 0
175 198 0
174 197 0
175 198 0
176 199 0
175 198 0
173 197 0
175 198 0
175 198 0
173 197 0
176 198 0
175 198 0
174 197 0
175 198 0
174 197 0
174 198 0
175 198 0
174 197 0
173 197 0
175 198 0
174 198 0
176 198 0
174 198 0
173 197 0
174 198 0
173 197 0
175 198 0
175 198 0
174 198 0
173 197 0
174 197 0
175 198 0
172 195 0
174 198 0
174 198 0
174 197 0
174 197 0
173 197 0
175 198 0
174 198 0
174 198 0
173 197 0
173 197 0
173 197 0
174 198 0
175 198 0
174 198 0
174 198 0
173 197 0
174 198 0
174 197 0
174 197 0
174 198 0
175 198 0
174 198 0
173 197 0
175 198 0
173 197 0
175 198 0
174 198 0
173 197 0
175 198 0
173 196 0
175 198 0
173 197 0
174 198 0
173 197 0
173 197 0
173 197 0
175 198 0
175 198 0
173 196 0
174 197 0
174 197 0
174 197 0
174 197 0
175 198 0
173 197 0
175 198 0
173 196 0
174 197 0
172 196 0
174 197 0
174 197 0
171 195 0
175 198 0
172 196 0
173 197 0
171 195 0
174 197 0
174 198 0
172 196 0
174 197 0
172 195 0
172 195 0
174 197 0
172 195 0
174 196 0
172 195 0
172 195 0
173 197 0
173 196 0
172 195 0
171 195 0
173 196 0
172 195 0
168 192 0
173 197 0
170 194 0
171 194 0
172 194 0
172 195 0
169 192 0
167 191 0
167 190 0
171 195 0
166 189 0
169 192 0
168 191 0
156 179 78
62 99 166
61 97 160
62 99 172
62 98 170
62 98 173
62 98 173
62 99 178
62 99 179
62 99 173
62 99 175
62 98 172
63 100 177
62 99 177
62 99 175
62 99 173
62 99 174
63 99 173
62 99 176
62 99 175
63 99 175
62 99 174
62 98 171
62 99 173
62 99 175
62 99 171
62 98 166
62 98 169
61 98 169
62 98 161
62 98 163
62 98 169
50 70 85
47 62 43
116 119 25
148 146 0
147 145 0
149 147 0
151 149 0
151 149 0
151 148 0
150 148 0
149 147 0
153 151 0
154 150 0
152 147 0
152 148 0
151 148 0
160 165 0
170 188 0
170 189 0
171 191 0
172 192 0
171 192 0
169 189 0
173 193 0
170 191 0
172 194 0
172 194 0
171 193 0
173 196 0
174 196 0
173 196 0
172 194 0
173 196 0
173 195 0
173 195 0
174 196 0
174 197 0
172 195 0
174 196 0
171 195 0
175 198 0
174 197 0
173 195 0
174 196 0
174 198 0
174 198 0
175 198 0
173 197 0
173 196 0
172 196 0
175 198 0
173 197 0
173 197 0
175 198 0
174 197 0
176 198 0
174 197 0
171 196 0
174 197 0
174 197 0
174 197 0
173 196 0
173 197 0
174 197 0
174 198 0
174 197 0
176 199 0
173 197 0
174 196 0
175 198 0
174 197 0
175 198 0
175 198 0
174 197 0
174 198 0
176 199 0
174 197 0
174 198 0
173 196 0
174 198 0
174 198 0
174 197 0
174 198 0
173 197 0
175 198 0
174 197 0
176 199 0
173 197 0
174 198 0
174 198 0
175 198 0
174 198 0
173 196 0
174 197 0
174 197 0
173 197 0
176 198 0
174 197 0
174 198 0
176 199 0
175 198 0
175 198 0
173 197 0
174 197 0
175 198 0
174 197 0
175 198 0
174 198 0
174 198 0
174 198 0
174 197 0
175 198 0
175 198 0
176 198 0
176 198 0
175 198 0
176 199 0
175 198 0
173 197 0
174 197 0
174 198 0
174 198 0
175 198 0
175 198 0
172 196 0
173 197 0
173 197 0
173 197 0
174 198 0
175 198 0
175 198 0
174 198 0
176 198 0
174 198 0
175 198 0
175 198 0
175 198 0
175 198 0
175 198 0
173 197 0
175 198 0
174 198 0
175 198 0
173 197 0
175 198 0
176 199 0
174 197 0
176 198 0
174 198 0
175 198 0
175 198 0
174 198 0
174 198 0
174 198 0
175 198 0
175 198 0
176 199 0
175 198 0
175 198 0
175 198 0
173 197 0
174 198 0
174 198 0
175 198 0
173 197 0
173 197 0
175 198 0
174 198 0
173 197 0
175 198 0
175 198 0
175 198 0
174 198 0
174 197 0
176 198 0
174 198 0
173 197 0
174 198 0
175 198 0
176 199 0
175 198 0
173 197 0
175 198 0
175 198 0
173 197 0
176 198 0
175 198 0
175 198 0
175 198 0
175 198 0
174 198 0
174 198 0
175 198 0
175 198 0
174 198 0
173 197 0
173 197 0
174 198 0
174 197 0
174 198 0
175 198 0
174 198 0
173 197 0
176 199 0
176 198 0
176 199 0
175 198 0
174 198 0
175 198 0
175 198 0
173 197 0
174 198 0
175 198 0
173 197 0
175 198 0
175 198 0
173 197 0
175 198 0
175 198 0
175 198 0
173 197 0
175 198 0
174 198 0
175 198 0
175 198 0
173 197 0
172 197 0
176 198 0
174 198 0
174 198 0
175 198 0
173 197 0
174 197 0
173 197 0
177 199 0
174 198 0
172 196 0
175 198 0
174 197 0
175 198 0
174 198 0
175 198 0
173 197 0
176 199 0
173 197 0
175 198 0
173 197 0
173 197 0
176 198 0
175 198 0
174 198 0
175 198 0
173 197 0
174 197 0
175 198 0
173 197 0
175 198 0
175 198 0
175 198 0
174 198 0
175 198 0
174 197 0
175 198 0
174 197 0
175 198 0
174 197 0
173 197 0
174 197 0
175 198 0
173 197 0
174 198 0
174 198 0
174 197 0
174 197 0
173 197 0
176 198 0
175 198 0
175 198 0
174 197 0
174 198 0
175 198 0
174 197 0
173 197 0
174 198 0
174 198 0
174 198 0
175 198 0
175 198 0
174 197 0
174 198 0
175 197 0
173 197 0
175 198 0
174 197 0
173 197 0
175 198 0
174 198 0
173 197 0
172 196 0
174 198 0
174 198 0
174 197 0
173 197 0
173 197 0
173 197 0
175 198 0
173 197 0
174 197 0
174 198 0
173 196 0
174 198 0
174 197 0
174 197 0
172 196 0
174 198 0
173 197 0
172 195 0
173 197 0
173 197 0
174 198 0
174 197 0
174 198 0
176 199 0
176 198 0
174 198 0
174 197 0
172 196 0
173 196 0
175 198 0
173 196 0
174 197 0
174 197 0
173 196 0
173 196 0
176 199 0
172 196 0
175 198 0
170 194 0
172 196 0
173 197 0
174 198 0
172 196 0
174 197 0
171 194 0
172 195 0
172 196 0
172 195 0
170 194 0
174 197 0
172 195 0
172 195 0
171 196 0
173 196 0
174 197 0
173 196 36
174 197 57
175 198 51
172 195 44
166 190 0
174 197 0
172 195 0
172 195 0
171 195 0
169 192 0
168 191 0
167 191 0
166 188 0
170 193 0
122 149 125
61 97 153
62 98 166
62 98 172
63 99 173
61 98 173
62 99 168
62 99 174
62 99 177
63 99 177
61 98 172
62 99 171
61 98 165
62 99 170
62 99 175
61 98 171
62 99 170
61 98 167
63 99 171
62 99 175
62 99 173
62 99 173
62 98 167
63 99 172
62 99 166
62 99 171
62 98 164
61 97 160
62 98 162
62 98 169
62 98 164
62 98 163
52 77 106
94 97 27
133 132 0
134 133 0
144 141 0
147 144 0
149 147 0
147 144 0
148 146 0
148 145 0
151 148 0
151 146 0
152 147 0
154 149 0
150 146 0
157 155 0
169 185 0
170 186 0
170 188 0
169 187 0
173 194 0
171 193 0
173 195 0
172 195 0
174 194 0
173 194 0
174 193 0
170 192 0
174 195 0
174 196 0
172 195 0
174 196 0
173 195 0
173 196 0
173 196 0
173 197 0
173 197 0
174 197 0
173 196 0
174 197 0
174 197 0
173 196 0
174 197 0
173 196 0
173 197 0
173 197 0
173 197 0
174 197 0
173 196 0
174 197 0
171 194 0
172 196 0
174 197 0
174 198 0
174 198 0
174 197 0
174 198 0
174 197 0
174 197 0
175 198 0
173 197 0
175 198 0
173 197 0
173 196 0
174 197 0
175 197 0
172 196 0
173 197 0
173 197 0
173 197 0
173 197 0
172 196 0
172 195 0
173 197 0
174 196 0
174 198 0
175 198 0
174 197 0
175 198 0
174 198 0
174 197 0
173 197 0
174 197 0
173 197 0
173 197 0
175 198 0
174 198 0
173 197 0
174 198 0
175 198 0
175 198 0
175 198 0
175 198 0
174 198 0
174 198 0
175 198 0
175 198 0
172 196 0
174 198 0
172 197 0
176 198 0
174 198 0
173 197 0
174 197 0
174 198 0
173 197 0
174 198 0
174 197 0
173 197 0
173 197 0
175 198 0
175 198 0
174 198 0
173 197 0
174 197 0
175 198 0
175 198 0
176 199 0
174 197 0
174 198 0
174 198 0
175 198 0
176 199 0
176 199 0
175 198 0
175 198 0
174 197 0
176 198 0
174 198 0
175 198 0
175 198 0
174 198 0
174 197 0
175 198 0
174 198 0
174 197 0
175 198 0
175 198 0
173 197 0
174 197 0
174 198 0
174 198 0
174 197 0
175 198 0
176 199 0
174 197 0
172 197 0
175 198 0
173 197 0
175 198 0
173 197 0
175 198 0
174 197 0
174 198 0
173 197 0
173 197 0
176 198 0
175 198 0
175 198 0
175 198 0
173 197 0
176 199 0
174 197 0
175 198 0
174 198 0
175 198 0
175 198 0
175 198 0
174 198 0
174 197 0
174 198 0
173 197 0
176 198 0
175 198 0
173 197 0
173 197 0
175 198 0
174 198 0
175 198 0
175 198 0
173 197 0
175 198 0
175 198 0
174 198 0
174 198 0
175 198 0
173 197 0
174 198 0
175 198 0
174 198 0
176 199 0
176 198 0
174 197 0
175 198 0
174 197 0
174 198 0
174 197 0
173 197 0
174 197 0
174 197 0
175 198 0
175 198 0
175 198 0
175 198 0
173 197 0
175 198 0
174 198 0
174 198 0
174 198 0
174 198 0
174 198 0
175 198 0
175 198 0
174 198 0
174 197 0
175 198 0
173 197 0
174 198 0
175 198 0
176 199 0
175 198 0
175 198 0
176 199 0
174 197 0
176 199 0
173 197 0
174 198 0
175 198 0
175 198 0
174 198 0
175 198 0
174 198 0
176 199 0
175 198 0
174 197 0
174 197 0
176 199 0
174 197 0
174 198 0
175 198 0
176 198 0
174 197 0
174 198 0
174 198 0
173 197 0
173 197 0
176 199 0
174 198 0
173 197 0
175 198 0
174 198 0
175 198 0
175 198 0
174 198 0
173 196 0
175 198 0
175 198 0
175 198 0
174 198 0
175 198 0
173 197 0
175 198 0
175 198 0
173 197 0
175 198 0
175 198 0
174 198 0
174 197 0
175 198 0
174 197 0
175 198 0
176 198 0
174 197 0
174 198 0
174 197 0
176 199 0
173 197 0
174 197 0
173 196 0
174 197 0
173 197 0
175 198 0
175 198 0
176 199 0
172 196 0
175 198 0
174 198 0
174 197 0
175 198 0
175 198 0
174 198 0
174 197 0
176 199 0
174 198 0
174 197 0
175 198 0
174 197 0
175 198 0
174 198 0
174 197 0
174 197 0
172 197 0
175 198 0
174 197 0
174 198 0
173 197 0
174 198 0
175 198 0
175 198 0
176 199 0
176 199 0
174 198 0
173 197 0
175 198 0
171 195 0
174 198 0
173 196 0
173 197 0
175 198 0
174 197 0
174 197 0
173 197 0
172 195 0
173 197 0
171 195 0
174 198 0
174 198 0
174 197 0
175 198 0
174 197 0
174 198 0
173 197 0
174 197 0
172 196 0
174 198 0
173 197 0
172 196 0
172 196 0
173 197 0
173 197 0
172 196 0
172 195 0
173 196 0
173 196 0
169 194 0
171 194 0
171 195 0
175 197 0
172 196 0
173 196 0
176 198 44
183 204 114
182 204 102
183 204 108
183 204 111
179 202 102
181 203 95
183 205 114
184 205 111
182 203 111
184 204 117
178 200 84
175 197 67
168 191 0
170 194 0
170 193 0
165 188 0
167 191 0
103 131 133
61 97 162
62 98 160
62 98 173
62 99 173
61 98 165
62 98 167
62 98 166
63 99 176
62 99 170
62 99 176
62 99 172
63 99 174
62 98 171
62 99 172
62 99 172
62 99 171
63 99 174
62 98 167
62 99 169
62 99 178
62 99 170
62 98 160
61 98 164
62 98 166
63 99 167
62 99 169
61 98 165
62 99 169
62 98 164
62 98 164
62 98 165
79 100 131
114 111 0
127 125 0
126 125 0
141 138 0
138 137 0
146 144 0
141 138 0
144 140 0
147 145 0
150 144 0
149 145 0
150 145 0
146 140 0
150 144 0
163 173 0
172 189 0
167 185 0
169 185 0
172 193 0
171 191 0
173 195 0
171 191 0
171 192 0
170 192 0
174 196 0
173 193 0
169 191 0
173 193 0
172 192 0
171 192 0
173 197 0
171 193 0
173 194 0
174 195 0
173 196 0
172 195 0
174 197 0
174 196 0
173 196 0
173 196 0
173 196 0
173 196 0
174 197 0
172 195 0
176 198 0
174 197 0
174 197 0
172 196 0
175 198 0
174 197 0
173 197 0
173 196 0
176 198 0
171 195 0
172 196 0
173 197 0
175 198 0
173 197 0
174 197 0
176 198 0
173 196 0
172 196 0
174 197 0
173 197 0
173 197 0
174 197 0
174 198 0
174 197 0
173 197 0
173 197 0
173 197 0
173 196 0
173 197 0
175 198 0
174 197 0
174 197 0
174 197 0
173 197 0
174 198 0
175 198 0
174 198 0
174 198 0
175 198 0
174 197 0
173 197 0
172 196 0
174 197 0
176 198 0
174 198 0
175 198 0
173 197 0
175 198 0
175 198 0
174 198 0
173 197 0
174 198 0
174 197 0
174 197 0
174 197 0
175 198 0
176 198 0
174 198 0
174 197 0
175 198 0
176 199 0
175 198 0
175 198 0
174 198 0
174 197 0
175 198 0
176 199 0
175 198 0
175 198 0
174 197 0
174 198 0
174 198 0
175 198 0
175 198 0
174 198 0
173 197 0
174 198 0
176 199 0
173 197 0
173 197 0
173 197 0
175 198 0
173 197 0
176 199 0
174 197 0
174 198 0
174 198 0
175 198 0
175 198 0
174 198 0
173 197 0
175 198 0
175 198 0
175 198 0
173 197 0
175 198 0
173 197 0
175 198 0
177 199 0
174 198 0
174 198 0
174 198 0
172 197 0
174 197 0
175 198 0
176 198 0
174 197 0
174 197 0
175 198 0
174 198 0
175 198 0
174 198 0
176 199 0
174 197 0
173 197 0
175 198 0
174 198 0
175 198 0
174 198 0
174 198 0
175 198 0
175 198 0
176 199 0
175 198 0
176 199 0
175 198 0
175 198 0
174 197 0
175 198 0
176 199 0
175 198 0
175 198 0
175 198 0
173 197 0
175 198 0
174 198 0
176 199 0
175 198 0
173 197 0
175 198 0
174 198 0
174 197 0
173 197 0
175 198 0
175 198 0
174 197 0
174 197 0
174 197 0
174 198 0
175 198 0
174 198 0
175 198 0
175 198 0
174 197 0
175 198 0
174 198 0
174 198 0
174 197 0
174 198 0
176 199 0
173 197 0
174 198 0
175 198 0
176 199 0
173 197 0
174 198 0
174 198 0
175 198 0
173 197 0
175 198 0
176 198 0
174 198 0
175 198 0
176 199 0
177 199 0
174 198 0
174 198 0
173 197 0
173 197 0
175 198 0
175 198 0
174 198 0
175 198 0
174 197 0
174 198 0
174 198 0
175 198 0
174 198 0
174 197 0
175 198 0
174 198 0
172 197 0
176 198 0
175 198 0
174 198 0
174 197 0
175 198 0
175 198 0
176 199 0
174 198 0
175 198 0
176 199 0
174 197 0
177 199 0
174 198 0
175 198 0
175 198 0
174 197 0
174 198 0
175 198 0
173 197 0
175 198 0
175 198 0
175 198 0
173 197 0
176 199 0
175 198 0
174 197 0
175 198 0
175 198 0
173 197 0
175 198 0
174 198 0
175 198 0
174 198 0
175 198 0
176 198 0
175 198 0
175 198 0
175 198 0
175 198 0
173 197 0
175 198 0
174 198 0
174 197 0
172 196 0
174 197 0
175 198 0
173 197 0
176 199 0
174 198 0
173 197 0
174 197 0
174 198 0
174 197 0
174 197 0
175 198 0
174 197 0
174 198 0
172 197 0
175 198 0
173 197 0
174 197 0
173 197 0
173 197 0
174 198 0
175 198 0
175 198 0
176 199 0
174 198 0
174 197 0
174 197 0
174 198 0
174 197 0
174 198 0
174 197 0
174 197 0
172 196 0
173 197 0
176 199 0
173 196 0
173 197 0
174 198 0
174 197 0
174 197 0
171 196 0
173 197 0
174 197 0
173 196 0
172 196 0
173 196 0
170 194 0
175 198 0
174 198 0
173 197 0
174 197 0
174 197 0
173 197 0
172 196 0
173 196 0
172 196 0
173 196 0
175 198 0
170 194 0
172 196 0
173 197 0
171 194 0
174 197 0
170 194 0
172 196 0
173 197 0
172 195 0
171 194 0
173 196 44
184 205 114
182 203 122
180 202 95
199 217 181
201 219 191
207 224 209
212 228 227
213 229 228
216 231 240
214 229 226
205 222 203
197 215 169
187 207 133
185 205 111
178 199 84
169 192 51
166 189 25
168 190 0
165 189 0
97 125 136
61 98 161
61 96 154
62 98 167
61 98 168
61 97 165
62 98 166
61 98 171
61 98 171
62 98 172
62 98 166
62 99 174
62 99 176
62 99 171
62 98 163
62 99 172
61 98 173
63 99 168
62 99 175
63 99 169
62 98 168
63 99 169
62 98 169
62 99 171
63 99 166
62 98 157
61 98 166
63 99 172
62 98 165
62 98 160
62 98 162
61 97 156
73 97 134
119 114 0
117 116 0
121 119 0
133 130 0
134 129 0
143 139 0
140 136 0
149 145 0
144 140 0
143 139 0
147 141 0
146 141 0
148 142 0
162 170 0
166 183 0
169 187 0
167 184 0
166 182 0
170 189 0
170 190 0
170 189 0
168 188 0
170 192 0
172 192 0
172 192 0
174 196 0
172 193 0
172 195 0
173 196 0
172 193 0
174 196 0
172 193 0
172 195 0
172 194 0
174 197 0
174 197 0
172 194 0
172 195 0
170 193 0
174 197 0
172 196 0
175 196 0
174 196 0
172 194 0
173 195 0
174 198 0
174 197 0
175 198 0
172 196 0
173 196 0
174 197 0
175 198 0
173 196 0
173 197 0
175 198 0
173 196 0
174 197 0
173 196 0
175 198 0
174 198 0
175 198 0
173 197 0
174 197 0
172 196 0
175 198 0
173 197 0
175 198 0
175 198 0
173 197 0
175 198 0
174 198 0
175 198 0
172 196 0
175 198 0
176 198 0
174 197 0
173 197 0
174 197 0
175 198 0
174 197 0
175 198 0
173 197 0
172 197 0
174 198 0
172 196 0
173 196 0
173 197 0
175 198 0
173 197 0
173 197 0
174 197 0
176 198 0
173 197 0
172 196 0
173 197 0
174 198 0
174 198 0
174 197 0
173 197 0
174 197 0
174 198 0
174 197 0
174 198 0
175 198 0
173 197 0
173 197 0
174 198 0
173 197 0
175 198 0
175 198 0
174 198 0
175 198 0
173 197 0
175 198 0
174 197 0
175 198 0
174 197 0
174 198 0
175 198 0
175 198 0
172 196 0
175 198 0
173 197 0
174 198 0
175 198 0
174 198 0
174 198 0
175 198 0
175 198 0
173 197 0
175 198 0
174 197 0
173 197 0
174 198 0
175 198 0
173 197 0
174 198 0
173 197 0
174 198 0
175 198 0
174 197 0
174 198 0
174 197 0
176 199 0
173 197 0
174 197 0
174 197 0
175 198 0
175 198 0
174 198 0
174 198 0
176 199 0
176 198 0
175 198 0
175 198 0
175 198 0
175 198 0
174 198 0
173 197 0
173 197 0
173 197 0
174 198 0
175 198 0
175 198 0
174 197 0
175 198 0
174 198 0
174 198 0
175 198 0
176 198 0
175 198 0
175 198 0
176 199 0
174 198 0
175 198 0
175 198 0
175 198 0
174 198 0
173 197 0
176 199 0
175 198 0
174 198 0
174 198 0
175 198 0
176 199 0
175 198 0
175 198 0
174 198 0
174 198 0
177 199 0
174 198 0
174 198 0
176 198 0
174 197 0
175 198 0
173 197 0
175 198 0
174 197 0
174 197 0
175 198 0
175 198 0
174 197 0
175 198 0
174 198 0
173 197 0
175 198 0
174 198 0
175 198 0
175 198 0
174 198 0
175 198 0
175 198 0
174 198 0
174 198 0
174 198 0
175 198 0
173 197 0
175 198 0
175 198 0
175 198 0
175 198 0
175 198 0
173 197 0
174 197 0
176 199 0
175 198 0
175 198 0
174 197 0
174 198 0
174 198 0
175 198 0
175 198 0
174 198 0
174 198 0
173 197 0
173 197 0
175 198 0
174 198 0
175 198 0
174 198 0
173 197 0
174 198 0
174 198 0
176 199 0
174 198 0
175 198 0
174 198 0
174 198 0
174 198 0
173 197 0
176 199 0
174 198 0
175 198 0
174 198 0
174 198 0
175 198 0
174 198 0
175 198 0
174 198 0
174 197 0
175 198 0
173 197 0
175 198 0
174 198 0
175 198 0
174 197 0
175 198 0
175 198 0
176 199 0
175 198 0
177 199 0
175 198 0
175 198 0
174 198 0
173 197 0
175 198 0
175 198 0
175 198 0
172 196 0
175 198 0
175 198 0
176 198 0
175 198 0
176 199 0
176 198 0
175 198 0
173 197 0
174 198 0
174 198 0
175 198 0
173 197 0
175 198 0
175 198 0
174 197 0
172 196 0
174 198 0
174 197 0
173 197 0
173 196 0
172 196 0
173 197 0
174 197 0
174 198 0
176 199 0
173 197 0
174 198 0
174 198 0
176 198 0
174 197 0
174 197 0
172 195 0
175 198 0
175 198 0
174 198 0
173 197 0
174 197 0
175 198 0
174 197 0
172 196 0
173 197 0
175 197 0
173 197 0
173 196 0
174 198 0
173 197 0
174 198 0
175 197 0
173 196 0
174 198 0
174 198 0
174 197 0
172 195 0
174 197 0
173 197 0
174 198 0
172 195 0
175 198 0
173 196 0
173 197 0
175 198 0
174 197 0
170 194 0
173 196 0
172 196 0
173 196 0
175 198 76
188 208 128
188 208 133
192 212 151
209 225 214
219 234 250
216 232 248
215 232 252
214 231 252
215 232 255
213 231 253
213 230 250
213 231 252
215 232 250
215 231 248
219 234 252
210 226 217
197 215 177
183 204 114
179 200 102
153 176 70
148 171 82
91 119 134
62 99 166
61 97 151
62 98 166
62 98 160
61 97 163
62 98 168
61 97 161
62 99 173
62 98 168
61 98 164
62 99 169
62 99 173
62 98 172
62 98 165
62 98 165
62 99 173
62 98 166
62 99 172
61 98 159
62 99 168
62 98 162
61 98 162
62 98 163
62 98 163
61 98 161
61 97 162
62 98 159
61 97 158
62 98 160
61 97 156
61 96 150
74 98 127
122 116 0
118 113 0
127 121 0
126 121 0
131 127 0
134 127 0
142 138 0
142 137 0
144 137 0
141 134 0
145 138 0
151 146 0
165 177 0
167 180 0
168 182 0
168 183 0
168 182 0
165 182 0
170 189 0
172 192 0
170 189 0
169 190 0
170 192 0
170 191 0
171 191 0
172 194 0
171 193 0
173 195 0
171 193 0
172 195 0
171 193 0
173 196 0
174 197 0
171 193 0
174 197 0
175 196 0
171 194 0
172 195 0
174 196 0
173 196 0
174 196 0
173 197 0
171 194 0
175 197 0
175 197 0
173 197 0
174 197 0
174 197 0
173 196 0
175 198 0
175 198 0
175 198 0
173 196 0
172 195 0
173 197 0
173 197 0
174 197 0
174 197 0
174 197 0
173 197 0
173 196 0
173 197 0
177 199 0
173 197 0
175 198 0
174 197 0
175 198 0
174 198 0
173 197 0
173 196 0
174 197 0
174 198 0
173 197 0
173 196 0
174 197 0
173 196 0
174 197 0
174 197 0
174 198 0
174 198 0
173 197 0
176 198 0
174 197 0
175 198 0
175 198 0
174 198 0
175 198 0
174 198 0
174 197 0
174 197 0
175 198 0
176 198 0
176 198 0
175 198 0
176 199 0
175 198 0
176 199 0
174 197 0
175 198 0
174 198 0
174 198 0
173 197 0
172 197 0
174 198 0
177 199 0
175 198 0
175 198 0
174 197 0
175 198 0
174 198 0
175 198 0
174 197 0
175 198 0
175 198 0
174 198 0
175 198 0
174 197 0
174 198 0
174 198 0
175 198 0
173 197 0
175 198 0
173 197 0
174 198 0
175 198 0
174 198 0
174 197 0
174 198 0
173 197 0
174 198 0
175 198 0
174 198 0
175 198 0
176 199 0
175 198 0
174 197 0
175 198 0
174 197 0
175 198 0
175 198 0
174 197 0
175 198 0
173 197 0
175 198 0
175 198 0
174 198 0
174 198 0
174 197 0
173 197 0
174 198 0
176 198 0
174 197 0
175 198 0
175 198 0
173 197 0
175 198 0
174 198 0
175 198 0
173 197 0
175 198 0
176 198 0
174 198 0
174 198 0
175 198 0
174 198 0
174 197 0
175 198 0
173 197 0
175 198 0
173 197 0
175 198 0
176 199 0
174 197 0
174 198 0
174 198 0
174 198 0
175 198 0
175 198 0
173 197 0
174 198 0
174 198 0
174 198 0
174 197 0
175 198 0
174 198 0
176 199 0
174 198 0
174 197 0
176 198 0
174 198 0
175 198 0
173 197 0
175 198 0
174 198 0
175 198 0
175 198 0
175 198 0
174 198 0
174 197 0
175 198 0
173 197 0
175 198 0
176 198 0
175 198 0
175 198 0
174 197 0
176 199 0
174 198 0
175 198 0
175 198 0
172 197 0
174 197 0
173 197 0
174 198 0
174 197 0
174 197 0
174 198 0
174 198 0
175 198 0
174 198 0
174 198 0
176 199 0
173 197 0
174 198 0
175 198 0
174 198 0
175 198 0
175 198 0
174 197 0
173 197 0
174 198 0
174 198 0
174 197 0
175 198 0
174 198 0
174 197 0
175 198 0
175 198 0
175 198 0
174 198 0
175 198 0
173 197 0
173 197 0
174 198 0
175 198 0
174 198 0
174 197 0
176 199 0
173 197 0
173 196 0
174 198 0
175 198 0
175 198 0
175 198 0
175 198 0
174 198 0
174 198 0
174 198 0
173 197 0
174 198 0
176 199 0
173 197 0
174 198 0
174 197 0
174 198 0
174 198 0
175 198 0
174 198 0
176 198 0
174 198 0
173 197 0
173 197 0
173 197 0
172 196 0
174 197 0
174 197 0
174 198 0
174 198 0
172 196 0
174 198 0
175 198 0
174 197 0
174 198 0
175 198 0
176 199 0
174 198 0
175 198 0
173 197 0
173 197 0
175 198 0
174 198 0
175 198 0
175 198 0
173 196 0
174 197 0
174 197 0
176 199 0
174 197 0
173 197 0
174 197 0
174 198 0
173 196 0
173 197 0
175 198 0
174 198 0
176 199 0
173 196 0
175 198 0
174 197 0
174 198 0
174 197 0
174 197 0
175 198 0
174 198 0
173 196 0
175 198 0
175 198 0
174 198 0
174 198 0
173 197 0
174 197 0
176 199 0
172 196 0
174 198 0
174 198 0
175 197 0
173 197 0
173 196 0
172 195 0
175 198 0
172 196 0
172 196 0
172 195 0
171 195 0
172 195 0
174 197 0
175 198 0
171 194 0
173 197 0
172 196 0
175 198 0
172 196 0
171 195 0
171 195 25
181 202 99
183 205 114
189 210 142
216 231 236
218 233 252
215 232 252
212 230 253
210 229 250
209 228 244
204 223 227
209 227 238
208 226 230
201 220 209
207 226 237
207 225 228
208 226 237
212 229 246
214 231 252
218 233 250
215 230 230
168 189 164
104 130 168
91 120 136
101 128 136
75 106 138
60 95 156
60 97 158
62 98 166
61 97 157
62 98 162
62 98 164
61 97 164
62 98 171
62 98 164
62 98 164
62 98 162
61 97 162
61 98 167
61 97 160
62 98 160
61 98 166
61 97 158
61 98 163
62 98 163
61 97 161
62 98 162
62 98 157
61 97 159
61 97 156
61 98 164
62 98 159
60 96 155
62 98 156
62 97 147
61 97 149
70 95 127
120 114 0
123 115 0
125 119 0
134 128 0
129 123 0
137 129 0
136 128 0
139 129 0
142 132 0
141 131 0
152 150 0
160 166 0
163 175 0
165 177 0
167 181 0
170 186 0
167 183 0
169 188 0
170 187 0
167 186 0
172 190 0
170 189 0
171 190 0
171 192 0
171 192 0
172 194 0
170 191 0
171 192 0
172 193 0
170 192 0
171 193 0
175 197 0
173 195 0
175 197 0
174 195 0
174 196 0
174 195 0
173 196 0
175 198 0
173 196 0
172 195 0
173 197 0
173 197 0
174 196 0
171 195 0
175 197 0
173 196 0
174 197 0
174 197 0
172 195 0
172 195 0
173 196 0
173 196 0
174 197 0
174 196 0
175 198 0
175 197 0
174 197 0
173 197 0
172 196 0
174 197 0
174 197 0
173 197 0
174 197 0
174 197 0
171 196 0
173 197 0
172 196 0
172 196 0
173 197 0
175 198 0
174 197 0
174 198 0
173 197 0
173 197 0
173 197 0
174 197 0
174 197 0
173 197 0
174 198 0
174 197 0
174 198 0
173 197 0
175 198 0
174 198 0
173 197 0
173 197 0
175 198 0
175 198 0
175 198 0
174 197 0
174 198 0
175 198 0
175 198 0
174 198 0
175 198 0
175 198 0
173 196 0
176 198 0
174 197 0
174 198 0
175 198 0
173 197 0
174 197 0
174 198 0
173 197 0
175 198 0
175 198 0
174 197 0
173 197 0
176 198 0
174 198 0
174 197 0
173 197 0
174 198 0
174 198 0
174 198 0
174 197 0
173 197 0
175 198 0
174 198 0
176 198 0
174 198 0
174 198 0
175 198 0
174 197 0
174 198 0
175 198 0
174 197 0
173 197 0
174 198 0
174 198 0
174 198 0
177 199 0
174 198 0
173 197 0
175 198 0
176 199 0
174 197 0
174 198 0
174 198 0
174 198 0
175 198 0
175 198 0
174 197 0
176 198 0
174 197 0
173 197 0
174 198 0
174 198 0
175 198 0
175 198 0
174 197 0
175 198 0
175 198 0
173 197 0
176 198 0
174 198 0
174 198 0
175 198 0
175 198 0
174 197 0
175 198 0
173 197 0
175 198 0
176 199 0
175 198 0
174 198 0
175 198 0
175 198 0
175 198 0
175 198 0
174 197 0
176 199 0
174 198 0
177 199 0
175 198 0
173 197 0
175 198 0
173 197 0
175 198 0
174 198 0
174 197 0
175 198 0
175 198 0
174 198 0
175 198 0
176 198 0
175 198 0
174 197 0
176 199 0
175 198 0
176 198 0
175 198 0
176 198 0
174 198 0
176 198 0
175 198 0
177 199 0
174 198 0
174 198 0
176 198 0
174 198 0
174 198 0
172 197 0
175 198 0
177 199 0
175 198 0
175 198 0
175 198 0
175 198 0
175 198 0
174 197 0
174 198 0
175 198 0
175 198 0
175 198 0
173 197 0
174 198 0
175 198 0
175 198 0
175 198 0
175 198 0
173 197 0
174 198 0
175 198 0
174 198 0
173 197 0
174 197 0
175 198 0
176 198 0
175 198 0
173 197 0
176 199 0
171 196 0
174 198 0
175 198 0
176 198 0
175 198 0
173 197 0
175 198 0
175 198 0
175 198 0
176 199 0
175 198 0
174 197 0
174 197 0
174 197 0
173 197 0
175 198 0
175 198 0
174 197 0
174 197 0
172 197 0
173 197 0
174 198 0
175 198 0
175 198 0
175 198 0
176 198 0
176 199 0
174 198 0
175 198 0
175 198 0
174 197 0
174 198 0
175 198 0
174 198 0
174 198 0
173 197 0
173 197 0
175 198 0
175 198 0
175 198 0
174 198 0
176 198 0
176 199 0
175 198 0
173 197 0
175 198 0
173 197 0
174 198 0
176 199 0
173 197 0
173 196 0
173 197 0
175 197 0
175 198 0
174 198 0
175 198 0
174 198 0
175 198 0
175 198 0
174 197 0
174 198 0
174 198 0
176 199 0
174 197 0
173 196 0
175 198 0
174 198 0
174 198 0
174 197 0
175 198 0
176 198 0
174 197 0
174 197 0
174 198 0
174 197 0
175 198 0
175 198 0
174 197 0
172 196 0
173 197 0
174 197 0
173 197 0
175 198 0
174 197 0
173 196 0
175 198 0
174 197 0
171 195 0
175 198 0
174 198 0
175 198 0
174 197 0
173 197 0
170 194 0
172 195 0
176 198 0
173 197 0
172 195 0
172 196 0
173 196 0
172 195 0
173 197 0
172 195 0
172 195 0
172 196 0
171 195 0
173 196 0
172 195 0
173 196 44
182 203 105
183 204 105
204 221 194
220 235 254
215 232 252
212 230 253
208 227 241
203 221 217
200 219 191
193 212 163
189 209 155
184 205 122
176 199 88
180 204 111
184 205 130
185 206 142
185 205 147
197 216 175
202 220 207
207 225 231
215 231 248
176 194 223
99 126 184
69 103 162
61 97 162
80 111 141
81 110 141
61 97 161
60 96 158
62 98 161
61 97 158
61 97 160
61 97 161
62 98 166
62 98 160
61 97 162
61 98 164
62 98 165
61 97 159
62 98 162
62 98 159
62 98 161
62 98 160
62 98 156
61 97 161
62 99 165
61 97 158
62 98 160
61 97 155
61 97 156
61 97 152
61 97 159
61 97 154
62 98 155
61 96 155
61 96 145
69 94 125
107 98 0
117 106 0
125 115 0
126 116 0
132 123 0
129 117 0
129 120 0
137 125 0
143 140 0
151 151 0
155 162 0
160 170 0
161 170 0
161 172 0
162 175 0
166 182 0
166 182 0
168 185 0
166 183 0
165 182 0
168 187 0
171 192 0
169 188 0
169 188 0
169 190 0
173 194 0
170 191 0
169 190 0
168 190 0
170 193 0
173 195 0
171 194 0
173 196 0
171 195 0
171 195 0
175 197 0
171 194 0
174 195 0
173 195 0
174 196 0
172 194 0
174 196 0
173 196 0
173 196 0
172 194 0
173 197 0
173 197 0
174 197 0
174 197 0
173 197 0
173 197 0
174 197 0
174 197 0
175 198 0
174 197 0
175 198 0
174 197 0
175 198 0
174 197 0
172 196 0
174 198 0
175 198 0
174 196 0
173 197 0
174 197 0
173 196 0
174 197 0
174 197 0
173 197 0
174 198 0
174 197 0
174 198 0
175 198 0
175 198 0
173 196 0
176 198 0
173 197 0
175 198 0
172 196 0
175 198 0
174 198 0
174 198 0
173 197 0
174 198 0
174 197 0
173 197 0
175 197 0
175 198 0
174 198 0
173 197 0
172 197 0
175 198 0
174 197 0
174 197 0
174 198 0
174 197 0
175 198 0
173 197 0
173 197 0
173 197 0
175 198 0
174 198 0
173 197 0
174 198 0
175 198 0
174 198 0
173 197 0
174 198 0
175 198 0
173 197 0
173 197 0
175 198 0
174 198 0
174 198 0
174 198 0
175 198 0
175 198 0
174 198 0
174 198 0
175 198 0
175 198 0
174 198 0
173 197 0
173 197 0
175 198 0
175 198 0
174 198 0
173 197 0
175 198 0
175 198 0
175 198 0
176 198 0
175 198 0
175 198 0
174 198 0
175 198 0
174 198 0
174 197 0
176 199 0
174 198 0
176 199 0
175 198 0
175 198 0
174 198 0
177 199 0
175 198 0
175 198 0
173 197 0
174 198 0
174 198 0
175 198 0
173 197 0
174 197 0
175 198 0
174 198 0
174 198 0
174 198 0
174 198 0
175 198 0
174 198 0
175 198 0
174 197 0
175 198 0
175 198 0
176 199 0
176 199 0
176 199 0
174 198 0
174 198 0
175 198 0
173 197 0
174 197 0
174 197 0
175 198 0
174 198 0
175 198 0
174 198 0
174 197 0
175 198 0
173 197 0
174 198 0
174 198 0
173 197 0
175 198 0
173 197 0
174 198 0
175 198 0
176 198 0
175 198 0
176 199 0
176 199 0
173 197 0
173 197 0
175 198 0
175 198 0
175 198 0
174 198 0
175 198 0
175 198 0
175 198 0
174 197 0
174 198 0
175 198 0
175 198 0
176 198 0
175 198 0
173 197 0
173 197 0
175 198 0
174 198 0
174 198 0
173 197 0
175 198 0
175 198 0
175 198 0
173 197 0
174 198 0
175 198 0
175 198 0
176 198 0
174 198 0
174 198 0
174 198 0
173 197 0
176 198 0
175 198 0
175 198 0
174 198 0
176 199 0
173 197 0
173 197 0
174 198 0
173 197 0
173 197 0
175 198 0
174 198 0
175 198 0
174 197 0
176 199 0
174 198 0
176 199 0
176 198 0
175 198 0
175 198 0
174 198 0
173 197 0
174 198 0
175 198 0
174 198 0
174 198 0
175 198 0
175 198 0
175 198 0
174 198 0
173 197 0
174 198 0
173 197 0
175 198 0
173 197 0
174 198 0
174 198 0
176 199 0
174 197 0
174 198 0
174 198 0
175 198 0
175 198 0
173 197 0
173 197 0
175 198 0
176 199 0
173 197 0
174 198 0
175 198 0
175 198 0
173 197 0
175 198 0
175 198 0
174 198 0
173 197 0
174 197 0
177 198 0
174 198 0
173 197 0
175 198 0
174 198 0
175 198 0
173 197 0
173 197 0
175 198 0
172 196 0
173 197 0
174 197 0
175 198 0
174 197 0
173 197 0
172 196 0
174 197 0
174 197 0
175 198 0
173 197 0
176 198 0
174 198 0
174 197 0
172 196 0
174 198 0
173 196 0
175 198 0
173 197 0
174 197 0
173 196 0
172 196 0
174 198 0
175 198 0
175 198 0
173 197 0
173 197 0
175 197 0
172 195 0
173 197 0
172 196 0
174 197 0
174 197 0
172 196 0
175 198 0
171 195 0
174 197 0
174 197 0
171 195 0
173 196 0
174 197 0
172 195 0
171 195 0
174 197 0
174 197 0
172 195 0
173 196 0
172 195 0
173 196 0
169 193 0
173 197 0
171 193 44
184 206 120
181 203 102
213 228 228
217 233 252
214 231 254
210 228 240
203 221 203
200 218 184
183 204 108
175 198 84
173 197 72
173 197 57
175 199 76
174 197 57
175 198 62
171 193 67
172 195 57
176 200 72
175 198 95
176 199 84
179 201 92
171 191 182
175 194 223
88 118 184
77 109 177
62 98 172
66 101 164
74 106 156
62 97 154
60 95 154
61 96 159
60 96 161
61 97 158
62 98 161
62 98 163
62 98 163
61 97 162
62 99 166
61 97 159
61 98 162
61 97 160
62 98 157
62 99 168
62 98 161
62 98 163
62 98 157
62 98 161
61 97 156
61 97 153
61 97 155
60 96 151
60 96 147
61 97 153
61 97 150
60 96 144
62 97 152
60 95 137
93 108 102
113 107 0
114 105 0
121 111 0
129 121 0
128 118 0
134 130 0
143 141 0
140 140 0
148 149 0
152 156 0
161 170 0
164 172 0
164 176 0
161 172 0
162 174 0
166 181 0
168 185 0
169 186 0
164 182 0
167 184 0
168 186 0
168 187 0
168 190 0
170 192 0
171 191 0
169 190 0
172 192 0
171 193 0
173 193 0
171 192 0
171 192 0
173 194 0
173 195 0
171 194 0
171 193 0
173 195 0
171 193 0
173 196 0
171 194 0
172 194 0
171 193 0
173 195 0
172 195 0
174 197 0
174 197 0
174 196 0
173 196 0
175 198 0
175 198 0
174 197 0
174 197 0
173 196 0
172 196 0
173 197 0
175 198 0
174 197 0
175 198 0
173 196 0
174 196 0
174 198 0
174 197 0
174 197 0
176 199 0
173 197 0
174 197 0
174 197 0
174 197 0
175 198 0
175 198 0
174 197 0
174 198 0
174 197 0
173 197 0
175 198 0
175 198 0
174 197 0
173 197 0
174 198 0
175 198 0
175 198 0
174 198 0
174 198 0
173 197 0
174 197 0
174 198 0
174 198 0
176 199 0
173 197 0
174 198 0
175 198 0
175 198 0
174 198 0
176 198 0
175 198 0
173 197 0
174 197 0
174 198 0
174 198 0
173 197 0
173 197 0
176 199 0
172 196 0
173 197 0
174 198 0
175 198 0
176 199 0
174 198 0
175 198 0
176 199 0
175 198 0
175 198 0
174 198 0
175 198 0
175 198 0
175 198 0
174 197 0
174 197 0
175 198 0
174 198 0
174 197 0
175 198 0
175 198 0
176 199 0
174 198 0
175 198 0
175 198 0
174 198 0
174 197 0
174 197 0
175 198 0
173 197 0
175 198 0
174 197 0
173 197 0
174 198 0
174 198 0
173 197 0
175 198 0
176 199 0
174 198 0
175 198 0
174 198 0
174 197 0
174 197 0
175 198 0
175 198 0
174 198 0
174 198 0
173 197 0
174 198 0
174 197 0
174 198 0
174 198 0
172 197 0
174 197 0
175 198 0
174 197 0
173 197 0
175 198 0
174 198 0
173 197 0
175 198 0
175 198 0
175 198 0
175 198 0
175 198 0
174 198 0
175 198 0
176 199 0
174 198 0
173 197 0
176 198 0
175 198 0
175 198 0
175 198 0
176 199 0
174 198 0
176 199 0
177 199 0
175 198 0
173 197 0
174 198 0
175 198 0
174 198 0
174 198 0
173 197 0
175 198 0
175 198 0
175 198 0
174 198 0
173 197 0
173 197 0
175 198 0
174 198 0
174 197 0
176 198 0
174 198 0
176 199 0
174 197 0
174 197 0
175 198 0
175 198 0
174 198 0
175 198 0
176 199 0
174 198 0
174 198 0
174 198 0
173 197 0
175 198 0
175 198 0
175 198 0
173 197 0
174 198 0
175 198 0
174 197 0
174 198 0
175 198 0
174 198 0
175 198 0
174 198 0
175 198 0
175 198 0
174 198 0
174 197 0
174 197 0
174 197 0
175 198 0
175 198 0
175 198 0
174 198 0
174 198 0
174 198 0
176 198 0
174 197 0
174 197 0
174 197 0
175 198 0
174 198 0
174 198 0
175 198 0
174 198 0
176 198 0
176 198 0
173 197 0
174 198 0
172 196 0
174 198 0
174 198 0
175 198 0
174 198 0
175 198 0
174 198 0
174 198 0
174 198 0
174 198 0
173 197 0
175 198 0
174 198 0
176 199 0
175 198 0
175 198 0
174 197 0
174 197 0
177 199 0
174 198 0
173 197 0
175 198 0
174 197 0
174 198 0
174 198 0
175 198 0
175 198 0
174 198 0
175 198 0
175 198 0
176 199 0
174 197 0
173 197 0
173 197 0
174 198 0
173 197 0
174 197 0
173 197 0
174 198 0
174 197 0
175 198 0
175 198 0
172 196 0
174 198 0
174 198 0
175 198 0
173 196 0
174 197 0
174 197 0
175 198 0
175 198 0
174 198 0
174 197 0
173 197 0
175 198 0
174 197 0
175 197 0
176 199 0
174 198 0
173 196 0
174 197 0
175 198 0
173 197 0
176 199 0
173 197 0
173 196 0
175 198 0
174 198 0
175 198 0
173 197 0
173 197 0
175 198 0
174 198 0
170 195 0
173 197 0
174 198 0
171 195 0
175 197 0
174 197 0
172 195 0
174 198 0
173 196 0
172 196 0
173 196 0
172 195 0
173 197 0
173 196 0
172 196 0
172 195 0
173 197 0
172 196 0
174 197 0
171 194 0
169 193 0
170 194 36
183 204 102
184 205 105
215 230 231
217 233 252
213 230 250
205 223 215
195 214 171
179 201 92
173 197 62
177 199 67
174 197 36
177 200 76
175 199 72
174 197 72
173 196 80
172 196 62
170 194 62
174 198 57
174 197 88
174 198 76
171 195 80
172 194 72
142 166 125
112 139 156
90 119 168
68 103 178
71 105 177
61 98 163
63 98 156
71 104 148
59 94 148
59 95 158
61 97 163
60 96 155
62 98 164
61 98 164
61 97 155
61 97 159
61 97 158
61 96 153
61 97 159
62 97 156
62 98 158
61 97 161
62 98 159
62 99 166
63 99 163
62 97 150
62 97 155
62 98 158
61 97 155
61 97 154
61 96 144
61 97 151
61 97 152
61 96 144
61 97 153
59 93 136
95 105 81
124 124 0
120 120 0
131 130 0
132 132 0
133 131 0
137 137 0
146 147 0
143 146 0
147 153 0
150 154 0
161 169 0
157 169 0
155 166 0
162 176 0
165 178 0
166 182 0
164 178 0
166 183 0
169 184 0
165 181 0
165 182 0
169 189 0
170 189 0
170 190 0
169 192 0
171 192 0
171 190 0
169 190 0
170 193 0
171 193 0
172 194 0
172 195 0
172 195 0
172 194 0
172 195 0
173 195 0
174 196 0
172 195 0
172 195 0
173 196 0
173 194 0
170 193 0
172 195 0
175 197 0
172 194 0
175 196 0
172 196 0
174 197 0
173 196 0
172 195 0
173 196 0
174 197 0
172 195 0
173 195 0
175 198 0
173 196 0
174 197 0
173 197 0
175 198 0
174 197 0
174 198 0
173 197 0
174 198 0
173 197 0
175 198 0
173 197 0
172 196 0
174 197 0
175 198 0
173 197 0
173 196 0
174 198 0
174 197 0
174 197 0
175 198 0
175 198 0
173 197 0
173 197 0
175 198 0
175 198 0
173 196 0
173 197 0
176 198 0
174 197 0
175 198 0
174 198 0
176 198 0
174 198 0
174 198 0
172 196 0
174 197 0
175 198 0
174 198 0
175 198 0
175 198 0
173 196 0
174 197 0
175 198 0
174 198 0
175 198 0
172 197 0
174 198 0
174 197 0
175 198 0
172 196 0
174 197 0
175 198 0
174 198 0
175 198 0
176 199 0
175 198 0
174 197 0
175 198 0
174 197 0
176 199 0
175 198 0
174 197 0
173 197 0
174 197 0
174 198 0
177 199 0
174 197 0
174 198 0
173 197 0
175 198 0
175 198 0
174 198 0
176 198 0
175 198 0
175 198 0
175 198 0
174 198 0
174 197 0
174 198 0
174 197 0
175 198 0
173 197 0
173 197 0
174 198 0
174 198 0
174 198 0
175 198 0
176 199 0
176 199 0
176 199 0
174 198 0
176 199 0
174 198 0
174 198 0
174 197 0
173 197 0
174 197 0
173 197 0
175 198 0
175 198 0
174 198 0
175 198 0
176 198 0
173 197 0
174 198 0
175 198 0
176 199 0
174 198 0
174 198 0
174 198 0
175 198 0
175 198 0
174 198 0
174 198 0
173 197 0
174 197 0
176 198 0
175 198 0
174 198 0
173 197 0
175 198 0
173 197 0
175 198 0
174 198 0
174 198 0
175 198 0
175 198 0
176 198 0
174 198 0
174 198 0
174 198 0
174 198 0
174 198 0
173 197 0
174 198 0
175 198 0
175 198 0
174 198 0
175 198 0
175 198 0
173 197 0
174 198 0
175 198 0
176 199 0
174 197 0
174 198 0
174 197 0
173 197 0
174 198 0
175 198 0
174 198 0
176 199 0
175 198 0
174 197 0
174 198 0
176 199 0
174 198 0
175 198 0
176 199 0
174 197 0
176 198 0
174 198 0
173 197 0
175 198 0
176 199 0
174 198 0
176 199 0
175 198 0
177 199 0
173 197 0
176 198 0
174 197 0
177 199 0
174 198 0
174 198 0
175 198 0
174 198 0
174 198 0
175 198 0
176 199 0
174 197 0
174 198 0
174 198 0
174 198 0
174 198 0
175 198 0
174 198 0
174 198 0
174 197 0
175 198 0
175 198 0
174 197 0
176 198 0
175 198 0
176 199 0
174 198 0
173 197 0
175 198 0
174 197 0
174 198 0
172 196 0
174 198 0
174 197 0
175 198 0
174 198 0
175 198 0
173 197 0
174 198 0
174 198 0
174 198 0
175 198 0
175 198 0
174 198 0
174 197 0
175 198 0
175 198 0
175 198 0
174 197 0
174 197 0
173 197 0
175 198 0
174 198 0
174 198 0
173 197 0
174 198 0
173 197 0
174 198 0
175 198 0
174 197 0
174 198 0
175 198 0
174 197 0
174 198 0
175 198 0
175 198 0
172 196 0
176 199 0
173 196 0
174 198 0
174 198 0
174 198 0
174 197 0
173 196 0
172 196 0
175 198 0
172 195 0
176 199 0
174 198 0
175 198 0
175 198 0
172 196 0
174 198 0
175 198 0
173 197 0
173 197 0
174 198 0
175 198 0
174 198 0
173 197 0
174 197 0
173 197 0
176 198 0
173 197 0
175 198 0
175 198 0
173 197 0
175 198 0
173 196 0
172 196 0
174 197 0
173 196 0
174 197 0
173 196 0
173 196 0
175 198 0
176 198 0
171 195 0
171 195 0
170 194 0
172 196 0
171 195 0
173 197 0
174 197 0
170 194 0
172 195 0
180 201 84
182 204 99
216 230 231
218 233 250
211 228 242
198 216 188
184 205 111
173 197 92
172 196 72
172 196 88
174 196 67
175 199 76
175 198 80
174 198 80
171 194 76
175 198 67
169 192 80
170 194 80
174 198 80
176 198 84
172 195 62
171 194 80
171 195 80
165 189 97
97 124 142
113 138 149
99 127 149
83 114 180
62 99 170
62 98 163
62 98 160
64 98 153
62 97 144
59 95 147
61 97 154
61 98 162
60 96 149
60 96 151
61 97 154
62 98 156
61 97 153
60 96 156
62 97 154
61 97 152
61 96 150
61 97 154
63 99 165
61 97 150
61 97 155
62 98 159
62 98 159
62 98 158
61 97 152
62 98 157
60 96 148
60 95 145
60 95 140
60 95 131
60 95 143
109 118 65
129 134 0
128 131 0
118 120 0
136 139 0
139 142 0
142 145 0
143 147 0
160 170 0
149 155 0
151 158 0
159 171 0
153 159 0
163 176 0
162 176 0
160 175 0
161 174 0
160 174 0
165 181 0
170 186 0
165 181 0
169 189 0
169 189 0
170 191 0
168 190 0
170 191 0
170 191 0
170 191 0
172 192 0
174 196 0
171 193 0
172 193 0
171 194 0
170 192 0
173 193 0
174 195 0
173 195 0
172 194 0
172 195 0
172 196 0
172 194 0
174 196 0
174 197 0
173 197 0
171 194 0
173 196 0
171 195 0
174 197 0
171 195 0
171 193 0
174 197 0
172 195 0
174 197 0
174 197 0
173 196 0
173 196 0
173 197 0
175 197 0
174 197 0
173 197 0
173 197 0
172 196 0
174 197 0
172 195 0
173 197 0
175 198 0
174 198 0
173 196 0
174 198 0
172 196 0
173 197 0
175 198 0
174 197 0
173 197 0
175 198 0
173 197 0
173 197 0
173 197 0
174 197 0
173 197 0
174 197 0
175 198 0
175 198 0
175 198 0
174 197 0
173 197 0
175 198 0
175 198 0
174 198 0
176 198 0
172 197 0
174 198 0
174 197 0
175 198 0
173 196 0
175 198 0
175 198 0
174 197 0
174 197 0
174 198 0
174 198 0
175 198 0
174 197 0
175 198 0
176 198 0
174 197 0
174 197 0
172 197 0
175 198 0
175 198 0
174 198 0
174 198 0
175 198 0
175 198 0
174 197 0
175 198 0
175 198 0
173 197 0
176 199 0
174 198 0
175 198 0
175 198 0
174 197 0
173 197 0
174 197 0
175 198 0
173 197 0
173 197 0
175 198 0
175 198 0
175 198 0
174 198 0
174 198 0
174 197 0
174 198 0
173 197 0
175 198 0
175 198 0
175 198 0
175 198 0
174 198 0
175 198 0
175 198 0
175 198 0
174 197 0
175 198 0
173 197 0
175 198 0
174 198 0
175 198 0
174 198 0
176 199 0
176 198 0
176 198 0
174 198 0
174 198 0
173 197 0
174 198 0
174 197 0
175 198 0
173 197 0
176 198 0
176 199 0
173 197 0
173 197 0
174 198 0
174 198 0
174 197 0
174 198 0
174 197 0
175 198 0
176 198 0
175 198 0
176 198 0
174 198 0
173 197 0
175 198 0
174 198 0
175 198 0
174 197 0
173 197 0
175 198 0
173 197 0
175 198 0
174 198 0
174 197 0
175 198 0
173 197 0
174 198 0
175 198 0
175 198 0
174 198 0
175 198 0
175 198 0
175 198 0
175 198 0
176 199 0
173 197 0
174 198 0
176 198 0
176 199 0
175 198 0
175 198 0
176 198 0
175 198 0
176 198 0
175 198 0
175 198 0
175 198 0
176 199 0
175 198 0
174 198 0
175 198 0
175 198 0
173 197 0
175 198 0
173 197 0
175 198 0
174 198 0
176 199 0
175 198 0
176 199 0
173 197 0
174 198 0
174 198 0
174 198 0
174 198 0
175 198 0
175 198 0
175 198 0
174 198 0
176 199 0
174 198 0
174 197 0
174 198 0
175 198 0
176 199 0
174 197 0
175 198 0
173 197 0
175 198 0
174 197 0
175 198 0
175 198 0
176 199 0
175 198 0
173 197 0
175 198 0
174 198 0
174 198 0
175 198 0
175 198 0
173 197 0
175 198 0
175 198 0
174 198 0
175 198 0
173 197 0
175 198 0
174 198 0
175 198 0
173 197 0
174 198 0
176 199 0
175 198 0
174 198 0
173 197 0
174 197 0
176 198 0
176 199 0
175 198 0
173 197 0
174 197 0
172 197 0
173 197 0
174 198 0
174 197 0
174 198 0
173 197 0
174 197 0
174 198 0
174 198 0
174 197 0
175 198 0
174 197 0
173 196 0
175 198 0
171 196 0
174 198 0
173 197 0
176 198 0
175 198 0
173 197 0
174 197 0
172 196 0
174 198 0
174 198 0
174 197 0
174 197 0
175 198 0
176 199 0
174 198 0
174 197 0
174 197 0
175 198 0
174 198 0
173 197 0
173 197 0
173 196 0
174 197 0
174 198 0
173 197 0
175 198 0
173 196 0
173 196 0
173 197 0
174 198 0
173 197 0
173 197 0
173 197 0
175 198 0
174 197 0
174 197 0
173 197 0
173 196 0
174 197 0
174 197 0
173 197 0
172 195 0
173 196 0
174 197 0
173 196 0
171 195 0
172 196 0
174 197 0
173 195 0
174 196 0
172 196 0
174 197 0
171 196 0
179 201 80
182 204 95
207 223 206
218 233 249
210 228 237
191 210 165
177 200 92
176 199 72
170 195 76
175 199 88
172 195 51
176 199 57
171 195 57
172 197 80
171 195 57
171 195 72
168 192 88
171 196 67
173 197 67
170 194 72
170 194 76
168 191 72
169 192 80
170 193 62
170 193 88
121 146 122
103 129 140
100 127 138
110 135 157
82 112 175
61 97 158
59 95 155
61 96 150
61 95 142
59 94 137
60 96 150
60 96 153
59 94 147
61 97 160
60 96 155
60 95 141
62 97 153
62 98 152
62 97 148
61 97 151
62 97 151
62 98 155
62 98 156
62 97 154
62 98 158
61 96 152
61 96 142
62 97 156
60 96 145
61 97 150
61 97 156
62 98 156
60 94 131
60 95 140
66 95 118
128 134 25
134 141 0
137 142 0
132 138 0
134 141 0
140 145 0
138 146 0
139 146 0
153 162 0
152 161 0
158 165 0
151 162 0
157 169 0
161 173 0
159 170 0
160 176 0
163 177 0
162 180 0
165 182 0
163 180 0
167 185 0
167 186 0
168 186 0
168 188 0
164 183 0
170 192 0
170 188 0
170 191 0
170 192 0
172 194 0
170 192 0
171 192 0
168 190 0
171 192 0
172 195 0
173 196 0
171 194 0
173 196 0
173 194 0
169 193 0
171 193 0
173 196 0
174 197 0
172 195 0
174 197 0
171 195 0
169 192 0
172 196 0
176 198 0
173 196 0
172 195 0
173 197 0
173 196 0
175 198 0
174 196 0
173 196 0
173 197 0
172 195 0
175 198 0
173 196 0
174 197 0
174 197 0
173 196 0
175 198 0
175 198 0
175 197 0
174 197 0
173 196 0
174 197 0
174 198 0
173 197 0
173 196 0
175 198 0
174 197 0
174 197 0
175 198 0
174 197 0
174 197 0
174 197 0
175 198 0
174 197 0
172 196 0
174 198 0
173 197 0
173 197 0
173 197 0
175 198 0
175 198 0
176 198 0
174 197 0
173 196 0
174 197 0
174 198 0
175 198 0
174 198 0
175 198 0
175 198 0
174 198 0
173 197 0
177 199 0
175 198 0
174 197 0
172 196 0
174 197 0
175 198 0
174 197 0
173 197 0
174 198 0
175 198 0
175 198 0
174 197 0
175 198 0
175 198 0
173 197 0
174 198 0
175 198 0
174 197 0
175 198 0
175 198 0
173 197 0
175 198 0
175 198 0
175 198 0
175 198 0
176 199 0
175 198 0
174 198 0
175 198 0
175 198 0
174 198 0
176 199 0
176 199 0
175 198 0
176 198 0
173 197 0
174 197 0
174 198 0
174 197 0
174 198 0
174 197 0
175 198 0
174 198 0
172 197 0
174 197 0
173 196 0
174 197 0
174 197 0
173 197 0
175 198 0
176 199 0
176 199 0
175 198 0
176 199 0
173 197 0
175 198 0
176 198 0
174 198 0
175 198 0
174 198 0
175 198 0
174 197 0
175 198 0
174 198 0
173 197 0
174 198 0
175 198 0
174 198 0
173 197 0
174 198 0
173 197 0
174 198 0
174 198 0
176 198 0
175 198 0
174 198 0
176 199 0
175 198 0
174 197 0
174 197 0
175 198 0
176 199 0
175 198 0
174 197 0
174 198 0
174 198 0
174 198 0
175 198 0
176 199 0
175 198 0
174 198 0
175 198 0
176 198 0
177 199 0
174 198 0
174 198 0
174 197 0
174 198 0
173 197 0
174 197 0
175 198 0
175 198 0
174 198 0
174 197 0
174 198 0
174 198 0
174 198 0
175 198 0
174 198 0
175 198 0
176 199 0
174 197 0
175 198 0
174 198 0
175 198 0
173 197 0
174 197 0
175 198 0
175 198 0
174 198 0
173 197 0
176 199 0
173 197 0
175 198 0
174 197 0
173 197 0
175 198 0
174 198 0
174 198 0
174 198 0
172 197 0
175 198 0
175 198 0
175 198 0
173 197 0
174 198 0
174 198 0
175 198 0
174 198 0
175 198 0
175 198 0
175 198 0
174 197 0
174 197 0
175 198 0
174 198 0
175 198 0
174 197 0
175 198 0
174 198 0
174 198 0
174 197 0
175 198 0
175 198 0
177 199 0
175 198 0
175 198 0
175 198 0
172 196 0
174 198 0
174 198 0
176 198 0
174 197 0
173 197 0
177 199 0
173 197 0
174 197 0
174 198 0
175 198 0
173 197 0
174 198 0
175 198 0
175 198 0
174 197 0
174 198 0
174 198 0
175 198 0
176 199 0
173 197 0
173 197 0
176 199 0
174 198 0
173 197 0
174 198 0
173 196 0
173 196 0
175 198 0
175 198 0
174 198 0
173 197 0
175 198 0
173 197 0
175 198 0
174 197 0
174 197 0
173 197 0
174 197 0
175 198 0
175 198 0
175 198 0
174 197 0
173 197 0
175 198 0
173 197 0
174 197 0
174 198 0
174 198 0
174 197 0
175 198 0
173 197 0
176 198 0
174 198 0
173 197 0
172 196 0
174 198 0
170 194 0
172 195 0
174 197 0
175 198 0
174 197 0
174 198 0
174 197 0
175 198 0
175 198 0
173 197 0
170 193 0
174 197 0
175 198 0
173 197 0
174 197 0
170 195 0
174 197 0
174 198 0
172 196 0
174 198 0
172 195 0
173 197 0
171 195 0
169 192 0
176 198 0
172 195 36
182 204 108
188 208 120
219 233 246
214 230 244
189 210 149
175 199 72
173 197 67
173 197 62
173 196 76
175 199 72
173 196 62
173 197 80
172 196 57
168 193 51
170 195 51
171 194 51
165 189 57
171 195 67
168 193 67
171 196 88
165 189 67
172 194 51
166 189 51
169 192 88
167 190 76
156 179 115
107 132 151
101 127 144
93 122 148
86 115 160
68 102 162
60 96 150
60 96 154
65 99 142
59 94 145
57 92 132
60 96 150
60 95 142
60 96 151
61 97 155
61 97 152
61 96 147
61 97 153
61 96 143
61 96 149
61 96 150
61 96 147
62 97 154
62 98 160
60 96 147
62 98 152
62 97 147
60 95 139
61 96 149
61 97 148
61 97 143
61 96 143
60 95 135
59 93 134
97 117 100
136 144 0
129 138 0
140 147 0
136 145 0
137 147 0
145 155 0
145 153 0
155 165 0
150 162 0
153 166 0
154 167 0
147 157 0
155 168 0
165 178 0
159 174 0
157 173 0
164 181 0
165 181 0
164 181 0
163 181 0
165 183 0
164 185 0
170 190 0
169 190 0
171 192 0
167 188 0
167 190 0
170 191 0
168 188 0
169 190 0
174 195 0
170 192 0
171 194 0
172 195 0
172 195 0
173 195 0
169 191 0
172 194 0
170 194 0
172 194 0
172 195 0
173 195 0
174 196 0
173 195 0
170 193 0
173 196 0
172 196 0
172 195 0
174 197 0
173 196 0
172 195 0
171 195 0
173 196 0
172 196 0
171 194 0
175 197 0
172 196 0
174 197 0
174 197 0
172 195 0
171 195 0
174 198 0
172 196 0
174 197 0
174 197 0
175 198 0
173 196 0
172 196 0
174 197 0
173 196 0
177 199 0
173 196 0
173 197 0
174 197 0
173 197 0
174 197 0
174 197 0
174 197 0
174 197 0
175 198 0
174 197 0
172 197 0
175 197 0
173 197 0
175 198 0
173 196 0
175 198 0
173 197 0
173 197 0
174 198 0
174 198 0
175 198 0
175 198 0
176 198 0
175 198 0
173 196 0
175 198 0
173 197 0
172 196 0
174 197 0
174 198 0
176 198 0
173 197 0
174 197 0
174 197 0
173 197 0
173 196 0
175 198 0
174 197 0
175 198 0
175 198 0
174 197 0
174 198 0
176 199 0
174 198 0
173 197 0
174 198 0
175 198 0
174 198 0
175 198 0
173 197 0
174 197 0
173 197 0
174 198 0
173 197 0
175 198 0
173 197 0
174 198 0
174 198 0
176 198 0
174 198 0
173 197 0
173 197 0
173 197 0
175 198 0
175 198 0
174 198 0
176 198 0
173 197 0
175 198 0
174 198 0
176 198 0
174 197 0
175 198 0
175 198 0
174 198 0
177 199 0
174 198 0
174 197 0
174 198 0
175 198 0
176 198 0
174 197 0
175 198 0
175 198 0
173 197 0
175 198 0
175 198 0
174 198 0
174 198 0
173 197 0
175 198 0
174 197 0
176 199 0
174 197 0
174 198 0
175 198 0
177 199 0
175 198 0
175 198 0
175 198 0
175 198 0
175 198 0
174 198 0
176 198 0
175 198 0
174 198 0
176 199 0
175 198 0
174 198 0
176 198 0
175 198 0
174 198 0
176 198 0
174 197 0
174 198 0
175 198 0
175 198 0
173 197 0
174 198 0
175 198 0
176 198 0
174 198 0
174 197 0
174 198 0
174 198 0
174 197 0
173 197 0
175 198 0
173 197 0
175 198 0
173 197 0
175 198 0
175 198 0
174 198 0
175 198 0
174 198 0
175 198 0
173 197 0
174 197 0
174 197 0
175 198 0
176 198 0
175 198 0
177 199 0
175 198 0
174 197 0
175 198 0
175 198 0
173 197 0
175 198 0
175 198 0
175 198 0
175 198 0
175 198 0
173 197 0
173 197 0
174 197 0
174 198 0
175 198 0
176 198 0
174 198 0
175 198 0
175 198 0
175 198 0
173 197 0
175 198 0
173 197 0
176 198 0
174 198 0
177 199 0
174 197 0
176 199 0
175 198 0
174 198 0
174 197 0
175 198 0
174 197 0
175 198 0
173 197 0
175 198 0
175 198 0
174 198 0
175 198 0
175 198 0
174 198 0
175 198 0
174 197 0
175 198 0
174 197 0
173 197 0
174 198 0
174 197 0
174 197 0
174 198 0
175 198 0
175 198 0
174 198 0
174 197 0
174 198 0
173 197 0
175 198 0
173 197 0
175 198 0
174 197 0
175 198 0
175 198 0
174 198 0
175 198 0
174 197 0
173 197 0
174 198 0
173 197 0
174 198 0
174 197 0
174 198 0
175 198 0
176 199 0
173 197 0
175 198 0
175 198 0
175 198 0
175 198 0
176 198 0
174 197 0
172 196 0
174 197 0
175 198 0
172 196 0
173 197 0
175 198 0
175 198 0
174 197 0
175 198 0
176 198 0
175 197 0
174 197 0
174 197 0
176 198 0
174 197 0
174 198 0
175 198 0
177 199 0
173 197 0
175 198 0
172 196 0
174 197 0
172 196 0
174 197 0
175 198 0
173 196 0
172 196 0
174 196 0
172 196 0
172 196 0
172 195 0
173 196 0
175 198 0
173 197 0
172 195 0
173 197 0
173 196 0
172 195 0
172 196 0
173 196 0
172 196 0
172 196 0
170 194 0
173 196 0
179 201 80
179 201 76
211 227 217
217 233 249
198 216 182
174 197 44
174 198 67
174 198 72
174 197 72
173 197 67
171 195 44
172 196 72
172 196 88
174 197 76
172 196 62
171 196 88
169 193 62
172 197 88
166 189 57
168 191 76
167 191 57
169 192 72
169 193 80
165 188 72
166 188 67
167 189 80
159 181 80
112 138 133
89 117 149
101 127 143
95 122 139
91 119 161
64 99 162
60 95 152
59 94 147
61 94 129
61 96 151
59 94 140
59 95 141
62 97 145
60 95 146
60 95 148
59 94 144
60 95 142
61 96 147
60 96 142
61 96 151
61 96 150
61 97 149
61 96 148
61 96 148
61 96 144
62 97 153
61 96 143
60 95 134
61 96 142
60 95 137
60 95 136
59 93 128
60 92 114
112 123 36
131 139 0
141 152 0
140 152 0
144 154 0
136 146 0
143 154 0
147 160 0
150 160 0
147 160 0
155 169 0
154 166 0
159 172 0
166 179 0
159 174 0
159 174 0
163 180 0
164 180 0
164 181 0
166 186 0
165 185 0
166 184 0
169 190 0
170 190 0
168 187 0
166 187 0
165 184 0
169 190 0
171 191 0
168 189 0
167 188 0
171 192 0
170 192 0
168 190 0
173 195 0
172 194 0
171 194 0
170 192 0
172 195 0
170 193 0
173 195 0
169 191 0
173 195 0
172 194 0
171 193 0
173 196 0
171 194 0
173 196 0
172 196 0
171 195 0
172 196 0
173 196 0
173 196 0
174 197 0
174 197 0
175 197 0
174 197 0
175 198 0
173 196 0
173 196 0
173 196 0
174 197 0
173 197 0
173 197 0
174 197 0
174 197 0
173 197 0
174 197 0
174 197 0
174 197 0
174 197 0
175 198 0
174 198 0
174 197 0
174 198 0
175 198 0
173 197 0
175 198 0
174 197 0
175 197 0
173 197 0
174 198 0
175 197 0
173 196 0
173 197 0
174 197 0
176 198 0
173 197 0
174 197 0
173 197 0
174 197 0
174 198 0
173 197 0
172 196 0
175 198 0
174 197 0
175 198 0
174 197 0
173 197 0
175 198 0
174 197 0
173 196 0
174 197 0
174 197 0
175 198 0
174 197 0
176 198 0
175 198 0
175 198 0
174 198 0
175 198 0
174 197 0
175 198 0
174 197 0
173 197 0
175 198 0
174 197 0
174 198 0
173 197 0
175 198 0
174 198 0
174 198 0
175 198 0
174 197 0
173 197 0
176 199 0
173 197 0
176 198 0
176 198 0
175 198 0
175 198 0
174 198 0
174 198 0
174 197 0
174 198 0
175 198 0
173 197 0
175 198 0
174 198 0
174 198 0
175 198 0
174 198 0
173 197 0
175 198 0
174 197 0
175 198 0
174 197 0
173 196 0
174 198 0
175 198 0
175 198 0
173 197 0
173 197 0
174 198 0
174 198 0
174 198 0
175 198 0
175 198 0
175 198 0
174 198 0
175 198 0
176 198 0
173 197 0
177 199 0
174 198 0
175 198 0
174 198 0
175 198 0
175 198 0
174 197 0
176 199 0
174 197 0
175 198 0
175 198 0
174 198 0
174 198 0
175 198 0
176 198 0
174 197 0
175 198 0
172 197 0
175 198 0
174 198 0
174 198 0
175 198 0
174 198 0
176 198 0
174 198 0
174 198 0
174 198 0
175 198 0
175 198 0
174 197 0
175 198 0
175 198 0
174 198 0
174 197 0
174 197 0
175 198 0
176 199 0
174 198 0
173 197 0
174 198 0
172 197 0
176 199 0
174 198 0
173 197 0
176 198 0
175 198 0
176 199 0
174 198 0
174 197 0
173 197 0
175 198 0
174 197 0
174 198 0
174 198 0
175 198 0
174 198 0
175 198 0
173 197 0
173 197 0
174 197 0
176 199 0
176 199 0
175 198 0
174 198 0
174 197 0
174 198 0
175 198 0
174 197 0
174 197 0
175 198 0
174 197 0
172 196 0
173 197 0
174 197 0
175 198 0
175 198 0
174 198 0
174 197 0
174 197 0
174 198 0
175 198 0
175 198 0
174 198 0
175 198 0
174 198 0
174 197 0
175 198 0
174 197 0
175 198 0
175 198 0
174 198 0
175 198 0
174 198 0
174 198 0
174 198 0
175 198 0
174 197 0
173 197 0
174 198 0
176 199 0
174 197 0
175 198 0
175 198 0
173 197 0
173 197 0
174 197 0
176 198 0
174 197 0
173 197 0
175 197 0
174 198 0
174 198 0
176 199 0
174 197 0
173 197 0
174 198 0
173 197 0
173 197 0
174 197 0
174 198 0
176 199 0
175 198 0
174 198 0
174 198 0
174 198 0
175 198 0
173 197 0
173 197 0
174 198 0
175 198 0
174 197 0
173 196 0
174 197 0
175 198 0
175 198 0
175 198 0
173 197 0
173 197 0
176 198 0
175 198 0
176 199 0
176 198 0
172 196 0
174 197 0
174 197 0
173 196 0
174 197 0
175 198 0
173 197 0
173 197 0
174 198 0
175 198 0
172 196 0
175 198 0
175 198 0
173 197 0
173 197 0
173 197 0
174 198 0
174 198 0
173 197 0
171 194 0
175 198 0
173 196 0
173 196 0
173 197 0
171 195 0
173 197 0
171 195 0
173 197 0
173 196 0
171 195 0
171 195 0
174 197 0
173 196 0
172 196 0
172 196 0
183 204 111
188 208 130
222 236 253
208 225 221
175 198 72
172 196 57
174 197 62
173 197 67
174 197 92
167 192 67
169 193 67
169 193 51
170 195 84
167 191 51
167 192 51
167 191 72
164 188 62
168 191 72
167 191 76
165 189 67
163 188 72
168 191 67
166 188 67
165 188 67
163 187 76
163 187 88
160 183 72
140 162 97
92 118 131
95 121 148
85 112 129
85 114 151
64 98 149
61 96 152
62 96 143
64 98 136
61 95 142
59 94 131
60 94 139
61 96 149
60 95 140
59 95 147
60 95 140
61 96 149
60 95 141
60 96 145
59 95 139
60 95 139
60 95 145
60 95 143
60 95 137
61 96 143
61 96 141
60 94 130
61 96 145
60 95 145
60 94 131
60 94 128
60 95 129
96 114 76
130 144 0
129 141 0
137 150 0
132 143 0
130 143 0
141 155 0
141 154 0
146 158 0
151 166 0
151 165 0
154 170 0
153 169 0
158 174 0
159 175 0
156 171 0
157 173 0
158 177 0
162 180 0
168 188 0
161 179 0
166 185 0
166 186 0
166 186 0
168 186 0
165 183 0
169 189 0
169 190 0
169 190 0
168 189 0
172 194 0
168 191 0
169 190 0
171 193 0
170 193 0
171 193 0
173 196 0
171 193 0
172 195 0
172 195 0
173 194 0
172 195 0
170 192 0
172 194 0
172 193 0
172 195 0
174 197 0
175 198 0
172 195 0
170 192 0
174 198 0
174 196 0
171 194 0
171 195 0
173 196 0
175 198 0
175 198 0
172 195 0
174 197 0
174 197 0
172 195 0
173 196 0
173 196 0
173 197 0
170 194 0
173 197 0
174 196 0
173 197 0
174 197 0
172 195 0
173 197 0
173 197 0
173 197 0
173 197 0
173 196 0
174 197 0
175 198 0
175 198 0
173 197 0
175 198 0
172 196 0
174 197 0
174 197 0
176 199 0
173 197 0
175 198 0
175 198 0
175 198 0
174 197 0
175 198 0
175 198 0
173 197 0
175 198 0
174 198 0
173 196 0
174 198 0
173 197 0
174 197 0
175 198 0
174 197 0
174 197 0
174 197 0
173 197 0
174 198 0
173 197 0
174 197 0
177 199 0
175 198 0
174 197 0
174 198 0
174 198 0
174 198 0
175 198 0
173 197 0
174 197 0
173 197 0
175 198 0
174 197 0
175 198 0
175 198 0
173 197 0
174 198 0
175 198 0
173 197 0
176 198 0
174 197 0
174 197 0
173 197 0
175 198 0
173 197 0
174 198 0
174 197 0
174 197 0
173 197 0
175 198 0
176 198 0
174 198 0
175 198 0
174 198 0
176 199 0
174 198 0
176 198 0
174 197 0
173 197 0
175 198 0
172 196 0
174 197 0
174 198 0
173 197 0
174 198 0
176 198 0
175 198 0
174 198 0
174 198 0
173 197 0
176 199 0
175 198 0
175 198 0
174 198 0
175 198 0
173 197 0
174 197 0
174 198 0
174 198 0
175 198 0
173 197 0
174 198 0
175 198 0
175 198 0
175 198 0
175 198 0
176 198 0
174 198 0
176 198 0
174 198 0
175 198 0
175 198 0
174 198 0
175 198 0
175 198 0
175 198 0
175 198 0
174 198 0
173 197 0
174 197 0
175 198 0
174 197 0
173 197 0
175 198 0
174 198 0
175 198 0
172 197 0
173 197 0
175 198 0
174 198 0
174 198 0
174 197 0
176 198 0
174 198 0
174 197 0
174 198 0
176 199 0
173 197 0
175 198 0
173 197 0
174 197 0
173 197 0
174 197 0
175 198 0
175 198 0
172 196 0
174 198 0
177 199 0
175 198 0
176 198 0
175 198 0
174 197 0
175 198 0
175 198 0
176 198 0
175 198 0
174 197 0
175 198 0
173 197 0
174 198 0
175 198 0
174 198 0
174 197 0
175 198 0
175 198 0
173 197 0
174 198 0
174 198 0
175 198 0
175 198 0
173 197 0
174 198 0
176 199 0
174 198 0
173 197 0
174 197 0
174 198 0
175 198 0
174 198 0
175 198 0
173 197 0
174 198 0
174 198 0
175 198 0
173 197 0
177 199 0
175 198 0
175 198 0
173 197 0
173 197 0
175 198 0
175 198 0
175 198 0
174 198 0
175 198 0
174 197 0
175 198 0
175 198 0
173 197 0
177 199 0
174 198 0
174 198 0
174 198 0
174 197 0
174 198 0
173 197 0
174 198 0
174 197 0
173 197 0
173 197 0
175 198 0
175 198 0
175 198 0
174 198 0
175 197 0
174 198 0
175 198 0
174 197 0
173 197 0
173 197 0
173 197 0
175 198 0
176 198 0
172 196 0
175 198 0
173 197 0
174 197 0
174 197 0
172 196 0
174 198 0
175 198 0
175 198 0
174 198 0
174 197 0
175 198 0
173 196 0
174 197 0
172 196 0
176 199 0
172 195 0
174 197 0
175 198 0
173 197 0
173 196 0
173 197 0
173 197 0
173 196 0
172 196 0
170 195 0
173 197 0
174 198 0
171 196 0
174 197 0
171 195 0
173 197 0
174 198 0
173 197 0
173 197 0
173 197 0
174 197 0
173 196 0
174 197 0
174 197 0
174 197 0
172 196 0
173 196 0
169 193 0
173 196 0
173 196 0
172 195 0
172 196 0
170 193 0
172 195 0
174 197 0
171 195 0
174 197 36
176 199 62
201 219 181
218 233 248
185 206 117
176 199 57
175 199 80
173 197 80
177 201 105
175 198 62
167 191 72
173 197 72
169 193 51
171 194 67
169 193 62
171 195 80
169 192 51
167 191 95
171 195 108
169 193 67
167 191 76
166 190 84
170 194 88
160 183 84
165 188 76
160 184 76
162 184 57
160 183 72
153 175 67
108 133 113
88 114 124
104 129 143
92 119 128
83 113 151
66 99 148
59 94 144
64 96 138
63 96 123
59 93 130
58 92 133
60 95 142
60 95 136
59 94 130
61 96 149
59 94 123
59 94 137
60 95 135
61 96 150
61 96 140
61 97 150
61 96 146
59 94 139
59 94 131
60 94 129
60 95 131
58 91 111
59 94 133
61 96 135
60 94 129
68 96 111
132 149 0
125 141 0
132 145 0
125 139 0
141 156 0
133 146 0
141 155 0
141 157 0
152 166 0
159 175 0
152 166 0
149 164 0
159 173 0
157 174 0
158 174 0
154 170 0
157 175 0
159 178 0
164 182 0
162 181 0
160 179 0
163 181 0
162 183 0
165 187 0
163 183 0
164 186 0
167 189 0
169 190 0
171 191 0
169 190 0
168 189 0
165 188 0
166 188 0
170 192 0
169 190 0
171 192 0
171 193 0
171 194 0
172 193 0
174 197 0
172 195 0
168 192 0
171 195 0
171 194 0
170 194 0
173 196 0
173 197 0
172 195 0
173 196 0
173 196 0
171 195 0
173 196 0
173 196 0
171 194 0
174 196 0
176 199 0
172 195 0
175 197 0
172 196 0
174 197 0
174 196 0
173 196 0
175 198 0
173 197 0
173 196 0
172 195 0
174 197 0
174 196 0
175 198 0
174 197 0
173 197 0
173 197 0
175 198 0
174 197 0
172 195 0
174 197 0
173 196 0
174 197 0
174 198 0
173 197 0
175 198 0
173 197 0
175 197 0
175 198 0
173 197 0
174 197 0
174 198 0
175 198 0
174 197 0
174 198 0
174 198 0
175 198 0
175 198 0
174 198 0
174 197 0
171 195 0
175 198 0
174 198 0
175 198 0
174 198 0
174 197 0
174 197 0
173 197 0
175 198 0
173 197 0
175 198 0
174 198 0
174 198 0
175 198 0
173 197 0
173 197 0
174 197 0
173 197 0
175 198 0
175 198 0
173 197 0
175 198 0
176 198 0
174 197 0
173 197 0
172 196 0
174 197 0
174 197 0
175 198 0
174 198 0
175 198 0
174 198 0
174 198 0
172 196 0
175 198 0
174 197 0
173 197 0
174 198 0
173 197 0
174 198 0
176 198 0
174 198 0
172 196 0
175 198 0
174 197 0
174 198 0
175 198 0
175 198 0
175 198 0
175 198 0
175 198 0
175 198 0
173 197 0
175 198 0
174 198 0
174 198 0
174 198 0
175 198 0
174 197 0
174 197 0
174 198 0
175 198 0
174 198 0
175 198 0
175 198 0
173 197 0
174 198 0
174 197 0
174 198 0
174 198 0
173 197 0
173 197 0
175 198 0
173 197 0
176 198 0
173 197 0
174 198 0
175 198 0
175 198 0
175 198 0
174 197 0
174 198 0
174 197 0
175 198 0
175 198 0
175 198 0
173 197 0
176 198 0
175 198 0
174 198 0
174 198 0
175 198 0
175 198 0
174 198 0
174 198 0
175 198 0
176 199 0
175 198 0
176 199 0
174 198 0
175 198 0
175 198 0
176 199 0
174 198 0
174 198 0
175 198 0
174 198 0
176 198 0
174 197 0
174 198 0
174 198 0
173 197 0
175 198 0
175 198 0
175 198 0
176 198 0
176 199 0
174 197 0
173 197 0
173 197 0
175 198 0
174 198 0
174 198 0
174 198 0
174 198 0
174 198 0
174 197 0
174 197 0
174 198 0
175 198 0
175 198 0
175 198 0
176 198 0
174 198 0
174 198 0
174 198 0
174 197 0
175 198 0
173 197 0
175 198 0
175 198 0
173 197 0
174 198 0
173 197 0
174 198 0
172 196 0
175 198 0
174 198 0
173 197 0
174 197 0
176 198 0
175 198 0
174 198 0
175 198 0
175 198 0
175 198 0
174 198 0
173 197 0
174 198 0
174 197 0
173 197 0
174 198 0
175 198 0
174 198 0
176 199 0
175 198 0
174 198 0
175 198 0
175 198 0
175 198 0
175 198 0
174 198 0
171 195 0
175 198 0
176 198 0
173 197 0
174 198 0
174 198 0
175 198 0
174 198 0
173 197 0
174 198 0
176 199 0
173 196 0
173 197 0
172 196 0
174 198 0
176 198 0
172 196 0
173 197 0
175 198 0
175 198 0
174 197 0
174 198 0
173 197 0
175 198 0
173 197 0
176 199 0
172 196 0
174 197 0
175 198 0
174 198 0
175 198 0
173 197 0
174 197 0
173 197 0
172 196 0
174 198 0
172 197 0
174 198 0
174 197 0
174 196 0
174 197 0
172 196 0
175 198 0
174 197 0
175 198 0
172 196 0
173 197 0
173 197 0
172 196 0
174 197 0
171 195 0
174 198 0
172 196 0
172 195 0
171 195 0
173 197 0
173 196 0
174 197 0
174 197 0
173 196 0
173 197 0
171 194 0
173 197 0
176 198 0
170 194 0
171 194 0
173 197 0
173 196 0
173 196 0
172 196 0
174 198 0
175 198 0
172 196 0
176 199 57
177 200 72
210 226 214
204 222 207
179 201 80
172 196 62
175 198 67
171 195 76
174 198 67
173 196 67
170 193 72
165 189 67
171 195 72
171 195 76
164 188 76
170 194 76
167 190 57
167 190 67
169 192 88
172 194 72
169 192 80
165 187 88
167 190 102
162 185 84
158 181 99
167 189 76
164 187 88
159 181 44
158 180 80
142 163 67
94 118 117
98 123 125
103 128 126
99 125 146
72 104 142
64 98 143
62 96 137
70 101 122
59 93 139
58 93 128
58 93 128
59 93 128
60 95 139
60 95 139
61 96 143
61 96 144
59 94 130
61 96 144
60 95 135
61 96 140
59 94 134
60 94 125
60 94 135
59 94 124
59 93 121
60 95 130
58 92 118
56 89 114
66 96 108
114 129 40
127 140 0
125 141 0
134 147 0
137 153 0
141 156 0
129 143 0
148 164 0
154 172 0
150 166 0
147 162 0
154 171 0
148 166 0
159 177 0
157 175 0
160 178 0
158 176 0
159 177 0
162 180 0
155 175 0
163 182 0
169 188 0
166 187 0
165 184 0
168 189 0
163 182 0
164 186 0
165 186 0
169 189 0
170 190 0
167 188 0
166 188 0
169 192 0
170 192 0
169 191 0
172 193 0
173 196 0
171 192 0
172 195 0
174 195 0
171 193 0
173 195 0
171 193 0
173 195 0
171 194 0
171 194 0
169 193 0
173 195 0
170 194 0
173 196 0
173 196 0
172 195 0
173 195 0
172 195 0
175 197 0
173 197 0
173 196 0
170 193 0
174 197 0
173 196 0
174 197 0
172 196 0
171 194 0
172 196 0
172 196 0
175 198 0
172 196 0
174 197 0
174 197 0
174 198 0
175 197 0
175 198 0
174 198 0
174 197 0
174 198 0
172 196 0
173 197 0
175 198 0
173 197 0
175 198 0
174 197 0
175 198 0
172 196 0
173 197 0
173 197 0
175 198 0
173 197 0
175 198 0
174 198 0
174 197 0
174 198 0
176 198 0
174 198 0
176 199 0
174 197 0
174 198 0
175 198 0
176 198 0
175 198 0
175 198 0
176 199 0
174 197 0
176 198 0
175 198 0
176 199 0
174 197 0
176 198 0
173 197 0
174 198 0
175 198 0
174 198 0
174 197 0
174 198 0
174 198 0
174 197 0
174 197 0
173 197 0
174 198 0
174 198 0
174 197 0
174 198 0
175 198 0
175 198 0
176 198 0
172 197 0
173 197 0
175 198 0
174 198 0
175 198 0
174 198 0
175 198 0
176 199 0
174 198 0
174 198 0
176 199 0
173 197 0
175 198 0
173 197 0
173 197 0
173 197 0
175 198 0
173 197 0
175 198 0
173 197 0
173 197 0
176 199 0
174 197 0
174 198 0
174 198 0
173 197 0
175 198 0
174 197 0
175 198 0
175 198 0
174 198 0
173 197 0
175 198 0
174 198 0
174 198 0
175 198 0
174 198 0
175 198 0
175 198 0
175 198 0
173 197 0
174 198 0
175 198 0
174 198 0
176 198 0
175 198 0
173 197 0
175 198 0
173 197 0
173 197 0
176 199 0
175 198 0
176 199 0
173 197 0
176 198 0
174 198 0
173 197 0
176 199 0
174 198 0
173 197 0
173 197 0
174 198 0
174 197 0
175 198 0
174 198 0
175 198 0
173 197 0
174 198 0
174 198 0
173 197 0
175 198 0
175 198 0
176 199 0
174 198 0
174 197 0
175 198 0
173 197 0
174 198 0
176 198 0
175 198 0
174 198 0
174 198 0
175 198 0
174 198 0
174 198 0
174 198 0
175 198 0
174 198 0
175 198 0
175 198 0
176 198 0
176 198 0
175 198 0
172 197 0
175 198 0
174 198 0
174 198 0
175 198 0
175 198 0
174 198 0
174 198 0
174 198 0
173 197 0
175 198 0
176 199 0
174 198 0
173 197 0
174 197 0
174 198 0
176 198 0
174 198 0
174 198 0
175 198 0
174 197 0
172 196 0
175 198 0
173 197 0
175 198 0
174 198 0
175 198 0
174 198 0
174 198 0
174 198 0
174 197 0
174 197 0
174 197 0
174 198 0
173 197 0
174 198 0
174 197 0
174 197 0
175 198 0
174 197 0
175 198 0
174 197 0
175 198 0
173 197 0
173 197 0
174 198 0
175 198 0
173 197 0
174 198 0
175 198 0
176 198 0
174 198 0
174 198 0
176 198 0
174 197 0
176 198 0
173 197 0
175 198 0
174 198 0
174 197 0
175 198 0
174 197 0
172 196 0
174 198 0
175 198 0
172 195 0
171 196 0
175 198 0
175 198 0
175 198 0
174 198 0
174 198 0
174 197 0
175 198 0
175 198 0
174 197 0
174 197 0
173 197 0
175 198 0
174 197 0
174 198 0
173 197 0
174 197 0
173 197 0
175 197 0
175 198 0
175 198 0
173 197 0
174 198 0
176 199 0
175 198 0
174 197 0
173 197 0
175 198 0
172 196 0
175 198 0
170 194 0
173 196 0
172 195 0
175 198 0
172 196 0
174 197 0
172 195 0
171 194 0
172 196 0
175 198 0
174 197 0
174 197 0
176 198 0
173 197 0
172 196 0
173 196 0
172 196 0
172 196 0
172 196 0
174 197 0
170 194 0
172 195 0
171 195 0
172 196 0
171 195 0
171 195 0
171 195 0
172 196 0
178 200 80
180 202 72
219 233 240
186 207 128
174 197 57
172 195 72
174 197 84
174 197 80
174 199 88
172 196 67
172 196 67
172 196 88
173 197 76
169 193 72
173 197 92
171 195 105
170 192 84
171 194 80
168 192 67
177 200 125
173 196 117
171 194 108
166 189 95
167 189 108
164 187 117
153 175 84
165 187 102
160 180 80
160 181 80
151 172 62
129 151 95
92 117 121
80 108 115
94 121 128
94 122 156
65 98 137
59 93 124
76 106 117
62 93 113
57 91 125
57 91 124
60 95 130
59 94 133
58 93 130
60 94 138
60 94 138
59 94 128
59 93 122
59 93 125
59 94 129
59 92 128
59 94 126
60 94 124
60 95 134
57 90 115
58 92 120
57 90 103
67 97 117
115 132 44
127 143 0
126 141 0
137 153 0
130 145 0
140 160 0
146 162 0
144 161 0
154 170 0
147 164 0
149 166 0
155 171 0
149 165 0
159 179 0
163 183 0
159 177 0
161 180 0
155 173 0
163 184 0
160 178 0
160 180 0
164 184 0
165 183 0
162 183 0
169 189 0
164 186 0
170 191 0
164 185 0
167 188 0
170 192 0
168 190 0
170 190 0
167 188 0
171 192 0
170 192 0
169 191 0
170 191 0
171 194 0
170 191 0
168 191 0
168 191 0
171 193 0
172 194 0
173 196 0
171 195 0
170 193 0
174 197 0
172 195 0
174 196 0
171 194 0
174 197 0
172 195 0
175 197 0
175 198 0
173 196 0
174 197 0
171 194 0
173 196 0
174 196 0
173 196 0
172 195 0
176 198 0
173 197 0
174 197 0
175 198 0
174 198 0
175 198 0
172 196 0
175 198 0
174 197 0
173 196 0
175 198 0
174 198 0
174 197 0
172 196 0
174 197 0
174 197 0
175 198 0
174 198 0
174 197 0
172 195 0
175 197 0
172 197 0
176 198 0
174 197 0
173 197 0
174 198 0
173 196 0
174 197 0
174 198 0
174 197 0
174 197 0
173 197 0
171 196 0
174 197 0
175 198 0
174 197 0
174 197 0
174 197 0
175 197 0
175 198 0
176 198 0
176 199 0
174 197 0
176 198 0
174 197 0
174 198 0
174 197 0
174 197 0
175 198 0
174 197 0
177 199 0
177 199 0
174 197 0
175 198 0
174 198 0
173 197 0
175 198 0
175 198 0
173 197 0
174 198 0
175 198 0
174 198 0
175 198 0
175 198 0
173 197 0
174 197 0
175 198 0
174 197 0
174 198 0
175 198 0
175 198 0
173 197 0
172 197 0
176 199 0
174 197 0
175 198 0
173 197 0
173 197 0
175 198 0
174 198 0
174 197 0
174 198 0
175 198 0
174 198 0
175 198 0
174 198 0
175 198 0
175 198 0
173 197 0
174 198 0
173 197 0
176 199 0
173 197 0
174 198 0
174 198 0
174 198 0
175 198 0
175 198 0
175 198 0
174 197 0
174 197 0
175 198 0
174 198 0
174 197 0
174 197 0
174 198 0
174 198 0
173 197 0
174 198 0
175 198 0
175 198 0
175 198 0
174 198 0
175 198 0
174 198 0
176 198 0
175 198 0
173 197 0
174 198 0
175 198 0
174 198 0
175 198 0
174 197 0
174 198 0
174 197 0
175 198 0
174 198 0
174 198 0
175 198 0
174 198 0
177 199 0
176 198 0
174 198 0
175 198 0
176 198 0
174 197 0
176 199 0
173 197 0
174 197 0
173 197 0
174 198 0
174 197 0
174 198 0
173 197 0
174 198 0
172 197 0
177 199 0
175 198 0
175 198 0
174 198 0
175 198 0
176 199 0
174 198 0
174 197 0
176 199 0
174 198 0
175 198 0
175 198 0
175 198 0
172 196 0
176 199 0
175 198 0
174 197 0
175 198 0
176 199 0
176 198 0
175 198 0
175 198 0
174 197 0
175 198 0
175 198 0
173 197 0
175 198 0
174 198 0
175 197 0
174 198 0
173 197 0
173 197 0
175 198 0
173 197 0
174 198 0
173 197 0
172 197 0
174 198 0
175 198 0
174 198 0
174 197 0
174 197 0
174 198 0
174 197 0
174 197 0
174 197 0
172 197 0
175 198 0
174 197 0
175 198 0
176 198 0
175 198 0
175 198 0
175 198 0
176 199 0
174 198 0
174 198 0
174 197 0
175 198 0
173 197 0
176 198 0
173 197 0
175 198 0
174 197 0
174 198 0
174 198 0
174 197 0
175 198 0
174 197 0
172 196 0
176 199 0
174 197 0
172 196 0
173 197 0
175 198 0
176 198 0
174 198 0
175 198 0
173 196 0
176 198 0
176 198 0
173 197 0
175 198 0
175 198 0
174 198 0
175 198 0
174 198 0
173 197 0
174 198 0
175 198 0
172 196 0
173 196 0
175 198 0
175 198 0
175 198 0
175 197 0
175 198 0
175 198 0
174 198 0
172 196 0
173 197 0
174 198 0
175 198 0
176 199 0
173 197 0
175 198 0
174 197 0
174 197 0
173 197 0
172 196 0
173 197 0
176 198 0
173 197 0
173 196 0
174 198 0
173 196 0
173 196 0
173 197 0
175 198 0
172 196 0
173 197 0
173 197 0
173 197 0
173 196 0
173 196 0
174 197 0
175 198 0
169 192 0
172 196 0
173 196 0
171 195 0
172 196 0
172 195 0
172 195 0
173 197 0
180 202 80
179 201 72
216 231 231
175 198 57
177 200 76
178 200 76
173 195 67
170 194 44
173 197 72
174 198 72
166 191 44
172 196 76
176 200 105
173 196 67
174 197 102
176 199 88
173 195 95
174 197 95
167 190 99
173 196 111
169 192 95
166 190 92
161 184 95
167 189 84
163 185 105
161 183 88
168 190 105
151 173 92
159 181 97
143 163 76
133 153 40
103 127 104
106 129 125
85 113 122
95 121 138
76 106 122
61 94 122
71 101 114
71 101 108
56 89 114
59 93 126
59 93 124
58 93 125
58 92 117
59 93 131
58 92 117
60 94 128
59 93 126
57 91 117
58 92 125
59 93 129
57 91 118
58 91 121
59 93 120
58 92 122
57 90 111
67 95 88
105 122 36
110 124 0
126 142 0
126 143 0
132 150 0
133 148 0
147 165 0
141 159 0
141 159 0
145 162 0
147 165 0
148 165 0
147 165 0
153 172 0
157 176 0
157 176 0
163 182 0
156 175 0
157 175 0
158 178 0
159 180 0
159 178 0
162 183 0
161 180 0
163 183 0
167 187 0
165 185 0
168 188 0
165 186 0
170 194 0
165 186 0
165 187 0
168 190 0
168 189 0
172 193 0
168 190 0
169 191 0
168 191 0
171 193 0
174 196 0
172 195 0
168 190 0
172 195 0
171 193 0
174 197 0
170 193 0
170 194 0
169 193 0
171 193 0
174 197 0
170 194 0
172 195 0
174 198 0
172 195 0
173 197 0
174 198 0
174 197 0
175 198 0
174 198 0
172 196 0
174 197 0
174 197 0
174 197 0
173 197 0
172 196 0
174 197 0
174 198 0
173 196 0
173 197 0
174 197 0
172 195 0
172 195 0
173 197 0
174 197 0
174 196 0
174 197 0
174 197 0
173 197 0
173 197 0
173 197 0
173 196 0
174 197 0
173 197 0
173 197 0
175 198 0
175 198 0
174 196 0
173 196 0
174 197 0
175 198 0
174 197 0
173 196 0
174 197 0
173 196 0
173 197 0
172 196 0
175 198 0
176 199 0
173 197 0
173 197 0
173 197 0
174 197 0
175 198 0
174 197 0
173 197 0
174 197 0
174 198 0
174 197 0
175 198 0
175 198 0
174 197 0
176 198 0
173 197 0
174 198 0
175 198 0
172 196 0
175 198 0
175 198 0
174 197 0
173 197 0
174 198 0
175 198 0
174 197 0
174 198 0
176 198 0
174 197 0
174 198 0
176 199 0
174 198 0
175 198 0
173 197 0
174 197 0
176 198 0
174 198 0
175 198 0
174 198 0
176 198 0
173 197 0
174 197 0
173 197 0
175 198 0
174 197 0
176 198 0
173 197 0
173 197 0
174 198 0
173 197 0
174 198 0
174 198 0
174 197 0
175 198 0
174 198 0
174 198 0
174 198 0
176 198 0
174 197 0
174 197 0
174 198 0
175 198 0
176 198 0
174 198 0
173 197 0
174 198 0
174 197 0
174 198 0
175 198 0
175 198 0
175 198 0
173 197 0
174 198 0
175 198 0
174 198 0
176 199 0
175 198 0
172 197 0
173 197 0
174 198 0
175 198 0
173 197 0
174 198 0
174 197 0
175 198 0
174 197 0
173 197 0
174 198 0
174 198 0
174 197 0
175 198 0
174 198 0
174 198 0
175 198 0
175 198 0
174 198 0
175 198 0
174 198 0
174 198 0
176 198 0
176 199 0
174 197 0
176 198 0
175 198 0
175 198 0
173 197 0
174 198 0
174 197 0
174 198 0
174 198 0
174 197 0
174 197 0
176 199 0
175 198 0
174 198 0
174 198 0
175 198 0
173 197 0
173 197 0
175 198 0
176 199 0
177 199 0
174 198 0
174 197 0
174 198 0
175 198 0
175 198 0
175 198 0
174 197 0
175 198 0
175 198 0
175 198 0
175 198 0
174 198 0
174 198 0
175 198 0
174 198 0
175 198 0
175 198 0
175 198 0
173 197 0
175 198 0
174 198 0
175 198 0
176 199 0
175 198 0
176 199 0
174 197 0
175 198 0
175 198 0
174 198 0
175 198 0
174 198 0
176 199 0
174 198 0
173 197 0
173 197 0
176 198 0
175 198 0
173 197 0
173 197 0
175 198 0
174 198 0
175 198 0
175 198 0
174 198 0
173 197 0
175 198 0
174 198 0
174 198 0
173 197 0
173 197 0
173 197 0
175 198 0
174 198 0
175 198 0
175 198 0
175 198 0
176 199 0
174 197 0
173 197 0
175 198 0
175 198 0
173 197 0
175 198 0
174 198 0
175 198 0
173 197 0
172 196 0
175 198 0
175 198 0
173 197 0
174 197 0
173 197 0
173 197 0
176 199 0
175 198 0
175 198 0
175 197 0
175 198 0
173 197 0
174 198 0
174 197 0
172 195 0
174 197 0
175 198 0
174 197 0
174 198 0
175 198 0
173 197 0
173 197 0
172 196 0
173 196 0
175 198 0
172 196 0
172 195 0
169 193 0
173 196 0
174 198 0
173 196 0
175 198 0
174 198 0
173 197 0
174 198 0
174 198 0
175 198 0
174 197 0
172 196 0
174 198 0
173 196 0
173 196 0
172 196 0
173 197 0
175 198 0
172 196 0
173 196 0
169 193 0
172 196 0
173 196 0
170 194 0
173 197 0
174 197 0
173 196 0
173 196 0
171 195 0
173 196 0
177 200 67
180 202 84
204 221 196
178 201 76
174 197 67
170 192 76
169 192 62
174 197 95
170 194 67
174 197 72
171 195 72
178 201 88
174 197 108
172 195 92
172 195 99
172 196 105
170 193 102
169 194 114
169 192 88
173 197 105
168 191 105
160 183 105
161 185 84
162 184 88
166 189 113
162 185 88
159 182 88
154 175 92
160 179 105
154 174 80
156 175 76
127 145 65
102 125 102
91 117 120
85 113 128
63 94 121
62 95 125
63 94 101
67 96 105
55 87 102
58 92 120
58 92 118
57 91 122
58 91 118
58 92 118
58 92 111
57 90 115
58 92 113
56 90 117
56 90 114
58 92 107
59 93 124
57 91 113
55 88 100
55 87 100
75 100 92
116 131 0
122 138 0
133 149 0
124 141 0
132 150 0
132 150 0
140 158 0
153 172 0
135 155 0
148 167 0
145 165 0
149 166 0
155 175 0
157 177 0
153 173 0
160 180 0
151 171 0
159 179 0
157 177 0
163 185 0
164 186 0
162 180 0
165 184 0
166 188 0
161 180 0
168 189 0
164 186 0
165 186 0
168 188 0
165 186 0
169 191 0
168 188 0
169 191 0
169 190 0
167 189 0
165 186 0
168 191 0
166 188 0
169 192 0
169 190 0
172 193 0
171 194 0
171 194 0
174 196 0
170 192 0
169 192 0
172 195 0
171 194 0
171 194 0
172 194 0
172 195 0
171 193 0
171 194 0
172 196 0
170 193 0
172 196 0
174 197 0
173 197 0
173 195 0
170 194 0
175 198 0
172 195 0
171 194 0
172 195 0
174 197 0
173 197 0
173 196 0
173 196 0
175 198 0
175 198 0
173 196 0
174 197 0
176 198 0
174 196 0
171 195 0
175 198 0
173 196 0
173 197 0
174 197 0
175 198 0
174 198 0
174 198 0
172 195 0
175 198 0
174 198 0
174 197 0
174 197 0
174 197 0
174 197 0
173 196 0
175 198 0
174 197 0
175 198 0
173 197 0
174 198 0
173 197 0
174 197 0
175 198 0
175 198 0
175 198 0
174 197 0
174 198 0
173 197 0
174 197 0
173 197 0
174 198 0
174 198 0
174 198 0
176 199 0
174 197 0
174 198 0
174 197 0
175 198 0
175 198 0
173 197 0
175 198 0
174 197 0
174 197 0
173 197 0
176 199 0
174 197 0
174 198 0
175 198 0
172 196 0
174 198 0
174 197 0
173 197 0
174 197 0
173 197 0
176 198 0
175 198 0
173 197 0
174 198 0
174 197 0
174 197 0
172 197 0
173 197 0
176 199 0
175 198 0
176 198 0
175 198 0
175 198 0
175 198 0
174 198 0
174 198 0
176 199 0
175 198 0
176 199 0
174 198 0
174 198 0
175 198 0
175 198 0
174 197 0
174 197 0
175 198 0
174 198 0
175 198 0
175 198 0
175 198 0
175 198 0
175 198 0
174 197 0
175 198 0
175 198 0
173 197 0
177 199 0
174 197 0
175 198 0
174 198 0
175 198 0
174 198 0
175 198 0
176 198 0
174 198 0
173 197 0
173 197 0
174 197 0
175 198 0
175 198 0
173 197 0
174 198 0
175 198 0
174 197 0
173 197 0
172 196 0
174 198 0
175 198 0
175 198 0
174 197 0
174 198 0
173 197 0
174 198 0
173 197 0
172 197 0
174 198 0
174 197 0
175 198 0
176 199 0
173 197 0
175 198 0
175 198 0
175 198 0
173 197 0
174 198 0
174 198 0
175 198 0
175 198 0
175 198 0
174 198 0
174 197 0
175 198 0
174 197 0
175 198 0
174 198 0
173 197 0
173 197 0
175 198 0
175 198 0
175 198 0
177 199 0
173 197 0
177 199 0
174 198 0
174 198 0
176 199 0
175 198 0
175 198 0
174 197 0
173 197 0
175 198 0
175 198 0
174 198 0
173 197 0
175 198 0
172 197 0
176 199 0
172 197 0
174 198 0
173 197 0
175 198 0
174 198 0
175 198 0
176 199 0
174 197 0
173 196 0
173 197 0
176 198 0
176 199 0
174 197 0
175 198 0
174 198 0
175 198 0
175 198 0
176 199 0
177 199 0
176 198 0
174 197 0
175 198 0
174 197 0
175 198 0
174 198 0
173 197 0
174 197 0
174 197 0
176 199 0
174 198 0
174 197 0
174 198 0
174 197 0
174 197 0
174 198 0
174 197 0
173 197 0
175 198 0
175 198 0
175 198 0
175 198 0
175 198 0
174 197 0
174 197 0
175 198 0
175 198 0
175 198 0
175 198 0
174 198 0
173 196 0
173 197 0
175 198 0
174 197 0
174 198 0
174 197 0
174 198 0
174 197 0
173 197 0
175 198 0
174 197 0
173 196 0
174 197 0
174 198 0
175 198 0
175 198 0
172 196 0
175 198 0
173 197 0
173 197 0
173 197 0
174 197 0
174 198 0
172 196 0
173 196 0
176 198 0
172 196 0
175 198 0
173 196 0
175 198 0
174 198 0
172 196 0
174 197 0
172 196 0
174 197 0
174 197 0
174 197 0
173 196 0
173 197 0
174 197 0
175 198 0
174 197 0
172 195 0
175 198 0
174 197 0
172 196 0
171 195 0
173 196 0
170 193 0
173 196 0
173 196 0
175 197 0
172 195 0
172 196 0
172 196 0
172 195 0
171 196 0
173 197 0
173 195 0
178 201 67
177 200 51
188 208 137
177 199 76
176 199 67
172 195 57
167 191 62
170 194 76
168 191 25
175 199 88
174 197 92
176 199 95
178 201 108
176 200 102
174 198 80
175 198 122
170 194 99
166 190 72
170 194 111
166 189 92
163 186 62
165 189 105
162 185 108
162 184 88
159 182 82
169 192 105
161 183 99
157 178 80
160 181 114
156 175 102
150 169 111
147 166 80
111 131 72
100 124 100
95 121 100
76 106 118
72 102 105
77 103 92
95 119 78
66 92 89
53 84 97
55 88 88
58 91 108
55 87 111
57 90 110
56 89 105
57 90 114
57 90 114
59 92 115
57 90 114
57 91 105
56 88 107
56 88 110
69 93 82
95 114 54
117 132 0
115 132 0
125 142 0
116 134 0
134 153 0
139 159 0
133 150 0
132 150 0
140 158 0
145 165 0
145 165 0
154 174 0
140 159 0
151 170 0
151 168 0
158 177 0
150 172 0
160 179 0
154 174 0
158 179 0
162 182 0
164 184 0
160 181 0
164 186 0
163 184 0
161 182 0
160 182 0
166 188 0
164 186 0
169 192 0
169 190 0
168 190 0
171 193 0
170 193 0
170 192 0
167 190 0
170 192 0
167 189 0
170 194 0
169 190 0
170 191 0
171 194 0
171 194 0
174 195 0
170 193 0
171 193 0
172 194 0
170 193 0
172 194 0
174 196 0
175 198 0
172 194 0
173 196 0
169 193 0
173 196 0
175 197 0
172 196 0
172 194 0
172 195 0
170 194 0
173 197 0
172 195 0
171 193 0
175 197 0
174 197 0
174 197 0
174 197 0
173 196 0
173 196 0
173 197 0
174 196 0
172 196 0
172 196 0
176 198 0
174 197 0
174 197 0
174 197 0
173 196 0
174 197 0
174 197 0
173 196 0
173 196 0
173 196 0
173 197 0
173 196 0
174 197 0
175 198 0
174 196 0
174 197 0
173 197 0
173 197 0
172 196 0
174 198 0
174 197 0
174 197 0
173 197 0
172 196 0
174 198 0
173 196 0
174 197 0
174 197 0
174 197 0
174 197 0
175 198 0
174 197 0
174 198 0
175 198 0
176 199 0
175 198 0
174 198 0
174 197 0
174 197 0
175 198 0
174 197 0
175 198 0
174 198 0
174 197 0
174 198 0
175 197 0
173 197 0
176 199 0
174 197 0
175 198 0
176 199 0
174 197 0
174 198 0
174 198 0
173 197 0
174 197 0
172 197 0
174 197 0
175 198 0
176 198 0
174 197 0
174 198 0
176 198 0
174 198 0
173 197 0
175 198 0
175 198 0
173 197 0
176 199 0
174 198 0
174 198 0
174 198 0
174 198 0
175 198 0
175 198 0
175 198 0
175 198 0
174 198 0
174 198 0
175 198 0
174 198 0
175 198 0
174 197 0
175 198 0
173 197 0
174 197 0
174 198 0
173 197 0
173 197 0
174 198 0
176 199 0
175 198 0
176 198 0
174 197 0
173 197 0
173 197 0
175 198 0
174 198 0
176 199 0
174 198 0
175 198 0
175 198 0
173 197 0
175 198 0
175 198 0
174 198 0
175 198 0
174 197 0
174 198 0
174 198 0
176 199 0
174 198 0
173 197 0
173 197 0
174 198 0
175 198 0
175 198 0
174 198 0
175 198 0
173 197 0
174 198 0
175 198 0
173 197 0
173 197 0
173 197 0
176 198 0
175 198 0
176 199 0
174 198 0
174 197 0
176 198 0
174 198 0
174 198 0
175 198 0
173 197 0
175 198 0
175 198 0
176 199 0
174 198 0
174 197 0
174 198 0
175 198 0
175 198 0
174 197 0
175 198 0
173 197 0
175 198 0
176 198 0
175 198 0
174 198 0
175 198 0
174 198 0
174 198 0
176 199 0
175 198 0
175 198 0
174 197 0
173 197 0
175 198 0
173 197 0
176 199 0
174 198 0
175 198 0
176 199 0
173 197 0
174 197 0
175 198 0
175 198 0
174 197 0
174 198 0
174 197 0
173 197 0
173 197 0
175 198 0
176 199 0
175 198 0
174 198 0
174 197 0
174 198 0
175 198 0
174 197 0
175 198 0
174 198 0
174 198 0
174 197 0
176 198 0
175 198 0
175 198 0
174 198 0
175 198 0
174 197 0
174 198 0
174 198 0
174 197 0
174 198 0
174 197 0
174 198 0
173 197 0
174 197 0
174 198 0
174 197 0
174 197 0
174 198 0
175 198 0
175 198 0
174 197 0
173 197 0
176 199 0
175 198 0
173 197 0
175 198 0
175 198 0
174 197 0
175 198 0
173 197 0
173 197 0
175 198 0
174 198 0
175 198 0
174 197 0
173 197 0
174 198 0
176 198 0
175 198 0
173 197 0
172 196 0
174 198 0
173 197 0
172 196 0
173 197 0
173 197 0
174 198 0
175 198 0
174 197 0
175 198 0
174 197 0
172 196 0
173 197 0
173 197 0
173 196 0
174 198 0
173 196 0
173 197 0
172 196 0
173 196 0
174 198 0
174 197 0
174 197 0
172 196 0
173 197 0
172 196 0
172 195 0
171 194 0
172 196 0
172 195 0
174 198 0
172 196 0
173 196 0
172 196 0
174 198 0
173 197 0
174 196 0
170 193 0
173 196 0
173 197 0
172 195 0
170 194 0
170 194 0
171 195 0
169 192 0
171 194 0
174 198 0
177 200 76
176 200 57
177 199 72
176 198 67
173 196 76
174 197 84
169 193 67
175 196 72
171 195 62
170 193 72
174 196 99
177 200 114
175 198 111
176 199 108
171 194 67
171 195 99
168 192 80
171 194 88
167 190 105
170 193 95
167 189 99
159 182 92
167 190 72
166 188 67
158 180 84
166 189 99
167 188 114
152 172 102
152 173 84
158 178 95
159 178 111
137 155 76
122 138 67
110 130 80
123 146 74
106 127 67
66 95 82
87 109 65
117 137 44
116 134 0
110 128 36
87 108 54
65 92 82
55 87 88
55 88 88
55 87 95
55 88 88
55 87 99
54 86 100
55 87 102
58 86 84
84 103 51
96 113 44
105 121 0
117 134 0
123 140 0
116 132 0
118 136 0
134 152 0
134 152 0
129 147 0
139 157 0
140 158 0
146 165 0
144 165 0
143 162 0
146 166 0
151 171 0
148 167 0
159 180 0
151 172 0
157 179 0
156 177 0
167 189 0
162 184 0
156 177 0
158 179 0
161 181 0
165 186 0
166 187 0
167 188 0
161 182 0
165 186 0
168 190 0
163 185 0
168 189 0
164 186 0
171 193 0
171 193 0
169 191 0
168 190 0
169 192 0
171 195 0
171 193 0
171 193 0
171 193 0
172 194 0
169 192 0
173 196 0
171 194 0
170 193 0
171 195 0
170 192 0
173 196 0
172 194 0
173 197 0
171 195 0
173 196 0
173 196 0
171 194 0
172 195 0
173 196 0
171 195 0
172 196 0
171 194 0
169 192 0
174 196 0
172 196 0
174 197 0
172 195 0
172 196 0
170 194 0
176 197 0
173 195 0
171 194 0
172 196 0
173 197 0
173 196 0
175 197 0
175 198 0
172 196 0
174 197 0
172 196 0
173 197 0
173 196 0
174 197 0
173 196 0
174 196 0
174 198 0
175 197 0
174 197 0
172 196 0
174 197 0
173 196 0
173 197 0
174 197 0
174 198 0
174 197 0
174 196 0
172 196 0
174 197 0
174 197 0
175 198 0
174 198 0
171 196 0
175 198 0
174 197 0
174 198 0
173 197 0
175 197 0
173 197 0
174 198 0
175 198 0
174 197 0
174 197 0
174 197 0
174 198 0
174 197 0
174 198 0
173 197 0
174 198 0
173 197 0
174 198 0
175 198 0
173 197 0
175 198 0
173 196 0
174 198 0
174 198 0
174 198 0
174 197 0
174 197 0
175 198 0
174 197 0
174 198 0
174 198 0
174 197 0
175 198 0
176 199 0
172 197 0
174 197 0
173 197 0
173 197 0
175 198 0
176 199 0
173 197 0
174 197 0
174 198 0
175 198 0
175 198 0
175 198 0
175 198 0
176 199 0
173 197 0
174 198 0
173 197 0
173 197 0
175 198 0
174 197 0
174 197 0
174 198 0
174 197 0
174 197 0
175 198 0
175 198 0
174 198 0
174 197 0
176 198 0
175 198 0
174 198 0
175 198 0
173 197 0
175 198 0
175 198 0
175 198 0
175 198 0
175 198 0
174 197 0
175 198 0
174 197 0
173 197 0
174 198 0
174 197 0
173 197 0
173 197 0
174 197 0
175 198 0
175 198 0
173 197 0
174 197 0
174 197 0
175 198 0
174 198 0
173 197 0
174 197 0
176 198 0
172 197 0
175 198 0
175 198 0
175 198 0
173 197 0
175 198 0
175 198 0
175 198 0
173 197 0
174 198 0
175 198 0
174 197 0
176 199 0
174 198 0
174 198 0
173 197 0
173 197 0
174 198 0
174 198 0
174 197 0
175 198 0
176 199 0
175 198 0
175 198 0
177 199 0
174 198 0
175 198 0
177 199 0
174 198 0
175 198 0
174 198 0
175 198 0
175 198 0
173 197 0
175 198 0
176 199 0
174 197 0
176 199 0
173 197 0
175 198 0
174 197 0
173 197 0
175 198 0
175 198 0
174 197 0
175 198 0
175 198 0
176 198 0
174 197 0
175 198 0
174 198 0
176 199 0
174 198 0
173 197 0
174 197 0
174 198 0
174 198 0
173 197 0
174 197 0
176 199 0
176 199 0
174 198 0
174 198 0
174 197 0
174 198 0
175 198 0
172 197 0
176 199 0
176 198 0
175 198 0
174 198 0
174 198 0
175 198 0
173 197 0
176 199 0
174 198 0
173 197 0
174 197 0
175 198 0
175 198 0
175 198 0
175 198 0
175 198 0
175 198 0
174 198 0
175 198 0
173 197 0
174 198 0
175 198 0
174 198 0
174 197 0
174 197 0
175 198 0
175 198 0
173 197 0
174 198 0
175 198 0
174 198 0
175 198 0
174 198 0
173 196 0
176 199 0
174 197 0
174 197 0
174 197 0
176 198 0
174 198 0
173 197 0
172 195 0
173 197 0
174 198 0
174 198 0
174 198 0
173 197 0
175 197 0
173 197 0
173 197 0
174 197 0
170 194 0
174 197 0
174 197 0
174 198 0
175 198 0
174 197 0
173 196 0
175 198 0
174 197 0
175 198 0
174 197 0
173 196 0
171 194 0
172 197 0
173 196 0
173 197 0
175 197 0
173 197 0
171 195 0
175 198 0
173 196 0
174 197 0
171 194 0
171 195 0
173 197 0
173 197 0
170 194 0
170 194 0
171 195 0
171 194 0
175 197 0
169 194 0
175 198 0
174 197 0
169 192 0
172 196 0
174 197 51
178 201 67
176 199 51
179 200 70
171 194 62
174 197 62
168 191 67
170 192 72
170 193 72
172 195 67
176 199 114
173 197 102
173 196 80
172 196 105
169 192 80
171 195 88
169 193 95
170 193 102
172 196 117
164 186 92
165 188 92
164 188 108
165 188 108
164 187 117
166 188 84
160 182 108
163 185 67
156 178 80
160 180 117
154 174 99
150 169 102
129 147 72
142 161 51
126 143 0
135 154 18
130 150 0
102 119 18
92 109 0
111 128 0
106 123 0
118 136 0
109 126 0
100 116 0
100 115 18
89 108 40
96 112 25
68 91 47
87 105 51
88 104 47
91 106 0
115 130 0
97 112 0
115 131 0
118 135 0
112 129 0
130 148 0
130 150 0
126 144 0
127 147 0
136 155 0
143 162 0
132 152 0
136 156 0
137 156 0
150 171 0
148 167 0
142 161 0
153 174 0
158 178 0
155 177 0
152 172 0
154 176 0
154 176 0
158 180 0
162 183 0
158 179 0
162 183 0
158 181 0
163 185 0
162 184 0
163 185 0
160 182 0
166 187 0
166 188 0
165 186 0
169 190 0
168 190 0
169 190 0
168 189 0
169 192 0
166 188 0
169 192 0
168 192 0
170 193 0
170 193 0
171 194 0
170 193 0
172 195 0
172 194 0
171 193 0
171 193 0
172 195 0
170 192 0
167 191 0
173 196 0
174 197 0
171 195 0
172 195 0
170 193 0
172 194 0
173 196 0
173 196 0
171 194 0
172 194 0
173 195 0
172 195 0
174 197 0
173 196 0
174 197 0
172 195 0
175 198 0
173 196 0
171 195 0
174 197 0
173 196 0
174 197 0
175 197 0
174 197 0
172 196 0
175 197 0
174 197 0
173 196 0
174 197 0
175 198 0
175 198 0
173 197 0
174 198 0
173 196 0
173 197 0
173 197 0
174 198 0
175 198 0
175 198 0
175 198 0
174 197 0
174 197 0
174 197 0
173 197 0
174 198 0
175 198 0
174 198 0
172 196 0
173 197 0
174 197 0
175 198 0
175 198 0
172 195 0
174 198 0
176 198 0
174 198 0
176 199 0
171 196 0
174 198 0
173 197 0
173 197 0
174 198 0
175 197 0
174 198 0
175 198 0
175 198 0
174 197 0
174 197 0
174 198 0
174 198 0
174 198 0
174 198 0
174 197 0
174 198 0
175 198 0
173 197 0
174 198 0
174 198 0
173 197 0
174 198 0
174 197 0
173 197 0
175 198 0
175 198 0
175 198 0
175 198 0
175 198 0
174 198 0
173 197 0
175 198 0
176 198 0
175 198 0
176 199 0
173 197 0
175 198 0
175 198 0
176 198 0
175 198 0
174 198 0
173 197 0
174 198 0
175 198 0
175 198 0
175 198 0
174 197 0
175 198 0
174 197 0
175 198 0
176 198 0
175 198 0
175 198 0
174 197 0
174 198 0
175 198 0
172 197 0
176 199 0
174 197 0
175 198 0
173 196 0
174 198 0
176 199 0
175 198 0
174 198 0
174 198 0
174 197 0
175 198 0
175 198 0
176 198 0
174 198 0
173 196 0
174 198 0
174 198 0
175 198 0
173 197 0
174 198 0
174 198 0
175 198 0
175 198 0
174 198 0
173 197 0
176 198 0
175 198 0
173 197 0
174 197 0
175 198 0
175 198 0
175 198 0
174 198 0
174 198 0
175 198 0
174 197 0
174 198 0
175 198 0
177 199 0
174 198 0
173 197 0
174 198 0
174 197 0
175 198 0
174 198 0
174 198 0
176 199 0
175 198 0
173 197 0
175 198 0
173 197 0
174 198 0
174 198 0
173 197 0
175 198 0
174 198 0
173 197 0
175 198 0
176 198 0
174 198 0
175 198 0
174 197 0
175 198 0
172 196 0
175 198 0
174 197 0
175 198 0
174 197 0
175 198 0
174 198 0
174 198 0
175 198 0
175 198 0
174 198 0
175 198 0
174 197 0
175 198 0
174 197 0
174 197 0
174 197 0
175 198 0
174 198 0
176 199 0
174 198 0
174 197 0
175 198 0
173 197 0
174 197 0
175 198 0
174 197 0
173 197 0
175 198 0
174 198 0
173 197 0
175 198 0
176 198 0
173 197 0
175 198 0
175 198 0
174 198 0
173 197 0
173 197 0
173 197 0
173 197 0
174 198 0
174 197 0
173 197 0
174 198 0
174 197 0
173 197 0
173 197 0
174 198 0
173 197 0
175 198 0
174 197 0
174 198 0
172 196 0
173 197 0
173 197 0
173 197 0
174 198 0
174 198 0
174 198 0
172 196 0
173 197 0
175 198 0
174 197 0
175 198 0
175 198 0
175 198 0
175 198 0
175 198 0
175 198 0
174 197 0
174 197 0
174 197 0
174 198 0
175 198 0
173 197 0
174 198 0
174 197 0
174 197 0
174 197 0
175 198 0
176 199 0
172 196 0
173 197 0
175 197 0
173 197 0
174 197 0
173 197 0
171 195 0
174 197 0
174 198 0
175 198 0
173 197 0
176 199 0
173 196 0
174 197 0
173 196 0
174 197 0
173 197 0
174 197 0
171 195 0
173 197 0
174 197 0
174 197 0
172 196 0
173 197 0
170 194 0
173 196 0
173 196 0
174 197 0
175 198 0
169 193 0
172 196 0
171 195 0
173 197 0
171 194 0
171 195 0
173 197 0
175 198 25
176 199 57
173 198 62
178 200 95
172 194 57
176 198 88
173 194 82
172 195 80
166 189 94
172 195 90
172 195 72
173 196 80
174 197 102
172 195 92
168 192 72
169 192 95
172 195 102
173 195 88
170 192 99
171 194 95
166 189 76
168 191 122
171 194 108
159 181 92
158 180 88
155 177 92
158 179 72
157 178 88
158 178 111
158 178 80
159 178 99
147 167 72
133 152 25
117 136 25
134 154 0
137 158 0
126 145 0
112 130 0
137 155 0
124 143 0
120 138 0
111 129 0
110 127 0
98 114 0
111 128 0
91 109 0
106 122 0
98 113 0
120 138 0
100 117 0
96 112 0
108 125 0
111 128 0
110 126 0
123 142 0
114 132 0
130 150 0
133 153 0
140 160 0
135 154 0
139 159 0
129 149 0
148 169 0
147 167 0
157 179 0
150 171 0
157 179 0
156 176 0
150 171 0
158 179 0
149 170 0
161 182 0
159 180 0
161 182 0
157 179 0
161 183 0
161 182 0
160 182 0
166 187 0
163 185 0
165 187 0
167 189 0
164 187 0
169 190 0
166 188 0
170 192 0
167 190 0
169 190 0
170 191 0
171 192 0
169 192 0
167 188 0
171 192 0
168 191 0
173 196 0
170 193 0
171 194 0
171 194 0
169 192 0
171 195 0
171 193 0
170 194 0
173 195 0
174 197 0
173 196 0
170 194 0
171 194 0
172 195 0
172 195 0
170 194 0
171 194 0
173 196 0
174 198 0
173 196 0
172 195 0
174 197 0
175 198 0
172 195 0
174 196 0
174 196 0
173 195 0
173 196 0
174 197 0
172 196 0
172 195 0
173 196 0
173 196 0
174 197 0
172 196 0
173 197 0
173 196 0
173 197 0
173 196 0
174 197 0
173 197 0
173 195 0
175 198 0
173 196 0
174 197 0
176 199 0
174 197 0
174 198 0
174 197 0
173 197 0
175 198 0
174 197 0
173 196 0
174 198 0
173 196 0
173 196 0
174 197 0
175 198 0
174 197 0
173 197 0
174 197 0
174 197 0
174 198 0
174 197 0
174 198 0
174 198 0
174 197 0
175 198 0
174 198 0
174 197 0
173 197 0
174 197 0
173 197 0
175 198 0
176 199 0
174 198 0
173 197 0
174 198 0
173 197 0
176 198 0
173 196 0
174 197 0
175 198 0
175 198 0
174 197 0
174 198 0
175 198 0
173 197 0
174 197 0
174 198 0
177 199 0
174 198 0
177 199 0
174 197 0
175 198 0
174 197 0
173 197 0
175 198 0
175 198 0
175 198 0
175 198 0
175 198 0
175 198 0
173 196 0
175 198 0
172 196 0
174 198 0
175 198 0
174 197 0
174 197 0
172 196 0
173 197 0
172 196 0
172 196 0
174 198 0
176 198 0
174 197 0
176 198 0
175 198 0
174 197 0
172 197 0
175 198 0
173 197 0
175 198 0
174 198 0
176 199 0
173 197 0
174 197 0
173 197 0
174 197 0
174 197 0
173 197 0
174 197 0
173 197 0
174 198 0
174 198 0
174 197 0
174 197 0
175 198 0
173 197 0
174 197 0
175 198 0
173 197 0
175 198 0
176 199 0
174 198 0
175 198 0
177 199 0
174 197 0
173 197 0
174 197 0
173 197 0
174 197 0
175 198 0
176 199 0
175 198 0
173 197 0
173 197 0
174 198 0
175 198 0
173 197 0
174 197 0
173 197 0
175 198 0
174 198 0
175 198 0
173 197 0
173 197 0
173 197 0
173 197 0
175 198 0
173 197 0
177 199 0
173 197 0
175 198 0
174 198 0
174 198 0
175 198 0
176 198 0
176 198 0
175 198 0
176 199 0
174 197 0
173 197 0
175 198 0
175 198 0
173 197 0
175 198 0
174 198 0
173 197 0
174 198 0
173 197 0
173 197 0
175 198 0
174 197 0
175 198 0
175 198 0
175 198 0
172 196 0
174 198 0
173 197 0
175 198 0
173 197 0
174 198 0
174 198 0
174 198 0
173 197 0
175 198 0
175 198 0
174 198 0
174 197 0
174 198 0
173 197 0
175 198 0
174 198 0
175 198 0
174 197 0
175 198 0
175 198 0
177 199 0
173 197 0
175 198 0
174 198 0
174 198 0
175 198 0
174 197 0
173 197 0
174 197 0
173 197 0
174 198 0
175 198 0
174 197 0
175 198 0
174 197 0
172 195 0
175 198 0
173 196 0
175 198 0
174 197 0
174 198 0
175 198 0
176 198 0
175 198 0
176 199 0
173 197 0
175 198 0
175 198 0
174 198 0
174 197 0
174 197 0
173 197 0
174 197 0
174 198 0
172 197 0
175 198 0
174 197 0
174 198 0
176 199 0
173 197 0
174 198 0
174 198 0
175 198 0
173 197 0
172 196 0
174 197 0
174 198 0
175 198 0
174 198 0
174 197 0
174 197 0
174 197 0
173 197 0
174 197 0
173 197 0
172 196 0
174 198 0
174 197 0
176 199 0
174 197 0
174 198 0
173 196 0
173 196 0
173 197 0
174 196 0
174 198 0
173 196 0
173 196 0
172 196 0
173 196 0
172 196 0
170 194 0
172 196 0
173 197 0
172 195 0
173 197 0
173 197 0
172 196 0
170 193 0
172 195 0
170 194 0
174 198 0
170 194 0
173 197 0
176 198 0
171 195 0
173 196 0
173 196 0
176 199 36
178 200 57
175 198 62
176 199 72
174 198 57
174 196 80
170 193 86
171 194 88
172 195 72
173 196 92
176 198 108
178 200 114
171 193 95
173 196 88
174 197 111
171 195 105
174 197 111
169 192 102
171 194 95
170 193 95
167 190 102
165 188 95
162 184 102
161 183 84
164 185 108
162 183 84
170 191 99
156 177 80
152 172 95
161 182 88
147 167 57
143 164 25
142 162 0
147 166 25
127 146 0
126 146 0
137 155 0
125 144 0
123 142 0
127 147 0
123 141 0
114 132 0
113 130 0
119 137 0
99 117 0
105 123 0
98 115 0
119 137 0
109 127 0
115 135 0
111 129 0
115 132 0
115 133 0
126 144 0
126 145 0
145 165 0
130 148 0
130 149 0
141 161 0
140 160 0
143 164 0
142 162 0
144 166 0
149 171 0
158 177 0
149 170 0
158 180 0
156 179 0
152 173 0
159 181 0
161 182 0
160 182 0
166 187 0
164 186 0
165 187 0
162 184 0
162 184 0
161 184 0
166 188 0
166 188 0
167 189 0
165 188 0
168 191 0
171 193 0
169 190 0
167 190 0
167 188 0
167 190 0
170 192 0
169 191 0
170 193 0
171 194 0
172 195 0
171 193 0
167 188 0
167 189 0
172 195 0
171 193 0
171 193 0
174 196 0
172 195 0
172 196 0
172 194 0
171 194 0
172 195 0
173 196 0
171 194 0
169 193 0
171 194 0
170 193 0
171 194 0
171 194 0
172 195 0
172 195 0
173 196 0
172 195 0
171 194 0
174 197 0
175 198 0
175 197 0
171 194 0
172 196 0
174 197 0
174 196 0
174 197 0
173 196 0
175 198 0
172 195 0
173 196 0
172 196 0
174 197 0
173 196 0
174 198 0
173 196 0
173 197 0
173 197 0
174 197 0
172 195 0
174 198 0
173 196 0
173 197 0
175 198 0
173 196 0
174 197 0
173 197 0
174 198 0
174 197 0
174 198 0
175 198 0
175 198 0
174 197 0
173 197 0
174 198 0
174 198 0
174 197 0
174 198 0
175 198 0
174 197 0
175 198 0
174 198 0
175 198 0
175 198 0
175 198 0
175 198 0
173 197 0
173 196 0
173 196 0
175 198 0
174 198 0
175 198 0
173 197 0
173 197 0
175 198 0
175 198 0
173 197 0
173 197 0
174 198 0
175 198 0
175 198 0
173 197 0
173 197 0
175 198 0
173 197 0
175 198 0
174 197 0
174 197 0
175 198 0
173 197 0
174 197 0
174 198 0
173 197 0
175 198 0
174 197 0
172 197 0
174 198 0
174 198 0
173 197 0
174 197 0
175 198 0
174 198 0
174 197 0
174 198 0
175 198 0
175 198 0
176 199 0
175 198 0
175 198 0
175 198 0
173 197 0
175 198 0
174 198 0
172 196 0
174 198 0
174 197 0
175 198 0
173 197 0
175 198 0
175 198 0
177 199 0
174 198 0
173 197 0
175 198 0
175 198 0
175 198 0
174 197 0
175 198 0
175 198 0
174 198 0
175 198 0
175 198 0
174 197 0
175 198 0
175 198 0
174 198 0
175 198 0
175 198 0
174 197 0
175 198 0
174 198 0
174 198 0
174 198 0
174 198 0
175 198 0
174 198 0
172 197 0
175 198 0
176 199 0
176 198 0
173 197 0
173 197 0
175 198 0
174 198 0
174 198 0
175 198 0
175 198 0
174 197 0
174 198 0
174 198 0
174 197 0
175 198 0
174 198 0
175 198 0
174 197 0
173 197 0
174 198 0
173 197 0
173 197 0
176 199 0
175 198 0
174 197 0
174 198 0
174 198 0
176 198 0
175 198 0
175 198 0
174 198 0
173 197 0
175 198 0
173 197 0
174 197 0
174 198 0
174 198 0
174 198 0
174 198 0
175 198 0
175 198 0
173 197 0
175 198 0
175 198 0
174 198 0
173 197 0
173 197 0
174 197 0
174 197 0
173 197 0
174 197 0
174 197 0
174 198 0
175 197 0
175 198 0
174 198 0
173 197 0
174 197 0
173 197 0
174 198 0
175 198 0
174 198 0
174 197 0
173 196 0
176 198 0
174 198 0
175 198 0
174 198 0
175 198 0
174 198 0
174 198 0
173 197 0
174 198 0
175 198 0
174 198 0
174 197 0
175 198 0
173 196 0
174 198 0
174 197 0
174 197 0
174 198 0
172 196 0
175 198 0
173 197 0
175 198 0
173 197 0
176 198 0
174 198 0
173 197 0
174 198 0
174 198 0
175 198 0
174 198 0
176 198 0
174 198 0
174 198 0
174 198 0
174 198 0
175 197 0
174 197 0
175 198 0
175 198 0
174 198 0
173 197 0
176 199 0
176 198 0
174 197 0
174 197 0
175 198 0
174 198 0
174 198 0
173 197 0
174 197 0
175 198 0
175 198 0
175 198 0
174 197 0
174 198 0
174 197 0
170 194 0
175 198 0
172 196 0
173 197 0
173 197 0
173 196 0
174 197 0
172 195 0
173 197 0
171 195 0
173 197 0
174 196 0
175 197 0
172 196 0
172 196 0
171 195 0
172 196 0
174 198 0
172 196 0
171 195 0
171 195 0
172 196 0
172 195 0
173 197 0
171 195 0
174 197 0
172 196 0
171 195 0
167 191 0
171 195 0
172 196 0
168 191 0
172 195 0
173 196 0
172 196 0
173 197 0
175 199 44
171 195 31
169 191 60
173 196 51
170 193 90
167 189 65
175 197 72
171 193 88
168 190 90
173 195 100
176 199 95
171 195 84
167 191 84
170 194 111
171 194 111
168 191 80
165 189 95
166 190 92
168 191 84
162 183 76
165 187 80
163 186 99
159 181 88
162 183 76
166 187 95
159 180 84
164 185 84
152 172 88
159 180 51
144 166 44
141 162 25
157 178 36
155 175 25
135 157 0
137 159 0
138 158 0
132 153 0
129 148 0
130 148 0
126 146 0
130 148 0
129 148 0
118 138 0
115 134 0
122 141 0
118 136 0
117 134 0
118 137 0
119 137 0
128 148 0
129 148 0
134 155 0
134 154 0
138 158 0
133 153 0
143 163 0
140 162 0
141 163 0
143 163 0
138 159 0
151 172 0
141 163 0
148 170 0
144 163 0
157 180 0
157 178 0
152 173 0
156 177 0
161 183 0
158 180 0
156 178 0
162 183 0
160 181 0
164 185 0
164 186 0
167 190 0
166 188 0
163 185 0
166 190 0
163 186 0
166 188 0
165 188 0
169 192 0
167 189 0
170 191 0
169 192 0
168 191 0
168 190 0
166 187 0
170 193 0
168 191 0
167 189 0
170 192 0
167 189 0
169 191 0
171 194 0
171 193 0
171 193 0
169 191 0
174 196 0
169 192 0
175 197 0
170 193 0
171 193 0
173 197 0
171 193 0
171 195 0
174 197 0
172 195 0
172 196 0
175 198 0
170 193 0
171 194 0
173 195 0
172 196 0
172 196 0
173 196 0
171 195 0
173 197 0
173 197 0
173 196 0
175 198 0
172 196 0
173 197 0
173 197 0
173 197 0
172 196 0
172 197 0
175 198 0
173 196 0
174 197 0
172 196 0
173 197 0
174 198 0
174 198 0
174 197 0
173 196 0
175 198 0
173 197 0
175 198 0
175 198 0
174 196 0
174 197 0
174 196 0
174 197 0
173 196 0
172 196 0
174 197 0
175 198 0
174 197 0
173 197 0
174 197 0
172 196 0
174 197 0
173 197 0
173 197 0
175 198 0
173 197 0
174 197 0
174 197 0
174 198 0
174 198 0
175 198 0
175 198 0
174 198 0
176 198 0
174 197 0
175 198 0
173 197 0
174 198 0
174 197 0
175 198 0
174 198 0
175 198 0
176 198 0
174 198 0
175 198 0
174 198 0
173 196 0
174 198 0
174 198 0
174 198 0
174 198 0
174 197 0
174 198 0
174 198 0
175 198 0
175 198 0
175 198 0
175 198 0
173 197 0
175 198 0
174 198 0
173 197 0
175 198 0
174 198 0
173 197 0
174 198 0
176 198 0
175 198 0
173 197 0
174 197 0
174 197 0
174 198 0
174 197 0
173 197 0
175 197 0
174 197 0
176 198 0
176 199 0
174 198 0
176 199 0
174 198 0
174 198 0
174 197 0
174 198 0
174 198 0
175 198 0
176 198 0
174 198 0
174 198 0
174 197 0
174 198 0
176 199 0
175 198 0
175 198 0
174 198 0
176 199 0
175 198 0
173 197 0
174 198 0
174 198 0
175 198 0
176 199 0
173 197 0
174 198 0
175 198 0
174 197 0
175 198 0
174 198 0
175 198 0
174 198 0
174 198 0
174 198 0
173 197 0
174 197 0
172 197 0
176 199 0
174 198 0
174 198 0
175 198 0
175 198 0
173 197 0
174 198 0
175 198 0
176 199 0
174 198 0
175 198 0
175 198 0
174 198 0
173 197 0
174 197 0
175 198 0
176 199 0
173 197 0
174 198 0
174 198 0
175 198 0
174 198 0
176 199 0
175 198 0
173 197 0
176 198 0
175 198 0
175 198 0
175 198 0
174 198 0
175 198 0
175 198 0
174 197 0
175 198 0
175 198 0
175 198 0
175 198 0
174 198 0
174 197 0
175 198 0
175 198 0
173 197 0
174 198 0
174 198 0
174 198 0
174 198 0
175 198 0
176 199 0
174 198 0
174 198 0
173 197 0
175 198 0
175 198 0
176 199 0
174 198 0
173 197 0
175 198 0
175 198 0
173 197 0
173 197 0
173 197 0
173 197 0
174 197 0
174 198 0
176 199 0
173 197 0
175 198 0
174 198 0
171 195 0
176 198 0
175 198 0
174 197 0
173 197 0
175 198 0
175 198 0
174 197 0
173 196 0
177 199 0
174 197 0
174 197 0
172 196 0
173 197 0
173 196 0
172 196 0
174 197 0
173 197 0
175 198 0
175 198 0
175 198 0
174 198 0
175 198 0
174 197 0
174 198 0
174 197 0
174 198 0
172 196 0
174 197 0
175 198 0
175 198 0
173 196 0
176 198 0
176 198 0
175 198 0
175 198 0
174 197 0
175 198 0
174 198 0
174 197 0
173 197 0
174 198 0
174 198 0
174 197 0
175 198 0
174 198 0
173 197 0
173 197 0
174 197 0
171 194 0
173 197 0
174 197 0
175 198 0
174 197 0
175 198 0
175 198 0
170 195 0
172 195 0
174 198 0
174 197 0
174 197 0
172 196 0
172 196 0
174 197 0
174 197 0
172 196 0
174 197 0
171 196 0
173 197 0
173 197 0
170 194 0
173 196 0
172 196 0
171 195 0
174 197 0
172 196 0
170 193 0
171 195 0
172 195 0
174 197 0
173 196 0
173 196 0
173 196 0
173 196 0
173 197 0
173 197 0
173 195 51
173 196 44
174 196 47
175 197 70
170 193 80
165 187 51
164 186 80
173 195 90
169 192 84
176 198 107
172 195 72
173 195 84
171 193 88
171 194 92
172 195 80
174 197 111
168 191 80
168 190 84
167 189 88
160 182 67
169 190 111
164 186 105
165 187 99
161 183 92
165 186 88
154 175 95
160 181 51
154 175 67
152 172 51
144 166 36
151 173 36
154 176 0
150 171 0
130 151 0
142 162 0
140 161 0
127 146 0
129 148 0
145 165 0
125 144 0
128 148 0
118 136 0
123 143 0
124 143 0
125 144 0
115 134 0
136 155 0
129 149 0
131 151 0
135 155 0
133 151 0
135 154 0
144 163 0
139 160 0
129 150 0
135 155 0
142 163 0
143 164 0
151 172 0
151 173 0
149 169 0
150 171 0
154 176 0
157 180 0
152 174 0
154 176 0
153 174 0
153 174 0
161 182 0
157 178 0
167 190 0
159 182 0
166 189 0
166 189 0
170 191 0
163 184 0
165 188 0
166 188 0
164 186 0
169 192 0
164 185 0
168 190 0
166 189 0
168 190 0
168 190 0
169 192 0
166 188 0
171 194 0
170 192 0
168 190 0
170 192 0
172 194 0
173 195 0
170 193 0
170 193 0
174 196 0
171 192 0
170 193 0
170 193 0
171 193 0
172 195 0
173 195 0
171 195 0
173 196 0
172 195 0
173 197 0
172 196 0
173 195 0
171 194 0
173 196 0
174 197 0
170 192 0
171 193 0
174 197 0
173 196 0
173 196 0
173 196 0
173 196 0
174 197 0
174 197 0
175 197 0
173 196 0
172 196 0
174 197 0
173 196 0
172 195 0
175 197 0
173 195 0
175 198 0
173 196 0
176 198 0
173 195 0
173 196 0
174 197 0
176 198 0
173 196 0
175 198 0
174 196 0
174 197 0
171 195 0
173 197 0
173 196 0
174 197 0
174 197 0
175 198 0
176 198 0
175 198 0
172 195 0
174 198 0
173 197 0
175 198 0
174 197 0
174 197 0
176 198 0
175 198 0
173 197 0
176 198 0
175 198 0
175 198 0
173 196 0
174 198 0
173 197 0
174 197 0
174 197 0
173 196 0
174 198 0
174 198 0
175 198 0
173 197 0
174 197 0
175 198 0
175 198 0
175 198 0
174 197 0
174 198 0
174 197 0
176 198 0
174 198 0
175 198 0
175 197 0
173 197 0
174 197 0
173 197 0
173 197 0
174 198 0
173 197 0
174 197 0
175 198 0
174 197 0
174 197 0
174 198 0
174 198 0
175 198 0
173 197 0
174 198 0
175 198 0
175 198 0
174 198 0
175 198 0
175 198 0
175 198 0
175 198 0
174 198 0
174 198 0
176 199 0
174 197 0
174 198 0
175 198 0
174 198 0
175 198 0
175 198 0
174 198 0
174 198 0
174 197 0
175 198 0
175 198 0
174 197 0
175 198 0
174 198 0
174 198 0
174 197 0
172 196 0
174 198 0
174 198 0
173 197 0
175 198 0
175 198 0
175 198 0
175 198 0
174 198 0
172 196 0
175 198 0
173 197 0
174 198 0
174 197 0
175 198 0
173 197 0
174 198 0
176 198 0
175 198 0
175 198 0
174 198 0
175 198 0
175 198 0
175 198 0
174 198 0
174 198 0
173 197 0
176 198 0
175 198 0
174 198 0
175 198 0
173 197 0
176 199 0
174 198 0
174 198 0
175 198 0
174 198 0
175 198 0
176 198 0
174 198 0
175 198 0
175 198 0
174 198 0
173 197 0
174 198 0
173 197 0
177 199 0
174 198 0
176 199 0
175 198 0
173 197 0
175 198 0
174 198 0
175 198 0
173 197 0
175 198 0
174 198 0
174 198 0
176 199 0
177 199 0
174 197 0
174 198 0
175 198 0
174 198 0
176 198 0
175 198 0
175 198 0
172 196 0
174 198 0
174 198 0
175 198 0
174 197 0
173 197 0
175 198 0
174 197 0
174 198 0
175 198 0
176 199 0
174 198 0
173 197 0
173 197 0
174 197 0
173 197 0
175 198 0
174 198 0
174 197 0
173 197 0
175 198 0
174 197 0
176 199 0
173 197 0
175 198 0
174 198 0
173 197 0
177 199 0
174 197 0
174 197 0
174 197 0
174 198 0
173 197 0
174 197 0
175 198 0
174 198 0
174 198 0
173 196 0
172 196 0
174 198 0
174 198 0
173 196 0
175 198 0
175 198 0
175 198 0
174 197 0
172 197 0
173 197 0
175 198 0
173 197 0
174 198 0
173 197 0
174 197 0
173 197 0
173 197 0
175 198 0
174 197 0
174 198 0
174 198 0
176 199 0
174 197 0
174 198 0
175 198 0
175 198 0
174 197 0
174 197 0
173 197 0
174 198 0
174 198 0
174 198 0
175 198 0
173 197 0
174 197 0
174 198 0
172 196 0
174 197 0
173 197 0
172 195 0
175 198 0
174 197 0
173 197 0
173 197 0
173 196 0
173 197 0
175 197 0
172 196 0
173 196 0
172 195 0
173 196 0
172 196 0
173 196 0
172 195 0
175 198 0
172 196 0
174 197 0
172 196 0
170 194 0
173 197 0
170 194 0
171 195 0
169 193 0
172 195 0
173 197 0
170 195 0
172 196 0
173 197 0
174 197 0
173 196 0
171 195 0
174 197 0
172 196 0
176 198 0
173 196 25
173 196 54
172 194 36
170 192 57
172 194 88
169 192 76
167 190 76
168 191 84
172 194 88
174 196 105
174 196 102
175 197 95
175 198 108
164 186 62
176 197 95
175 197 105
169 191 88
171 193 67
169 191 80
167 189 99
162 184 92
169 190 117
163 185 84
159 181 62
157 178 72
154 176 80
148 169 67
159 179 67
150 173 44
154 175 36
162 184 25
147 170 0
145 167 0
146 167 0
146 168 0
130 151 0
136 156 0
135 156 0
124 145 0
131 151 0
132 153 0
137 157 0
136 157 0
129 148 0
133 152 0
134 155 0
128 148 0
129 150 0
138 159 0
145 167 0
140 161 0
142 162 0
137 158 0
134 155 0
145 165 0
144 166 0
142 165 0
141 163 0
147 167 0
153 176 0
155 177 0
155 175 0
160 181 0
157 179 0
154 176 0
160 182 0
156 178 0
163 187 0
154 177 0
159 181 0
164 189 0
163 186 0
158 179 0
165 187 0
161 183 0
161 183 0
163 185 0
167 189 0
168 190 0
164 186 0
171 193 0
167 189 0
167 190 0
168 192 0
166 188 0
168 189 0
169 191 0
173 195 0
162 185 0
170 193 0
169 191 0
169 192 0
170 194 0
172 193 0
171 194 0
172 194 0
173 196 0
170 193 0
169 194 0
173 195 0
174 196 0
169 192 0
174 197 0
173 196 0
172 196 0
174 197 0
171 194 0
173 196 0
172 195 0
174 197 0
172 195 0
172 196 0
174 196 0
172 195 0
174 196 0
173 196 0
172 195 0
173 195 0
173 196 0
172 195 0
172 196 0
172 195 0
174 197 0
172 195 0
174 197 0
173 196 0
174 197 0
173 196 0
174 197 0
174 197 0
174 198 0
173 197 0
172 196 0
175 198 0
174 198 0
173 196 0
173 196 0
172 196 0
174 197 0
173 196 0
174 197 0
174 197 0
173 197 0
175 198 0
174 197 0
174 197 0
175 198 0
173 197 0
175 198 0
173 197 0
175 198 0
174 198 0
174 197 0
175 198 0
174 197 0
173 197 0
173 197 0
174 197 0
172 196 0
174 197 0
174 197 0
174 197 0
176 199 0
174 197 0
173 197 0
175 197 0
174 197 0
174 198 0
175 198 0
176 199 0
175 198 0
174 197 0
174 198 0
176 198 0
175 198 0
175 198 0
173 197 0
175 198 0
174 197 0
174 198 0
174 198 0
174 197 0
175 198 0
175 198 0
176 198 0
174 198 0
175 198 0
173 197 0
173 197 0
175 198 0
174 198 0
175 198 0
174 197 0
174 197 0
174 198 0
176 198 0
175 198 0
175 198 0
173 197 0
174 197 0
174 197 0
174 198 0
173 197 0
174 198 0
175 198 0
174 197 0
174 198 0
174 197 0
175 198 0
173 197 0
174 197 0
175 198 0
174 198 0
174 198 0
174 198 0
174 198 0
174 198 0
175 198 0
175 198 0
174 198 0
176 199 0
174 198 0
174 198 0
176 199 0
176 199 0
175 198 0
176 199 0
174 198 0
174 198 0
174 197 0
175 198 0
174 198 0
175 198 0
174 198 0
172 197 0
174 198 0
173 197 0
173 197 0
174 197 0
174 198 0
175 198 0
175 198 0
175 198 0
174 198 0
174 198 0
175 198 0
176 199 0
176 199 0
176 199 0
173 197 0
176 199 0
176 198 0
174 197 0
174 197 0
173 196 0
175 198 0
175 198 0
174 197 0
173 197 0
174 197 0
176 199 0
175 198 0
176 199 0
175 198 0
175 198 0
174 198 0
174 198 0
174 198 0
176 199 0
175 198 0
175 198 0
176 199 0
174 197 0
175 198 0
173 197 0
174 197 0
176 199 0
174 198 0
175 198 0
173 197 0
174 198 0
175 198 0
174 198 0
173 197 0
175 198 0
174 198 0
174 198 0
174 197 0
174 198 0
173 197 0
173 197 0
176 199 0
174 198 0
175 198 0
174 197 0
174 197 0
174 198 0
175 198 0
176 198 0
175 198 0
174 197 0
175 198 0
174 198 0
175 198 0
174 198 0
174 198 0
174 198 0
175 198 0
176 199 0
173 197 0
174 198 0
177 199 0
174 198 0
174 197 0
174 198 0
174 197 0
173 196 0
174 197 0
175 198 0
175 198 0
171 195 0
177 199 0
174 198 0
174 198 0
172 197 0
174 197 0
173 197 0
174 198 0
172 197 0
174 198 0
174 197 0
175 198 0
175 198 0
173 197 0
174 198 0
174 198 0
174 198 0
175 198 0
174 198 0
174 198 0
172 196 0
176 199 0
175 198 0
172 196 0
171 195 0
176 199 0
176 199 0
173 197 0
172 196 0
174 198 0
174 198 0
174 197 0
175 197 0
174 197 0
175 198 0
173 197 0
173 197 0
174 198 0
174 198 0
175 198 0
174 198 0
175 198 0
173 197 0
174 197 0
172 196 0
173 197 0
174 198 0
176 199 0
172 196 0
175 198 0
172 196 0
173 197 0
175 197 0
171 195 0
172 196 0
172 196 0
174 197 0
172 195 0
174 197 0
173 197 0
172 197 0
175 197 0
172 196 0
174 197 0
174 196 0
172 195 0
174 197 0
172 196 0
173 197 0
173 196 0
173 197 0
170 193 0
174 197 0
173 197 0
174 197 0
172 196 0
172 195 0
175 198 0
172 195 0
173 197 0
174 197 0
172 196 25
171 194 25
173 195 51
169 192 70
167 190 67
166 187 92
166 188 78
167 188 78
174 196 90
176 198 113
170 192 72
171 194 105
174 196 88
175 196 80
173 194 114
173 195 105
174 195 99
168 190 92
164 186 76
170 192 95
166 187 102
162 184 80
162 184 72
161 182 67
171 192 76
155 176 67
157 179 57
160 181 25
151 173 25
158 181 0
157 179 0
147 168 0
145 167 0
147 168 0
145 165 0
145 166 0
138 159 0
140 161 0
150 172 0
142 163 0
147 168 0
143 164 0
133 155 0
138 158 0
139 160 0
144 164 0
137 159 0
141 161 0
137 159 0
149 171 0
145 166 0
145 166 0
142 162 0
148 170 0
149 172 0
149 171 0
149 171 0
150 172 0
153 176 0
153 175 0
154 174 0
156 178 0
153 173 0
157 179 0
155 178 0
163 186 0
163 184 0
159 183 0
159 180 0
166 187 0
166 189 0
165 188 0
163 184 0
163 186 0
166 188 0
166 188 0
164 186 0
166 188 0
166 190 0
167 190 0
167 191 0
168 192 0
168 190 0
168 192 0
167 189 0
167 190 0
171 194 0
171 195 0
168 191 0
167 191 0
169 192 0
170 193 0
171 193 0
171 194 0
171 195 0
169 192 0
171 193 0
172 194 0
172 195 0
173 196 0
173 196 0
170 194 0
171 193 0
172 195 0
171 195 0
172 195 0
172 196 0
174 196 0
169 193 0
173 196 0
170 194 0
174 197 0
173 197 0
172 195 0
173 196 0
174 197 0
176 198 0
171 195 0
173 196 0
173 196 0
171 195 0
172 195 0
173 196 0
174 197 0
174 198 0
174 197 0
172 196 0
174 197 0
172 196 0
173 197 0
173 195 0
172 195 0
173 197 0
173 197 0
175 198 0
174 197 0
174 197 0
173 196 0
172 196 0
173 196 0
174 197 0
175 198 0
173 197 0
171 196 0
173 196 0
174 197 0
172 195 0
173 197 0
175 198 0
173 197 0
175 197 0
175 198 0
174 197 0
175 198 0
174 197 0
175 198 0
175 198 0
172 196 0
174 197 0
174 198 0
173 197 0
173 197 0
176 198 0
174 198 0
173 196 0
173 197 0
174 198 0
173 197 0
174 198 0
174 198 0
175 198 0
175 198 0
173 197 0
175 198 0
174 198 0
176 198 0
174 197 0
175 198 0
175 198 0
174 198 0
175 198 0
174 197 0
173 197 0
173 197 0
175 198 0
174 198 0
173 197 0
174 197 0
171 196 0
175 198 0
174 198 0
175 198 0
175 198 0
175 197 0
174 197 0
174 198 0
173 197 0
175 198 0
174 198 0
176 199 0
174 197 0
174 197 0
172 197 0
174 198 0
174 198 0
176 199 0
174 198 0
175 198 0
173 197 0
175 198 0
175 198 0
175 198 0
172 197 0
175 198 0
176 199 0
173 197 0
176 199 0
174 198 0
174 198 0
174 198 0
174 198 0
177 199 0
175 198 0
174 197 0
175 198 0
174 197 0
174 198 0
174 198 0
175 198 0
174 197 0
174 197 0
174 197 0
174 198 0
175 198 0
174 197 0
174 198 0
174 198 0
174 197 0
174 197 0
174 198 0
175 198 0
175 198 0
175 198 0
172 196 0
175 198 0
175 198 0
174 197 0
175 198 0
174 197 0
175 198 0
174 197 0
174 198 0
174 197 0
175 198 0
173 197 0
174 198 0
173 197 0
173 197 0
173 197 0
173 197 0
176 199 0
173 197 0
174 198 0
174 198 0
176 199 0
176 199 0
174 197 0
175 198 0
175 198 0
176 199 0
174 197 0
174 198 0
175 198 0
173 197 0
173 196 0
174 198 0
173 197 0
174 198 0
175 198 0
175 198 0
174 198 0
175 198 0
174 198 0
175 198 0
176 198 0
174 197 0
175 198 0
176 198 0
174 198 0
174 198 0
176 199 0
174 197 0
174 198 0
174 198 0
174 197 0
174 197 0
174 198 0
176 199 0
175 198 0
175 198 0
173 197 0
173 197 0
175 198 0
175 198 0
174 197 0
173 197 0
174 198 0
175 198 0
174 198 0
175 198 0
174 197 0
175 198 0
175 198 0
174 198 0
176 199 0
175 197 0
174 197 0
174 197 0
174 198 0
173 197 0
174 198 0
175 198 0
174 198 0
174 197 0
174 198 0
174 198 0
174 198 0
175 198 0
176 199 0
174 198 0
173 197 0
174 197 0
174 197 0
173 197 0
172 195 0
175 198 0
175 198 0
175 198 0
174 197 0
173 196 0
174 197 0
175 198 0
174 198 0
174 197 0
175 198 0
173 197 0
173 197 0
175 198 0
173 197 0
174 197 0
174 197 0
173 196 0
173 197 0
172 197 0
172 196 0
171 195 0
174 198 0
173 197 0
175 198 0
176 198 0
173 197 0
173 197 0
173 197 0
175 198 0
175 198 0
172 196 0
174 197 0
174 197 0
174 198 0
172 196 0
174 197 0
175 198 0
174 197 0
173 196 0
173 196 0
173 196 0
173 196 0
173 196 0
172 195 0
173 197 0
172 196 0
171 195 0
174 197 0
173 197 0
174 198 0
171 195 0
171 194 0
172 196 0
170 194 0
173 197 0
171 194 0
172 196 0
173 196 0
174 197 0
172 196 0
172 195 0
171 195 0
173 197 0
171 194 0
174 198 0
166 190 0
171 194 18
171 194 36
167 190 47
168 190 74
170 193 47
172 194 67
172 194 81
164 185 74
176 197 86
179 201 95
173 195 92
176 197 102
173 195 67
175 197 92
173 194 62
162 184 76
168 189 67
166 188 80
163 184 80
164 186 57
166 189 88
167 188 76
162 184 84
164 185 76
160 181 57
170 191 51
153 175 44
157 180 25
157 180 0
157 181 0
145 166 0
153 174 0
143 164 0
141 162 0
145 166 0
142 164 0
145 167 0
139 160 0
137 159 0
138 160 0
137 159 0
134 156 0
140 161 0
142 164 0
149 170 0
133 155 0
151 173 0
147 170 0
149 171 0
142 162 0
145 167 0
148 169 0
140 161 0
148 170 0
157 179 0
158 179 0
156 177 0
155 176 0
161 183 0
152 172 0
151 174 0
159 180 0
155 177 0
156 178 0
160 183 0
157 179 0
156 177 0
156 177 0
161 183 0
167 190 0
160 183 0
163 186 0
168 190 0
167 190 0
169 191 0
165 188 0
169 192 0
165 189 0
166 188 0
166 189 0
169 191 0
168 191 0
166 188 0
169 192 0
167 189 0
168 192 0
168 191 0
171 194 0
173 196 0
169 193 0
171 194 0
169 192 0
170 194 0
172 195 0
172 195 0
173 196 0
170 193 0
170 193 0
172 196 0
172 196 0
173 196 0
171 194 0
171 193 0
170 194 0
173 196 0
170 193 0
173 196 0
174 197 0
174 196 0
174 198 0
174 197 0
176 198 0
171 195 0
171 194 0
171 194 0
170 194 0
174 196 0
172 195 0
171 194 0
171 194 0
172 196 0
174 197 0
172 196 0
173 197 0
173 197 0
175 198 0
172 194 0
171 195 0
173 197 0
173 196 0
174 198 0
175 198 0
174 197 0
175 197 0
174 197 0
172 195 0
174 197 0
172 196 0
174 197 0
172 196 0
174 197 0
175 198 0
173 196 0
173 197 0
176 198 0
173 197 0
173 197 0
174 197 0
173 197 0
172 196 0
172 196 0
175 198 0
170 194 0
175 198 0
176 199 0
173 197 0
173 197 0
175 198 0
173 197 0
173 197 0
173 197 0
175 198 0
174 197 0
172 197 0
175 198 0
175 198 0
175 198 0
175 198 0
175 198 0
175 198 0
175 198 0
173 197 0
175 198 0
174 197 0
176 198 0
174 198 0
174 197 0
174 198 0
174 197 0
175 198 0
173 197 0
174 198 0
175 198 0
176 198 0
174 197 0
173 196 0
175 198 0
174 198 0
174 197 0
174 198 0
174 197 0
174 198 0
175 198 0
176 199 0
174 198 0
175 198 0
175 198 0
174 198 0
174 198 0
176 198 0
174 198 0
174 197 0
173 197 0
174 198 0
175 198 0
174 197 0
176 199 0
175 198 0
174 198 0
174 197 0
173 197 0
174 198 0
175 198 0
174 198 0
174 197 0
174 198 0
175 198 0
174 197 0
173 197 0
174 197 0
173 197 0
174 197 0
174 198 0
173 197 0
174 197 0
174 198 0
174 198 0
177 199 0
174 198 0
175 197 0
175 198 0
175 198 0
175 198 0
174 197 0
174 198 0
174 198 0
175 198 0
174 198 0
173 197 0
173 197 0
175 198 0
175 198 0
175 198 0
175 198 0
173 197 0
175 198 0
175 198 0
174 198 0
174 198 0
175 198 0
174 197 0
173 197 0
175 198 0
173 197 0
173 197 0
175 198 0
176 199 0
174 198 0
174 197 0
175 198 0
173 197 0
174 198 0
174 198 0
173 197 0
174 198 0
173 197 0
173 197 0
174 197 0
175 198 0
173 197 0
176 199 0
174 198 0
175 198 0
175 198 0
174 197 0
173 197 0
175 198 0
175 198 0
174 197 0
176 199 0
175 198 0
173 197 0
175 198 0
175 198 0
174 198 0
174 198 0
175 198 0
174 198 0
175 198 0
175 198 0
175 198 0
174 197 0
174 197 0
175 198 0
174 197 0
175 198 0
174 197 0
174 198 0
174 197 0
173 197 0
173 197 0
174 197 0
174 197 0
175 198 0
175 198 0
174 197 0
173 197 0
173 196 0
173 197 0
176 198 0
175 198 0
175 198 0
174 197 0
175 198 0
174 198 0
174 197 0
173 197 0
175 198 0
173 197 0
174 197 0
175 197 0
174 198 0
174 197 0
174 198 0
173 196 0
173 197 0
174 197 0
175 198 0
175 198 0
174 197 0
174 198 0
175 198 0
173 196 0
174 197 0
174 197 0
174 197 0
174 197 0
175 198 0
175 198 0
172 196 0
174 198 0
174 198 0
173 197 0
173 197 0
173 197 0
174 198 0
174 198 0
175 198 0
172 196 0
173 197 0
175 198 0
174 197 0
173 197 0
173 197 0
173 197 0
173 196 0
172 196 0
173 197 0
173 197 0
176 198 0
175 198 0
173 197 0
174 197 0
172 196 0
175 198 0
174 197 0
174 198 0
173 197 0
173 196 0
173 197 0
174 197 0
174 197 0
172 197 0
174 198 0
173 197 0
173 196 0
173 197 0
173 197 0
174 197 0
173 196 0
175 197 0
174 197 0
173 196 0
171 195 0
173 196 0
172 196 0
170 195 0
170 194 0
173 196 0
169 194 0
173 197 0
172 196 0
172 196 0
172 195 0
170 194 0
170 194 0
172 195 0
175 197 0
172 196 0
175 198 0
172 195 18
172 195 0
169 193 0
171 195 18
171 193 60
169 191 60
169 192 70
169 191 44
171 194 57
175 197 72
179 201 99
179 200 88
172 193 80
174 196 84
174 195 80
170 192 72
166 188 72
162 183 67
165 186 84
166 187 80
166 187 62
162 184 62
169 191 84
159 180 62
157 179 51
160 181 57
163 185 44
163 186 0
156 178 0
153 175 0
151 171 0
155 177 0
150 172 0
150 171 0
149 171 0
145 166 0
140 161 0
148 170 0
139 160 0
143 165 0
152 174 0
149 171 0
147 168 0
144 166 0
149 170 0
145 166 0
150 173 0
137 159 0
145 166 0
144 167 0
142 162 0
145 167 0
152 174 0
149 170 0
150 173 0
152 174 0
159 182 0
153 176 0
161 183 0
157 180 0
155 178 0
156 178 0
160 183 0
159 181 0
161 181 0
157 180 0
165 188 0
166 188 0
166 189 0
167 191 0
167 190 0
165 189 0
167 190 0
167 189 0
165 188 0
166 190 0
167 189 0
170 193 0
170 193 0
167 188 0
170 192 0
170 193 0
170 193 0
169 192 0
169 192 0
171 194 0
167 191 0
166 189 0
170 193 0
172 196 0
167 189 0
171 194 0
168 191 0
167 189 0
172 195 0
168 191 0
172 195 0
174 196 0
173 195 0
171 194 0
172 195 0
171 194 0
170 194 0
173 195 0
171 194 0
174 196 0
175 198 0
171 194 0
172 196 0
172 195 0
173 195 0
173 197 0
174 197 0
173 196 0
171 195 0
172 195 0
173 196 0
174 197 0
173 197 0
172 196 0
174 197 0
174 197 0
174 197 0
173 197 0
174 197 0
175 198 0
173 197 0
172 196 0
174 197 0
175 198 0
173 197 0
175 198 0
173 196 0
175 198 0
173 196 0
172 195 0
174 197 0
175 197 0
173 197 0
173 196 0
174 198 0
174 197 0
173 197 0
174 198 0
174 198 0
174 197 0
175 198 0
174 198 0
172 196 0
175 198 0
175 198 0
174 197 0
174 197 0
175 198 0
175 198 0
174 198 0
173 197 0
173 197 0
173 196 0
175 198 0
174 197 0
174 197 0
174 197 0
174 197 0
177 199 0
175 198 0
175 198 0
174 197 0
174 197 0
175 198 0
174 197 0
173 197 0
175 198 0
174 197 0
174 198 0
173 197 0
173 197 0
174 198 0
176 198 0
172 196 0
175 198 0
174 198 0
173 197 0
175 198 0
175 198 0
173 197 0
175 198 0
176 198 0
173 197 0
175 198 0
174 198 0
173 197 0
174 198 0
174 197 0
175 198 0
175 198 0
175 198 0
175 198 0
174 198 0
174 197 0
173 197 0
174 198 0
174 197 0
173 197 0
174 198 0
175 198 0
174 198 0
173 197 0
174 198 0
176 198 0
175 198 0
174 197 0
173 197 0
174 197 0
175 197 0
175 198 0
175 198 0
175 198 0
176 199 0
175 198 0
174 198 0
175 198 0
176 199 0
175 198 0
174 198 0
176 199 0
175 198 0
175 198 0
174 198 0
173 197 0
174 198 0
173 197 0
174 197 0
175 198 0
175 198 0
176 198 0
176 199 0
175 198 0
174 198 0
174 198 0
174 198 0
175 198 0
175 198 0
175 198 0
175 198 0
174 197 0
176 199 0
174 198 0
174 197 0
173 197 0
174 198 0
172 196 0
176 199 0
174 197 0
174 198 0
175 198 0
174 198 0
173 197 0
173 197 0
175 198 0
173 197 0
174 198 0
175 198 0
175 198 0
175 198 0
174 198 0
174 198 0
173 197 0
176 199 0
174 198 0
172 197 0
176 199 0
175 198 0
173 197 0
175 198 0
174 198 0
174 198 0
174 198 0
175 198 0
174 198 0
174 198 0
174 198 0
174 198 0
175 198 0
175 198 0
175 198 0
175 198 0
174 198 0
174 198 0
174 197 0
175 198 0
177 199 0
175 198 0
174 198 0
174 198 0
174 198 0
174 198 0
174 198 0
175 198 0
175 198 0
174 198 0
172 196 0
175 198 0
176 199 0
174 197 0
175 198 0
174 198 0
174 198 0
174 198 0
174 198 0
175 198 0
175 198 0
174 198 0
174 198 0
173 197 0
174 197 0
174 197 0
175 198 0
175 198 0
174 198 0
173 197 0
174 198 0
173 197 0
175 198 0
174 197 0
172 196 0
173 197 0
174 198 0
174 197 0
174 198 0
174 198 0
175 198 0
175 198 0
174 198 0
173 197 0
174 198 0
173 196 0
174 197 0
174 197 0
173 197 0
175 197 0
174 197 0
176 198 0
174 198 0
175 198 0
173 197 0
175 198 0
172 196 0
173 197 0
175 198 0
175 198 0
173 197 0
173 197 0
173 197 0
176 199 0
174 197 0
174 197 0
175 198 0
173 197 0
172 197 0
173 197 0
173 197 0
174 197 0
174 197 0
173 197 0
174 198 0
171 195 0
173 197 0
171 196 0
173 196 0
175 198 0
172 196 0
173 197 0
174 197 0
170 194 0
172 196 0
173 196 0
174 197 0
172 196 0
172 196 0
174 198 0
173 196 0
172 196 0
174 198 0
172 195 0
171 194 0
176 198 0
172 196 0
172 196 0
169 193 0
176 199 0
170 194 0
173 196 0
174 197 0
168 192 0
170 193 0
173 196 0
172 196 0
173 196 0
172 196 0
170 194 0
169 193 18
171 194 31
175 197 36
170 193 51
169 191 47
165 187 40
169 192 36
170 193 70
164 186 44
174 196 72
175 197 80
174 196 62
173 194 76
173 194 80
171 193 76
168 189 62
168 190 84
165 187 57
164 187 72
166 187 80
160 181 57
169 190 67
173 193 88
161 183 25
156 178 51
160 182 0
163 186 0
158 181 0
155 177 0
152 173 0
148 170 0
156 178 0
148 169 0
151 173 0
151 173 0
158 180 0
152 174 0
149 171 0
150 173 0
148 169 0
152 175 0
151 174 0
150 172 0
148 170 0
151 173 0
155 177 0
143 166 0
145 169 0
151 173 0
150 171 0
155 179 0
157 180 0
153 175 0
152 174 0
160 183 0
160 182 0
156 178 0
153 176 0
163 186 0
161 183 0
158 180 0
162 185 0
161 184 0
160 182 0
161 184 0
164 187 0
161 183 0
167 190 0
164 186 0
166 190 0
166 188 0
167 189 0
166 190 0
165 188 0
169 191 0
169 192 0
166 189 0
169 191 0
164 187 0
171 195 0
167 191 0
171 194 0
169 192 0
168 191 0
168 191 0
172 195 0
168 191 0
170 193 0
171 194 0
168 191 0
173 197 0
172 195 0
170 192 0
173 195 0
171 194 0
169 191 0
172 195 0
170 193 0
171 194 0
171 193 0
170 192 0
172 195 0
172 195 0
171 194 0
174 197 0
173 196 0
175 197 0
173 197 0
173 195 0
175 198 0
171 195 0
173 197 0
172 195 0
173 197 0
172 195 0
174 198 0
171 195 0
172 196 0
171 194 0
170 194 0
172 196 0
175 197 0
174 197 0
172 196 0
174 197 0
173 197 0
172 196 0
174 197 0
173 196 0
174 197 0
174 197 0
174 197 0
173 196 0
174 196 0
173 197 0
171 195 0
174 198 0
174 197 0
174 198 0
174 196 0
173 197 0
174 197 0
175 198 0
174 197 0
173 196 0
174 198 0
175 198 0
174 198 0
174 197 0
174 197 0
174 197 0
175 198 0
174 197 0
174 198 0
174 197 0
173 197 0
174 197 0
176 199 0
175 198 0
174 196 0
174 197 0
173 197 0
174 198 0
172 196 0
175 198 0
174 198 0
176 199 0
174 197 0
173 196 0
176 199 0
174 198 0
174 197 0
173 197 0
175 198 0
176 198 0
175 198 0
173 197 0
174 197 0
173 197 0
174 198 0
175 198 0
174 197 0
175 198 0
174 197 0
174 198 0
174 197 0
175 198 0
175 198 0
175 198 0
174 198 0
173 197 0
173 197 0
173 196 0
174 198 0
174 198 0
173 197 0
175 198 0
175 198 0
176 198 0
174 198 0
173 197 0
173 197 0
174 197 0
174 198 0
174 197 0
176 199 0
173 197 0
176 199 0
173 197 0
175 198 0
174 198 0
174 198 0
174 197 0
176 198 0
174 197 0
175 198 0
174 198 0
174 197 0
175 198 0
176 199 0
176 198 0
174 198 0
173 197 0
174 197 0
174 198 0
175 198 0
173 197 0
176 198 0
175 198 0
174 197 0
173 197 0
175 198 0
175 198 0
174 197 0
174 197 0
175 198 0
173 197 0
175 198 0
173 197 0
175 198 0
175 198 0
174 198 0
173 197 0
174 197 0
174 198 0
174 198 0
174 197 0
176 199 0
174 198 0
175 198 0
173 197 0
173 197 0
174 198 0
173 197 0
173 197 0
175 198 0
175 198 0
175 198 0
175 198 0
176 199 0
175 198 0
175 198 0
174 198 0
175 198 0
174 198 0
173 197 0
175 198 0
174 198 0
173 197 0
174 197 0
175 198 0
174 198 0
176 199 0
175 198 0
174 198 0
174 197 0
174 197 0
174 198 0
173 197 0
174 197 0
175 198 0
175 198 0
174 198 0
173 197 0
176 198 0
175 198 0
175 198 0
174 198 0
174 197 0
175 198 0
174 198 0
175 198 0
175 198 0
173 197 0
175 198 0
176 198 0
175 198 0
175 198 0
175 198 0
174 197 0
174 198 0
173 197 0
176 198 0
175 198 0
173 197 0
176 199 0
175 198 0
175 198 0
175 198 0
175 198 0
174 198 0
174 197 0
172 197 0
175 198 0
175 198 0
174 198 0
175 198 0
176 198 0
173 197 0
173 197 0
172 196 0
176 199 0
174 197 0
173 197 0
173 197 0
175 198 0
177 199 0
175 198 0
174 197 0
175 198 0
174 197 0
176 198 0
176 199 0
174 197 0
175 198 0
173 197 0
174 197 0
176 198 0
174 198 0
174 197 0
174 197 0
173 197 0
173 197 0
173 197 0
173 197 0
174 198 0
174 197 0
173 197 0
174 197 0
175 198 0
174 198 0
174 197 0
173 197 0
173 197 0
174 197 0
174 197 0
173 197 0
172 196 0
175 198 0
174 198 0
174 197 0
174 197 0
173 197 0
174 197 0
173 196 0
175 198 0
172 196 0
174 198 0
173 197 0
174 197 0
173 197 0
173 196 0
173 196 0
172 196 0
173 196 0
174 197 0
173 197 0
175 198 0
174 197 0
174 197 0
172 196 0
170 194 0
169 193 0
171 195 0
172 195 0
173 197 0
172 195 0
174 197 0
171 195 0
170 193 0
174 197 0
174 197 0
173 196 0
172 196 0
172 195 0
172 195 0
173 197 0
173 197 0
174 197 0
171 195 0
172 195 18
172 195 25
172 195 0
173 195 36
176 198 62
178 199 74
172 194 57
174 195 47
175 197 76
173 195 76
176 196 57
175 197 62
174 195 62
169 190 76
172 193 80
170 191 62
167 189 67
168 189 67
170 192 51
171 192 92
167 187 76
168 190 72
163 185 36
166 189 25
167 190 0
158 181 0
161 184 0
154 176 0
148 170 0
154 176 0
156 178 0
152 174 0
151 173 0
150 173 0
147 168 0
157 178 0
155 178 0
153 175 0
150 172 0
153 175 0
148 171 0
145 167 0
154 176 0
151 174 0
160 182 0
152 174 0
151 174 0
158 180 0
157 179 0
155 177 0
157 179 0
157 179 0
156 178 0
157 179 0
160 182 0
161 184 0
153 176 0
158 180 0
156 179 0
161 182 0
162 185 0
163 185 0
164 187 0
164 187 0
159 181 0
159 183 0
163 186 0
159 182 0
165 188 0
165 189 0
165 188 0
167 189 0
170 192 0
165 187 0
170 192 0
170 193 0
165 188 0
168 191 0
169 193 0
169 192 0
169 193 0
167 191 0
163 185 0
169 192 0
170 193 0
171 193 0
173 196 0
170 193 0
170 192 0
171 194 0
170 193 0
172 194 0
170 193 0
171 193 0
168 191 0
170 193 0
170 193 0
172 196 0
170 193 0
173 196 0
170 193 0
171 195 0
172 196 0
171 194 0
172 195 0
173 196 0
173 195 0
172 195 0
174 197 0
171 195 0
174 197 0
174 196 0
172 195 0
172 196 0
172 195 0
173 197 0
175 198 0
173 197 0
173 196 0
172 196 0
174 197 0
173 197 0
173 196 0
172 195 0
174 197 0
173 196 0
174 197 0
174 198 0
174 197 0
173 197 0
174 197 0
176 198 0
175 197 0
173 197 0
174 198 0
175 197 0
175 198 0
175 198 0
173 197 0
172 196 0
175 198 0
174 197 0
174 197 0
172 196 0
175 198 0
173 197 0
173 197 0
173 197 0
175 198 0
174 197 0
174 197 0
174 197 0
174 198 0
174 197 0
174 197 0
173 197 0
173 197 0
175 198 0
173 197 0
174 198 0
175 198 0
174 197 0
174 198 0
173 196 0
174 197 0
174 197 0
174 198 0
175 198 0
174 198 0
174 197 0
175 198 0
173 197 0
175 198 0
175 197 0
175 198 0
174 197 0
175 198 0
176 198 0
173 197 0
172 196 0
175 198 0
174 198 0
174 197 0
173 197 0
173 197 0
174 198 0
173 197 0
173 197 0
174 198 0
174 198 0
175 198 0
176 198 0
174 197 0
175 198 0
175 198 0
173 197 0
175 198 0
174 197 0
174 198 0
173 197 0
172 197 0
177 199 0
174 198 0
176 199 0
174 198 0
174 198 0
175 198 0
174 197 0
174 198 0
174 197 0
173 197 0
175 198 0
174 198 0
174 198 0
175 198 0
175 198 0
176 198 0
173 197 0
175 198 0
173 197 0
174 198 0
174 198 0
173 197 0
175 198 0
175 198 0
174 198 0
174 197 0
177 199 0
173 197 0
175 198 0
174 197 0
174 198 0
174 198 0
174 198 0
174 198 0
175 198 0
176 199 0
174 198 0
175 198 0
175 198 0
176 198 0
176 198 0
176 199 0
175 198 0
174 198 0
176 199 0
174 198 0
173 197 0
174 198 0
174 198 0
175 198 0
175 198 0
174 198 0
172 197 0
176 198 0
175 198 0
173 197 0
175 198 0
174 198 0
174 198 0
174 198 0
174 197 0
175 198 0
177 199 0
174 198 0
174 198 0
174 198 0
174 197 0
173 197 0
175 198 0
174 198 0
174 198 0
174 197 0
174 197 0
174 198 0
175 198 0
176 199 0
174 197 0
175 198 0
175 198 0
175 198 0
175 198 0
176 199 0
175 198 0
174 198 0
175 198 0
174 198 0
174 198 0
174 198 0
176 198 0
173 197 0
173 197 0
175 198 0
175 198 0
173 197 0
174 197 0
173 197 0
173 197 0
174 198 0
174 198 0
173 197 0
173 197 0
173 197 0
174 197 0
174 198 0
174 198 0
174 198 0
174 198 0
175 198 0
175 198 0
173 197 0
176 199 0
175 198 0
174 198 0
174 197 0
176 199 0
174 197 0
174 198 0
173 197 0
174 198 0
176 199 0
175 198 0
173 196 0
172 197 0
173 197 0
175 198 0
175 198 0
174 198 0
176 198 0
174 198 0
174 197 0
173 197 0
174 198 0
174 198 0
174 197 0
174 197 0
175 198 0
175 198 0
175 198 0
175 198 0
175 198 0
174 198 0
175 198 0
173 197 0
172 196 0
172 196 0
173 197 0
174 198 0
172 197 0
173 197 0
176 199 0
173 197 0
173 197 0
173 197 0
173 197 0
174 198 0
173 197 0
171 195 0
175 198 0
172 195 0
175 198 0
174 197 0
173 196 0
174 198 0
173 197 0
174 197 0
174 197 0
175 198 0
172 196 0
174 198 0
173 197 0
175 198 0
173 197 0
174 196 0
172 195 0
173 197 0
174 197 0
173 197 0
174 197 0
171 195 0
174 197 0
172 195 0
174 196 0
171 194 0
172 195 0
171 195 0
172 196 0
173 196 0
171 194 0
170 194 0
171 195 0
174 197 0
173 196 0
173 196 0
174 197 0
173 196 0
171 194 0
172 195 0
173 196 0
174 197 0
175 198 25
171 194 18
173 196 25
169 192 25
172 194 0
176 198 76
179 201 76
174 196 76
172 193 57
175 197 76
173 194 80
178 199 80
173 194 51
168 189 62
175 195 67
168 190 76
163 185 57
171 192 95
172 192 76
162 184 44
165 187 44
166 187 44
166 187 51
169 191 25
164 187 0
158 182 0
159 181 0
160 181 0
158 179 25
158 179 0
155 177 0
158 179 0
162 183 0
153 175 0
154 177 0
150 172 0
155 177 0
158 181 0
149 171 0
149 171 0
154 176 0
158 181 0
151 174 0
162 183 0
153 176 0
159 183 0
158 182 0
150 173 0
154 176 0
156 178 0
156 179 0
159 183 0
161 184 0
157 180 0
159 182 0
163 185 0
160 182 0
161 184 0
157 181 0
162 184 0
162 185 0
159 183 0
159 181 0
165 188 0
162 184 0
163 186 0
166 189 0
157 180 0
162 185 0
169 194 0
162 184 0
167 189 0
166 189 0
164 187 0
169 191 0
165 188 0
167 191 0
172 195 0
170 192 0
170 193 0
168 190 0
171 193 0
167 190 0
166 189 0
170 193 0
171 194 0
169 191 0
169 192 0
169 192 0
169 192 0
171 194 0
171 193 0
172 193 0
171 194 0
170 193 0
170 194 0
170 194 0
172 196 0
171 194 0
170 194 0
171 194 0
170 194 0
166 189 0
174 197 0
171 194 0
172 195 0
172 195 0
174 197 0
173 196 0
171 194 0
173 197 0
175 198 0
170 195 0
172 195 0
171 195 0
171 194 0
174 197 0
171 194 0
174 197 0
173 197 0
173 196 0
173 196 0
174 197 0
174 197 0
173 197 0
174 196 0
174 197 0
174 197 0
172 195 0
172 195 0
174 197 0
173 196 0
176 198 0
174 197 0
174 198 0
174 197 0
174 197 0
173 196 0
176 199 0
173 197 0
176 198 0
172 196 0
174 197 0
174 197 0
174 197 0
175 198 0
176 198 0
174 198 0
175 198 0
173 196 0
174 198 0
173 197 0
172 196 0
172 196 0
174 197 0
175 198 0
174 198 0
176 199 0
174 198 0
175 198 0
175 198 0
174 197 0
174 197 0
176 199 0
173 197 0
175 198 0
174 197 0
175 198 0
174 197 0
174 198 0
174 198 0
174 198 0
173 197 0
173 197 0
174 198 0
175 198 0
175 198 0
175 198 0
175 198 0
174 197 0
176 198 0
173 197 0
173 197 0
175 198 0
175 198 0
173 197 0
174 198 0
174 198 0
174 197 0
173 197 0
173 197 0
173 197 0
176 199 0
174 197 0
176 199 0
175 198 0
175 198 0
173 197 0
174 198 0
174 198 0
174 198 0
175 198 0
173 197 0
173 197 0
173 197 0
174 197 0
175 198 0
175 198 0
175 198 0
174 197 0
175 198 0
173 197 0
174 198 0
175 198 0
173 197 0
174 197 0
175 198 0
175 198 0
173 197 0
175 198 0
175 198 0
175 198 0
174 198 0
174 197 0
172 196 0
175 198 0
175 198 0
175 198 0
174 197 0
174 198 0
175 198 0
175 198 0
174 197 0
173 197 0
174 198 0
176 198 0
175 198 0
174 198 0
174 198 0
173 197 0
174 197 0
175 198 0
174 197 0
174 198 0
175 198 0
174 198 0
175 198 0
175 198 0
174 198 0
174 198 0
175 198 0
174 198 0
175 198 0
174 197 0
173 197 0
175 198 0
174 198 0
176 198 0
175 198 0
174 198 0
175 198 0
175 198 0
174 198 0
176 199 0
173 197 0
174 198 0
175 198 0
176 199 0
173 197 0
174 198 0
174 198 0
175 198 0
174 198 0
174 198 0
174 197 0
175 198 0
175 198 0
176 199 0
174 198 0
174 198 0
174 198 0
174 198 0
174 198 0
175 198 0
174 197 0
174 198 0
173 197 0
174 198 0
173 197 0
174 197 0
175 198 0
175 198 0
176 199 0
174 198 0
174 197 0
173 197 0
175 198 0
176 199 0
175 198 0
174 197 0
174 198 0
174 198 0
174 198 0
175 198 0
174 198 0
174 198 0
174 198 0
174 198 0
172 196 0
175 198 0
174 198 0
173 197 0
173 197 0
174 197 0
174 198 0
174 197 0
174 197 0
174 197 0
175 198 0
176 199 0
174 197 0
175 198 0
176 198 0
175 198 0
175 198 0
174 197 0
175 198 0
175 198 0
173 197 0
174 198 0
174 198 0
175 198 0
175 198 0
174 198 0
175 198 0
174 198 0
175 198 0
174 198 0
174 197 0
175 198 0
171 195 0
173 197 0
174 197 0
174 198 0
173 197 0
173 197 0
173 197 0
173 197 0
173 197 0
175 198 0
173 197 0
173 197 0
175 198 0
173 197 0
173 197 0
174 198 0
172 196 0
175 198 0
173 197 0
174 198 0
172 196 0
175 198 0
173 197 0
172 195 0
174 198 0
174 197 0
172 196 0
172 196 0
173 196 0
173 197 0
172 196 0
173 197 0
175 197 0
175 198 0
176 199 0
173 197 0
173 196 0
172 196 0
172 196 0
172 196 0
174 198 0
173 196 0
172 196 0
173 196 0
173 196 0
173 197 0
170 194 0
172 195 0
173 197 0
171 194 0
173 196 0
172 195 0
173 196 0
171 195 0
169 193 0
174 196 0
172 195 0
171 194 0
172 196 0
173 196 0
174 197 0
171 195 0
169 192 18
169 192 25
174 197 44
176 197 40
172 194 25
176 198 62
179 200 76
174 195 67
174 195 67
175 195 72
177 197 76
172 193 51
175 196 84
180 200 88
173 194 80
174 195 72
172 193 44
169 190 51
162 185 25
167 189 44
169 192 0
161 184 0
168 190 0
162 185 0
156 179 0
166 188 0
153 175 0
155 177 0
157 178 0
154 175 0
160 182 0
154 176 0
158 182 0
148 170 0
147 169 0
154 176 0
157 179 0
155 178 0
145 167 0
152 174 0
154 176 0
161 184 0
154 176 0
149 172 0
154 175 0
158 179 0
158 181 0
161 183 0
160 183 0
159 182 0
159 182 0
165 187 0
160 183 0
166 189 0
161 184 0
162 185 0
164 187 0
159 181 0
163 187 0
160 183 0
163 186 0
164 188 0
164 188 0
163 186 0
162 185 0
169 193 0
165 187 0
164 186 0
169 193 0
169 192 0
169 193 0
170 193 0
170 192 0
168 192 0
168 191 0
164 187 0
171 194 0
172 194 0
168 191 0
167 190 0
169 192 0
171 193 0
166 190 0
168 191 0
168 191 0
169 193 0
172 195 0
173 196 0
171 194 0
170 193 0
171 193 0
171 194 0
172 195 0
169 192 0
167 191 0
174 196 0
172 195 0
175 198 0
173 196 0
171 194 0
170 194 0
173 195 0
171 195 0
169 193 0
171 195 0
174 197 0
173 196 0
174 195 0
172 195 0
174 196 0
175 198 0
172 195 0
172 195 0
172 196 0
171 195 0
173 196 0
174 197 0
173 196 0
173 196 0
173 196 0
172 197 0
173 197 0
172 196 0
175 198 0
173 197 0
173 196 0
173 197 0
174 197 0
174 197 0
173 196 0
173 196 0
172 195 0
174 197 0
175 198 0
175 198 0
172 196 0
173 197 0
174 197 0
174 197 0
173 196 0
173 197 0
173 197 0
175 197 0
175 198 0
174 198 0
175 198 0
175 198 0
175 198 0
172 196 0
173 197 0
175 198 0
173 197 0
173 197 0
174 198 0
175 198 0
173 197 0
174 197 0
173 197 0
172 197 0
173 197 0
174 197 0
174 198 0
175 198 0
174 198 0
175 198 0
174 198 0
176 199 0
175 198 0
174 198 0
173 197 0
174 197 0
173 197 0
174 197 0
174 197 0
174 198 0
174 197 0
175 198 0
174 197 0
175 198 0
175 198 0
174 197 0
175 198 0
175 198 0
175 198 0
176 199 0
175 198 0
174 198 0
175 198 0
174 198 0
176 199 0
175 198 0
177 199 0
175 198 0
174 198 0
173 197 0
176 199 0
172 196 0
175 198 0
175 198 0
174 198 0
174 198 0
175 198 0
174 198 0
174 198 0
175 198 0
175 198 0
173 197 0
174 197 0
173 197 0
174 198 0
174 197 0
175 198 0
174 198 0
175 198 0
174 198 0
175 198 0
176 199 0
176 199 0
175 198 0
176 199 0
173 197 0
175 198 0
174 198 0
175 198 0
172 197 0
176 198 0
174 198 0
176 199 0
174 198 0
173 197 0
172 196 0
175 198 0
173 197 0
173 197 0
175 198 0
175 198 0
174 198 0
175 198 0
172 197 0
175 198 0
174 197 0
174 197 0
176 199 0
174 197 0
175 198 0
174 197 0
174 198 0
174 198 0
174 198 0
175 198 0
173 197 0
175 198 0
175 198 0
174 197 0
174 198 0
174 198 0
174 198 0
176 198 0
175 198 0
174 198 0
174 197 0
175 198 0
175 198 0
174 198 0
174 198 0
175 198 0
174 198 0
176 198 0
175 198 0
175 198 0
174 198 0
174 198 0
176 198 0
175 198 0
174 197 0
175 198 0
174 198 0
175 198 0
174 198 0
174 197 0
174 198 0
173 197 0
174 197 0
173 197 0
176 199 0
174 197 0
174 198 0
174 198 0
174 197 0
174 198 0
175 198 0
174 198 0
175 198 0
173 197 0
174 197 0
175 198 0
173 197 0
174 198 0
174 197 0
172 196 0
174 198 0
175 198 0
175 198 0
175 198 0
173 197 0
176 198 0
175 198 0
174 197 0
174 197 0
174 197 0
173 197 0
174 197 0
174 198 0
175 198 0
174 198 0
174 197 0
174 198 0
175 198 0
175 198 0
176 198 0
174 198 0
176 198 0
175 198 0
174 197 0
173 197 0
174 198 0
174 197 0
173 197 0
174 198 0
173 197 0
174 198 0
175 198 0
175 198 0
175 198 0
175 198 0
173 197 0
173 196 0
175 198 0
173 196 0
176 198 0
173 197 0
175 198 0
173 197 0
173 197 0
175 198 0
174 198 0
173 197 0
174 198 0
175 198 0
174 197 0
173 197 0
174 198 0
176 198 0
174 198 0
173 197 0
172 196 0
175 198 0
173 197 0
175 198 0
174 198 0
174 197 0
175 198 0
174 197 0
173 197 0
175 198 0
175 198 0
175 198 0
173 196 0
173 196 0
173 197 0
175 198 0
172 196 0
173 197 0
174 197 0
175 198 0
172 196 0
171 195 0
172 196 0
173 197 0
171 195 0
174 197 0
172 196 0
173 197 0
171 195 0
170 193 0
171 194 0
171 195 0
175 197 0
171 195 0
170 194 0
171 195 0
173 197 0
173 196 0
172 194 0
172 195 0
171 194 0
174 198 0
173 196 0
174 198 0
173 197 0
172 195 0
172 195 25
175 197 0
174 196 25
174 197 44
174 195 36
173 194 57
172 193 72
176 198 57
175 195 67
176 196 76
172 192 62
179 200 62
174 194 62
167 189 51
170 191 44
169 190 36
170 192 44
170 192 36
166 189 25
164 187 0
163 186 0
157 179 0
163 186 0
155 177 0
158 180 0
162 183 0
161 183 0
152 175 0
157 180 0
149 171 0
156 178 0
156 178 0
157 180 0
164 187 0
155 177 0
158 182 0
153 176 0
154 177 0
155 178 0
153 175 0
160 184 0
154 179 0
154 176 0
156 178 0
163 187 0
161 184 0
156 180 0
162 185 0
160 182 0
161 184 0
160 183 0
163 186 0
163 185 0
156 179 0
167 190 0
161 184 0
157 179 0
164 186 0
165 187 0
162 186 0
164 186 0
166 190 0
163 186 0
168 191 0
167 191 0
167 190 0
166 189 0
169 192 0
161 183 0
167 190 0
163 186 0
168 192 0
167 190 0
166 190 0
169 191 0
173 195 0
170 193 0
169 192 0
168 192 0
168 191 0
173 195 0
169 192 0
171 194 0
166 189 0
171 195 0
172 196 0
169 192 0
170 193 0
171 194 0
172 195 0
173 196 0
170 194 0
170 193 0
171 193 0
173 196 0
170 192 0
173 196 0
169 191 0
172 195 0
172 195 0
172 196 0
172 195 0
174 197 0
172 194 0
173 196 0
174 196 0
174 197 0
170 194 0
174 197 0
170 193 0
173 196 0
174 197 0
170 193 0
173 196 0
171 193 0
173 197 0
175 198 0
173 197 0
174 197 0
173 196 0
171 195 0
172 196 0
174 197 0
173 197 0
173 196 0
172 196 0
175 197 0
173 196 0
174 198 0
176 199 0
173 197 0
172 196 0
172 195 0
174 197 0
171 195 0
173 197 0
173 196 0
172 196 0
174 197 0
172 195 0
174 197 0
173 197 0
172 196 0
173 197 0
174 197 0
173 196 0
175 198 0
174 198 0
175 198 0
173 196 0
176 199 0
173 197 0
175 198 0
175 198 0
174 197 0
174 198 0
174 198 0
174 198 0
173 197 0
173 196 0
174 197 0
174 197 0
173 197 0
175 198 0
174 198 0
173 197 0
173 197 0
174 197 0
175 198 0
175 198 0
175 197 0
174 197 0
173 197 0
173 196 0
173 197 0
175 198 0
174 198 0
174 198 0
174 197 0
174 198 0
175 198 0
173 197 0
173 197 0
174 198 0
174 197 0
173 197 0
174 198 0
174 197 0
175 198 0
176 198 0
173 197 0
174 197 0
175 198 0
174 198 0
173 197 0
174 197 0
174 198 0
175 198 0
175 198 0
173 197 0
174 197 0
175 198 0
175 198 0
174 198 0
175 198 0
174 197 0
174 197 0
174 197 0
174 198 0
175 198 0
173 197 0
175 198 0
174 197 0
173 197 0
174 197 0
173 197 0
174 198 0
175 198 0
174 198 0
175 198 0
175 198 0
173 197 0
175 198 0
177 199 0
174 197 0
175 198 0
174 197 0
176 199 0
174 198 0
174 197 0
175 198 0
175 198 0
174 198 0
175 198 0
175 198 0
175 198 0
174 197 0
173 197 0
174 197 0
175 198 0
175 198 0
175 198 0
174 198 0
175 198 0
175 198 0
176 198 0
175 198 0
174 197 0
176 198 0
175 198 0
174 198 0
175 198 0
173 197 0
175 198 0
175 198 0
174 198 0
174 197 0
175 198 0
174 198 0
175 198 0
173 197 0
175 198 0
175 198 0
175 198 0
174 198 0
174 198 0
175 198 0
175 198 0
175 198 0
174 198 0
173 197 0
175 198 0
175 198 0
174 198 0
175 198 0
173 197 0
174 198 0
174 197 0
175 198 0
175 198 0
175 198 0
174 198 0
175 198 0
175 198 0
175 198 0
173 197 0
174 198 0
174 198 0
174 197 0
175 198 0
173 197 0
174 198 0
176 198 0
175 198 0
175 198 0
174 198 0
175 198 0
175 198 0
174 198 0
173 197 0
173 197 0
175 198 0
174 197 0
174 198 0
174 198 0
175 198 0
172 197 0
174 198 0
174 197 0
173 197 0
174 198 0
174 198 0
175 198 0
174 198 0
175 198 0
175 198 0
175 198 0
173 197 0
175 198 0
174 198 0
176 198 0
174 197 0
175 198 0
173 197 0
175 198 0
175 198 0
174 198 0
176 199 0
174 197 0
174 197 0
173 196 0
174 198 0
174 197 0
173 197 0
176 198 0
175 198 0
177 199 0
173 197 0
174 198 0
174 198 0
173 197 0
175 198 0
173 197 0
174 197 0
172 196 0
171 195 0
175 198 0
174 198 0
172 196 0
173 197 0
173 197 0
173 196 0
172 196 0
174 197 0
174 197 0
174 198 0
175 198 0
172 196 0
174 197 0
175 198 0
174 197 0
174 197 0
174 197 0
172 196 0
174 197 0
173 196 0
174 197 0
175 198 0
172 196 0
173 197 0
172 196 0
174 197 0
172 196 0
172 196 0
170 194 0
174 197 0
172 196 0
174 197 0
173 197 0
173 197 0
173 197 0
172 197 0
171 194 0
169 193 0
173 197 0
174 197 0
173 196 0
172 195 0
174 197 0
173 197 0
170 194 0
173 196 0
173 196 0
174 197 0
173 195 0
173 196 0
172 195 0
174 197 0
175 198 0
174 196 0
173 196 0
172 195 18
173 196 44
175 197 36
172 195 36
172 194 0
172 194 25
171 193 25
174 195 36
175 196 25
176 197 51
170 192 25
167 189 36
174 194 44
171 194 25
170 192 0
171 194 36
165 188 0
168 191 0
164 187 0
163 185 0
168 190 0
166 186 0
161 182 0
161 184 0
157 179 0
153 174 0
156 178 0
157 179 0
162 184 0
155 178 0
158 181 0
160 181 0
155 178 0
160 184 0
153 176 0
169 191 0
154 177 0
156 179 0
163 187 0
161 185 0
159 182 0
160 184 0
158 181 0
159 183 0
157 180 0
156 178 0
162 185 0
160 183 0
164 188 0
161 183 0
161 183 0
165 189 0
165 189 0
161 184 0
168 191 0
167 191 0
164 186 0
160 183 0
170 194 0
164 187 0
167 190 0
162 185 0
164 187 0
167 190 0
167 190 0
163 185 0
171 193 0
170 193 0
164 186 0
168 191 0
166 189 0
168 191 0
168 191 0
169 193 0
170 192 0
170 192 0
168 192 0
168 191 0
168 191 0
169 192 0
169 192 0
173 196 0
169 193 0
170 194 0
172 195 0
170 193 0
171 193 0
172 195 0
170 193 0
171 195 0
173 197 0
172 194 0
171 193 0
169 193 0
172 195 0
172 195 0
171 194 0
172 196 0
174 196 0
173 196 0
172 195 0
171 194 0
173 197 0
171 196 0
173 195 0
173 196 0
172 196 0
170 194 0
173 196 0
172 196 0
173 197 0
175 198 0
172 195 0
171 194 0
174 197 0
174 196 0
174 197 0
174 197 0
175 197 0
173 197 0
175 198 0
173 196 0
173 197 0
174 197 0
171 195 0
174 197 0
174 197 0
174 197 0
172 196 0
174 197 0
173 196 0
174 197 0
175 198 0
174 197 0
175 198 0
174 198 0
173 197 0
173 197 0
172 196 0
173 197 0
175 198 0
174 197 0
173 195 0
176 199 0
173 197 0
174 197 0
176 198 0
174 197 0
173 196 0
175 198 0
175 198 0
173 197 0
173 197 0
174 197 0
173 196 0
173 196 0
174 197 0
175 198 0
174 197 0
173 197 0
173 197 0
174 198 0
174 197 0
173 197 0
175 198 0
174 198 0
174 197 0
174 197 0
173 197 0
176 198 0
176 198 0
173 197 0
174 197 0
176 199 0
174 198 0
173 196 0
175 198 0
174 198 0
174 197 0
174 198 0
173 197 0
175 198 0
176 199 0
176 199 0
175 198 0
174 197 0
174 198 0
173 197 0
174 198 0
174 197 0
173 197 0
174 198 0
175 198 0
175 198 0
173 197 0
176 199 0
176 198 0
175 198 0
175 198 0
174 197 0
175 198 0
173 197 0
174 197 0
174 197 0
175 198 0
175 198 0
174 197 0
174 198 0
172 196 0
176 198 0
174 198 0
174 197 0
173 197 0
175 198 0
174 197 0
175 198 0
174 198 0
175 198 0
174 197 0
174 198 0
174 197 0
175 198 0
174 197 0
174 197 0
174 197 0
174 198 0
174 198 0
174 197 0
174 198 0
175 198 0
175 198 0
175 198 0
174 197 0
175 198 0
175 198 0
175 198 0
176 199 0
174 198 0
174 198 0
175 198 0
173 197 0
174 198 0
175 198 0
177 199 0
174 198 0
174 198 0
175 198 0
174 198 0
175 198 0
175 198 0
173 197 0
173 197 0
175 198 0
174 198 0
174 198 0
174 197 0
174 198 0
176 198 0
175 198 0
176 199 0
174 197 0
174 198 0
174 197 0
174 198 0
174 198 0
174 197 0
174 197 0
174 197 0
175 198 0
176 199 0
174 198 0
173 197 0
174 198 0
175 198 0
174 198 0
174 198 0
175 198 0
173 196 0
173 197 0
173 197 0
173 197 0
173 196 0
174 198 0
173 197 0
174 198 0
174 198 0
174 198 0
175 198 0
174 197 0
174 198 0
174 198 0
175 198 0
174 197 0
173 196 0
175 198 0
174 198 0
173 197 0
175 198 0
173 197 0
174 198 0
173 197 0
174 198 0
176 198 0
175 198 0
173 197 0
174 197 0
176 199 0
173 197 0
172 196 0
174 198 0
175 198 0
173 197 0
176 199 0
174 198 0
174 197 0
174 198 0
176 198 0
174 197 0
174 198 0
175 198 0
174 198 0
174 198 0
175 198 0
174 197 0
172 196 0
174 198 0
175 198 0
174 198 0
174 198 0
174 198 0
174 197 0
174 198 0
174 198 0
174 198 0
174 197 0
174 198 0
173 197 0
175 198 0
174 197 0
174 197 0
175 198 0
172 196 0
173 197 0
174 198 0
173 197 0
174 197 0
172 197 0
174 197 0
173 196 0
174 197 0
172 196 0
175 198 0
173 196 0
175 198 0
173 197 0
174 197 0
175 198 0
175 198 0
175 197 0
174 198 0
174 198 0
174 198 0
173 196 0
173 197 0
171 195 0
174 197 0
173 196 0
176 199 0
174 197 0
174 197 0
175 198 0
174 198 0
172 196 0
174 198 0
175 198 0
171 194 0
172 197 0
171 195 0
173 196 0
172 196 0
172 196 0
171 195 0
173 197 0
172 196 0
173 197 0
171 195 0
175 198 0
172 195 0
173 197 0
175 197 0
173 196 0
173 196 0
172 196 0
175 198 0
172 194 0
173 195 0
172 195 0
173 196 0
172 195 0
174 197 0
172 195 0
174 197 0
173 197 0
175 198 44
170 192 0
171 193 25
176 197 62
174 197 44
173 196 51
172 195 36
169 191 36
173 195 25
171 195 25
170 193 0
170 193 0
170 192 0
163 186 0
166 188 0
164 185 0
164 187 0
163 184 0
167 189 0
165 186 0
165 188 0
156 177 0
157 179 0
164 187 0
160 182 0
159 182 0
161 183 0
161 184 0
154 176 0
156 178 0
159 182 0
163 186 0
160 184 0
162 185 0
162 185 0
155 178 0
162 186 0
158 180 0
154 176 0
160 183 0
166 189 0
157 179 0
166 189 0
163 186 0
161 185 0
160 184 0
163 186 0
164 187 0
165 188 0
160 183 0
163 186 0
165 188 0
169 192 0
164 188 0
166 189 0
164 186 0
163 187 0
161 184 0
160 183 0
166 190 0
169 191 0
168 191 0
166 189 0
172 195 0
170 193 0
166 189 0
168 192 0
171 194 0
171 194 0
173 195 0
169 192 0
168 190 0
171 194 0
169 192 0
169 193 0
170 193 0
171 194 0
166 189 0
171 194 0
168 191 0
168 191 0
171 194 0
170 194 0
173 196 0
176 198 0
171 195 0
172 195 0
172 196 0
173 196 0
169 192 0
171 194 0
169 192 0
173 196 0
169 192 0
174 197 0
174 197 0
171 194 0
170 193 0
171 195 0
174 196 0
173 196 0
174 197 0
169 193 0
174 198 0
173 196 0
172 196 0
172 195 0
173 195 0
172 197 0
174 197 0
171 195 0
173 196 0
173 197 0
175 198 0
174 197 0
174 198 0
172 196 0
173 197 0
175 197 0
174 197 0
174 197 0
175 198 0
172 196 0
172 194 0
172 195 0
174 196 0
173 197 0
174 197 0
173 196 0
174 197 0
175 197 0
174 197 0
173 197 0
173 197 0
174 197 0
173 196 0
173 197 0
175 198 0
173 197 0
174 197 0
174 197 0
172 196 0
172 196 0
174 198 0
174 197 0
176 198 0
175 198 0
172 196 0
171 195 0
174 197 0
174 197 0
173 196 0
173 197 0
174 197 0
175 198 0
173 197 0
174 197 0
175 198 0
174 196 0
175 198 0
174 198 0
174 197 0
173 197 0
173 197 0
173 197 0
174 198 0
175 198 0
176 198 0
176 199 0
174 197 0
175 198 0
174 198 0
175 198 0
176 199 0
173 196 0
174 197 0
173 197 0
174 198 0
174 197 0
174 197 0
175 198 0
175 198 0
175 198 0
174 198 0
175 198 0
173 197 0
174 198 0
175 198 0
174 198 0
174 198 0
175 198 0
175 197 0
174 198 0
174 197 0
175 198 0
174 197 0
175 198 0
175 198 0
174 197 0
174 197 0
176 199 0
174 197 0
175 198 0
173 197 0
174 198 0
174 198 0
174 198 0
175 198 0
174 197 0
174 198 0
174 198 0
175 198 0
175 198 0
175 198 0
174 197 0
175 198 0
174 198 0
175 198 0
174 197 0
174 198 0
174 197 0
175 198 0
174 198 0
175 198 0
174 198 0
175 198 0
173 197 0
174 198 0
174 198 0
174 198 0
175 198 0
176 199 0
175 198 0
173 197 0
176 198 0
174 198 0
175 198 0
173 197 0
172 196 0
175 198 0
174 198 0
174 198 0
175 198 0
174 198 0
176 198 0
172 196 0
173 197 0
175 198 0
176 198 0
175 198 0
174 198 0
174 197 0
174 198 0
175 198 0
175 198 0
174 198 0
174 197 0
175 198 0
176 199 0
176 199 0
172 196 0
175 198 0
175 198 0
177 199 0
173 197 0
174 198 0
174 198 0
174 198 0
173 197 0
175 198 0
174 198 0
174 198 0
175 198 0
174 198 0
174 198 0
175 198 0
175 198 0
173 197 0
175 198 0
175 198 0
175 198 0
175 198 0
174 198 0
175 198 0
176 199 0
174 198 0
172 196 0
172 196 0
174 197 0
172 197 0
174 198 0
175 198 0
174 198 0
173 197 0
174 198 0
174 198 0
174 197 0
176 198 0
174 197 0
174 198 0
174 198 0
175 198 0
174 198 0
173 196 0
174 198 0
175 198 0
173 197 0
172 196 0
174 197 0
175 198 0
173 197 0
175 198 0
174 197 0
174 197 0
174 198 0
174 198 0
175 198 0
173 197 0
172 197 0
175 198 0
175 198 0
172 196 0
174 198 0
175 198 0
173 197 0
174 197 0
175 198 0
173 196 0
174 197 0
174 198 0
173 197 0
174 197 0
175 198 0
175 198 0
173 197 0
175 198 0
174 198 0
173 196 0
176 199 0
173 197 0
174 196 0
172 196 0
175 198 0
173 197 0
173 197 0
174 197 0
174 198 0
175 198 0
173 196 0
174 198 0
176 198 0
174 198 0
173 197 0
172 196 0
173 197 0
171 195 0
172 196 0
171 195 0
174 197 0
173 197 0
176 198 0
174 197 0
172 196 0
172 196 0
173 196 0
171 195 0
174 197 0
175 198 0
174 198 0
172 196 0
171 195 0
173 197 0
168 192 0
172 195 0
174 197 0
173 197 0
174 198 0
172 195 0
173 196 0
170 194 0
173 196 0
173 197 0
174 197 0
171 194 0
173 197 0
172 195 0
175 198 0
173 196 0
173 197 0
173 196 0
174 197 0
173 196 0
172 195 0
175 197 0
173 195 0
170 194 0
174 197 0
172 195 0
173 196 0
174 197 0
174 197 0
170 193 0
171 194 0
175 198 0
172 196 0
172 195 0
173 196 0
170 193 0
172 195 0
174 197 0
170 192 0
171 194 0
169 192 0
167 190 0
171 194 0
164 186 0
164 186 0
165 187 0
164 186 0
158 179 0
165 187 0
167 190 0
163 185 0
162 185 0
160 183 0
163 186 0
156 179 0
155 178 0
154 178 0
153 175 0
162 185 0
168 191 0
163 186 0
160 182 0
163 186 0
161 184 0
159 182 0
160 182 0
164 187 0
162 185 0
163 186 0
164 186 0
165 189 0
165 188 0
160 183 0
159 182 0
161 184 0
160 184 0
163 186 0
162 186 0
166 189 0
159 181 0
163 186 0
167 190 0
168 191 0
163 186 0
167 190 0
168 191 0
167 190 0
168 191 0
169 192 0
165 188 0
171 194 0
161 184 0
168 191 0
164 187 0
169 192 0
169 192 0
169 193 0
168 190 0
166 189 0
171 194 0
169 192 0
168 192 0
171 194 0
168 191 0
170 194 0
172 194 0
169 192 0
169 191 0
171 194 0
169 193 0
172 194 0
172 196 0
172 194 0
173 196 0
172 195 0
168 193 0
172 194 0
175 197 0
172 195 0
173 196 0
173 196 0
172 195 0
172 194 0
175 197 0
173 196 0
174 197 0
174 195 0
173 196 0
172 196 0
171 194 0
172 195 0
172 196 0
172 196 0
172 195 0
174 197 0
172 195 0
173 196 0
173 196 0
173 196 0
173 196 0
173 196 0
174 198 0
175 198 0
175 197 0
171 195 0
174 197 0
173 197 0
174 197 0
174 196 0
173 197 0
173 197 0
174 197 0
174 197 0
175 198 0
172 196 0
173 197 0
174 197 0
175 198 0
174 197 0
173 197 0
175 198 0
173 196 0
174 197 0
174 197 0
174 197 0
174 197 0
175 198 0
172 196 0
175 198 0
172 196 0
174 197 0
176 198 0
175 198 0
174 197 0
176 198 0
173 197 0
175 198 0
174 197 0
174 197 0
175 198 0
175 198 0
174 197 0
175 198 0
175 198 0
173 196 0
173 197 0
172 195 0
172 196 0
174 197 0
173 196 0
174 197 0
175 198 0
173 196 0
174 197 0
175 198 0
173 197 0
174 197 0
175 198 0
174 197 0
174 198 0
175 198 0
174 198 0
173 197 0
173 197 0
175 198 0
174 198 0
174 197 0
175 198 0
174 197 0
173 197 0
174 198 0
175 198 0
173 197 0
175 198 0
175 198 0
174 198 0
173 197 0
175 198 0
174 198 0
176 198 0
175 198 0
174 197 0
175 198 0
176 199 0
174 197 0
176 198 0
176 198 0
175 198 0
175 198 0
174 197 0
174 198 0
175 198 0
173 197 0
174 197 0
174 198 0
175 198 0
174 198 0
175 198 0
174 198 0
173 197 0
174 198 0
174 198 0
176 198 0
175 198 0
175 198 0
174 198 0
174 198 0
175 198 0
175 198 0
176 198 0
174 197 0
175 198 0
174 198 0
175 198 0
175 198 0
175 198 0
173 197 0
177 199 0
174 198 0
174 198 0
174 198 0
173 197 0
174 198 0
176 198 0
175 198 0
175 198 0
176 198 0
173 197 0
173 197 0
175 198 0
175 198 0
175 198 0
174 198 0
175 198 0
173 197 0
176 198 0
175 198 0
175 198 0
175 198 0
173 197 0
174 197 0
175 198 0
174 197 0
175 198 0
175 198 0
175 198 0
173 197 0
174 197 0
175 198 0
176 198 0
174 197 0
175 198 0
175 198 0
175 198 0
176 199 0
174 198 0
174 198 0
175 198 0
174 197 0
174 198 0
175 198 0
174 198 0
174 197 0
175 198 0
176 199 0
174 197 0
174 198 0
174 198 0
174 198 0
172 196 0
174 197 0
174 198 0
175 198 0
176 199 0
175 198 0
175 198 0
174 198 0
173 197 0
174 198 0
174 198 0
174 197 0
175 198 0
173 197 0
173 197 0
173 197 0
174 198 0
173 197 0
173 197 0
174 198 0
176 198 0
173 197 0
174 198 0
174 197 0
174 198 0
174 198 0
175 198 0
174 197 0
174 198 0
173 197 0
173 197 0
175 198 0
174 198 0
173 197 0
176 198 0
173 197 0
175 198 0
172 196 0
174 198 0
175 198 0
173 197 0
174 198 0
175 198 0
176 199 0
175 198 0
174 198 0
174 198 0
174 198 0
174 198 0
175 198 0
173 197 0
175 198 0
175 198 0
175 198 0
174 198 0
174 197 0
173 197 0
174 198 0
174 197 0
173 196 0
175 198 0
175 198 0
175 198 0
171 195 0
174 198 0
175 198 0
174 197 0
172 196 0
174 197 0
172 196 0
173 197 0
176 199 0
175 198 0
174 198 0
173 197 0
176 199 0
172 196 0
175 198 0
174 198 0
173 197 0
175 198 0
173 196 0
174 197 0
176 199 0
174 198 0
172 196 0
174 197 0
173 196 0
176 199 0
172 196 0
174 197 0
174 196 0
172 196 0
172 195 0
174 197 0
172 195 0
171 195 0
173 196 0
172 196 0
172 196 0
172 195 0
172 196 0
170 194 0
174 197 0
171 194 0
173 197 0
170 193 0
173 196 0
172 196 0
174 197 0
177 198 0
175 197 0
173 196 0
170 192 0
171 194 0
171 194 25
172 195 0
171 194 0
174 197 0
175 197 0
172 195 0
170 193 0
174 196 0
175 197 0
172 195 0
173 195 0
173 196 0
173 196 0
169 192 0
171 193 0
166 187 0
167 189 0
165 186 0
170 190 0
163 184 0
168 189 0
163 185 0
169 191 0
163 185 0
166 189 0
159 182 0
164 186 0
163 185 0
159 182 0
159 181 0
166 188 0
163 186 0
162 185 0
159 182 0
167 190 0
166 189 0
160 184 0
158 181 0
160 184 0
163 186 0
168 191 0
165 189 0
164 186 0
164 187 0
156 180 0
167 190 0
164 186 0
163 187 0
166 190 0
164 187 0
166 191 0
165 188 0
165 188 0
166 188 0
163 186 0
168 191 0
165 188 0
167 190 0
166 189 0
169 192 0
165 188 0
168 191 0
167 190 0
166 189 0
167 191 0
166 188 0
166 189 0
167 190 0
168 190 0
166 190 0
167 189 0
168 191 0
171 194 0
170 193 0
168 191 0
171 194 0
171 194 0
168 192 0
170 193 0
169 192 0
172 194 0
172 194 0
169 192 0
169 192 0
171 194 0
171 194 0
170 193 0
171 193 0
171 195 0
172 195 0
173 196 0
173 195 0
173 197 0
169 192 0
175 197 0
170 193 0
171 194 0
170 194 0
171 194 0
172 195 0
173 196 0
174 197 0
172 195 0
171 194 0
173 197 0
172 196 0
173 196 0
172 195 0
171 194 0
172 196 0
174 197 0
173 196 0
173 196 0
173 196 0
172 194 0
173 196 0
172 196 0
173 196 0
174 197 0
173 196 0
172 195 0
174 197 0
172 197 0
174 196 0
174 197 0
171 195 0
175 198 0
171 195 0
173 196 0
174 197 0
175 197 0
172 196 0
171 195 0
173 197 0
173 197 0
175 198 0
173 196 0
173 197 0
173 197 0
171 195 0
172 197 0
174 197 0
173 197 0
173 196 0
174 198 0
173 196 0
173 197 0
174 196 0
173 197 0
174 198 0
175 198 0
174 197 0
174 198 0
174 197 0
174 197 0
173 197 0
174 197 0
174 197 0
174 198 0
175 198 0
175 198 0
173 197 0
174 198 0
174 198 0
173 197 0
172 196 0
173 197 0
174 198 0
173 197 0
173 197 0
175 198 0
174 198 0
174 198 0
176 199 0
173 197 0
174 197 0
174 197 0
173 197 0
174 198 0
173 197 0
173 197 0
174 198 0
174 197 0
174 197 0
173 197 0
174 197 0
174 198 0
173 197 0
174 198 0
176 199 0
174 197 0
175 198 0
175 198 0
174 198 0
174 198 0
176 199 0
174 197 0
175 198 0
175 198 0
176 198 0
177 199 0
173 197 0
173 197 0
174 197 0
174 198 0
175 198 0
175 198 0
174 198 0
177 199 0
173 197 0
174 198 0
173 197 0
175 198 0
173 197 0
174 198 0
174 197 0
175 198 0
175 198 0
173 197 0
176 199 0
174 198 0
174 198 0
174 198 0
173 197 0
175 198 0
174 197 0
175 198 0
174 198 0
175 198 0
175 198 0
175 198 0
174 198 0
174 197 0
175 198 0
175 198 0
174 197 0
175 198 0
176 199 0
174 198 0
174 198 0
174 197 0
175 198 0
175 198 0
175 198 0
174 197 0
176 199 0
175 198 0
175 198 0
174 198 0
174 197 0
176 199 0
174 198 0
173 197 0
174 198 0
174 198 0
174 198 0
176 199 0
174 197 0
175 198 0
174 198 0
176 198 0
174 197 0
172 196 0
172 197 0
174 198 0
174 197 0
173 197 0
172 196 0
175 198 0
175 198 0
174 198 0
175 198 0
176 199 0
175 198 0
174 197 0
175 198 0
176 198 0
173 197 0
173 197 0
174 198 0
175 198 0
174 198 0
175 197 0
175 198 0
174 198 0
173 197 0
174 197 0
173 197 0
173 197 0
174 198 0
174 198 0
175 198 0
174 197 0
174 198 0
174 197 0
173 197 0
174 197 0
175 198 0
175 198 0
174 198 0
173 197 0
175 198 0
175 198 0
173 197 0
175 198 0
175 198 0
174 197 0
176 199 0
174 198 0
174 198 0
174 197 0
174 197 0
174 198 0
176 198 0
173 197 0
174 198 0
173 197 0
173 197 0
172 195 0
173 197 0
175 198 0
175 198 0
174 197 0
174 197 0
174 197 0
175 198 0
173 197 0
174 198 0
172 196 0
175 198 0
176 198 0
177 199 0
173 196 0
177 199 0
172 196 0
175 198 0
173 197 0
174 197 0
174 198 0
172 196 0
174 198 0
172 195 0
175 198 0
174 197 0
175 198 0
173 197 0
172 196 0
172 196 0
175 198 0
174 198 0
173 197 0
174 197 0
175 198 0
174 198 0
173 196 0
174 197 0
170 195 0
173 197 0
173 197 0
174 197 0
173 197 0
174 197 0
174 197 0
173 196 0
173 197 0
175 198 0
170 194 0
175 198 0
174 197 0
174 197 0
173 197 0
174 197 0
172 195 0
172 196 0
174 197 0
173 197 0
172 196 0
173 196 0
174 197 0
173 197 0
173 196 0
172 197 0
171 195 0
173 196 0
175 198 0
173 196 0
171 196 0
172 195 0
173 197 0
171 195 0
173 196 0
171 194 0
173 196 0
173 195 0
172 195 0
175 198 0
175 197 0
173 196 0
174 196 0
171 193 0
172 195 0
172 194 0
175 196 0
175 197 0
170 193 0
175 197 0
174 196 0
171 194 0
169 191 0
173 195 0
170 192 0
171 193 0
169 191 0
173 194 0
173 194 0
168 191 0
164 185 0
168 190 0
170 191 0
169 191 0
163 186 0
167 190 0
166 189 0
169 191 0
163 185 0
166 188 0
165 188 0
159 182 0
164 186 0
166 188 0
166 189 0
166 188 0
167 190 0
163 186 0
166 189 0
157 181 0
159 181 0
159 182 0
163 185 0
164 187 0
164 187 0
162 185 0
169 192 0
165 188 0
160 183 0
159 183 0
162 186 0
167 190 0
165 189 0
166 190 0
166 189 0
154 176 0
169 192 0
170 193 0
167 190 0
163 186 0
165 189 0
171 193 0
169 193 0
164 188 0
167 190 0
161 184 0
165 188 0
163 187 0
168 193 0
169 193 0
169 192 0
166 189 0
167 190 0
171 194 0
171 194 0
169 190 0
168 192 0
170 193 0
168 190 0
170 193 0
166 190 0
170 192 0
172 194 0
173 196 0
168 191 0
170 193 0
171 193 0
170 193 0
171 194 0
170 193 0
171 195 0
169 193 0
174 196 0
172 195 0
171 194 0
173 197 0
170 193 0
169 192 0
173 196 0
173 196 0
171 196 0
173 197 0
173 196 0
175 198 0
170 193 0
174 197 0
172 195 0
172 195 0
174 197 0
174 197 0
171 195 0
172 196 0
171 194 0
171 196 0
170 194 0
174 197 0
175 198 0
173 197 0
172 196 0
172 194 0
175 198 0
173 197 0
171 195 0
173 196 0
173 197 0
172 195 0
173 196 0
171 195 0
171 195 0
173 197 0
175 198 0
172 195 0
174 197 0
174 197 0
174 197 0
174 197 0
172 196 0
173 197 0
172 196 0
173 197 0
176 199 0
174 196 0
175 198 0
174 197 0
174 196 0
173 196 0
175 198 0
174 197 0
173 196 0
172 196 0
174 198 0
173 197 0
175 198 0
172 196 0
172 196 0
176 199 0
174 197 0
174 197 0
174 197 0
173 197 0
172 196 0
174 197 0
174 197 0
174 197 0
175 198 0
174 197 0
173 196 0
174 197 0
174 197 0
174 197 0
173 197 0
172 196 0
174 198 0
175 198 0
174 198 0
174 198 0
174 198 0
174 198 0
175 198 0
173 196 0
175 198 0
173 197 0
174 197 0
175 198 0
174 198 0
173 197 0
175 198 0
174 198 0
174 197 0
174 198 0
174 198 0
176 199 0
175 198 0
175 198 0
173 196 0
175 198 0
176 199 0
174 197 0
176 199 0
173 197 0
174 197 0
175 198 0
175 198 0
175 198 0
173 197 0
174 198 0
173 197 0
175 198 0
174 197 0
175 198 0
173 197 0
175 198 0
176 199 0
174 198 0
175 198 0
174 197 0
174 198 0
175 198 0
174 198 0
173 197 0
173 197 0
175 198 0
174 198 0
176 198 0
177 199 0
173 197 0
173 197 0
174 197 0
173 197 0
174 197 0
173 197 0
174 197 0
174 197 0
173 197 0
173 197 0
174 198 0
174 197 0
175 198 0
175 198 0
175 198 0
175 198 0
175 198 0
175 198 0
174 198 0
175 198 0
175 198 0
173 197 0
175 198 0
174 198 0
174 197 0
176 199 0
173 197 0
174 197 0
173 197 0
174 197 0
174 198 0
175 198 0
175 198 0
173 197 0
175 198 0
176 198 0
173 197 0
176 199 0
177 199 0
174 197 0
175 198 0
175 198 0
174 198 0
173 197 0
174 198 0
174 197 0
176 199 0
172 197 0
172 196 0
175 198 0
175 198 0
175 198 0
174 198 0
175 198 0
175 198 0
174 198 0
174 197 0
174 198 0
174 197 0
174 198 0
175 198 0
173 197 0
173 197 0
175 198 0
176 199 0
174 198 0
174 198 0
176 199 0
174 198 0
174 197 0
174 198 0
174 198 0
175 198 0
175 198 0
174 198 0
176 199 0
172 196 0
174 197 0
175 198 0
174 197 0
174 198 0
175 198 0
174 198 0
174 198 0
175 198 0
175 198 0
174 198 0
173 197 0
174 198 0
174 197 0
175 198 0
176 199 0
175 198 0
174 197 0
174 198 0
174 197 0
174 198 0
174 197 0
175 198 0
174 198 0
173 197 0
174 197 0
175 198 0
175 198 0
173 197 0
171 195 0
176 198 0
172 196 0
174 197 0
176 198 0
175 198 0
174 198 0
173 197 0
172 196 0
174 197 0
173 197 0
176 199 0
175 198 0
174 198 0
174 198 0
173 197 0
174 197 0
174 198 0
175 198 0
172 196 0
174 197 0
174 197 0
173 196 0
172 196 0
172 196 0
173 196 0
175 198 0
174 197 0
173 197 0
172 196 0
172 196 0
174 198 0
173 197 0
172 197 0
174 197 0
175 198 0
174 197 0
173 196 0
173 197 0
175 197 0
176 199 0
174 198 0
173 196 0
171 195 0
174 197 0
172 196 0
173 197 0
174 197 0
175 198 0
173 196 0
174 198 0
174 197 0
173 196 0
173 197 0
174 196 0
172 196 0
173 197 0
171 195 0
170 194 0
174 198 0
172 196 0
173 196 0
172 195 0
176 198 0
171 194 0
171 194 0
174 197 0
174 197 0
175 198 0
175 198 0
173 195 0
175 198 0
175 197 0
175 197 0
174 196 0
173 195 0
172 194 0
177 199 0
175 197 0
174 196 0
172 194 0
175 196 0
170 192 0
170 192 0
174 196 0
169 191 0
172 193 0
167 189 0
167 189 0
171 193 0
169 191 0
168 190 0
170 191 0
169 190 0
160 182 0
168 190 0
169 191 0
169 191 0
164 187 0
163 186 0
166 188 0
160 183 0
165 188 0
166 188 0
163 187 0
167 191 0
161 184 0
164 187 0
165 188 0
161 184 0
162 186 0
159 182 0
166 189 0
166 189 0
167 191 0
162 184 0
167 190 0
167 190 0
161 185 0
164 187 0
167 191 0
167 189 0
166 189 0
161 183 0
161 184 0
165 188 0
161 184 0
167 190 0
165 189 0
163 186 0
165 188 0
167 191 0
167 191 0
170 193 0
169 193 0
168 190 0
166 189 0
171 194 0
164 188 0
168 191 0
170 195 0
166 190 0
168 191 0
171 194 0
168 192 0
170 193 0
168 192 0
170 193 0
169 192 0
170 193 0
168 191 0
167 188 0
169 192 0
170 193 0
170 193 0
168 191 0
169 192 0
171 194 0
170 193 0
170 194 0
171 194 0
173 196 0
171 195 0
170 194 0
171 194 0
173 196 0
173 197 0
173 196 0
173 196 0
173 195 0
173 195 0
172 195 0
172 196 0
173 195 0
173 196 0
175 198 0
171 194 0
173 197 0
171 195 0
172 196 0
174 197 0
173 196 0
174 198 0
173 197 0
173 196 0
174 197 0
175 198 0
174 198 0
169 194 0
174 197 0
172 197 0
173 197 0
172 195 0
171 195 0
173 197 0
172 196 0
175 198 0
172 196 0
175 198 0
175 198 0
175 198 0
175 198 0
175 198 0
172 196 0
172 196 0
174 198 0
175 198 0
173 196 0
175 198 0
174 198 0
172 195 0
174 197 0
173 197 0
171 196 0
174 197 0
172 197 0
175 198 0
173 196 0
174 197 0
175 198 0
175 198 0
173 196 0
173 197 0
173 197 0
175 198 0
173 197 0
174 198 0
173 197 0
173 197 0
174 197 0
174 197 0
174 198 0
174 198 0
175 198 0
173 197 0
173 197 0
174 198 0
172 195 0
173 196 0
173 196 0
174 198 0
175 198 0
174 198 0
176 199 0
173 197 0
175 198 0
174 198 0
173 197 0
174 197 0
174 198 0
173 196 0
174 197 0
172 196 0
174 197 0
174 197 0
174 198 0
174 198 0
173 197 0
174 198 0
174 197 0
176 199 0
174 197 0
175 198 0
175 198 0
173 197 0
173 197 0
175 198 0
174 197 0
175 198 0
174 198 0
173 196 0
175 197 0
175 198 0
175 198 0
173 197 0
174 198 0
174 198 0
175 198 0
174 198 0
173 197 0
174 197 0
175 198 0
175 198 0
174 198 0
173 197 0
175 198 0
173 197 0
174 198 0
175 198 0
173 197 0
172 197 0
173 197 0
174 198 0
173 197 0
174 198 0
175 198 0
173 197 0
176 198 0
176 198 0
173 197 0
173 197 0
175 198 0
173 197 0
176 199 0
175 198 0
175 198 0
175 198 0
173 197 0
174 198 0
174 198 0
176 199 0
175 198 0
176 198 0
172 197 0
174 198 0
175 198 0
175 198 0
174 198 0
176 199 0
174 198 0
174 197 0
175 198 0
174 198 0
175 198 0
175 198 0
175 198 0
174 197 0
174 198 0
173 197 0
174 197 0
174 197 0
174 198 0
173 197 0
175 198 0
173 197 0
174 197 0
174 197 0
174 198 0
175 198 0
174 198 0
174 198 0
175 198 0
174 198 0
174 197 0
173 197 0
175 198 0
177 199 0
175 198 0
174 198 0
175 198 0
174 197 0
175 198 0
173 197 0
175 198 0
173 197 0
174 197 0
174 198 0
175 198 0
174 198 0
173 197 0
175 198 0
175 198 0
174 198 0
174 198 0
175 198 0
174 197 0
172 196 0
173 197 0
175 198 0
174 198 0
175 198 0
172 196 0
174 197 0
174 197 0
173 197 0
174 197 0
175 198 0
174 197 0
174 197 0
174 197 0
173 197 0
175 198 0
175 198 0
174 198 0
175 198 0
176 198 0
174 198 0
175 198 0
175 198 0
173 197 0
174 197 0
174 197 0
171 196 0
173 197 0
173 197 0
175 198 0
176 199 0
174 198 0
175 198 0
174 198 0
172 196 0
174 198 0
176 199 0
174 197 0
173 197 0
173 196 0
174 198 0
174 198 0
172 196 0
175 198 0
174 197 0
174 198 0
174 197 0
172 196 0
174 197 0
174 197 0
172 196 0
173 197 0
173 197 0
174 197 0
173 197 0
174 198 0
172 196 0
173 197 0
174 197 0
171 195 0
174 197 0
174 197 0
174 197 0
175 197 0
174 197 0
173 197 0
175 198 0
175 198 0
176 199 0
173 196 0
174 197 0
175 198 0
174 198 0
172 196 0
173 196 0
174 198 0
171 195 0
174 198 0
174 198 0
173 197 0
170 194 0
172 197 0
174 197 0
172 196 0
172 195 0
172 196 0
175 198 0
176 198 0
171 196 0
171 194 0
172 196 0
173 197 0
173 197 0
174 196 0
173 197 0
171 195 0
171 194 0
174 197 0
174 197 0
171 194 0
173 196 0
172 195 0
174 197 0
173 196 0
174 197 0
173 196 0
171 193 0
173 195 0
171 193 0
175 197 0
174 196 0
173 195 0
170 192 0
175 196 0
175 196 0
173 194 0
173 195 0
173 194 0
174 196 0
173 194 0
170 192 0
171 193 0
176 196 0
168 190 0
168 189 0
171 193 0
171 193 0
168 190 0
170 192 0
164 186 0
167 190 0
164 187 0
169 192 0
166 189 0
167 189 0
162 186 0
168 191 0
168 190 0
165 188 0
156 179 0
159 182 0
163 187 0
158 180 0
161 184 0
162 185 0
167 190 0
160 184 0
164 187 0
168 192 0
167 190 0
167 189 0
163 187 0
162 186 0
165 188 0
162 185 0
166 189 0
163 187 0
160 182 0
165 188 0
166 189 0
160 184 0
165 188 0
167 189 0
170 194 0
165 190 0
166 190 0
169 193 0
169 193 0
167 189 0
169 192 0
169 192 0
169 192 0
168 191 0
166 189 0
164 186 0
170 194 0
168 192 0
168 191 0
167 189 0
170 194 0
170 193 0
169 193 0
170 193 0
171 194 0
170 193 0
171 195 0
172 195 0
171 194 0
171 194 0
168 192 0
172 195 0
168 191 0
172 195 0
169 193 0
173 196 0
173 197 0
170 193 0
171 195 0
170 194 0
172 195 0
172 196 0
169 193 0
172 195 0
173 196 0
170 195 0
173 196 0
169 193 0
173 195 0
171 195 0
172 196 0
173 195 0
173 197 0
169 193 0
173 197 0
173 196 0
174 197 0
173 196 0
172 196 0
171 195 0
175 197 0
173 196 0
171 195 0
173 196 0
171 195 0
173 196 0
171 194 0
172 196 0
175 198 0
174 198 0
174 198 0
174 197 0
173 196 0
173 196 0
174 198 0
172 195 0
174 197 0
174 198 0
174 197 0
171 194 0
173 196 0
173 196 0
173 195 0
174 198 0
175 198 0
176 198 0
173 196 0
172 196 0
172 196 0
173 196 0
175 198 0
173 196 0
175 198 0
174 197 0
174 198 0
173 197 0
173 197 0
172 196 0
173 197 0
174 197 0
173 196 0
174 197 0
175 198 0
174 197 0
173 197 0
174 197 0
176 199 0
175 198 0
175 197 0
173 197 0
174 197 0
174 197 0
174 197 0
173 197 0
173 197 0
175 198 0
174 197 0
174 198 0
172 196 0
174 197 0
175 198 0
175 198 0
174 197 0
173 197 0
175 198 0
175 198 0
173 197 0
174 198 0
175 198 0
173 197 0
174 197 0
173 197 0
175 198 0
174 198 0
174 198 0
174 198 0
174 197 0
174 198 0
175 198 0
175 198 0
175 198 0
174 197 0
176 199 0
174 198 0
174 197 0
174 197 0
175 198 0
174 197 0
173 196 0
176 198 0
174 197 0
174 198 0
173 197 0
175 198 0
174 197 0
176 198 0
174 198 0
173 197 0
173 197 0
174 198 0
175 198 0
174 198 0
173 197 0
174 197 0
174 198 0
174 198 0
174 198 0
174 198 0
173 197 0
173 197 0
175 198 0
174 198 0
174 198 0
174 198 0
174 198 0
175 198 0
174 198 0
174 197 0
172 195 0
173 197 0
175 198 0
174 198 0
174 197 0
174 197 0
173 197 0
175 198 0
173 197 0
175 198 0
175 198 0
175 198 0
174 197 0
173 197 0
175 198 0
175 198 0
176 199 0
175 198 0
175 198 0
175 198 0
173 197 0
174 197 0
173 197 0
175 198 0
176 198 0
176 198 0
173 197 0
176 198 0
174 197 0
175 198 0
174 197 0
174 197 0
173 197 0
174 198 0
173 197 0
175 198 0
172 197 0
176 199 0
174 197 0
175 198 0
174 198 0
173 197 0
174 198 0
174 198 0
176 199 0
174 198 0
173 197 0
174 198 0
174 198 0
175 198 0
174 198 0
173 197 0
176 199 0
172 197 0
174 198 0
174 198 0
174 197 0
174 197 0
172 197 0
175 198 0
174 197 0
173 197 0
174 198 0
174 198 0
174 198 0
173 197 0
174 198 0
174 198 0
174 198 0
174 198 0
175 198 0
175 198 0
174 198 0
173 197 0
175 198 0
174 197 0
175 198 0
175 198 0
174 197 0
174 197 0
175 198 0
176 199 0
176 199 0
174 197 0
176 199 0
173 197 0
175 198 0
175 198 0
173 197 0
174 197 0
174 198 0
174 197 0
173 197 0
175 198 0
173 197 0
174 198 0
176 199 0
174 198 0
174 198 0
174 198 0
173 197 0
174 198 0
175 198 0
172 196 0
174 198 0
171 195 0
174 197 0
174 198 0
173 196 0
174 198 0
174 197 0
175 198 0
176 199 0
174 197 0
174 198 0
175 198 0
174 197 0
174 198 0
174 198 0
175 198 0
174 198 0
173 197 0
175 198 0
173 197 0
175 198 0
174 198 0
173 197 0
172 196 0
171 195 0
174 197 0
175 198 0
173 197 0
173 197 0
173 197 0
172 196 0
173 196 0
174 197 0
174 197 0
175 198 0
175 197 0
174 198 0
173 197 0
174 197 0
172 196 0
175 198 0
173 196 0
172 196 0
173 197 0
174 197 0
175 198 0
171 195 0
174 197 0
173 196 0
172 196 0
173 197 0
173 196 0
172 195 0
173 196 0
175 198 0
174 197 0
172 195 0
172 196 0
174 197 0
172 196 0
173 197 0
171 194 0
173 196 0
171 195 0
174 197 0
173 195 0
171 194 0
172 194 0
171 194 0
171 194 0
166 189 0
174 196 0
175 197 0
175 196 0
176 197 0
173 195 0
173 194 0
174 196 0
170 193 0
167 188 0
174 196 0
175 197 0
171 193 0
167 188 0
170 192 0
169 191 0
170 192 0
167 191 0
168 190 0
168 191 0
171 194 0
163 186 0
164 186 0
164 188 0
166 189 0
165 188 0
167 191 0
162 185 0
166 189 0
166 190 0
166 189 0
169 192 0
168 191 0
163 186 0
166 189 0
166 187 0
165 189 0
164 187 0
164 187 0
159 182 0
166 190 0
166 189 0
164 188 0
163 186 0
167 190 0
162 185 0
164 187 0
164 188 0
168 192 0
165 190 0
165 188 0
170 194 0
163 186 0
163 187 0
167 190 0
165 189 0
161 185 0
165 189 0
167 191 0
166 190 0
166 189 0
169 192 0
167 189 0
167 190 0
170 194 0
168 192 0
170 193 0
169 192 0
168 192 0
166 189 0
168 192 0
170 193 0
168 191 0
170 193 0
169 193 0
170 194 0
168 191 0
169 193 0
168 191 0
173 197 0
170 193 0
169 191 0
172 196 0
168 192 0
172 196 0
171 194 0
171 194 0
171 195 0
174 197 0
173 196 0
169 192 0
172 195 0
172 195 0
172 196 0
173 197 0
168 192 0
173 196 0
173 197 0
171 194 0
173 196 0
173 197 0
174 197 0
174 197 0
175 198 0
170 193 0
173 196 0
173 197 0
173 196 0
176 198 0
174 197 0
173 197 0
173 196 0
174 197 0
170 194 0
174 197 0
174 197 0
173 196 0
174 197 0
174 197 0
174 197 0
172 196 0
174 197 0
174 197 0
176 198 0
174 197 0
173 197 0
173 197 0
174 197 0
173 197 0
173 197 0
171 195 0
175 197 0
173 196 0
174 197 0
173 197 0
174 198 0
175 198 0
175 198 0
174 197 0
172 196 0
174 198 0
174 197 0
174 197 0
175 198 0
174 197 0
173 197 0
170 194 0
174 197 0
175 198 0
173 196 0
174 198 0
174 198 0
174 197 0
174 198 0
175 198 0
173 197 0
174 197 0
174 197 0
175 198 0
175 198 0
174 197 0
172 196 0
175 198 0
173 197 0
173 197 0
175 198 0
173 196 0
174 198 0
175 198 0
173 196 0
173 197 0
174 197 0
172 196 0
173 197 0
175 198 0
175 198 0
175 198 0
174 198 0
173 197 0
175 198 0
174 198 0
172 197 0
174 198 0
174 198 0
174 198 0
173 197 0
173 197 0
172 196 0
173 197 0
174 198 0
174 198 0
174 197 0
175 198 0
175 197 0
175 198 0
177 199 0
175 198 0
176 198 0
175 198 0
174 198 0
174 197 0
175 198 0
175 198 0
174 198 0
175 198 0
175 198 0
173 197 0
174 197 0
175 198 0
174 198 0
172 197 0
174 197 0
174 198 0
174 197 0
175 198 0
173 197 0
174 197 0
173 196 0
176 198 0
174 198 0
174 198 0
173 197 0
175 198 0
175 198 0
176 198 0
174 198 0
175 198 0
172 197 0
174 197 0
174 198 0
174 197 0
176 199 0
174 198 0
174 198 0
174 197 0
172 197 0
175 198 0
175 198 0
174 198 0
175 198 0
174 197 0
174 197 0
173 197 0
175 198 0
175 198 0
175 198 0
175 198 0
174 198 0
174 198 0
176 199 0
174 198 0
172 197 0
174 198 0
173 197 0
175 198 0
174 197 0
175 198 0
175 198 0
175 198 0
174 198 0
176 199 0
174 197 0
173 196 0
175 198 0
174 198 0
174 197 0
174 198 0
174 198 0
175 198 0
174 198 0
174 198 0
174 198 0
174 198 0
173 197 0
175 198 0
175 198 0
175 198 0
174 197 0
174 198 0
172 197 0
175 198 0
173 197 0
176 198 0
175 198 0
176 199 0
172 195 0
173 197 0
173 197 0
175 198 0
175 198 0
174 197 0
175 198 0
173 197 0
175 197 0
173 197 0
174 197 0
174 197 0
174 198 0
174 198 0
173 197 0
173 197 0
175 198 0
174 198 0
174 197 0
175 198 0
175 198 0
173 197 0
175 198 0
175 198 0
174 198 0
175 198 0
172 196 0
174 198 0
174 198 0
174 197 0
174 197 0
173 197 0
175 198 0
175 198 0
175 198 0
175 198 0
174 198 0
175 198 0
173 197 0
174 198 0
173 197 0
175 198 0
174 198 0
175 198 0
175 198 0
174 198 0
176 198 0
174 197 0
174 198 0
175 198 0
175 198 0
174 197 0
175 198 0
173 196 0
176 199 0
176 199 0
170 195 0
173 197 0
175 198 0
175 198 0
175 198 0
174 197 0
175 198 0
175 198 0
173 197 0
174 197 0
174 197 0
174 197 0
173 196 0
173 197 0
174 197 0
174 197 0
174 198 0
172 195 0
172 196 0
173 197 0
174 197 0
175 198 0
173 197 0
174 197 0
172 196 0
175 198 0
172 196 0
174 198 0
173 196 0
176 199 0
173 197 0
172 196 0
172 196 0
174 197 0
171 196 0
173 196 0
170 194 0
173 196 0
172 196 0
172 195 0
172 195 0
172 196 0
173 195 0
174 197 0
171 195 0
173 196 0
169 192 0
171 196 0
174 196 0
169 192 0
171 194 0
174 197 0
172 194 0
172 195 0
176 199 0
169 192 0
172 195 0
175 197 0
171 193 0
171 194 0
175 196 0
169 191 0
177 198 0
176 198 0
174 195 0
170 192 0
172 194 0
170 193 0
174 196 0
169 191 0
169 191 0
176 198 0
169 191 0
170 192 0
171 192 0
170 192 0
166 188 0
173 195 0
171 193 0
172 194 0
170 194 0
164 187 0
164 187 0
168 191 0
159 182 0
167 191 0
164 187 0
169 192 0
166 190 0
168 191 0
170 192 0
166 190 0
166 189 0
164 187 0
169 193 0
167 191 0
163 186 0
163 186 0
168 192 0
167 191 0
167 190 0
163 187 0
166 189 0
165 189 0
166 190 0
164 188 0
166 189 0
170 193 0
170 193 0
164 187 0
167 191 0
166 190 0
166 190 0
170 194 0
170 193 0
168 193 0
169 192 0
171 194 0
168 191 0
166 190 0
168 192 0
169 193 0
167 190 0
169 192 0
169 193 0
167 190 0
170 194 0
171 194 0
168 191 0
171 195 0
168 191 0
170 193 0
171 194 0
169 192 0
169 193 0
172 195 0
171 195 0
173 196 0
172 195 0
174 198 0
171 194 0
169 193 0
172 195 0
172 195 0
172 194 0
171 194 0
170 193 0
173 197 0
174 197 0
173 196 0
172 195 0
172 194 0
173 197 0
174 197 0
170 193 0
172 194 0
171 195 0
174 197 0
172 195 0
172 196 0
170 194 0
174 197 0
174 198 0
174 197 0
171 195 0
173 196 0
171 194 0
172 194 0
173 196 0
172 195 0
173 196 0
175 197 0
174 197 0
172 195 0
172 195 0
175 198 0
173 196 0
172 195 0
173 196 0
171 195 0
175 198 0
171 196 0
170 194 0
173 196 0
173 197 0
173 197 0
174 198 0
174 198 0
173 196 0
173 196 0
174 197 0
173 196 0
175 197 0
175 198 0
172 195 0
172 197 0
174 197 0
172 196 0
175 198 0
174 197 0
174 197 0
174 196 0
173 197 0
172 196 0
173 196 0
175 198 0
174 198 0
174 198 0
171 195 0
174 198 0
174 197 0
176 199 0
175 198 0
174 198 0
173 197 0
174 197 0
173 196 0
173 197 0
173 197 0
175 198 0
174 198 0
174 197 0
174 197 0
173 197 0
172 197 0
174 197 0
175 198 0
174 197 0
173 196 0
173 197 0
172 196 0
175 198 0
174 197 0
174 198 0
173 197 0
175 198 0
174 197 0
175 198 0
175 198 0
173 197 0
174 197 0
176 198 0
174 197 0
174 197 0
173 197 0
175 198 0
173 197 0
175 198 0
175 198 0
175 198 0
177 199 0
174 198 0
174 197 0
174 198 0
174 198 0
174 197 0
175 198 0
176 198 0
174 197 0
173 196 0
174 198 0
175 198 0
175 198 0
175 198 0
175 198 0
175 198 0
173 197 0
173 197 0
174 198 0
173 197 0
175 198 0
176 199 0
173 197 0
174 198 0
175 198 0
175 198 0
175 198 0
174 198 0
174 197 0
175 198 0
175 198 0
174 198 0
174 198 0
175 198 0
174 197 0
174 198 0
176 198 0
172 196 0
175 198 0
175 198 0
175 198 0
175 198 0
173 197 0
176 198 0
174 198 0
174 198 0
174 198 0
175 198 0
173 197 0
174 197 0
177 199 0
174 197 0
175 198 0
174 198 0
172 197 0
172 197 0
174 197 0
174 197 0
174 198 0
175 198 0
174 198 0
175 198 0
173 197 0
175 198 0
174 198 0
174 198 0
175 198 0
174 198 0
175 198 0
174 197 0
176 199 0
174 198 0
174 198 0
174 198 0
174 197 0
173 197 0
175 198 0
174 197 0
173 197 0
174 198 0
175 198 0
173 197 0
176 198 0
174 198 0
174 198 0
174 198 0
173 197 0
173 197 0
176 198 0
174 198 0
175 198 0
173 197 0
175 198 0
174 197 0
175 198 0
175 198 0
174 198 0
173 197 0
174 197 0
175 198 0
175 198 0
174 198 0
173 197 0
175 198 0
174 197 0
174 198 0
174 197 0
175 198 0
173 197 0
174 197 0
175 198 0
175 198 0
177 199 0
173 197 0
174 198 0
175 198 0
173 197 0
175 198 0
175 198 0
173 197 0
175 198 0
174 197 0
175 198 0
175 198 0
175 198 0
174 198 0
175 198 0
173 197 0
173 197 0
173 197 0
174 198 0
173 197 0
174 198 0
172 196 0
172 197 0
175 198 0
175 198 0
173 197 0
175 198 0
177 199 0
175 198 0
174 197 0
173 197 0
174 197 0
174 198 0
175 198 0
174 196 0
177 199 0
175 198 0
175 198 0
173 197 0
173 197 0
173 197 0
172 196 0
175 198 0
174 198 0
174 198 0
174 197 0
172 196 0
174 198 0
174 197 0
174 198 0
173 196 0
172 196 0
175 198 0
174 197 0
174 197 0
171 195 0
172 196 0
172 196 0
173 197 0
174 198 0
174 198 0
174 197 0
172 196 0
172 196 0
174 198 0
173 197 0
173 196 0
173 196 0
173 196 0
175 198 0
172 196 0
171 195 0
173 197 0
170 194 0
173 197 0
176 198 0
174 197 0
171 194 0
174 197 0
173 196 0
172 196 0
173 196 0
173 196 0
173 196 0
173 196 0
173 196 0
171 195 0
175 197 0
172 195 0
170 193 0
173 195 0
172 195 0
171 194 0
173 195 0
172 195 0
173 196 0
172 195 0
171 194 0
175 196 0
172 195 0
175 196 0
170 193 0
172 194 0
172 193 0
173 195 0
170 192 0
168 191 0
173 194 0
171 194 0
169 192 0
171 194 0
173 195 0
167 190 0
169 192 0
172 195 0
169 191 0
165 188 0
164 186 0
169 192 0
162 186 0
170 194 0
166 189 0
168 191 0
171 194 0
166 189 0
164 187 0
161 184 0
166 190 0
162 186 0
163 187 0
167 190 0
166 189 0
170 193 0
166 189 0
167 191 0
167 190 0
165 188 0
163 187 0
168 191 0
169 192 0
163 186 0
166 190 0
168 191 0
164 188 0
165 188 0
171 195 0
166 190 0
171 195 0
166 190 0
165 188 0
169 192 0
169 191 0
170 194 0
168 191 0
168 191 0
169 193 0
172 195 0
167 190 0
171 194 0
172 195 0
170 193 0
167 189 0
168 193 0
169 193 0
167 190 0
171 194 0
172 195 0
167 191 0
168 191 0
171 194 0
171 194 0
171 195 0
170 193 0
170 194 0
173 195 0
173 197 0
171 195 0
171 195 0
170 193 0
170 194 0
173 196 0
172 196 0
174 197 0
170 193 0
171 194 0
171 194 0
173 196 0
170 194 0
170 194 0
172 196 0
173 196 0
170 194 0
174 197 0
173 195 0
173 196 0
173 196 0
170 194 0
172 196 0
175 197 0
173 196 0
172 195 0
172 196 0
173 196 0
172 196 0
175 198 0
173 196 0
173 196 0
174 197 0
173 196 0
173 196 0
173 196 0
173 197 0
174 197 0
173 197 0
172 196 0
174 197 0
175 198 0
172 195 0
173 196 0
172 196 0
173 197 0
173 197 0
174 198 0
173 197 0
174 196 0
173 197 0
172 195 0
173 196 0
174 197 0
174 196 0
173 197 0
174 197 0
174 198 0
175 198 0
175 198 0
174 197 0
175 198 0
173 197 0
173 197 0
173 196 0
172 196 0
172 196 0
174 197 0
173 197 0
174 197 0
174 198 0
174 198 0
173 196 0
175 198 0
174 198 0
173 196 0
173 196 0
174 197 0
174 197 0
173 197 0
176 198 0
175 198 0
173 197 0
173 197 0
174 197 0
174 197 0
174 197 0
173 197 0
174 198 0
173 197 0
174 198 0
174 197 0
172 196 0
175 198 0
176 199 0
174 197 0
173 197 0
175 198 0
172 197 0
174 198 0
174 197 0
175 198 0
175 198 0
176 199 0
175 198 0
173 197 0
174 197 0
176 199 0
173 197 0
173 197 0
173 197 0
173 196 0
174 197 0
175 198 0
174 198 0
174 198 0
175 198 0
174 197 0
172 197 0
176 199 0
175 198 0
173 197 0
175 198 0
173 197 0
173 197 0
172 197 0
175 198 0
174 198 0
173 197 0
174 197 0
174 197 0
174 197 0
174 197 0
174 197 0
175 198 0
173 197 0
175 198 0
175 198 0
175 198 0
176 199 0
174 198 0
174 197 0
174 198 0
174 198 0
174 197 0
173 197 0
172 196 0
174 198 0
172 197 0
175 198 0
174 198 0
176 198 0
175 198 0
176 199 0
175 198 0
174 198 0
173 196 0
174 198 0
173 197 0
173 197 0
175 198 0
175 198 0
175 198 0
174 198 0
173 197 0
175 198 0
174 198 0
175 198 0
176 199 0
175 198 0
175 198 0
174 198 0
173 197 0
174 198 0
175 198 0
175 198 0
175 198 0
175 198 0
175 198 0
173 197 0
175 198 0
173 197 0
176 198 0
174 198 0
176 199 0
174 198 0
174 198 0
174 197 0
173 197 0
174 198 0
175 198 0
174 197 0
175 198 0
175 198 0
175 198 0
172 197 0
176 199 0
175 198 0
174 198 0
175 198 0
177 199 0
175 198 0
175 198 0
173 197 0
175 198 0
175 198 0
176 199 0
174 197 0
174 198 0
175 198 0
174 198 0
176 199 0
174 198 0
174 198 0
175 198 0
174 197 0
176 199 0
175 198 0
174 197 0
174 198 0
173 197 0
176 199 0
176 199 0
173 197 0
174 198 0
175 198 0
174 198 0
175 198 0
173 197 0
174 197 0
174 197 0
173 197 0
174 198 0
173 197 0
174 198 0
174 197 0
176 198 0
175 198 0
174 197 0
175 198 0
174 197 0
172 196 0
174 197 0
175 198 0
174 197 0
174 198 0
174 197 0
175 198 0
173 197 0
174 198 0
173 197 0
172 195 0
176 198 0
175 198 0
174 197 0
175 198 0
174 198 0
174 197 0
174 198 0
174 198 0
175 198 0
175 198 0
175 198 0
173 197 0
173 196 0
173 197 0
172 195 0
175 198 0
174 198 0
175 198 0
175 198 0
173 197 0
173 197 0
173 197 0
173 197 0
174 197 0
173 197 0
173 197 0
174 198 0
175 198 0
173 196 0
175 198 0
172 196 0
174 197 0
173 196 0
172 196 0
173 196 0
173 197 0
174 197 0
173 196 0
175 198 0
174 197 0
173 197 0
175 198 0
173 196 0
173 197 0
172 195 0
173 196 0
173 197 0
173 196 0
174 197 0
171 195 0
172 196 0
173 197 0
171 194 0
169 193 0
174 197 0
173 197 0
172 195 0
173 196 0
174 197 0
171 194 0
170 193 0
173 195 0
171 195 0
174 196 0
174 197 0
175 198 0
174 197 0
174 196 0
174 196 0
174 196 0
171 193 0
174 196 0
173 195 0
173 196 0
175 196 0
176 197 0
174 197 0
171 194 0
171 194 0
172 194 0
170 192 0
169 191 0
171 193 0
173 195 0
173 196 0
171 194 0
167 190 0
169 192 0
169 191 0
163 186 0
169 192 0
170 193 0
169 192 0
165 188 0
165 188 0
166 190 0
171 194 0
168 191 0
167 189 0
164 187 0
167 191 0
165 188 0
168 190 0
167 190 0
169 192 0
170 193 0
166 189 0
169 193 0
168 192 0
164 188 0
167 190 0
168 192 0
167 191 0
166 189 0
170 192 0
164 189 0
169 192 0
168 192 0
171 194 0
165 189 0
167 190 0
166 188 0
167 191 0
165 189 0
168 191 0
162 185 0
164 187 0
166 190 0
168 192 0
168 192 0
166 190 0
172 196 0
167 191 0
171 195 0
169 192 0
170 193 0
171 195 0
167 191 0
167 191 0
172 196 0
171 193 0
171 194 0
170 194 0
172 195 0
169 192 0
170 193 0
172 195 0
173 196 0
172 195 0
172 195 0
172 195 0
171 194 0
171 194 0
173 196 0
170 194 0
169 193 0
169 193 0
167 190 0
172 194 0
171 194 0
171 195 0
170 193 0
170 193 0
172 196 0
172 196 0
171 195 0
172 195 0
168 191 0
171 195 0
174 197 0
173 197 0
172 196 0
173 196 0
172 196 0
172 196 0
170 193 0
173 196 0
172 196 0
173 197 0
173 196 0
173 196 0
175 198 0
174 197 0
173 196 0
173 196 0
174 198 0
174 197 0
174 196 0
172 196 0
173 197 0
171 194 0
172 196 0
171 195 0
173 197 0
171 195 0
173 197 0
173 196 0
172 196 0
174 197 0
175 197 0
175 198 0
172 196 0
174 197 0
175 198 0
172 196 0
175 198 0
173 196 0
174 198 0
174 197 0
174 198 0
176 199 0
175 198 0
174 197 0
173 196 0
175 198 0
174 197 0
173 197 0
173 197 0
175 198 0
173 197 0
175 198 0
174 197 0
174 198 0
172 196 0
174 197 0
174 197 0
175 197 0
174 198 0
173 197 0
175 198 0
175 198 0
173 197 0
174 198 0
173 197 0
173 197 0
174 197 0
174 197 0
174 197 0
175 198 0
174 197 0
177 199 0
174 197 0
175 198 0
173 197 0
175 198 0
174 197 0
174 197 0
175 198 0
175 198 0
174 197 0
174 197 0
173 197 0
175 198 0
174 197 0
172 196 0
176 199 0
176 199 0
174 197 0
174 198 0
172 196 0
173 197 0
175 198 0
174 197 0
174 197 0
173 197 0
174 197 0
175 198 0
173 197 0
174 198 0
174 198 0
173 197 0
173 197 0
176 199 0
176 198 0
174 198 0
173 197 0
174 198 0
173 197 0
173 197 0
174 197 0
174 197 0
174 197 0
174 198 0
175 198 0
174 198 0
173 196 0
175 198 0
174 198 0
174 198 0
175 198 0
173 197 0
174 197 0
174 197 0
175 198 0
176 199 0
175 198 0
175 198 0
173 197 0
174 198 0
173 197 0
176 199 0
174 198 0
175 198 0
175 198 0
175 198 0
175 198 0
175 198 0
175 198 0
175 198 0
174 197 0
175 198 0
175 198 0
174 198 0
172 196 0
173 197 0
176 198 0
174 198 0
176 199 0
175 198 0
175 198 0
174 197 0
174 198 0
174 198 0
175 198 0
174 198 0
174 198 0
174 198 0
175 198 0
175 198 0
174 197 0
175 198 0
174 198 0
172 196 0
173 197 0
175 198 0
176 199 0
174 198 0
175 198 0
173 197 0
175 198 0
176 199 0
172 196 0
175 198 0
173 197 0
175 198 0
175 198 0
172 197 0
173 197 0
174 198 0
175 198 0
173 197 0
172 197 0
174 198 0
176 199 0
176 199 0
174 198 0
173 197 0
175 198 0
175 198 0
174 197 0
173 197 0
173 197 0
175 198 0
173 197 0
173 197 0
174 197 0
174 198 0
174 197 0
175 198 0
173 197 0
175 198 0
175 198 0
172 196 0
175 198 0
174 198 0
173 197 0
175 198 0
175 198 0
174 197 0
175 198 0
175 198 0
176 199 0
173 196 0
173 197 0
174 198 0
175 198 0
174 198 0
171 195 0
173 197 0
176 199 0
176 199 0
174 197 0
172 196 0
174 197 0
175 198 0
174 197 0
174 198 0
174 198 0
174 198 0
175 198 0
173 197 0
173 197 0
175 198 0
174 197 0
172 196 0
173 197 0
175 198 0
174 198 0
174 197 0
174 198 0
174 197 0
174 198 0
173 197 0
173 197 0
173 197 0
174 198 0
174 198 0
174 198 0
174 198 0
174 197 0
173 196 0
173 197 0
174 198 0
175 198 0
172 196 0
174 198 0
174 196 0
172 196 0
175 198 0
173 197 0
173 197 0
171 196 0
171 195 0
173 197 0
172 195 0
173 197 0
174 198 0
171 195 0
174 197 0
174 197 0
174 197 0
172 196 0
172 196 0
176 198 0
172 195 0
172 196 0
172 197 0
173 197 0
174 197 0
173 197 0
173 197 0
172 196 0
172 196 0
173 196 0
172 196 0
173 197 0
172 196 0
173 197 0
171 195 0
172 196 0
173 196 0
172 196 0
171 195 0
171 194 0
170 194 0
173 196 0
173 196 0
173 196 0
170 192 0
174 197 0
173 195 0
172 195 0
173 197 0
175 197 0
173 196 0
174 197 0
172 193 0
168 189 0
171 194 0
170 194 0
174 196 0
170 192 0
171 193 0
171 194 0
167 189 0
172 194 0
169 192 0
170 194 0
167 191 0
170 193 0
168 192 0
167 190 0
170 193 0
168 191 0
170 193 0
166 189 0
168 192 0
165 188 0
170 193 0
169 192 0
166 189 0
168 191 0
164 187 0
166 190 0
169 192 0
167 190 0
164 188 0
161 186 0
165 189 0
167 191 0
168 192 0
165 188 0
169 193 0
173 196 0
173 196 0
168 192 0
168 192 0
171 195 0
168 191 0
171 193 0
165 188 0
170 194 0
169 193 0
171 194 0
168 191 0
168 191 0
168 191 0
167 190 0
171 194 0
167 191 0
168 191 0
168 193 0
170 193 0
171 194 0
172 196 0
173 197 0
172 195 0
171 195 0
168 192 0
172 195 0
170 193 0
172 196 0
167 191 0
170 193 0
170 193 0
170 194 0
171 195 0
171 195 0
174 197 0
170 194 0
171 194 0
172 194 0
171 194 0
171 194 0
172 195 0
173 197 0
171 195 0
172 194 0
172 195 0
173 196 0
172 196 0
172 196 0
174 196 0
166 189 0
171 194 0
172 195 0
171 194 0
173 197 0
172 195 0
172 195 0
173 195 0
173 197 0
171 195 0
170 194 0
172 196 0
174 197 0
173 196 0
174 197 0
174 197 0
174 196 0
172 195 0
174 197 0
174 198 0
171 195 0
174 197 0
173 196 0
171 195 0
171 195 0
175 198 0
175 198 0
170 193 0
173 196 0
173 197 0
175 198 0
171 195 0
172 196 0
174 198 0
172 196 0
173 197 0
175 197 0
173 196 0
174 197 0
173 197 0
174 198 0
173 197 0
174 198 0
174 198 0
172 196 0
174 198 0
175 198 0
176 198 0
175 198 0
174 198 0
174 197 0
174 197 0
174 197 0
173 196 0
174 197 0
173 197 0
174 197 0
173 197 0
173 197 0
175 198 0
173 196 0
173 197 0
175 198 0
173 196 0
174 197 0
173 197 0
173 197 0
174 197 0
175 197 0
174 197 0
175 198 0
174 198 0
171 195 0
177 199 0
173 197 0
173 197 0
176 199 0
174 198 0
175 198 0
174 197 0
175 198 0
174 198 0
174 198 0
175 198 0
174 197 0
174 197 0
175 198 0
175 198 0
174 197 0
174 198 0
174 198 0
175 198 0
175 198 0
175 198 0
176 199 0
174 197 0
175 198 0
176 199 0
174 198 0
174 198 0
175 198 0
175 198 0
173 197 0
175 198 0
173 197 0
177 199 0
173 197 0
175 198 0
175 198 0
174 198 0
172 197 0
175 198 0
175 198 0
173 196 0
175 198 0
175 198 0
174 198 0
174 197 0
175 198 0
175 198 0
173 197 0
175 198 0
175 198 0
175 198 0
174 198 0
173 197 0
173 197 0
175 198 0
174 198 0
173 197 0
174 197 0
174 197 0
174 198 0
175 198 0
174 197 0
175 198 0
174 198 0
173 197 0
174 197 0
175 198 0
174 197 0
174 198 0
175 198 0
174 197 0
173 197 0
173 197 0
176 199 0
174 198 0
174 198 0
174 197 0
174 198 0
175 198 0
175 198 0
175 198 0
175 198 0
176 198 0
173 197 0
173 197 0
177 199 0
176 198 0
175 198 0
174 198 0
173 196 0
174 198 0
175 198 0
175 198 0
175 198 0
175 198 0
175 198 0
175 198 0
175 198 0
175 198 0
174 198 0
175 198 0
176 199 0
175 198 0
174 198 0
176 199 0
175 198 0
172 197 0
174 197 0
174 198 0
174 198 0
177 199 0
175 198 0
175 198 0
172 197 0
173 197 0
173 197 0
175 198 0
174 197 0
175 198 0
173 197 0
174 198 0
173 197 0
175 198 0
174 198 0
174 198 0
172 196 0
174 197 0
176 198 0
174 197 0
174 197 0
174 198 0
174 198 0
173 197 0
174 198 0
174 197 0
173 197 0
174 198 0
174 198 0
174 198 0
174 197 0
174 197 0
173 196 0
174 197 0
173 197 0
175 198 0
174 198 0
175 198 0
173 197 0
174 197 0
174 198 0
174 197 0
172 196 0
174 197 0
173 197 0
175 198 0
173 197 0
176 198 0
173 197 0
172 196 0
173 197 0
174 197 0
173 197 0
174 198 0
175 198 0
174 198 0
174 198 0
174 197 0
174 197 0
175 198 0
174 198 0
175 198 0
174 198 0
175 198 0
175 198 0
172 196 0
175 198 0
175 198 0
175 198 0
175 198 0
174 197 0
174 198 0
175 198 0
173 197 0
174 197 0
175 198 0
171 195 0
172 196 0
175 198 0
174 197 0
175 198 0
172 195 0
173 197 0
173 197 0
173 197 0
174 198 0
174 198 0
174 197 0
173 196 0
171 195 0
175 198 0
174 197 0
174 197 0
174 197 0
173 196 0
173 197 0
175 198 0
173 196 0
174 197 0
171 195 0
174 197 0
171 195 0
174 197 0
173 197 0
173 196 0
171 195 0
175 198 0
171 194 0
170 194 0
172 195 0
170 193 0
173 196 0
174 197 0
171 194 0
175 198 0
172 195 0
170 193 0
172 195 0
170 193 0
174 197 0
174 197 0
174 197 0
174 197 0
174 196 0
174 196 0
168 191 0
169 193 0
174 196 0
173 196 0
172 195 0
171 194 0
172 195 0
171 193 0
171 193 0
170 193 0
172 194 0
173 196 0
172 195 0
167 189 0
166 190 0
170 192 0
170 193 0
171 194 0
169 191 0
167 191 0
170 193 0
172 194 0
170 193 0
167 190 0
163 186 0
168 191 0
169 193 0
170 193 0
164 187 0
167 190 0
168 191 0
168 191 0
166 190 0
170 193 0
170 193 0
166 189 0
164 187 0
167 190 0
166 190 0
166 190 0
171 195 0
167 189 0
168 192 0
166 188 0
168 191 0
169 193 0
168 191 0
166 189 0
164 187 0
163 187 0
169 192 0
171 194 0
167 191 0
171 194 0
168 192 0
171 194 0
168 191 0
168 192 0
171 194 0
169 193 0
168 192 0
163 187 0
169 194 0
168 192 0
170 193 0
172 195 0
166 188 0
171 194 0
174 198 0
171 195 0
170 194 0
170 193 0
172 196 0
169 191 0
171 194 0
169 192 0
171 194 0
171 194 0
170 194 0
169 193 0
170 193 0
172 195 0
172 195 0
169 192 0
172 196 0
175 197 0
172 195 0
172 196 0
174 197 0
172 195 0
172 195 0
171 195 0
174 197 0
172 195 0
172 194 0
173 196 0
174 197 0
171 193 0
173 196 0
172 195 0
173 195 0
172 195 0
171 195 0
173 196 0
173 197 0
174 197 0
173 196 0
172 196 0
168 192 0
172 195 0
174 197 0
172 196 0
172 195 0
171 195 0
173 197 0
173 196 0
173 197 0
173 197 0
174 197 0
173 197 0
172 195 0
174 197 0
173 197 0
174 198 0
173 196 0
173 196 0
174 197 0
174 197 0
173 196 0
174 198 0
175 197 0
174 197 0
174 197 0
175 198 0
176 199 0
174 198 0
173 196 0
174 197 0
173 196 0
174 197 0
174 196 0
175 198 0
173 197 0
173 196 0
172 196 0
173 197 0
174 197 0
174 197 0
173 197 0
173 197 0
174 197 0
175 198 0
174 197 0
174 197 0
173 196 0
174 198 0
175 198 0
173 197 0
175 198 0
173 197 0
175 198 0
175 198 0
174 198 0
176 199 0
174 198 0
173 197 0
175 198 0
175 198 0
173 196 0
173 197 0
175 198 0
175 198 0
175 198 0
175 198 0
174 197 0
173 197 0
172 196 0
176 199 0
175 198 0
174 197 0
176 199 0
174 198 0
174 197 0
174 198 0
173 197 0
175 198 0
175 198 0
175 198 0
174 198 0
176 199 0
173 197 0
175 198 0
174 197 0
175 198 0
175 198 0
174 198 0
173 196 0
176 198 0
174 197 0
174 198 0
174 197 0
174 198 0
174 198 0
175 198 0
176 199 0
174 198 0
173 197 0
175 198 0
172 196 0
175 198 0
175 198 0
173 197 0
175 198 0
174 198 0
175 198 0
174 198 0
173 197 0
173 197 0
175 198 0
174 198 0
174 197 0
175 198 0
175 198 0
174 197 0
174 197 0
176 198 0
173 197 0
173 197 0
173 197 0
176 198 0
176 198 0
173 197 0
177 199 0
174 198 0
174 198 0
175 198 0
175 198 0
176 199 0
174 198 0
174 198 0
175 198 0
177 199 0
177 199 0
176 198 0
175 198 0
173 197 0
174 198 0
173 197 0
175 198 0
174 198 0
171 196 0
175 198 0
173 197 0
173 197 0
175 198 0
172 197 0
174 197 0
176 199 0
174 197 0
173 197 0
176 199 0
176 199 0
175 198 0
175 198 0
175 198 0
174 198 0
174 198 0
174 197 0
175 198 0
173 197 0
174 197 0
174 198 0
174 198 0
173 197 0
173 197 0
173 197 0
176 199 0
174 198 0
176 199 0
175 198 0
175 198 0
173 197 0
175 198 0
174 198 0
174 197 0
175 198 0
172 197 0
174 198 0
173 197 0
173 197 0
174 198 0
175 198 0
174 197 0
175 198 0
173 197 0
175 198 0
175 198 0
175 197 0
174 197 0
173 197 0
175 198 0
175 198 0
175 198 0
173 196 0
175 198 0
175 198 0
175 198 0
175 198 0
176 198 0
175 198 0
173 197 0
174 198 0
174 198 0
175 198 0
175 198 0
176 199 0
174 198 0
174 198 0
175 198 0
174 197 0
173 197 0
174 198 0
175 198 0
173 197 0
174 198 0
175 198 0
175 198 0
174 198 0
174 197 0
174 198 0
177 199 0
174 197 0
174 197 0
173 197 0
175 198 0
174 197 0
174 197 0
174 198 0
174 197 0
176 199 0
174 197 0
174 197 0
174 198 0
173 197 0
174 197 0
174 198 0
174 198 0
176 198 0
175 197 0
174 198 0
172 196 0
174 198 0
173 197 0
175 198 0
173 197 0
172 196 0
173 196 0
174 198 0
173 197 0
174 197 0
173 196 0
172 196 0
174 196 0
174 198 0
172 196 0
174 197 0
174 197 0
174 196 0
174 198 0
173 197 0
174 198 0
173 196 0
174 197 0
172 196 0
174 197 0
172 196 0
172 196 0
173 196 0
169 192 0
171 195 0
172 196 0
174 197 0
174 197 0
170 193 0
173 196 0
173 196 0
172 196 0
174 197 0
172 195 0
172 195 0
174 197 0
173 196 0
173 195 0
171 195 0
171 194 0
172 195 0
171 194 0
173 197 0
171 195 0
175 197 0
172 194 0
173 195 0
174 197 0
172 194 0
173 195 0
173 196 0
173 196 0
172 195 0
173 196 0
169 192 0
170 192 0
169 191 0
166 189 0
171 194 0
170 193 0
170 194 0
172 194 0
164 187 0
173 196 0
167 190 0
164 187 0
174 197 0
168 191 0
168 191 0
170 194 0
171 194 0
168 191 0
165 189 0
169 193 0
167 191 0
170 193 0
168 190 0
163 186 0
169 192 0
170 193 0
172 195 0
168 192 0
167 191 0
168 191 0
169 192 0
172 196 0
168 192 0
163 187 0
166 190 0
170 194 0
169 193 0
164 189 0
170 193 0
170 194 0
169 192 0
173 197 0
166 189 0
167 191 0
169 193 0
169 192 0
169 192 0
170 193 0
168 192 0
171 194 0
168 192 0
169 192 0
171 193 0
170 194 0
173 197 0
172 196 0
171 194 0
167 190 0
172 195 0
171 193 0
170 193 0
170 193 0
169 192 0
173 196 0
170 193 0
168 191 0
174 196 0
171 194 0
173 196 0
170 194 0
172 196 0
173 197 0
172 195 0
171 195 0
172 196 0
172 195 0
170 194 0
169 193 0
171 195 0
171 194 0
172 195 0
174 196 0
174 198 0
172 195 0
171 194 0
171 195 0
172 196 0
173 196 0
171 195 0
173 196 0
171 195 0
170 193 0
172 195 0
173 197 0
169 192 0
171 195 0
173 196 0
174 198 0
173 196 0
175 198 0
173 196 0
174 197 0
173 196 0
175 198 0
174 198 0
173 196 0
172 196 0
173 196 0
173 197 0
171 195 0
174 197 0
174 198 0
173 197 0
173 196 0
173 197 0
173 197 0
174 198 0
176 198 0
175 198 0
175 198 0
172 195 0
172 196 0
172 196 0
173 197 0
173 197 0
174 197 0
174 197 0
172 196 0
175 198 0
175 198 0
173 197 0
176 199 0
174 197 0
173 197 0
175 198 0
173 197 0
171 195 0
172 197 0
173 197 0
176 199 0
176 199 0
175 197 0
174 198 0
175 198 0
173 197 0
174 197 0
176 199 0
174 197 0
176 198 0
174 197 0
175 198 0
174 197 0
173 196 0
175 198 0
173 196 0
174 197 0
173 197 0
175 198 0
173 197 0
175 198 0
175 198 0
173 197 0
174 197 0
173 197 0
176 199 0
174 197 0
174 198 0
173 197 0
173 197 0
174 197 0
175 198 0
174 197 0
172 196 0
175 198 0
175 198 0
175 197 0
175 198 0
174 198 0
176 199 0
174 198 0
173 197 0
175 198 0
175 198 0
174 197 0
175 198 0
174 198 0
174 198 0
175 198 0
173 197 0
176 199 0
174 197 0
172 197 0
174 198 0
173 197 0
176 198 0
174 197 0
175 198 0
175 198 0
175 198 0
175 198 0
176 198 0
176 199 0
174 198 0
175 198 0
175 198 0
174 198 0
174 198 0
172 196 0
175 198 0
174 197 0
172 196 0
174 198 0
174 198 0
174 197 0
175 198 0
174 198 0
176 199 0
176 199 0
176 198 0
176 199 0
174 198 0
175 198 0
175 198 0
173 197 0
175 198 0
176 199 0
175 198 0
176 199 0
176 199 0
174 197 0
174 198 0
175 198 0
176 199 0
175 198 0
174 198 0
175 198 0
174 198 0
175 198 0
175 198 0
173 197 0
174 198 0
174 197 0
174 198 0
175 198 0
175 198 0
175 197 0
175 198 0
175 198 0
175 198 0
174 198 0
174 198 0
175 198 0
176 198 0
172 196 0
174 197 0
175 197 0
175 198 0
174 197 0
173 197 0
175 198 0
175 198 0
174 198 0
175 198 0
174 197 0
174 197 0
174 198 0
175 198 0
174 198 0
174 198 0
175 198 0
175 198 0
175 198 0
176 198 0
174 197 0
174 197 0
174 197 0
174 197 0
175 198 0
174 198 0
174 198 0
174 198 0
174 197 0
175 198 0
173 197 0
173 197 0
174 197 0
175 198 0
175 198 0
174 197 0
176 199 0
176 198 0
174 198 0
174 198 0
173 197 0
176 198 0
176 199 0
174 197 0
175 198 0
174 197 0
173 197 0
175 198 0
175 198 0
174 197 0
174 197 0
174 198 0
173 197 0
174 197 0
175 198 0
174 197 0
174 198 0
174 198 0
175 198 0
174 197 0
177 199 0
173 197 0
174 198 0
173 197 0
174 197 0
174 197 0
171 196 0
174 197 0
174 197 0
174 198 0
173 197 0
175 198 0
173 197 0
174 197 0
175 198 0
172 196 0
175 198 0
172 196 0
174 198 0
172 196 0
172 197 0
174 198 0
174 197 0
174 197 0
171 195 0
175 198 0
175 198 0
173 197 0
171 195 0
174 198 0
174 197 0
174 197 0
171 195 0
176 198 0
174 198 0
176 198 0
172 196 0
173 196 0
173 196 0
175 198 0
171 195 0
174 197 0
174 197 0
173 196 0
173 197 0
173 197 0
173 197 0
172 196 0
173 197 0
171 195 0
175 197 0
174 197 0
173 196 0
173 197 0
171 195 0
174 197 0
172 196 0
174 198 0
171 195 0
172 196 0
172 196 0
173 196 0
174 197 0
173 197 0
171 195 0
170 195 0
172 195 0
171 195 0
174 197 0
169 192 0
173 196 0
172 196 0
172 195 0
170 194 0
172 196 0
173 197 0
173 197 0
172 196 0
172 195 0
173 196 0
172 195 0
174 196 0
172 195 0
172 194 0
173 196 0
170 193 0
173 195 0
166 190 0
170 193 0
170 194 0
169 192 0
172 195 0
172 195 0
172 195 0
172 196 0
173 195 0
172 194 0
166 190 0
170 193 0
169 193 0
169 192 0
170 193 0
167 190 0
168 191 0
170 193 0
172 195 0
170 193 0
169 193 0
173 196 0
168 192 0
168 192 0
166 189 0
167 190 0
168 192 0
167 191 0
167 191 0
165 188 0
168 192 0
166 190 0
168 191 0
165 188 0
171 193 0
168 191 0
162 185 0
165 189 0
167 190 0
170 193 0
172 195 0
170 193 0
166 190 0
165 189 0
171 194 0
169 191 0
169 192 0
170 193 0
170 193 0
169 192 0
169 192 0
172 196 0
169 192 0
167 190 0
172 195 0
172 194 0
172 196 0
171 194 0
172 194 0
171 193 0
169 192 0
172 195 0
169 192 0
170 194 0
171 193 0
171 196 0
173 196 0
169 193 0
172 195 0
171 195 0
170 194 0
170 194 0
173 196 0
172 195 0
170 193 0
172 195 0
174 197 0
172 195 0
169 193 0
172 196 0
174 197 0
171 194 0
170 193 0
174 198 0
172 196 0
174 197 0
173 196 0
172 196 0
171 194 0
175 198 0
172 194 0
173 197 0
174 197 0
173 197 0
171 195 0
174 198 0
174 197 0
171 194 0
172 196 0
175 198 0
173 197 0
175 198 0
175 198 0
170 195 0
173 196 0
172 196 0
174 198 0
175 198 0
174 197 0
174 197 0
172 195 0
174 197 0
173 196 0
173 196 0
174 197 0
172 196 0
173 197 0
174 197 0
173 197 0
175 198 0
173 196 0
172 196 0
174 197 0
173 196 0
173 196 0
173 196 0
174 198 0
174 198 0
172 196 0
175 198 0
172 196 0
175 198 0
176 198 0
172 196 0
173 197 0
174 197 0
174 196 0
173 197 0
171 195 0
173 197 0
175 198 0
173 197 0
174 198 0
174 197 0
174 197 0
174 198 0
173 197 0
173 197 0
172 196 0
174 197 0
172 196 0
171 196 0
173 197 0
173 197 0
174 197 0
174 197 0
172 196 0
173 196 0
173 197 0
174 197 0
175 198 0
175 198 0
175 198 0
174 197 0
174 197 0
175 198 0
174 198 0
175 198 0
174 197 0
174 198 0
173 197 0
173 197 0
174 197 0
173 197 0
175 198 0
173 196 0
175 198 0
174 198 0
174 197 0
175 198 0
175 198 0
174 198 0
173 197 0
175 198 0
173 197 0
175 198 0
175 198 0
174 197 0
173 197 0
176 199 0
177 199 0
175 198 0
174 198 0
174 197 0
175 198 0
174 198 0
175 198 0
175 198 0
173 197 0
175 198 0
174 198 0
173 197 0
175 198 0
175 198 0
174 197 0
173 197 0
174 197 0
174 198 0
173 197 0
174 198 0
175 198 0
175 197 0
174 197 0
176 198 0
175 198 0
174 197 0
174 198 0
172 196 0
174 198 0
175 198 0
174 198 0
174 197 0
172 196 0
174 198 0
175 198 0
174 198 0
174 198 0
174 197 0
175 198 0
173 197 0
174 197 0
173 197 0
175 198 0
174 198 0
174 197 0
175 198 0
173 197 0
175 198 0
174 198 0
174 197 0
174 198 0
174 198 0
175 198 0
174 198 0
173 197 0
174 198 0
173 197 0
174 197 0
174 198 0
174 197 0
173 197 0
174 198 0
174 198 0
174 197 0
173 197 0
175 198 0
173 197 0
174 198 0
173 197 0
175 198 0
175 198 0
175 198 0
174 197 0
174 198 0
174 197 0
175 198 0
173 197 0
176 199 0
173 197 0
173 197 0
174 198 0
172 196 0
175 198 0
173 197 0
173 197 0
173 197 0
174 197 0
174 198 0
174 197 0
174 197 0
174 198 0
176 199 0
176 199 0
176 198 0
174 197 0
173 197 0
175 198 0
174 197 0
174 197 0
173 197 0
174 197 0
174 197 0
174 197 0
173 197 0
173 197 0
175 198 0
173 197 0
174 198 0
175 198 0
175 198 0
175 198 0
175 198 0
176 198 0
174 197 0
173 197 0
175 198 0
173 196 0
175 198 0
173 196 0
176 198 0
175 198 0
176 198 0
176 198 0
174 197 0
173 197 0
175 198 0
173 197 0
174 197 0
174 197 0
174 197 0
174 198 0
173 197 0
174 198 0
173 197 0
175 198 0
173 197 0
177 199 0
175 198 0
174 197 0
175 198 0
173 197 0
176 199 0
174 197 0
174 197 0
173 197 0
174 197 0
175 198 0
173 197 0
175 198 0
174 198 0
175 198 0
172 196 0
174 198 0
173 196 0
174 197 0
173 197 0
173 197 0
173 197 0
173 197 0
173 196 0
174 197 0
174 197 0
174 197 0
172 196 0
174 197 0
169 193 0
172 196 0
173 197 0
174 198 0
174 198 0
173 197 0
171 195 0
173 197 0
175 198 0
174 197 0
175 198 0
174 197 0
174 198 0
174 197 0
171 195 0
176 199 0
173 196 0
173 196 0
174 197 0
173 196 0
173 196 0
173 196 0
174 197 0
173 196 0
174 197 0
172 195 0
174 198 0
172 195 0
173 196 0
172 197 0
176 199 0
173 196 0
172 194 0
171 194 0
170 194 0
174 197 0
172 195 0
172 195 0
169 192 0
171 194 0
171 194 0
168 191 0
171 194 0
171 195 0
173 196 0
169 193 0
173 196 0
173 196 0
168 191 0
171 193 0
170 194 0
168 190 0
170 193 0
166 190 0
167 190 0
170 193 0
169 191 0
173 195 0
169 193 0
167 191 0
170 194 0
169 193 0
171 194 0
170 194 0
166 189 0
170 194 0
168 191 0
169 192 0
167 190 0
171 194 0
165 188 0
169 192 0
168 191 0
171 194 0
169 192 0
170 193 0
163 187 0
171 194 0
168 192 0
170 193 0
170 194 0
165 188 0
170 193 0
171 193 0
169 192 0
169 192 0
169 193 0
171 194 0
167 190 0
170 193 0
165 189 0
171 195 0
169 192 0
173 197 0
170 194 0
170 193 0
169 192 0
167 190 0
172 195 0
172 195 0
170 193 0
168 192 0
172 195 0
171 194 0
173 196 0
169 193 0
172 195 0
173 196 0
171 194 0
169 193 0
171 194 0
171 194 0
172 195 0
169 193 0
168 192 0
174 197 0
174 197 0
170 194 0
171 195 0
171 195 0
170 193 0
168 191 0
169 193 0
173 196 0
171 194 0
174 197 0
171 194 0
172 196 0
174 197 0
172 196 0
171 195 0
174 197 0
171 195 0
174 196 0
173 197 0
172 196 0
172 196 0
171 194 0
173 196 0
173 195 0
172 196 0
173 196 0
171 195 0
174 197 0
172 195 0
174 197 0
173 196 0
171 195 0
174 197 0
171 194 0
172 196 0
173 197 0
173 197 0
174 197 0
173 196 0
173 197 0
173 195 0
174 197 0
174 197 0
173 196 0
174 198 0
174 198 0
173 197 0
174 198 0
174 197 0
174 197 0
174 197 0
173 196 0
173 196 0
174 197 0
174 197 0
172 196 0
174 197 0
175 198 0
174 197 0
173 197 0
174 197 0
175 198 0
171 196 0
173 197 0
172 196 0
174 197 0
174 197 0
174 197 0
172 196 0
173 197 0
173 196 0
173 196 0
174 197 0
174 197 0
174 197 0
174 197 0
174 197 0
173 197 0
175 198 0
175 198 0
174 198 0
174 196 0
173 197 0
175 198 0
175 198 0
173 197 0
175 198 0
171 195 0
174 198 0
173 197 0
174 198 0
174 197 0
174 198 0
174 198 0
175 198 0
173 197 0
175 198 0
175 198 0
173 197 0
176 198 0
173 197 0
174 198 0
175 198 0
172 196 0
174 197 0
173 197 0
175 198 0
173 197 0
173 197 0
173 196 0
174 198 0
174 197 0
174 197 0
174 197 0
173 197 0
172 196 0
174 197 0
174 197 0
173 197 0
174 198 0
175 198 0
173 197 0
176 198 0
174 197 0
175 198 0
175 198 0
176 199 0
175 198 0
174 198 0
175 198 0
173 197 0
175 198 0
175 198 0
175 198 0
175 198 0
175 198 0
173 197 0
176 198 0
177 199 0
174 197 0
174 198 0
173 197 0
175 198 0
174 197 0
172 197 0
175 198 0
175 198 0
173 197 0
174 198 0
173 197 0
174 198 0
175 198 0
174 198 0
173 197 0
173 197 0
174 198 0
175 198 0
175 198 0
175 198 0
175 198 0
174 198 0
174 198 0
173 197 0
172 196 0
175 198 0
174 197 0
176 199 0
175 198 0
174 198 0
174 197 0
175 198 0
174 197 0
173 197 0
174 197 0
176 198 0
174 197 0
174 198 0
173 197 0
174 198 0
174 198 0
174 198 0
173 197 0
175 198 0
174 198 0
174 198 0
176 199 0
175 198 0
174 197 0
175 198 0
175 198 0
175 198 0
174 197 0
174 198 0
174 197 0
175 198 0
175 198 0
175 198 0
176 199 0
175 198 0
174 198 0
173 197 0
174 198 0
174 197 0
173 197 0
174 198 0
175 198 0
174 197 0
174 198 0
172 196 0
174 197 0
176 198 0
174 198 0
175 198 0
174 197 0
174 198 0
175 198 0
174 198 0
176 199 0
175 198 0
173 196 0
174 198 0
173 196 0
175 198 0
174 197 0
174 198 0
175 198 0
175 198 0
175 198 0
172 197 0
175 198 0
175 198 0
175 198 0
173 197 0
176 198 0
174 198 0
175 198 0
174 197 0
174 198 0
174 198 0
175 198 0
174 198 0
174 197 0
175 198 0
175 198 0
175 198 0
176 198 0
175 198 0
175 198 0
173 197 0
171 196 0
173 197 0
174 197 0
175 198 0
174 197 0
174 198 0
174 197 0
174 198 0
174 198 0
173 197 0
175 198 0
175 198 0
175 198 0
175 198 0
175 198 0
172 196 0
174 198 0
176 198 0
173 196 0
173 197 0
173 197 0
174 197 0
173 197 0
174 198 0
174 198 0
176 198 0
173 197 0
172 196 0
171 194 0
174 197 0
174 197 0
171 195 0
175 198 0
175 198 0
172 195 0
175 198 0
172 196 0
174 198 0
172 196 0
175 198 0
170 194 0
173 197 0
173 197 0
174 197 0
172 195 0
172 195 0
171 195 0
170 194 0
172 196 0
174 197 0
172 196 0
171 195 0
173 197 0
174 198 0
172 196 0
172 196 0
173 196 0
173 196 0
174 197 0
175 197 0
173 196 0
172 195 0
171 195 0
171 195 0
174 197 0
172 195 0
174 197 0
172 196 0
172 196 0
171 194 0
176 199 0
172 194 0
174 197 0
170 193 0
173 196 0
174 197 0
170 193 0
174 197 0
170 193 0
172 195 0
170 194 0
166 189 0
171 193 0
173 195 0
172 195 0
169 192 0
168 191 0
172 195 0
173 196 0
170 194 0
171 195 0
170 194 0
170 193 0
170 193 0
174 197 0
167 191 0
170 193 0
170 193 0
170 194 0
173 196 0
170 194 0
164 187 0
170 194 0
168 192 0
167 191 0
168 191 0
169 192 0
170 193 0
169 194 0
169 193 0
167 191 0
168 192 0
174 197 0
167 191 0
170 194 0
172 195 0
168 191 0
170 193 0
171 195 0
171 195 0
171 195 0
170 193 0
170 193 0
168 191 0
171 194 0
169 192 0
170 193 0
171 195 0
168 191 0
170 193 0
169 192 0
171 194 0
171 195 0
167 191 0
166 190 0
172 195 0
171 193 0
172 195 0
171 194 0
172 195 0
171 194 0
169 192 0
172 195 0
170 194 0
174 196 0
170 194 0
170 195 0
172 196 0
174 198 0
170 193 0
171 194 0
172 196 0
172 195 0
173 195 0
169 192 0
169 193 0
173 196 0
174 196 0
169 192 0
173 197 0
171 194 0
172 195 0
170 194 0
172 195 0
171 194 0
172 196 0
176 198 0
172 195 0
172 195 0
172 194 0
175 198 0
170 194 0
172 196 0
173 196 0
173 196 0
172 196 0
173 197 0
171 195 0
174 198 0
173 197 0
173 197 0
174 198 0
174 197 0
175 198 0
174 198 0
172 195 0
174 197 0
173 196 0
173 196 0
173 197 0
174 197 0
173 196 0
172 196 0
171 195 0
173 196 0
172 195 0
174 198 0
174 197 0
172 197 0
173 196 0
174 197 0
173 197 0
174 197 0
173 196 0
172 196 0
171 195 0
174 197 0
175 198 0
174 197 0
174 198 0
175 198 0
171 195 0
173 196 0
173 196 0
173 197 0
176 199 0
175 198 0
172 195 0
175 198 0
174 197 0
176 198 0
173 196 0
174 198 0
174 198 0
171 195 0
172 197 0
173 197 0
174 197 0
174 197 0
173 197 0
174 197 0
174 197 0
176 198 0
174 198 0
174 197 0
174 198 0
174 198 0
174 198 0
174 198 0
174 197 0
175 198 0
175 198 0
174 197 0
176 199 0
175 198 0
175 198 0
173 197 0
174 197 0
175 198 0
174 197 0
175 198 0
174 197 0
176 199 0
177 199 0
172 196 0
174 198 0
173 197 0
173 197 0
174 197 0
173 196 0
175 198 0
173 196 0
174 197 0
174 198 0
176 198 0
175 198 0
173 196 0
175 198 0
175 198 0
175 198 0
174 198 0
173 197 0
173 197 0
175 198 0
175 198 0
175 198 0
174 198 0
173 197 0
175 198 0
174 198 0
174 198 0
175 198 0
174 198 0
175 198 0
175 198 0
174 198 0
174 197 0
174 198 0
174 197 0
175 198 0
174 198 0
173 197 0
173 196 0
173 197 0
175 198 0
175 198 0
174 198 0
175 198 0
174 197 0
175 198 0
174 198 0
174 197 0
173 197 0
174 197 0
174 197 0
174 197 0
174 198 0
175 198 0
175 198 0
175 198 0
175 198 0
173 197 0
174 198 0
175 198 0
173 197 0
174 197 0
174 198 0
175 198 0
173 196 0
175 198 0
175 198 0
174 197 0
174 197 0
174 198 0
175 198 0
176 198 0
172 197 0
176 198 0
174 197 0
174 198 0
176 198 0
173 197 0
175 198 0
173 197 0
174 198 0
173 197 0
175 198 0
174 198 0
175 198 0
173 197 0
174 197 0
175 198 0
176 198 0
175 198 0
175 198 0
175 198 0
173 197 0
173 197 0
174 198 0
174 198 0
174 198 0
174 197 0
175 198 0
174 197 0
173 197 0
173 197 0
176 199 0
174 198 0
174 197 0
175 198 0
173 197 0
175 198 0
173 197 0
176 198 0
173 197 0
176 199 0
174 198 0
174 198 0
174 198 0
174 197 0
175 198 0
175 198 0
174 198 0
173 197 0
172 196 0
174 198 0
175 198 0
173 197 0
173 197 0
174 198 0
174 197 0
173 197 0
173 197 0
174 197 0
174 198 0
175 198 0
175 198 0
174 197 0
175 198 0
175 198 0
174 197 0
173 197 0
173 197 0
176 199 0
175 198 0
174 197 0
173 197 0
174 198 0
173 196 0
172 196 0
175 198 0
175 198 0
174 197 0
173 196 0
175 198 0
174 197 0
173 197 0
174 198 0
175 198 0
175 198 0
174 197 0
173 197 0
175 198 0
174 198 0
174 197 0
172 196 0
176 199 0
174 197 0
174 198 0
172 196 0
172 196 0
173 197 0
173 197 0
175 198 0
175 198 0
173 197 0
174 198 0
174 197 0
172 196 0
175 198 0
173 196 0
173 197 0
175 198 0
174 197 0
174 197 0
175 198 0
173 197 0
174 197 0
173 197 0
173 197 0
176 199 0
174 198 0
174 197 0
174 198 0
175 198 0
173 197 0
174 197 0
174 197 0
175 198 0
173 197 0
173 196 0
173 197 0
174 197 0
172 195 0
172 195 0
173 197 0
172 195 0
173 196 0
172 196 0
174 197 0
174 197 0
175 198 0
174 197 0
172 195 0
172 196 0
174 196 0
171 195 0
172 196 0
174 196 0
173 196 0
173 196 0
175 198 0
172 196 0
173 196 0
170 194 0
174 196 0
170 193 0
173 196 0
169 192 0
170 194 0
172 194 0
170 193 0
170 193 0
170 193 0
173 195 0
167 191 0
170 193 0
172 194 0
170 194 0
172 195 0
171 194 0
168 192 0
168 192 0
171 195 0
167 191 0
168 192 0
169 193 0
169 192 0
171 194 0
168 191 0
169 192 0
166 189 0
169 193 0
166 190 0
170 194 0
169 193 0
167 191 0
168 192 0
170 194 0
168 191 0
170 194 0
171 194 0
170 193 0
169 192 0
174 197 0
170 193 0
170 193 0
168 192 0
171 194 0
168 190 0
170 194 0
170 194 0
173 197 0
172 195 0
172 195 0
171 194 0
171 194 0
170 194 0
171 195 0
173 196 0
171 195 0
170 194 0
172 195 0
170 194 0
171 194 0
170 194 0
170 194 0
173 195 0
171 194 0
169 192 0
170 194 0
168 193 0
172 196 0
171 194 0
171 194 0
174 197 0
174 197 0
172 195 0
172 195 0
171 195 0
169 193 0
169 192 0
173 197 0
171 195 0
174 197 0
168 192 0
172 196 0
171 195 0
173 197 0
171 195 0
170 194 0
173 196 0
171 195 0
171 194 0
171 194 0
173 197 0
170 194 0
172 196 0
174 198 0
173 196 0
174 197 0
174 197 0
173 196 0
173 197 0
173 196 0
171 195 0
172 195 0
172 196 0
172 196 0
174 197 0
173 196 0
170 194 0
174 197 0
174 197 0
173 196 0
172 195 0
173 197 0
173 196 0
174 197 0
171 195 0
173 196 0
174 197 0
174 197 0
174 197 0
175 198 0
174 197 0
174 196 0
175 198 0
173 197 0
172 196 0
173 197 0
175 198 0
175 198 0
173 196 0
174 197 0
173 197 0
172 196 0
174 197 0
174 198 0
176 198 0
175 198 0
175 198 0
173 197 0
174 197 0
173 197 0
172 196 0
173 197 0
174 197 0
173 196 0
175 198 0
175 198 0
174 197 0
172 196 0
175 198 0
172 196 0
174 197 0
175 198 0
174 197 0
173 196 0
175 198 0
173 197 0
174 198 0
176 198 0
173 196 0
175 198 0
173 197 0
173 197 0
173 197 0
173 196 0
175 198 0
176 199 0
175 198 0
174 197 0
174 198 0
174 197 0
176 198 0
174 198 0
174 197 0
175 198 0
173 197 0
173 197 0
175 198 0
175 198 0
175 198 0
173 197 0
173 197 0
174 197 0
175 197 0
173 197 0
174 198 0
174 197 0
175 198 0
173 197 0
174 198 0
174 197 0
173 197 0
173 197 0
173 197 0
173 197 0
174 198 0
173 197 0
173 196 0
175 198 0
173 197 0
175 198 0
174 198 0
174 197 0
173 197 0
173 197 0
174 197 0
174 198 0
174 198 0
174 197 0
174 197 0
174 198 0
174 198 0
174 197 0
175 198 0
174 197 0
174 197 0
172 196 0
176 199 0
175 198 0
173 197 0
176 199 0
173 197 0
175 198 0
174 198 0
176 198 0
174 197 0
174 198 0
174 197 0
174 197 0
175 198 0
173 197 0
174 198 0
175 198 0
174 198 0
175 198 0
172 197 0
174 198 0
174 197 0
174 198 0
175 198 0
175 198 0
176 199 0
174 198 0
174 197 0
173 197 0
175 198 0
175 198 0
175 198 0
175 198 0
174 197 0
175 198 0
174 198 0
175 198 0
174 197 0
173 197 0
175 198 0
175 198 0
174 198 0
172 196 0
174 198 0
175 198 0
174 197 0
172 197 0
175 198 0
174 198 0
175 198 0
173 197 0
175 198 0
173 197 0
173 197 0
174 198 0
172 197 0
174 198 0
175 198 0
174 198 0
175 198 0
175 198 0
174 198 0
174 198 0
174 198 0
175 198 0
174 197 0
175 198 0
175 198 0
175 198 0
175 198 0
174 197 0
174 198 0
175 198 0
174 198 0
174 198 0
173 197 0
174 198 0
173 197 0
173 197 0
174 198 0
176 199 0
173 197 0
175 198 0
173 197 0
176 198 0
174 197 0
174 198 0
175 198 0
173 197 0
174 198 0
174 198 0
174 198 0
174 198 0
173 197 0
174 197 0
174 197 0
174 197 0
173 197 0
173 197 0
173 196 0
174 198 0
174 198 0
174 197 0
174 198 0
174 197 0
175 198 0
173 197 0
174 198 0
176 199 0
174 198 0
173 197 0
172 196 0
174 198 0
175 198 0
176 198 0
174 196 0
172 196 0
175 198 0
173 197 0
174 197 0
174 198 0
172 196 0
175 198 0
172 196 0
173 197 0
175 198 0
174 197 0
174 197 0
174 197 0
171 195 0
175 198 0
175 198 0
173 197 0
173 197 0
174 198 0
173 197 0
174 197 0
174 198 0
173 196 0
172 196 0
173 197 0
175 198 0
173 197 0
175 198 0
174 197 0
174 197 0
174 197 0
174 198 0
172 196 0
173 197 0
174 197 0
173 196 0
175 198 0
174 197 0
172 196 0
174 197 0
172 195 0
172 195 0
170 194 0
175 198 0
174 198 0
175 198 0
174 198 0
174 197 0
173 197 0
176 199 0
171 195 0
173 196 0
173 196 0
173 196 0
172 196 0
171 195 0
172 196 0
174 197 0
171 195 0
174 197 0
174 197 0
174 197 0
171 194 0
176 198 0
173 196 0
173 196 0
170 194 0
174 196 0
172 195 0
173 196 0
173 196 0
170 193 0
170 193 0
169 191 0
170 193 0
173 196 0
172 195 0
169 192 0
171 195 0
171 195 0
172 195 0
168 190 0
172 195 0
172 196 0
171 194 0
170 193 0
169 192 0
170 193 0
168 191 0
168 191 0
168 191 0
168 191 0
172 195 0
170 193 0
168 192 0
167 189 0
171 195 0
169 193 0
169 193 0
168 192 0
165 189 0
167 190 0
164 189 0
167 191 0
169 193 0
167 191 0
171 195 0
165 189 0
170 193 0
170 193 0
170 193 0
167 190 0
170 194 0
167 189 0
167 190 0
171 194 0
172 195 0
172 195 0
170 194 0
168 192 0
170 194 0
170 194 0
168 192 0
172 196 0
171 194 0
167 191 0
169 192 0
170 194 0
171 195 0
170 193 0
171 194 0
172 195 0
172 195 0
172 196 0
171 195 0
169 193 0
170 193 0
171 194 0
175 198 0
174 197 0
171 195 0
171 194 0
168 192 0
171 194 0
169 192 0
169 193 0
173 195 0
171 194 0
173 196 0
171 195 0
173 196 0
172 196 0
172 196 0
172 196 0
172 195 0
174 197 0
171 194 0
172 195 0
173 197 0
171 194 0
173 197 0
175 197 0
172 196 0
173 196 0
172 196 0
171 195 0
174 198 0
174 196 0
173 196 0
173 197 0
174 196 0
173 196 0
173 196 0
172 196 0
172 196 0
174 197 0
171 195 0
173 196 0
173 196 0
173 197 0
172 196 0
172 195 0
173 196 0
174 198 0
172 196 0
171 195 0
171 195 0
172 195 0
174 197 0
173 197 0
174 198 0
173 196 0
174 197 0
173 196 0
174 197 0
174 197 0
174 197 0
173 196 0
174 197 0
173 196 0
172 195 0
172 195 0
174 198 0
172 196 0
173 197 0
175 198 0
171 194 0
174 198 0
171 195 0
174 197 0
174 198 0
173 197 0
172 195 0
173 196 0
173 197 0
172 196 0
174 197 0
175 198 0
173 197 0
172 196 0
173 197 0
175 198 0
174 197 0
173 197 0
174 197 0
173 196 0
173 197 0
174 198 0
173 197 0
175 197 0
174 198 0
174 198 0
174 198 0
171 195 0
172 196 0
175 198 0
173 197 0
174 198 0
174 198 0
174 197 0
174 198 0
172 197 0
174 198 0
174 197 0
175 198 0
174 197 0
174 198 0
175 198 0
175 198 0
175 198 0
174 198 0
174 198 0
174 198 0
174 197 0
175 198 0
175 198 0
173 197 0
176 199 0
173 197 0
173 197 0
176 198 0
175 198 0
173 197 0
175 198 0
175 198 0
172 196 0
176 199 0
175 198 0
174 198 0
175 198 0
175 198 0
176 199 0
175 198 0
175 198 0
174 198 0
174 197 0
176 198 0
176 198 0
174 198 0
174 197 0
173 197 0
174 197 0
175 198 0
175 198 0
177 199 0
175 198 0
173 197 0
174 198 0
174 197 0
175 198 0
175 198 0
173 197 0
176 198 0
175 198 0
174 198 0
174 198 0
174 198 0
173 197 0
173 197 0
174 197 0
177 199 0
174 197 0
176 198 0
173 197 0
175 198 0
175 198 0
174 198 0
175 198 0
173 197 0
176 199 0
175 198 0
173 197 0
175 198 0
175 198 0
173 196 0
175 198 0
174 198 0
175 198 0
174 198 0
174 197 0
174 198 0
174 197 0
176 199 0
173 197 0
175 198 0
175 198 0
176 199 0
174 198 0
174 197 0
175 198 0
176 198 0
175 198 0
173 197 0
174 197 0
175 198 0
175 198 0
175 198 0
174 197 0
176 199 0
173 197 0
172 197 0
175 198 0
173 197 0
173 197 0
175 198 0
175 198 0
174 198 0
175 198 0
175 198 0
175 198 0
176 199 0
176 198 0
173 197 0
174 197 0
173 197 0
175 198 0
174 197 0
175 198 0
174 197 0
172 196 0
173 197 0
174 197 0
175 198 0
175 198 0
175 198 0
172 196 0
176 199 0
172 197 0
175 198 0
174 197 0
174 198 0
174 198 0
174 197 0
175 198 0
172 196 0
173 197 0
174 198 0
174 198 0
173 197 0
173 197 0
173 197 0
176 199 0
176 198 0
173 197 0
174 198 0
173 197 0
174 198 0
174 197 0
175 198 0
175 198 0
175 198 0
173 197 0
175 198 0
174 198 0
174 198 0
174 197 0
173 197 0
173 196 0
175 198 0
175 198 0
171 196 0
175 198 0
176 199 0
175 198 0
174 198 0
175 198 0
175 197 0
176 198 0
174 197 0
174 198 0
172 196 0
174 197 0
173 197 0
173 197 0
175 198 0
173 197 0
173 197 0
174 197 0
172 196 0
175 198 0
174 198 0
176 199 0
176 198 0
174 197 0
173 197 0
173 197 0
173 197 0
171 195 0
174 198 0
173 197 0
173 197 0
172 196 0
174 197 0
174 198 0
172 196 0
174 197 0
175 198 0
175 198 0
172 195 0
172 196 0
172 196 0
175 198 0
172 196 0
174 197 0
171 195 0
175 198 0
172 196 0
172 195 0
171 194 0
172 196 0
171 194 0
173 196 0
171 195 0
172 196 0
173 196 0
172 195 0
172 196 0
174 197 0
173 196 0
173 196 0
173 197 0
175 197 0
173 195 0
172 195 0
171 195 0
169 193 0
169 193 0
171 195 0
173 196 0
172 195 0
173 196 0
169 194 0
169 193 0
172 195 0
171 194 0
169 192 0
171 195 0
171 195 0
171 195 0
171 195 0
169 193 0
167 191 0
174 197 0
166 189 0
169 193 0
170 194 0
168 191 0
172 195 0
169 192 0
170 193 0
167 189 0
170 194 0
170 193 0
168 192 0
172 195 0
173 196 0
171 194 0
167 191 0
169 192 0
170 194 0
169 193 0
169 192 0
172 194 0
164 188 0
168 191 0
168 191 0
167 191 0
171 194 0
168 191 0
175 197 0
169 193 0
168 191 0
168 192 0
170 192 0
171 195 0
169 193 0
170 194 0
172 195 0
170 194 0
169 193 0
171 195 0
171 194 0
174 197 0
169 193 0
169 191 0
169 193 0
169 192 0
168 191 0
170 193 0
171 194 0
171 195 0
166 190 0
173 196 0
167 191 0
168 192 0
168 192 0
173 196 0
168 192 0
173 196 0
175 198 0
171 195 0
172 195 0
172 194 0
170 193 0
171 195 0
170 195 0
170 193 0
172 195 0
172 196 0
172 196 0
170 194 0
174 197 0
175 198 0
174 197 0
167 191 0
172 195 0
173 197 0
172 195 0
174 197 0
172 196 0
172 195 0
173 196 0
170 194 0
174 197 0
172 196 0
173 196 0
171 195 0
173 197 0
172 196 0
172 195 0
173 196 0
172 196 0
171 195 0
173 196 0
173 197 0
173 197 0
173 196 0
173 197 0
173 196 0
172 196 0
174 198 0
174 198 0
172 196 0
175 198 0
175 198 0
173 196 0
175 198 0
175 198 0
173 196 0
174 197 0
174 197 0
174 197 0
173 196 0
171 195 0
175 198 0
173 197 0
174 197 0
173 197 0
173 196 0
174 197 0
176 198 0
172 196 0
172 196 0
173 197 0
174 197 0
173 196 0
174 197 0
171 195 0
175 198 0
174 197 0
175 198 0
174 198 0
175 198 0
174 198 0
174 198 0
174 197 0
173 197 0
174 197 0
173 196 0
174 197 0
173 197 0
174 198 0
176 199 0
175 198 0
175 198 0
176 198 0
172 196 0
173 197 0
176 199 0
174 198 0
174 197 0
174 197 0
175 198 0
175 198 0
172 196 0
174 198 0
173 197 0
174 198 0
174 198 0
175 198 0
173 197 0
174 198 0
176 198 0
172 196 0
175 198 0
174 197 0
174 198 0
174 197 0
173 197 0
173 197 0
173 196 0
175 198 0
175 198 0
173 197 0
173 196 0
174 198 0
174 198 0
175 198 0
174 197 0
174 198 0
174 198 0
176 199 0
175 198 0
174 198 0
173 197 0
175 198 0
174 198 0
174 197 0
173 197 0
173 197 0
174 197 0
173 197 0
174 198 0
174 197 0
174 198 0
175 198 0
175 198 0
174 198 0
174 197 0
176 199 0
174 198 0
173 197 0
175 198 0
173 197 0
175 198 0
175 198 0
173 197 0
175 198 0
174 197 0
173 197 0
174 198 0
175 198 0
171 196 0
174 197 0
173 197 0
176 198 0
173 197 0
174 197 0
177 199 0
175 198 0
175 198 0
173 197 0
174 197 0
174 198 0
174 198 0
173 197 0
174 198 0
175 198 0
174 197 0
173 197 0
174 198 0
176 199 0
174 197 0
175 198 0
175 198 0
174 197 0
174 197 0
173 197 0
176 198 0
175 198 0
174 198 0
174 198 0
173 197 0
176 199 0
173 197 0
174 198 0
174 198 0
176 199 0
174 198 0
174 198 0
175 198 0
174 198 0
174 198 0
174 197 0
174 198 0
175 198 0
174 198 0
175 198 0
175 198 0
173 197 0
174 198 0
175 198 0
175 198 0
173 197 0
176 198 0
175 198 0
173 197 0
174 198 0
173 197 0
174 197 0
176 199 0
175 198 0
175 198 0
175 198 0
174 197 0
173 197 0
174 197 0
174 198 0
172 197 0
174 197 0
175 198 0
175 198 0
174 198 0
176 199 0
172 196 0
174 197 0
174 197 0
175 198 0
175 198 0
175 198 0
173 197 0
174 198 0
175 198 0
173 197 0
173 197 0
175 198 0
175 198 0
173 197 0
174 197 0
173 196 0
174 198 0
173 197 0
175 198 0
173 197 0
174 197 0
173 197 0
173 197 0
174 198 0
172 196 0
174 197 0
174 198 0
174 198 0
174 197 0
173 197 0
173 197 0
174 197 0
175 198 0
173 196 0
175 198 0
173 197 0
173 197 0
173 197 0
173 197 0
174 197 0
173 197 0
174 198 0
174 198 0
172 197 0
173 197 0
174 197 0
172 196 0
173 197 0
175 198 0
172 196 0
174 198 0
174 197 0
174 197 0
174 198 0
174 198 0
175 198 0
174 198 0
174 197 0
173 197 0
175 198 0
175 198 0
173 197 0
171 195 0
173 196 0
175 198 0
173 196 0
172 197 0
173 197 0
174 197 0
171 196 0
173 197 0
174 197 0
173 197 0
171 195 0
173 196 0
172 195 0
173 197 0
174 197 0
175 198 0
173 196 0
174 197 0
173 197 0
173 197 0
172 196 0
172 196 0
174 197 0
172 196 0
174 197 0
172 195 0
171 194 0
172 196 0
173 197 0
172 196 0
171 195 0
173 196 0
171 194 0
172 196 0
172 195 0
172 195 0
174 197 0
174 197 0
173 196 0
173 196 0
173 196 0
174 197 0
174 197 0
175 198 0
174 197 0
174 197 0
172 196 0
172 195 0
170 193 0
171 194 0
173 196 0
170 193 0
172 194 0
171 195 0
168 192 0
171 194 0
167 190 0
169 193 0
172 195 0
169 192 0
171 195 0
166 189 0
170 194 0
171 195 0
167 191 0
171 195 0
171 194 0
169 192 0
171 195 0
170 193 0
171 194 0
172 196 0
171 195 0
168 193 0
166 190 0
167 191 0
171 194 0
169 192 0
169 193 0
170 193 0
170 193 0
169 192 0
168 192 0
172 196 0
173 196 0
168 192 0
171 195 0
168 192 0
172 195 0
170 194 0
169 193 0
168 191 0
171 194 0
172 195 0
170 194 0
172 195 0
170 193 0
168 192 0
168 192 0
170 193 0
171 194 0
171 194 0
170 193 0
171 194 0
174 197 0
170 193 0
172 195 0
170 194 0
174 197 0
172 196 0
170 193 0
170 193 0
173 196 0
171 194 0
171 195 0
170 193 0
171 195 0
172 197 0
174 198 0
171 195 0
172 195 0
173 195 0
170 194 0
172 195 0
171 194 0
172 195 0
173 196 0
171 195 0
170 193 0
174 197 0
170 193 0
173 196 0
174 197 0
175 198 0
172 196 0
174 197 0
173 197 0
171 194 0
173 197 0
172 196 0
174 197 0
174 197 0
173 196 0
171 194 0
172 195 0
172 195 0
174 197 0
174 197 0
174 197 0
171 195 0
172 196 0
171 195 0
174 197 0
176 199 0
173 197 0
176 199 0
174 196 0
174 197 0
171 195 0
173 196 0
173 196 0
175 198 0
174 197 0
174 198 0
173 197 0
173 196 0
175 198 0
174 197 0
174 197 0
172 196 0
175 198 0
171 195 0
170 194 0
174 197 0
174 198 0
173 196 0
175 197 0
172 195 0
176 198 0
175 198 0
174 197 0
174 197 0
174 197 0
174 197 0
174 197 0
173 197 0
171 195 0
172 197 0
174 197 0
173 197 0
174 198 0
174 198 0
173 196 0
173 197 0
173 196 0
174 197 0
173 197 0
175 198 0
175 198 0
174 198 0
174 197 0
175 198 0
175 198 0
173 197 0
173 197 0
175 198 0
175 198 0
174 197 0
173 197 0
173 196 0
172 197 0
173 197 0
172 196 0
173 197 0
174 198 0
174 197 0
175 198 0
175 198 0
174 197 0
174 197 0
174 197 0
173 197 0
173 197 0
173 197 0
175 198 0
174 198 0
174 198 0
173 197 0
173 196 0
175 198 0
174 197 0
174 198 0
176 199 0
173 197 0
174 197 0
174 198 0
173 197 0
174 198 0
175 198 0
175 198 0
174 198 0
174 197 0
175 198 0
174 197 0
174 198 0
175 198 0
175 198 0
174 197 0
174 197 0
175 198 0
175 198 0
174 197 0
174 198 0
176 198 0
173 196 0
174 198 0
174 197 0
174 198 0
174 198 0
174 197 0
173 197 0
174 197 0
174 197 0
174 198 0
174 198 0
174 197 0
174 197 0
174 197 0
175 198 0
173 197 0
175 198 0
175 198 0
174 197 0
175 198 0
173 197 0
175 198 0
175 198 0
173 197 0
175 198 0
175 198 0
175 198 0
175 198 0
174 197 0
174 197 0
173 197 0
176 199 0
174 197 0
174 198 0
173 197 0
174 198 0
173 197 0
171 196 0
174 198 0
175 198 0
175 198 0
175 198 0
175 198 0
175 198 0
172 197 0
175 198 0
174 197 0
176 199 0
174 198 0
174 198 0
175 198 0
174 198 0
175 198 0
175 198 0
174 197 0
174 198 0
174 198 0
175 198 0
174 197 0
175 198 0
173 197 0
175 198 0
174 197 0
175 198 0
173 197 0
175 198 0
174 197 0
175 198 0
175 198 0
174 198 0
174 197 0
174 197 0
176 199 0
176 198 0
175 198 0
174 198 0
174 198 0
174 197 0
174 197 0
176 198 0
174 198 0
175 198 0
174 198 0
174 198 0
173 197 0
173 197 0
174 197 0
174 197 0
173 197 0
174 198 0
175 198 0
173 197 0
174 198 0
174 197 0
174 198 0
174 197 0
174 197 0
173 197 0
174 197 0
174 197 0
174 198 0
172 196 0
175 198 0
173 197 0
175 198 0
173 197 0
173 197 0
175 198 0
172 196 0
175 198 0
174 198 0
176 199 0
174 197 0
175 198 0
174 198 0
175 198 0
174 198 0
174 198 0
173 197 0
173 197 0
174 198 0
173 196 0
174 197 0
176 199 0
175 198 0
175 198 0
175 198 0
173 197 0
173 197 0
173 197 0
176 198 0
174 197 0
174 198 0
173 196 0
175 198 0
175 198 0
176 198 0
172 196 0
173 196 0
173 197 0
175 198 0
173 196 0
174 197 0
172 196 0
171 195 0
173 197 0
173 197 0
174 197 0
173 197 0
173 197 0
174 198 0
175 198 0
174 197 0
174 197 0
174 197 0
173 197 0
171 194 0
174 197 0
174 198 0
175 198 0
175 198 0
174 197 0
174 198 0
170 194 0
175 198 0
171 196 0
172 196 0
174 197 0
173 196 0
174 198 0
173 197 0
174 197 0
173 197 0
172 196 0
172 196 0
171 195 0
172 195 0
172 196 0
171 195 0
174 196 0
173 196 0
171 194 0
172 196 0
170 194 0
174 197 0
177 199 0
174 197 0
172 195 0
169 193 0
170 193 0
173 196 0
171 195 0
171 194 0
173 196 0
167 192 0
171 193 0
171 195 0
169 193 0
175 197 0
168 192 0
170 193 0
168 192 0
171 194 0
170 193 0
171 195 0
170 193 0
169 192 0
170 194 0
171 194 0
169 191 0
171 194 0
172 195 0
171 194 0
171 193 0
174 197 0
169 192 0
172 196 0
169 193 0
168 192 0
169 192 0
172 195 0
169 192 0
171 195 0
163 187 0
171 194 0
163 186 0
171 194 0
171 194 0
171 195 0
169 192 0
170 193 0
165 189 0
168 192 0
171 194 0
169 192 0
174 198 0
173 197 0
171 195 0
171 194 0
169 193 0
169 193 0
172 195 0
169 191 0
170 194 0
169 193 0
170 194 0
173 196 0
170 194 0
171 194 0
172 195 0
172 195 0
171 195 0
170 194 0
171 195 0
172 195 0
169 193 0
170 193 0
171 195 0
173 196 0
171 194 0
170 194 0
173 196 0
172 196 0
172 195 0
171 195 0
173 196 0
170 193 0
172 196 0
173 196 0
171 194 0
171 195 0
174 197 0
171 194 0
173 197 0
172 196 0
171 195 0
171 194 0
173 197 0
170 194 0
171 195 0
171 195 0
172 196 0
172 196 0
173 196 0
172 196 0
173 197 0
174 197 0
173 196 0
172 196 0
170 194 0
173 196 0
172 195 0
173 195 0
173 197 0
175 197 0
173 196 0
175 197 0
174 198 0
175 198 0
170 195 0
175 198 0
172 195 0
173 197 0
174 197 0
174 197 0
173 196 0
174 196 0
174 198 0
172 196 0
174 198 0
176 198 0
174 197 0
174 198 0
173 196 0
174 197 0
175 198 0
173 197 0
172 196 0
174 196 0
174 197 0
173 196 0
174 197 0
175 198 0
172 195 0
174 197 0
173 197 0
173 196 0
173 196 0
174 197 0
174 197 0
173 196 0
172 195 0
174 197 0
174 198 0
174 197 0
174 197 0
174 197 0
173 197 0
174 197 0
171 195 0
175 198 0
176 199 0
174 197 0
173 197 0
172 196 0
174 198 0
173 196 0
174 197 0
173 197 0
174 198 0
174 198 0
175 198 0
173 197 0
175 198 0
175 198 0
173 197 0
176 198 0
173 197 0
174 198 0
172 196 0
173 197 0
174 197 0
174 198 0
172 195 0
172 196 0
173 197 0
174 197 0
175 198 0
174 198 0
174 198 0
172 197 0
175 198 0
174 197 0
175 198 0
173 197 0
176 198 0
172 196 0
174 197 0
175 198 0
175 198 0
175 198 0
175 198 0
173 197 0
174 198 0
175 198 0
173 197 0
174 197 0
174 198 0
173 197 0
176 199 0
173 196 0
174 198 0
175 198 0
174 197 0
174 198 0
176 198 0
173 197 0
176 198 0
174 197 0
174 198 0
174 198 0
173 197 0
174 197 0
176 198 0
174 197 0
174 198 0
176 199 0
175 198 0
176 199 0
173 197 0
175 198 0
174 197 0
175 198 0
174 198 0
176 198 0
174 198 0
174 197 0
174 197 0
174 197 0
173 197 0
174 197 0
175 198 0
176 199 0
173 197 0
175 198 0
174 198 0
174 198 0
175 198 0
175 198 0
175 198 0
174 198 0
175 198 0
174 198 0
173 197 0
175 198 0
175 198 0
173 197 0
174 198 0
173 197 0
174 198 0
174 198 0
174 198 0
175 198 0
174 198 0
173 197 0
174 197 0
175 198 0
175 198 0
176 198 0
174 197 0
174 198 0
175 198 0
174 198 0
175 198 0
174 198 0
174 198 0
173 197 0
176 199 0
174 198 0
174 198 0
173 197 0
174 198 0
175 198 0
173 197 0
174 197 0
174 197 0
176 199 0
175 198 0
176 199 0
174 197 0
176 199 0
175 198 0
174 198 0
174 197 0
175 198 0
174 197 0
175 198 0
175 198 0
174 198 0
173 197 0
174 197 0
173 197 0
174 198 0
174 198 0
175 198 0
174 197 0
174 198 0
174 197 0
176 199 0
173 197 0
176 198 0
175 198 0
173 197 0
172 197 0
174 198 0
173 196 0
173 197 0
174 197 0
175 198 0
174 198 0
175 198 0
174 197 0
172 196 0
174 198 0
174 198 0
175 198 0
173 197 0
176 199 0
172 196 0
173 197 0
174 198 0
175 198 0
175 198 0
174 198 0
175 198 0
174 197 0
174 198 0
174 197 0
175 198 0
173 197 0
175 198 0
174 197 0
173 197 0
174 197 0
173 197 0
173 197 0
177 199 0
173 196 0
173 197 0
174 198 0
174 198 0
175 198 0
174 198 0
173 197 0
173 196 0
173 196 0
175 198 0
175 198 0
175 198 0
174 197 0
172 196 0
172 196 0
174 198 0
173 197 0
175 198 0
174 197 0
173 197 0
172 196 0
171 195 0
174 198 0
174 198 0
173 196 0
174 197 0
173 197 0
173 197 0
174 197 0
174 197 0
174 198 0
173 197 0
173 196 0
172 196 0
174 198 0
173 197 0
172 195 0
174 197 0
174 197 0
173 197 0
172 196 0
172 196 0
171 195 0
169 193 0
172 196 0
172 195 0
173 197 0
174 197 0
173 197 0
170 194 0
175 198 0
171 196 0
173 196 0
171 194 0
174 197 0
174 197 0
174 198 0
173 196 0
173 197 0
170 194 0
172 195 0
168 192 0
171 194 0
172 196 0
173 196 0
174 197 0
171 195 0
171 194 0
173 196 0
174 196 0
172 196 0
171 195 0
172 196 0
168 192 0
171 194 0
170 194 0
171 195 0
169 193 0
172 195 0
171 195 0
174 197 0
167 190 0
171 195 0
172 195 0
168 191 0
169 192 0
169 192 0
169 192 0
174 197 0
167 191 0
168 191 0
171 194 0
171 194 0
167 191 0
170 193 0
169 192 0
171 194 0
170 194 0
171 195 0
169 193 0
170 194 0
168 191 0
170 194 0
173 196 0
168 191 0
171 194 0
169 193 0
171 194 0
173 196 0
171 194 0
174 197 0
170 193 0
171 195 0
168 192 0
170 193 0
171 195 0
171 193 0
169 192 0
171 195 0
170 193 0
173 197 0
167 191 0
172 195 0
169 193 0
170 193 0
173 196 0
173 195 0
175 198 0
174 197 0
171 195 0
171 194 0
171 194 0
169 194 0
174 197 0
170 193 0
170 193 0
171 194 0
172 195 0
171 194 0
170 193 0
173 197 0
172 196 0
174 197 0
171 194 0
174 197 0
171 195 0
172 196 0
172 196 0
173 196 0
172 196 0
171 195 0
172 195 0
172 194 0
173 197 0
172 196 0
172 195 0
173 196 0
171 195 0
174 198 0
172 195 0
174 197 0
173 197 0
175 198 0
173 197 0
174 198 0
172 195 0
172 195 0
174 197 0
172 195 0
173 195 0
176 199 0
173 197 0
174 197 0
172 196 0
173 197 0
172 196 0
172 196 0
172 194 0
172 196 0
172 196 0
173 196 0
173 196 0
174 197 0
173 196 0
172 196 0
172 195 0
175 197 0
174 197 0
172 196 0
172 195 0
172 196 0
174 198 0
175 198 0
174 197 0
173 196 0
173 196 0
174 197 0
174 197 0
173 197 0
173 197 0
173 196 0
173 197 0
173 197 0
175 198 0
173 197 0
173 197 0
175 198 0
173 197 0
173 196 0
174 197 0
174 198 0
172 197 0
174 197 0
174 198 0
174 197 0
176 198 0
174 197 0
175 198 0
172 196 0
175 198 0
174 198 0
175 198 0
174 198 0
172 195 0
175 198 0
173 197 0
175 198 0
172 196 0
174 198 0
174 197 0
174 197 0
173 197 0
175 198 0
174 197 0
174 197 0
174 197 0
174 197 0
175 198 0
173 197 0
173 197 0
175 198 0
175 198 0
175 198 0
173 197 0
175 198 0
174 198 0
175 198 0
175 198 0
175 198 0
174 197 0
175 198 0
174 197 0
173 197 0
176 199 0
175 198 0
175 198 0
175 198 0
174 198 0
174 198 0
172 196 0
175 198 0
174 198 0
174 198 0
174 198 0
176 198 0
175 198 0
173 197 0
175 198 0
174 198 0
175 198 0
176 199 0
175 198 0
173 197 0
175 198 0
174 198 0
176 198 0
174 197 0
175 198 0
174 198 0
176 199 0
176 199 0
174 198 0
174 198 0
174 198 0
174 198 0
175 198 0
174 197 0
174 197 0
174 198 0
175 198 0
175 198 0
174 197 0
175 198 0
174 197 0
176 199 0
174 197 0
173 197 0
174 198 0
174 197 0
174 197 0
176 198 0
175 198 0
174 197 0
174 198 0
176 198 0
175 198 0
174 198 0
174 197 0
174 198 0
174 197 0
175 198 0
175 198 0
175 198 0
175 198 0
174 197 0
174 198 0
174 198 0
175 198 0
174 198 0
174 198 0
174 197 0
173 197 0
175 198 0
175 198 0
174 198 0
175 198 0
175 198 0
175 198 0
176 199 0
172 196 0
176 199 0
175 198 0
175 197 0
174 198 0
174 197 0
175 198 0
175 198 0
176 199 0
174 198 0
175 198 0
174 198 0
175 198 0
174 198 0
174 198 0
173 197 0
174 198 0
175 198 0
173 197 0
174 197 0
173 197 0
175 198 0
174 198 0
174 197 0
175 198 0
177 199 0
175 198 0
175 198 0
175 198 0
173 197 0
173 197 0
175 198 0
174 198 0
176 199 0
173 196 0
174 197 0
173 197 0
174 198 0
175 198 0
175 198 0
172 196 0
174 198 0
173 197 0
173 197 0
174 198 0
176 198 0
175 198 0
176 198 0
173 196 0
174 198 0
174 197 0
175 198 0
172 196 0
174 198 0
173 197 0
174 197 0
174 197 0
175 198 0
174 197 0
175 198 0
175 198 0
176 199 0
172 196 0
175 198 0
175 198 0
174 198 0
173 197 0
170 195 0
175 198 0
176 198 0
175 198 0
174 197 0
174 197 0
174 198 0
173 196 0
173 197 0
175 198 0
175 198 0
174 197 0
176 199 0
175 198 0
175 198 0
173 197 0
172 196 0
172 196 0
174 197 0
174 197 0
173 196 0
174 198 0
173 196 0
173 197 0
174 197 0
172 196 0
175 198 0
175 198 0
176 198 0
175 197 0
173 197 0
171 195 0
173 196 0
175 198 0
175 198 0
172 196 0
174 197 0
173 197 0
172 196 0
174 197 0
173 197 0
172 196 0
170 195 0
175 198 0
175 198 0
171 195 0
175 198 0
171 196 0
175 198 0
172 195 0
174 197 0
175 198 0
174 197 0
173 196 0
173 196 0
172 196 0
170 193 0
170 195 0
174 197 0
172 195 0
173 196 0
174 197 0
171 195 0
174 197 0
172 195 0
173 197 0
172 195 0
171 195 0
170 194 0
170 193 0
171 194 0
174 197 0
169 192 0
169 192 0
172 195 0
174 197 0
167 191 0
172 196 0
170 193 0
168 192 0
169 192 0
173 196 0
171 194 0
169 192 0
167 191 0
168 192 0
169 193 0
168 192 0
171 194 0
172 195 0
169 192 0
170 193 0
171 195 0
174 197 0
168 192 0
170 193 0
169 194 0
170 194 0
168 192 0
168 192 0
171 194 0
171 195 0
170 193 0
172 196 0
167 191 0
171 194 0
170 194 0
168 192 0
172 195 0
172 195 0
170 193 0
172 195 0
171 194 0
170 194 0
169 193 0
170 193 0
170 194 0
173 196 0
172 196 0
171 195 0
173 197 0
168 192 0
169 192 0
170 194 0
174 196 0
172 196 0
167 192 0
175 198 0
171 194 0
168 191 0
170 195 0
172 195 0
172 196 0
171 195 0
170 194 0
170 193 0
172 195 0
174 197 0
175 198 0
173 196 0
171 195 0
174 197 0
172 196 0
170 194 0
172 196 0
171 194 0
174 197 0
170 193 0
174 197 0
173 196 0
171 194 0
173 196 0
174 197 0
172 196 0
174 197 0
172 196 0
171 195 0
172 196 0
172 195 0
169 194 0
176 198 0
172 195 0
171 195 0
173 196 0
172 196 0
174 197 0
174 197 0
174 198 0
173 196 0
173 197 0
173 196 0
174 198 0
173 197 0
174 197 0
174 196 0
174 197 0
171 194 0
173 196 0
172 196 0
175 198 0
175 198 0
172 195 0
173 196 0
175 198 0
172 195 0
172 196 0
175 198 0
174 197 0
174 197 0
173 196 0
173 197 0
173 197 0
171 195 0
174 197 0
174 197 0
175 198 0
173 197 0
173 196 0
172 196 0
172 196 0
175 198 0
173 197 0
174 197 0
174 197 0
174 198 0
174 197 0
173 197 0
174 197 0
174 198 0
176 199 0
173 197 0
175 198 0
173 196 0
174 198 0
173 196 0
174 197 0
174 198 0
175 198 0
173 196 0
174 198 0
174 197 0
173 197 0
174 197 0
175 198 0
173 197 0
174 198 0
173 196 0
174 198 0
175 198 0
174 197 0
174 197 0
172 196 0
174 197 0
171 195 0
174 198 0
174 198 0
174 198 0
175 198 0
175 198 0
175 198 0
172 195 0
174 197 0
173 196 0
175 198 0
173 197 0
175 198 0
172 196 0
173 197 0
170 195 0
173 196 0
175 198 0
174 197 0
174 197 0
174 197 0
175 198 0
175 198 0
175 198 0
175 198 0
175 198 0
172 196 0
175 198 0
175 198 0
174 198 0
173 196 0
176 198 0
175 198 0
172 196 0
174 198 0
173 197 0
175 198 0
174 198 0
173 197 0
174 198 0
174 197 0
174 197 0
174 198 0
174 197 0
174 197 0
175 198 0
174 197 0
175 198 0
175 198 0
173 197 0
175 198 0
174 198 0
176 198 0
174 198 0
175 198 0
175 198 0
173 196 0
174 197 0
175 198 0
174 198 0
176 199 0
174 198 0
174 198 0
172 196 0
174 198 0
175 198 0
174 198 0
174 198 0
175 198 0
176 199 0
174 197 0
172 197 0
174 198 0
176 198 0
175 198 0
174 197 0
174 198 0
173 197 0
175 198 0
175 198 0
175 198 0
174 197 0
174 198 0
175 198 0
173 197 0
174 198 0
174 197 0
175 198 0
176 198 0
174 198 0
175 198 0
174 198 0
176 198 0
174 198 0
173 197 0
172 196 0
174 197 0
174 198 0
174 197 0
172 197 0
175 198 0
173 197 0
174 198 0
174 198 0
176 198 0
174 198 0
174 198 0
177 199 0
174 198 0
174 197 0
173 197 0
175 198 0
175 198 0
173 197 0
174 198 0
174 198 0
174 198 0
175 198 0
174 198 0
175 198 0
174 197 0
173 197 0
174 198 0
174 197 0
174 198 0
172 196 0
175 198 0
172 196 0
174 197 0
175 198 0
174 198 0
174 198 0
174 198 0
174 198 0
175 198 0
176 199 0
175 198 0
174 197 0
175 198 0
174 197 0
174 197 0
174 197 0
176 198 0
173 197 0
175 198 0
175 198 0
175 198 0
172 196 0
173 197 0
175 198 0
173 197 0
175 198 0
174 198 0
174 198 0
172 196 0
174 198 0
174 198 0
174 197 0
174 198 0
174 197 0
173 197 0
174 197 0
175 198 0
174 197 0
174 198 0
173 197 0
174 197 0
175 198 0
174 197 0
173 197 0
175 198 0
174 198 0
174 198 0
173 197 0
172 196 0
174 198 0
174 198 0
173 197 0
173 197 0
174 198 0
174 197 0
174 197 0
172 197 0
173 197 0
174 197 0
173 197 0
173 197 0
174 198 0
173 197 0
172 196 0
173 196 0
174 198 0
175 198 0
173 197 0
173 197 0
173 197 0
175 198 0
172 196 0
175 198 0
173 197 0
174 197 0
173 197 0
174 197 0
176 199 0
172 195 0
172 196 0
173 197 0
170 194 0
172 196 0
174 197 0
174 198 0
173 196 0
174 197 0
172 196 0
173 197 0
175 198 0
173 197 0
173 197 0
172 195 0
173 196 0
174 197 0
172 196 0
175 198 0
173 197 0
173 197 0
173 197 0
174 197 0
174 197 0
175 197 0
170 194 0
171 195 0
175 198 0
169 193 0
170 194 0
172 195 0
172 195 0
167 191 0
172 196 0
172 195 0
172 195 0
171 194 0
170 194 0
169 192 0
171 195 0
170 193 0
170 194 0
170 193 0
169 192 0
172 195 0
172 196 0
169 193 0
171 195 0
169 193 0
172 196 0
167 191 0
170 194 0
171 195 0
169 193 0
168 191 0
172 196 0
171 195 0
171 194 0
169 193 0
169 193 0
171 195 0
171 195 0
170 194 0
169 193 0
169 193 0
172 196 0
169 193 0
168 191 0
172 196 0
171 194 0
170 194 0
171 195 0
169 193 0
172 196 0
171 194 0
173 196 0
171 194 0
171 195 0
172 195 0
173 196 0
171 194 0
171 194 0
170 194 0
168 192 0
171 195 0
173 197 0
171 195 0
171 195 0
169 193 0
174 197 0
172 195 0
172 195 0
172 195 0
169 193 0
173 197 0
168 191 0
172 195 0
171 195 0
172 195 0
172 196 0
172 195 0
171 194 0
172 195 0
171 195 0
173 197 0
171 195 0
173 197 0
169 192 0
171 196 0
171 194 0
171 196 0
170 193 0
173 197 0
170 194 0
174 197 0
174 197 0
171 195 0
172 195 0
174 198 0
175 197 0
174 197 0
174 196 0
172 196 0
169 193 0
173 196 0
174 197 0
173 197 0
173 196 0
176 199 0
172 196 0
172 195 0
172 196 0
174 197 0
173 196 0
174 197 0
173 197 0
170 193 0
173 197 0
175 198 0
174 198 0
174 197 0
174 198 0
173 197 0
173 196 0
175 198 0
174 197 0
173 197 0
173 197 0
171 194 0
174 198 0
173 196 0
173 197 0
173 196 0
172 196 0
173 197 0
174 197 0
175 198 0
175 198 0
173 196 0
173 197 0
173 196 0
175 198 0
172 196 0
174 197 0
172 196 0
173 197 0
174 197 0
173 197 0
175 198 0
172 196 0
173 196 0
174 197 0
175 198 0
173 197 0
174 197 0
176 198 0
174 198 0
174 197 0
175 198 0
175 198 0
172 196 0
175 198 0
171 195 0
176 199 0
175 198 0
174 197 0
175 198 0
174 197 0
174 197 0
174 197 0
173 197 0
172 196 0
173 197 0
172 196 0
173 197 0
174 197 0
176 198 0
174 198 0
173 197 0
174 198 0
173 197 0
174 197 0
175 198 0
173 197 0
174 197 0
175 198 0
173 197 0
172 197 0
174 197 0
172 196 0
175 198 0
172 197 0
176 199 0
173 196 0
174 197 0
174 198 0
175 198 0
173 197 0
175 198 0
176 198 0
174 198 0
176 198 0
174 197 0
173 197 0
174 198 0
174 197 0
175 198 0
175 198 0
174 197 0
174 198 0
173 197 0
173 197 0
175 198 0
175 198 0
174 198 0
174 197 0
173 197 0
174 198 0
173 197 0
174 198 0
173 197 0
173 196 0
173 197 0
173 197 0
174 197 0
175 198 0
174 197 0
175 198 0
174 198 0
173 197 0
172 196 0
173 197 0
174 197 0
174 198 0
174 198 0
175 198 0
176 199 0
173 197 0
174 198 0
175 198 0
174 198 0
174 198 0
175 198 0
174 197 0
174 198 0
174 197 0
176 199 0
174 198 0
174 198 0
175 198 0
174 197 0
174 197 0
174 198 0
176 199 0
173 197 0
176 198 0
173 197 0
175 198 0
174 198 0
175 198 0
176 198 0
175 198 0
175 198 0
172 196 0
174 198 0
173 197 0
175 198 0
175 198 0
174 197 0
174 198 0
175 198 0
173 197 0
175 198 0
174 198 0
174 198 0
173 197 0
175 198 0
174 198 0
175 198 0
175 198 0
172 196 0
173 197 0
173 197 0
174 198 0
173 197 0
174 198 0
174 198 0
173 197 0
174 198 0
174 197 0
174 198 0
175 198 0
174 198 0
174 198 0
175 198 0
175 198 0
174 197 0
173 197 0
173 197 0
174 198 0
173 197 0
176 199 0
176 199 0
174 197 0
173 197 0
175 198 0
176 199 0
174 198 0
175 198 0
174 198 0
175 198 0
174 198 0
174 198 0
175 198 0
174 197 0
175 198 0
173 197 0
176 199 0
173 197 0
175 198 0
174 198 0
175 198 0
175 198 0
174 197 0
174 198 0
173 197 0
173 197 0
174 197 0
173 197 0
173 196 0
174 197 0
173 197 0
174 197 0
173 197 0
174 198 0
174 197 0
175 198 0
174 198 0
175 198 0
175 198 0
175 198 0
173 197 0
173 196 0
174 198 0
173 197 0
174 198 0
174 198 0
174 197 0
172 196 0
175 198 0
173 197 0
174 197 0
173 197 0
174 198 0
175 198 0
175 198 0
172 196 0
175 198 0
175 198 0
172 196 0
174 197 0
172 195 0
173 197 0
176 199 0
173 197 0
174 197 0
172 196 0
170 194 0
174 197 0
175 198 0
173 196 0
173 197 0
174 198 0
171 195 0
173 197 0
173 197 0
172 195 0
172 196 0
171 194 0
174 197 0
173 197 0
171 195 0
174 197 0
173 196 0
171 195 0
173 197 0
173 197 0
174 197 0
173 197 0
173 196 0
174 198 0
173 197 0
172 196 0
175 197 0
172 196 0
174 198 0
172 195 0
174 196 0
172 196 0
173 196 0
171 194 0
172 196 0
173 197 0
173 196 0
172 196 0
173 195 0
173 196 0
174 197 0
174 197 0
171 195 0
170 194 0
170 194 0
174 197 0
173 196 0
173 197 0
172 195 0
174 197 0
170 194 0
172 195 0
172 196 0
170 193 0
171 195 0
172 195 0
172 196 0
172 195 0
173 196 0
169 192 0
171 194 0
167 192 0
173 196 0
172 195 0
172 195 0
169 192 0
172 196 0
171 195 0
173 196 0
169 193 0
170 194 0
170 194 0
173 196 0
172 196 0
172 195 0
169 193 0
170 195 0
170 194 0
171 194 0
169 193 0
173 196 0
170 194 0
174 197 0
170 194 0
171 195 0
173 195 0
167 191 0
171 195 0
172 195 0
170 193 0
173 197 0
173 196 0
171 194 0
170 194 0
171 195 0
170 194 0
167 191 0
171 195 0
170 194 0
170 194 0
170 194 0
171 195 0
172 195 0
170 194 0
170 194 0
172 195 0
171 195 0
172 196 0
172 196 0
172 195 0
168 192 0
174 196 0
170 193 0
168 192 0
172 195 0
171 195 0
173 196 0
173 197 0
174 197 0
173 195 0
172 195 0
175 198 0
171 195 0
173 196 0
173 196 0
173 196 0
172 196 0
172 195 0
172 196 0
174 197 0
170 194 0
172 196 0
172 196 0
172 195 0
173 197 0
174 197 0
173 197 0
174 197 0
172 196 0
175 197 0
170 194 0
171 196 0
173 196 0
171 195 0
174 197 0
174 197 0
173 196 0
174 197 0
174 197 0
175 198 0
173 197 0
174 197 0
173 197 0
174 197 0
171 195 0
173 196 0
174 197 0
173 197 0
173 196 0
172 196 0
173 196 0
173 197 0
174 198 0
174 197 0
173 197 0
174 198 0
174 197 0
174 197 0
176 199 0
172 196 0
173 197 0
174 197 0
174 197 0
174 198 0
174 198 0
175 198 0
174 197 0
173 196 0
174 197 0
174 198 0
174 197 0
174 198 0
173 197 0
171 194 0
174 198 0
173 197 0
174 197 0
173 196 0
175 198 0
173 197 0
173 197 0
172 196 0
173 197 0
174 197 0
175 198 0
174 198 0
175 198 0
174 198 0
172 196 0
174 198 0
174 198 0
175 198 0
174 197 0
172 196 0
175 197 0
175 198 0
174 197 0
175 198 0
174 198 0
174 198 0
175 198 0
177 199 0
174 197 0
174 197 0
175 198 0
176 198 0
174 198 0
173 197 0
173 197 0
175 198 0
173 196 0
174 197 0
174 197 0
174 197 0
174 198 0
174 197 0
174 198 0
175 198 0
176 199 0
174 198 0
173 197 0
174 198 0
175 198 0
174 198 0
173 196 0
174 198 0
173 197 0
175 198 0
175 198 0
174 197 0
175 198 0
174 198 0
175 198 0
174 198 0
175 198 0
174 198 0
172 197 0
175 198 0
174 198 0
173 197 0
175 198 0
174 198 0
174 198 0
175 198 0
175 198 0
174 197 0
174 197 0
175 198 0
174 198 0
173 196 0
172 196 0
176 198 0
174 198 0
175 198 0
174 198 0
174 198 0
175 198 0
173 197 0
174 198 0
174 197 0
173 197 0
174 198 0
174 198 0
175 198 0
175 198 0
175 198 0
175 198 0
175 198 0
176 199 0
175 198 0
174 197 0
174 197 0
175 198 0
174 197 0
175 198 0
175 198 0
173 197 0
173 197 0
173 197 0
174 197 0
175 198 0
176 198 0
173 197 0
173 197 0
173 197 0
175 198 0
174 197 0
173 197 0
175 198 0
173 197 0
174 197 0
175 198 0
173 197 0
174 198 0
175 198 0
173 196 0
174 198 0
176 198 0
175 198 0
176 199 0
175 198 0
174 198 0
175 198 0
174 198 0
173 197 0
174 198 0
176 199 0
175 198 0
175 198 0
173 197 0
174 198 0
173 197 0
176 199 0
175 198 0
174 198 0
175 198 0
175 198 0
174 198 0
175 198 0
175 198 0
175 198 0
173 197 0
173 197 0
175 198 0
172 196 0
174 197 0
174 198 0
175 198 0
174 197 0
175 198 0
172 197 0
173 196 0
172 195 0
176 198 0
173 197 0
174 198 0
174 197 0
174 198 0
174 198 0
174 198 0
174 198 0
175 198 0
174 197 0
174 198 0
173 197 0
174 197 0
176 198 0
175 198 0
173 197 0
174 197 0
175 198 0
174 198 0
175 198 0
173 197 0
175 198 0
176 198 0
175 198 0
172 196 0
174 198 0
174 197 0
176 199 0
173 197 0
172 197 0
174 198 0
175 198 0
175 198 0
175 198 0
173 197 0
173 197 0
175 198 0
171 195 0
173 197 0
173 197 0
173 197 0
172 196 0
175 198 0
174 197 0
173 197 0
172 196 0
173 197 0
174 197 0
175 198 0
174 198 0
172 195 0
173 196 0
175 198 0
172 196 0
174 198 0
174 197 0
173 197 0
173 197 0
172 196 0
175 198 0
174 197 0
173 197 0
173 196 0
174 197 0
172 195 0
173 197 0
173 196 0
174 198 0
171 195 0
174 197 0
173 197 0
174 197 0
175 197 0
174 197 0
172 196 0
174 197 0
173 197 0
173 197 0
173 196 0
174 197 0
173 197 0
172 196 0
175 197 0
174 198 0
172 195 0
173 196 0
174 197 0
172 196 0
170 194 0
172 195 0
172 196 0
173 197 0
174 197 0
175 198 0
173 197 0
174 196 0
172 196 0
174 198 0
173 197 0
170 194 0
173 196 0
174 197 0
172 196 0
172 196 0
170 194 0
174 196 0
173 197 0
173 196 0
172 195 0
172 195 0
175 198 0
172 195 0
172 196 0
169 192 0
171 194 0
170 194 0
173 196 0
172 195 0
172 196 0
171 195 0
170 194 0
170 193 0
172 196 0
170 193 0
167 191 0
169 192 0
173 197 0
171 195 0
168 192 0
170 193 0
170 194 0
172 195 0
171 195 0
172 195 0
168 192 0
172 195 0
172 195 0
166 190 0
167 190 0
170 194 0
169 191 0
168 191 0
169 193 0
173 196 0
173 197 0
173 197 0
173 196 0
172 195 0
171 195 0
167 190 0
171 194 0
170 194 0
171 195 0
173 196 0
170 194 0
171 195 0
172 196 0
173 195 0
172 195 0
172 195 0
170 195 0
173 197 0
172 196 0
171 194 0
171 194 0
172 194 0
172 196 0
171 194 0
173 196 0
173 197 0
173 196 0
172 195 0
175 198 0
175 198 0
171 195 0
172 195 0
172 195 0
173 196 0
173 196 0
173 196 0
174 197 0
170 194 0
174 197 0
172 196 0
170 194 0
170 194 0
171 194 0
174 197 0
169 193 0
174 197 0
173 197 0
172 197 0
174 196 0
173 197 0
173 197 0
173 196 0
172 197 0
175 198 0
173 196 0
175 198 0
175 198 0
172 196 0
173 196 0
173 196 0
171 194 0
175 197 0
173 196 0
172 195 0
172 195 0
173 196 0
173 196 0
173 196 0
175 198 0
172 196 0
173 197 0
175 197 0
172 196 0
173 197 0
175 198 0
174 197 0
175 198 0
171 195 0
175 198 0
172 196 0
171 195 0
174 197 0
173 196 0
172 195 0
174 197 0
174 196 0
175 198 0
174 197 0
173 197 0
173 197 0
173 197 0
174 197 0
174 198 0
172 195 0
172 195 0
172 195 0
174 197 0
172 196 0
176 199 0
174 198 0
174 197 0
175 198 0
176 199 0
173 196 0
174 198 0
172 195 0
176 199 0
174 198 0
172 196 0
175 197 0
173 197 0
175 198 0
175 197 0
174 198 0
174 197 0
175 198 0
175 198 0
173 197 0
176 199 0
175 198 0
173 197 0
175 198 0
174 198 0
176 199 0
173 196 0
174 197 0
174 197 0
174 197 0
173 197 0
173 197 0
174 197 0
174 198 0
175 198 0
175 198 0
173 197 0
173 197 0
177 199 0
174 197 0
173 196 0
175 198 0
174 198 0
174 197 0
173 197 0
175 198 0
174 198 0
176 198 0
174 198 0
174 197 0
175 198 0
173 197 0
174 198 0
173 197 0
175 198 0
174 198 0
175 198 0
173 197 0
175 198 0
175 198 0
175 198 0
173 197 0
174 197 0
173 197 0
174 198 0
173 197 0
175 198 0
175 198 0
173 197 0
174 198 0
174 198 0
175 198 0
175 198 0
173 197 0
174 197 0
174 198 0
174 197 0
175 198 0
174 197 0
173 197 0
174 198 0
173 197 0
174 198 0
174 197 0
174 198 0
174 198 0
174 198 0
175 198 0
175 198 0
175 198 0
175 198 0
173 197 0
174 198 0
175 198 0
173 197 0
174 198 0
175 198 0
174 198 0
174 198 0
174 198 0
174 198 0
175 198 0
175 198 0
175 198 0
174 198 0
174 198 0
174 197 0
174 198 0
174 198 0
174 197 0
173 196 0
175 198 0
175 198 0
174 197 0
175 198 0
174 198 0
173 197 0
174 198 0
175 198 0
175 198 0
174 198 0
174 198 0
173 197 0
174 198 0
175 198 0
174 198 0
174 197 0
175 198 0
176 199 0
175 198 0
174 197 0
175 198 0
175 198 0
174 198 0
174 197 0
174 198 0
172 197 0
172 196 0
173 197 0
172 197 0
174 197 0
173 197 0
174 198 0
175 198 0
175 198 0
173 197 0
175 198 0
174 198 0
172 197 0
174 198 0
174 197 0
174 198 0
174 198 0
174 198 0
174 197 0
175 198 0
176 199 0
175 198 0
173 197 0
175 198 0
175 198 0
172 196 0
174 198 0
175 198 0
173 197 0
173 197 0
173 197 0
174 198 0
175 198 0
173 197 0
174 198 0
174 198 0
175 198 0
176 199 0
174 197 0
175 198 0
173 197 0
173 197 0
176 199 0
174 197 0
173 197 0
176 199 0
174 197 0
173 197 0
175 198 0
174 197 0
172 196 0
175 198 0
174 198 0
174 198 0
174 197 0
173 197 0
174 197 0
176 199 0
174 197 0
175 198 0
174 198 0
175 198 0
175 198 0
174 197 0
175 198 0
174 198 0
174 198 0
174 197 0
172 196 0
175 198 0
173 197 0
173 197 0
175 198 0
172 196 0
176 198 0
171 195 0
172 196 0
174 198 0
172 196 0
175 198 0
174 198 0
174 197 0
174 197 0
172 196 0
173 196 0
174 198 0
173 196 0
173 197 0
174 198 0
172 196 0
171 195 0
172 196 0
170 194 0
172 197 0
173 196 0
173 196 0
174 197 0
173 196 0
174 198 0
176 198 0
170 194 0
172 196 0
173 196 0
172 195 0
174 197 0
175 198 0
171 195 0
173 196 0
172 195 0
171 196 0
173 196 0
172 196 0
173 197 0
174 197 0
172 195 0
171 195 0
175 198 0
172 196 0
174 197 0
173 197 0
170 194 0
172 196 0
173 196 0
173 197 0
172 195 0
169 192 0
173 196 0
170 193 0
174 196 0
173 196 0
173 196 0
171 194 0
173 195 0
172 196 0
172 195 0
172 196 0
172 196 0
170 195 0
172 195 0
173 196 0
171 195 0
167 191 0
168 192 0
171 194 0
170 193 0
168 191 0
172 196 0
171 195 0
169 192 0
170 194 0
168 192 0
172 196 0
171 195 0
173 195 0
171 194 0
171 195 0
173 197 0
170 195 0
170 194 0
170 194 0
169 193 0
171 194 0
169 194 0
170 194 0
168 191 0
173 197 0
172 195 0
169 193 0
171 195 0
173 197 0
171 196 0
173 195 0
173 196 0
174 197 0
171 194 0
172 196 0
169 193 0
171 194 0
174 198 0
176 198 0
173 197 0
170 194 0
169 193 0
173 197 0
172 195 0
170 194 0
175 197 0
173 196 0
174 196 0
173 196 0
172 195 0
172 195 0
170 194 0
171 195 0
172 195 0
172 195 0
174 197 0
175 198 0
173 196 0
174 197 0
174 197 0
171 195 0
170 195 0
172 195 0
172 196 0
173 196 0
172 195 0
170 195 0
174 196 0
175 198 0
172 196 0
174 197 0
174 197 0
174 198 0
172 196 0
171 194 0
171 194 0
174 196 0
172 196 0
174 197 0
173 196 0
172 195 0
173 197 0
175 198 0
172 196 0
173 197 0
174 197 0
174 197 0
174 197 0
173 197 0
175 198 0
172 196 0
174 197 0
174 197 0
172 196 0
173 196 0
174 196 0
174 197 0
174 197 0
174 198 0
173 197 0
173 196 0
174 198 0
173 196 0
173 196 0
174 197 0
174 197 0
172 195 0
172 196 0
173 197 0
174 198 0
174 197 0
170 194 0
174 197 0
175 198 0
173 197 0
175 198 0
173 197 0
174 197 0
175 198 0
173 197 0
172 196 0
172 196 0
174 197 0
174 197 0
175 198 0
174 197 0
174 197 0
172 196 0
173 196 0
175 198 0
174 198 0
174 197 0
172 196 0
172 196 0
173 197 0
175 198 0
174 197 0
172 196 0
173 197 0
174 197 0
175 198 0
172 196 0
173 197 0
175 198 0
174 198 0
176 199 0
174 197 0
174 197 0
172 196 0
175 198 0
174 198 0
174 197 0
174 198 0
174 197 0
174 198 0
174 197 0
175 198 0
173 197 0
174 197 0
171 195 0
175 198 0
174 196 0
174 197 0
174 197 0
172 197 0
174 197 0
175 198 0
174 198 0
174 198 0
175 198 0
175 198 0
175 198 0
174 198 0
174 197 0
173 197 0
175 198 0
175 198 0
173 197 0
172 196 0
173 196 0
176 199 0
177 199 0
175 198 0
175 198 0
173 197 0
174 198 0
175 198 0
174 198 0
174 198 0
173 197 0
174 197 0
175 198 0
172 196 0
176 198 0
174 198 0
174 198 0
177 199 0
175 198 0
175 198 0
174 197 0
174 198 0
176 199 0
174 198 0
174 197 0
174 198 0
174 197 0
175 198 0
174 198 0
174 198 0
175 198 0
173 197 0
174 197 0
175 198 0
174 198 0
176 198 0
175 198 0
173 197 0
175 198 0
174 198 0
175 198 0
175 198 0
176 199 0
175 198 0
174 198 0
176 199 0
173 197 0
174 197 0
173 197 0
174 198 0
173 197 0
172 196 0
174 198 0
174 198 0
175 198 0
173 197 0
175 198 0
173 197 0
174 198 0
174 198 0
176 199 0
175 198 0
174 198 0
173 197 0
174 198 0
175 198 0
175 198 0
173 197 0
173 197 0
175 198 0
176 199 0
174 198 0
174 198 0
173 197 0
175 198 0
175 198 0
173 196 0
175 198 0
175 198 0
175 198 0
175 198 0
172 196 0
173 197 0
173 197 0
174 197 0
173 197 0
174 197 0
175 198 0
174 197 0
174 197 0
175 198 0
172 196 0
175 198 0
175 198 0
174 198 0
176 199 0
174 197 0
174 198 0
175 198 0
175 198 0
173 197 0
175 198 0
175 198 0
176 198 0
175 198 0
174 198 0
171 196 0
172 196 0
174 198 0
173 197 0
176 199 0
175 198 0
173 197 0
173 197 0
175 198 0
173 197 0
174 197 0
174 198 0
174 198 0
173 197 0
176 199 0
174 198 0
174 198 0
173 197 0
175 198 0
175 198 0
173 197 0
175 198 0
174 198 0
174 197 0
175 198 0
173 196 0
173 197 0
175 198 0
175 198 0
172 196 0
175 198 0
175 198 0
175 198 0
173 197 0
174 198 0
174 197 0
173 197 0
175 198 0
175 198 0
173 197 0
174 198 0
176 199 0
174 197 0
173 197 0
173 196 0
174 198 0
173 197 0
174 197 0
175 198 0
175 198 0
175 198 0
171 195 0
174 198 0
174 197 0
174 197 0
173 197 0
173 196 0
172 196 0
172 196 0
171 195 0
173 197 0
174 197 0
174 197 0
174 198 0
174 197 0
173 197 0
173 197 0
171 195 0
173 197 0
172 196 0
174 197 0
174 197 0
173 196 0
174 197 0
173 196 0
173 197 0
173 196 0
171 196 0
174 197 0
174 197 0
174 198 0
173 196 0
173 197 0
173 196 0
174 197 0
172 195 0
172 196 0
174 197 0
172 196 0
174 198 0
170 193 0
172 197 0
174 197 0
170 194 0
172 195 0
173 197 0
173 196 0
173 196 0
172 195 0
173 196 0
174 197 0
172 196 0
173 196 0
174 197 0
171 194 0
170 194 0
170 194 0
172 196 0
172 196 0
169 193 0
173 196 0
172 195 0
171 194 0
170 193 0
169 193 0
169 194 0
172 196 0
168 192 0
172 196 0
173 196 0
174 197 0
174 196 0
170 194 0
168 192 0
173 197 0
171 195 0
171 195 0
170 193 0
171 195 0
170 193 0
170 193 0
171 195 0
171 194 0
174 197 0
172 196 0
173 195 0
171 195 0
173 197 0
171 194 0
175 197 0
173 196 0
171 194 0
173 196 0
172 196 0
173 196 0
171 195 0
172 195 0
169 193 0
170 194 0
170 194 0
173 196 0
175 198 0
172 195 0
167 192 0
171 196 0
172 195 0
171 195 0
169 193 0
171 194 0
173 196 0
169 192 0
173 196 0
171 194 0
172 196 0
170 193 0
174 197 0
170 193 0
173 196 0
171 195 0
175 198 0
172 195 0
173 197 0
172 195 0
173 196 0
173 197 0
171 196 0
173 197 0
172 196 0
175 198 0
172 196 0
173 197 0
172 195 0
172 195 0
170 193 0
173 196 0
172 196 0
174 198 0
169 192 0
173 196 0
172 196 0
173 196 0
175 198 0
172 196 0
174 197 0
173 196 0
173 196 0
173 196 0
173 196 0
174 197 0
174 197 0
174 197 0
174 196 0
175 198 0
174 197 0
173 196 0
173 197 0
175 198 0
174 197 0
173 196 0
172 195 0
170 194 0
173 195 0
173 197 0
171 195 0
173 196 0
175 198 0
174 197 0
173 197 0
174 198 0
173 197 0
173 196 0
175 198 0
173 197 0
172 196 0
173 197 0
173 196 0
174 198 0
175 198 0
174 197 0
174 197 0
173 196 0
174 197 0
173 196 0
175 198 0
173 196 0
173 196 0
172 197 0
174 197 0
175 198 0
172 196 0
173 197 0
175 198 0
176 199 0
174 198 0
176 199 0
175 198 0
172 196 0
173 197 0
175 198 0
171 195 0
175 198 0
174 198 0
173 197 0
174 198 0
174 198 0
173 197 0
174 197 0
174 197 0
174 198 0
173 197 0
174 197 0
175 198 0
173 196 0
175 198 0
174 198 0
175 198 0
175 198 0
173 197 0
174 198 0
177 199 0
173 197 0
174 198 0
174 197 0
172 196 0
174 197 0
174 197 0
175 198 0
173 197 0
174 198 0
172 196 0
174 198 0
174 197 0
174 197 0
173 197 0
173 197 0
174 198 0
175 198 0
174 197 0
174 197 0
174 197 0
174 196 0
173 197 0
173 197 0
173 197 0
175 198 0
175 198 0
174 198 0
174 198 0
173 197 0
174 197 0
174 197 0
173 197 0
174 198 0
176 198 0
173 197 0
175 197 0
174 197 0
173 197 0
173 197 0
173 197 0
177 199 0
173 197 0
175 198 0
174 197 0
175 198 0
174 197 0
173 197 0
175 198 0
174 198 0
173 197 0
176 198 0
175 198 0
174 198 0
174 198 0
173 197 0
173 197 0
175 198 0
174 197 0
175 198 0
175 198 0
174 197 0
175 198 0
173 197 0
174 198 0
173 197 0
175 198 0
175 198 0
174 198 0
173 197 0
173 197 0
174 198 0
174 198 0
175 198 0
175 198 0
176 199 0
174 198 0
175 198 0
175 198 0
175 198 0
176 198 0
176 199 0
174 198 0
175 198 0
175 198 0
173 197 0
173 197 0
176 199 0
176 198 0
174 197 0
174 198 0
176 199 0
175 198 0
173 196 0
176 199 0
174 198 0
172 197 0
175 198 0
172 196 0
175 198 0
174 197 0
175 198 0
174 198 0
175 198 0
175 198 0
173 197 0
175 198 0
174 198 0
174 197 0
175 198 0
176 198 0
175 198 0
174 198 0
173 197 0
175 198 0
172 197 0
175 198 0
174 197 0
175 198 0
173 197 0
173 197 0
175 198 0
174 198 0
175 198 0
173 197 0
174 197 0
174 197 0
174 198 0
173 196 0
174 198 0
173 196 0
174 197 0
174 198 0
173 197 0
175 198 0
173 197 0
176 198 0
176 199 0
174 198 0
174 198 0
174 198 0
174 197 0
174 198 0
174 197 0
175 198 0
175 198 0
174 197 0
174 197 0
174 197 0
174 198 0
173 197 0
175 198 0
176 199 0
174 197 0
174 197 0
175 198 0
175 198 0
176 198 0
174 198 0
173 197 0
174 197 0
174 198 0
176 199 0
175 198 0
175 198 0
173 197 0
174 197 0
173 197 0
171 195 0
174 198 0
173 197 0
170 194 0
174 198 0
171 195 0
173 197 0
173 197 0
174 197 0
176 198 0
173 197 0
173 197 0
173 197 0
173 197 0
174 197 0
175 198 0
174 198 0
174 198 0
173 197 0
172 196 0
175 198 0
174 198 0
173 196 0
174 197 0
175 198 0
174 197 0
176 198 0
172 196 0
175 198 0
173 197 0
173 197 0
172 195 0
173 197 0
174 198 0
171 195 0
173 197 0
171 195 0
173 196 0
174 197 0
171 195 0
173 196 0
173 196 0
173 197 0
173 197 0
172 196 0
171 195 0
172 196 0
175 198 0
172 196 0
174 197 0
173 196 0
173 196 0
174 197 0
171 195 0
173 196 0
174 198 0
171 195 0
171 195 0
171 194 0
172 196 0
172 196 0
171 194 0
170 194 0
172 195 0
171 194 0
174 197 0
171 196 0
170 193 0
171 195 0
172 196 0
173 197 0
174 197 0
173 196 0
170 193 0
174 197 0
172 195 0
169 192 0
170 194 0
175 198 0
171 195 0
170 193 0
173 197 0
173 196 0
170 193 0
175 198 0
173 195 0
172 195 0
172 195 0
173 197 0
172 195 0
170 194 0
171 195 0
170 193 0
170 194 0
169 192 0
172 196 0
172 196 0
172 196 0
171 195 0
167 191 0
170 194 0
170 194 0
172 195 0
170 194 0
170 193 0
172 196 0
173 196 0
173 196 0
172 196 0
171 195 0
174 197 0
170 194 0
173 196 0
170 194 0
170 194 0
171 195 0
172 196 0
172 195 0
172 194 0
173 196 0
173 196 0
171 195 0
171 195 0
171 194 0
173 196 0
171 194 0
172 196 0
172 196 0
174 197 0
172 196 0
172 196 0
175 198 0
174 197 0
173 197 0
174 197 0
172 196 0
172 195 0
172 195 0
174 197 0
171 195 0
172 195 0
174 197 0
173 196 0
172 196 0
173 196 0
172 196 0
171 195 0
172 196 0
174 196 0
171 195 0
173 197 0
171 194 0
173 197 0
173 197 0
173 196 0
172 196 0
175 198 0
173 196 0
172 196 0
174 197 0
174 197 0
173 197 0
170 194 0
172 196 0
172 196 0
171 194 0
173 197 0
171 195 0
174 198 0
174 197 0
174 197 0
174 198 0
173 196 0
174 197 0
172 196 0
174 197 0
172 196 0
174 197 0
174 197 0
174 197 0
176 199 0
173 197 0
173 196 0
174 197 0
173 196 0
175 198 0
173 197 0
175 198 0
174 197 0
173 197 0
174 197 0
173 197 0
174 198 0
175 198 0
173 196 0
175 198 0
174 197 0
172 196 0
173 197 0
173 196 0
173 197 0
173 197 0
174 197 0
174 197 0
176 199 0
174 198 0
173 197 0
174 197 0
173 196 0
176 199 0
175 198 0
172 196 0
175 197 0
174 198 0
172 196 0
173 197 0
175 198 0
173 196 0
173 197 0
175 198 0
174 198 0
175 198 0
175 198 0
174 198 0
174 197 0
174 197 0
175 198 0
174 197 0
173 197 0
173 196 0
173 196 0
173 197 0
174 198 0
174 198 0
175 198 0
174 198 0
173 197 0
175 198 0
173 197 0
176 199 0
174 197 0
175 198 0
175 198 0
175 198 0
175 198 0
173 196 0
174 198 0
174 197 0
173 196 0
174 197 0
174 197 0
173 197 0
173 197 0
175 198 0
173 197 0
175 198 0
175 198 0
175 198 0
174 198 0
173 197 0
174 197 0
174 197 0
174 198 0
174 197 0
173 197 0
175 198 0
174 198 0
175 198 0
172 196 0
173 197 0
174 197 0
174 198 0
176 199 0
174 197 0
174 198 0
176 199 0
177 199 0
175 198 0
175 198 0
174 197 0
174 197 0
174 197 0
174 198 0
175 198 0
175 198 0
175 198 0
173 197 0
175 198 0
174 198 0
173 197 0
173 197 0
174 198 0
174 198 0
175 198 0
175 198 0
175 198 0
175 198 0
175 198 0
174 198 0
175 198 0
175 198 0
175 198 0
173 197 0
174 198 0
174 198 0
175 198 0
174 198 0
175 198 0
176 199 0
175 198 0
175 198 0
173 197 0
176 198 0
174 198 0
174 198 0
175 198 0
173 197 0
175 198 0
176 198 0
174 198 0
174 198 0
175 198 0
175 198 0
174 198 0
175 198 0
173 197 0
174 198 0
174 197 0
175 198 0
174 198 0
174 197 0
174 197 0
176 198 0
174 198 0
173 197 0
174 198 0
174 198 0
174 198 0
175 198 0
174 198 0
172 197 0
174 198 0
175 198 0
174 198 0
174 197 0
174 198 0
176 198 0
175 198 0
174 197 0
173 197 0
174 197 0
175 198 0
176 198 0
174 198 0
174 198 0
175 198 0
175 198 0
173 197 0
172 196 0
174 198 0
175 198 0
174 197 0
173 197 0
176 199 0
173 197 0
174 197 0
172 196 0
175 198 0
174 197 0
175 198 0
176 199 0
175 198 0
175 198 0
173 197 0
174 198 0
171 196 0
176 199 0
173 197 0
175 198 0
173 197 0
174 198 0
174 197 0
175 198 0
175 198 0
174 197 0
172 196 0
173 197 0
174 197 0
176 198 0
175 198 0
173 197 0
174 198 0
174 197 0
175 198 0
174 198 0
173 196 0
173 197 0
174 197 0
175 198 0
172 196 0
175 198 0
171 194 0
173 197 0
174 197 0
175 198 0
174 198 0
173 197 0
172 196 0
176 199 0
175 198 0
174 197 0
173 197 0
174 197 0
176 198 0
174 198 0
172 196 0
171 195 0
174 197 0
174 197 0
174 197 0
174 197 0
173 196 0
171 196 0
173 197 0
173 196 0
174 197 0
172 196 0
173 196 0
173 197 0
173 196 0
174 196 0
173 196 0
174 197 0
174 197 0
173 197 0
172 196 0
174 197 0
172 196 0
172 195 0
174 197 0
171 195 0
176 198 0
174 197 0
172 196 0
171 195 0
172 195 0
173 196 0
173 197 0
173 197 0
170 194 0
174 198 0
173 196 0
173 196 0
173 195 0
173 197 0
175 198 0
173 196 0
172 196 0
173 195 0
172 196 0
173 196 0
172 196 0
171 195 0
172 196 0
172 195 0
172 195 0
171 194 0
174 197 0
173 196 0
172 195 0
172 195 0
170 194 0
170 194 0
171 195 0
170 193 0
171 194 0
169 193 0
170 194 0
170 194 0
168 192 0
169 193 0
172 196 0
171 193 0
170 193 0
172 195 0
172 195 0
171 194 0
172 196 0
171 195 0
168 191 0
173 195 0
173 196 0
167 191 0
173 197 0
172 195 0
172 195 0
168 192 0
173 196 0
171 195 0
171 194 0
172 196 0
170 194 0
174 197 0
172 195 0
173 196 0
171 195 0
170 194 0
172 195 0
170 194 0
171 194 0
172 195 0
171 194 0
172 196 0
168 192 0
172 196 0
174 197 0
172 195 0
171 195 0
173 196 0
173 196 0
173 196 0
171 194 0
173 196 0
172 195 0
170 194 0
171 195 0
172 196 0
173 197 0
173 196 0
174 197 0
170 194 0
172 196 0
171 194 0
172 196 0
171 194 0
170 194 0
175 197 0
174 197 0
170 193 0
170 194 0
173 196 0
172 195 0
173 196 0
173 196 0
174 197 0
173 197 0
174 197 0
171 194 0
173 197 0
174 197 0
173 196 0
174 198 0
171 194 0
175 197 0
173 197 0
174 197 0
173 197 0
174 197 0
172 196 0
171 195 0
175 197 0
172 196 0
172 196 0
174 197 0
174 197 0
175 198 0
172 196 0
174 197 0
173 197 0
173 196 0
173 196 0
171 195 0
173 197 0
172 196 0
174 197 0
174 197 0
174 198 0
175 198 0
175 197 0
173 197 0
175 197 0
174 197 0
173 197 0
174 197 0
174 197 0
175 198 0
174 197 0
175 198 0
174 198 0
174 197 0
174 197 0
174 197 0
175 198 0
174 198 0
173 196 0
174 197 0
173 197 0
171 195 0
173 197 0
174 198 0
174 198 0
174 197 0
174 197 0
174 198 0
173 197 0
174 198 0
173 197 0
173 197 0
175 198 0
174 197 0
175 198 0
173 197 0
172 196 0
174 197 0
173 196 0
175 198 0
173 197 0
174 198 0
173 197 0
174 197 0
175 198 0
174 197 0
172 196 0
174 197 0
174 197 0
174 198 0
175 198 0
174 197 0
175 198 0
175 198 0
175 198 0
174 198 0
174 198 0
176 198 0
174 197 0
175 198 0
173 197 0
173 197 0
175 198 0
174 197 0
174 198 0
174 198 0
174 197 0
175 198 0
174 197 0
173 197 0
175 198 0
174 197 0
175 197 0
175 198 0
174 198 0
174 196 0
174 198 0
174 197 0
173 197 0
175 198 0
173 197 0
173 197 0
173 197 0
174 198 0
173 197 0
174 197 0
174 197 0
174 197 0
176 198 0
174 198 0
175 198 0
174 198 0
175 198 0
174 198 0
174 198 0
174 198 0
173 197 0
176 198 0
173 197 0
173 196 0
174 198 0
173 197 0
175 198 0
174 198 0
174 198 0
175 198 0
173 197 0
175 198 0
174 198 0
174 197 0
174 198 0
173 197 0
175 198 0
174 198 0
174 197 0
175 198 0
174 198 0
175 198 0
174 198 0
174 197 0
175 198 0
174 198 0
175 198 0
173 197 0
174 198 0
174 198 0
174 198 0
173 197 0
174 198 0
175 198 0
175 198 0
174 198 0
172 196 0
173 197 0
175 198 0
174 198 0
174 198 0
175 198 0
172 196 0
174 197 0
173 197 0
175 198 0
175 198 0
174 197 0
174 198 0
175 198 0
173 197 0
176 198 0
174 197 0
175 198 0
175 198 0
173 197 0
175 198 0
175 198 0
173 197 0
175 198 0
174 198 0
174 198 0
174 197 0
175 198 0
175 198 0
175 198 0
173 197 0
174 198 0
175 198 0
172 196 0
174 198 0
174 197 0
175 198 0
175 198 0
173 196 0
175 198 0
173 197 0
174 198 0
175 198 0
173 197 0
175 198 0
173 197 0
173 197 0
173 197 0
174 198 0
175 198 0
175 198 0
174 197 0
173 197 0
174 198 0
174 197 0
175 198 0
175 198 0
174 197 0
175 198 0
175 198 0
173 196 0
177 199 0
174 198 0
176 198 0
175 198 0
174 197 0
174 198 0
175 198 0
173 196 0
173 197 0
174 197 0
176 199 0
176 199 0
174 197 0
174 197 0
175 198 0
173 197 0
175 198 0
173 197 0
176 199 0
174 197 0
175 198 0
174 197 0
172 196 0
173 197 0
174 197 0
175 198 0
173 197 0
173 197 0
174 198 0
174 197 0
173 197 0
174 197 0
173 197 0
174 197 0
174 198 0
175 198 0
174 198 0
172 196 0
173 196 0
174 198 0
175 198 0
174 198 0
174 197 0
173 196 0
172 196 0
173 197 0
174 198 0
172 196 0
174 198 0
172 196 0
173 196 0
175 198 0
174 197 0
174 197 0
174 198 0
174 197 0
173 197 0
174 196 0
175 198 0
174 198 0
176 199 0
172 195 0
173 197 0
174 198 0
173 197 0
175 198 0
173 196 0
175 198 0
171 195 0
172 196 0
172 196 0
172 195 0
173 197 0
170 194 0
175 198 0
172 196 0
173 196 0
174 197 0
172 196 0
173 197 0
174 196 0
174 197 0
173 196 0
172 196 0
173 197 0
174 197 0
173 197 0
171 195 0
173 197 0
172 196 0
170 193 0
171 195 0
172 195 0
172 196 0
174 198 0
173 196 0
174 196 0
172 195 0
173 196 0
171 194 0
173 196 0
173 197 0
171 195 0
172 196 0
170 194 0
169 193 0
172 195 0
172 196 0
175 198 0
170 194 0
171 195 0
171 195 0
172 196 0
170 194 0
171 195 0
173 197 0
169 193 0
170 193 0
172 195 0
172 195 0
173 196 0
173 197 0
173 196 0
169 194 0
172 196 0
170 194 0
175 198 0
171 194 0
171 195 0
170 194 0
172 196 0
172 197 0
173 196 0
170 194 0
172 196 0
172 195 0
174 197 0
172 196 0
172 195 0
170 194 0
173 196 0
171 195 0
171 195 0
171 194 0
174 197 0
170 193 0
171 195 0
169 192 0
174 197 0
170 193 0
172 195 0
173 196 0
171 194 0
169 194 0
172 195 0
173 197 0
172 195 0
173 197 0
172 196 0
172 196 0
174 197 0
173 196 0
173 197 0
171 195 0
173 196 0
174 197 0
174 197 0
170 194 0
172 197 0
173 197 0
171 195 0
173 196 0
175 198 0
175 198 0
172 196 0
173 197 0
174 197 0
173 197 0
174 197 0
173 197 0
173 197 0
173 197 0
173 196 0
174 197 0
174 197 0
173 197 0
172 196 0
173 197 0
176 198 0
172 195 0
173 197 0
173 197 0
173 197 0
174 197 0
174 197 0
173 196 0
172 196 0
172 196 0
171 195 0
170 194 0
174 197 0
173 196 0
174 197 0
174 197 0
175 198 0
170 194 0
173 197 0
173 197 0
174 197 0
174 197 0
173 196 0
174 197 0
172 196 0
174 197 0
173 197 0
174 197 0
175 198 0
174 198 0
174 198 0
172 196 0
173 196 0
172 196 0
175 198 0
174 197 0
174 198 0
172 195 0
175 198 0
173 196 0
173 197 0
175 197 0
174 197 0
175 198 0
172 196 0
173 197 0
174 197 0
175 198 0
174 197 0
175 198 0
174 198 0
172 195 0
174 198 0
173 197 0
175 198 0
174 198 0
174 197 0
173 197 0
173 196 0
173 197 0
174 198 0
174 197 0
173 197 0
173 197 0
174 197 0
173 197 0
173 197 0
174 197 0
172 196 0
174 198 0
174 197 0
174 197 0
175 198 0
174 197 0
173 197 0
173 197 0
174 197 0
173 197 0
174 197 0
175 198 0
175 198 0
174 198 0
173 196 0
174 198 0
176 198 0
175 198 0
173 197 0
174 197 0
175 198 0
174 198 0
175 198 0
172 196 0
175 198 0
173 197 0
174 197 0
173 196 0
174 197 0
174 197 0
175 198 0
174 198 0
173 197 0
174 198 0
174 197 0
175 198 0
173 197 0
174 198 0
174 198 0
176 198 0
175 198 0
174 197 0
174 198 0
174 197 0
173 197 0
174 198 0
175 198 0
173 197 0
175 198 0
174 198 0
175 198 0
175 198 0
174 197 0
173 196 0
175 198 0
174 197 0
173 196 0
173 197 0
174 198 0
174 198 0
175 198 0
174 198 0
175 198 0
172 196 0
174 198 0
176 199 0
173 197 0
174 198 0
174 197 0
176 199 0
175 198 0
174 198 0
174 198 0
174 198 0
175 198 0
175 198 0
173 197 0
176 199 0
175 198 0
175 198 0
175 198 0
175 198 0
174 198 0
174 198 0
174 197 0
174 198 0
174 198 0
175 198 0
174 198 0
172 197 0
174 197 0
175 198 0
175 198 0
173 197 0
173 197 0
174 197 0
175 198 0
175 198 0
174 198 0
174 197 0
173 197 0
176 198 0
172 196 0
175 198 0
173 197 0
173 197 0
174 198 0
174 197 0
175 198 0
175 198 0
174 197 0
173 197 0
173 197 0
175 198 0
173 197 0
174 198 0
176 198 0
174 197 0
174 198 0
174 198 0
174 197 0
174 197 0
174 197 0
175 198 0
172 196 0
173 197 0
176 199 0
173 197 0
173 197 0
174 197 0
174 197 0
174 197 0
175 198 0
175 198 0
173 197 0
173 197 0
173 197 0
175 198 0
176 199 0
175 198 0
174 197 0
176 198 0
173 197 0
174 198 0
175 198 0
174 198 0
174 197 0
173 197 0
174 198 0
175 198 0
175 198 0
175 198 0
172 196 0
174 198 0
174 197 0
174 198 0
173 197 0
174 197 0
174 198 0
174 198 0
175 198 0
175 198 0
175 198 0
174 198 0
173 196 0
176 199 0
175 198 0
174 198 0
174 197 0
174 197 0
173 197 0
173 197 0
173 197 0
175 198 0
174 198 0
172 195 0
175 198 0
172 196 0
173 197 0
175 198 0
175 198 0
173 196 0
173 197 0
174 197 0
173 197 0
173 196 0
175 198 0
174 198 0
173 197 0
175 198 0
175 198 0
174 197 0
172 196 0
175 198 0
174 198 0
173 197 0
175 198 0
174 198 0
172 196 0
175 198 0
174 197 0
175 198 0
173 196 0
172 196 0
173 196 0
173 196 0
174 197 0
173 196 0
173 197 0
173 196 0
174 197 0
172 196 0
173 197 0
170 194 0
175 198 0
173 196 0
172 195 0
174 197 0
173 196 0
170 194 0
173 196 0
172 196 0
173 196 0
170 194 0
171 195 0
173 197 0
173 197 0
171 194 0
174 197 0
175 198 0
172 196 0
172 195 0
173 196 0
172 196 0
173 196 0
172 195 0
171 196 0
171 195 0
176 198 0
173 196 0
174 197 0
172 195 0
170 193 0
174 197 0
170 194 0
172 195 0
172 195 0
172 196 0
173 196 0
170 194 0
173 196 0
170 193 0
170 193 0
171 194 0
171 194 0
171 195 0
170 192 0
172 196 0
173 196 0
170 194 0
171 194 0
172 196 0
171 195 0
173 197 0
171 195 0
173 197 0
170 194 0
174 197 0
170 194 0
170 194 0
172 195 0
172 195 0
170 194 0
170 194 0
172 195 0
172 195 0
170 194 0
170 195 0
169 193 0
173 196 0
172 195 0
172 195 0
171 194 0
173 196 0
172 196 0
172 195 0
172 196 0
173 196 0
171 194 0
171 194 0
171 195 0
172 196 0
172 195 0
172 195 0
170 194 0
172 196 0
173 197 0
171 195 0
169 193 0
174 196 0
171 195 0
171 195 0
172 195 0
170 194 0
171 195 0
174 198 0
173 197 0
173 197 0
172 196 0
174 196 0
173 196 0
171 195 0
173 195 0
170 194 0
174 197 0
172 195 0
172 196 0
174 198 0
171 195 0
172 195 0
172 196 0
171 195 0
173 197 0
172 196 0
172 196 0
175 198 0
173 197 0
173 196 0
173 197 0
173 196 0
170 194 0
174 196 0
173 197 0
173 197 0
174 197 0
172 195 0
175 198 0
174 197 0
170 193 0
172 196 0
172 195 0
173 196 0
174 196 0
175 198 0
173 196 0
174 197 0
174 197 0
174 197 0
172 195 0
174 197 0
175 198 0
175 198 0
173 196 0
173 196 0
173 197 0
174 197 0
171 196 0
172 196 0
173 197 0
175 198 0
175 198 0
174 198 0
174 197 0
172 196 0
173 197 0
176 199 0
175 197 0
174 198 0
172 196 0
174 197 0
177 199 0
174 197 0
175 198 0
175 198 0
174 197 0
175 197 0
174 198 0
172 196 0
174 198 0
173 196 0
173 197 0
172 196 0
174 196 0
174 198 0
173 197 0
173 197 0
174 197 0
173 197 0
175 198 0
174 197 0
175 198 0
175 198 0
173 196 0
173 197 0
174 197 0
174 198 0
174 197 0
173 197 0
174 198 0
173 197 0
173 197 0
174 198 0
174 197 0
173 197 0
174 197 0
174 197 0
175 198 0
175 198 0
174 197 0
174 197 0
173 197 0
172 196 0
174 198 0
173 197 0
174 198 0
173 197 0
174 198 0
174 197 0
175 198 0
173 197 0
174 198 0
174 198 0
174 198 0
173 197 0
175 198 0
175 198 0
176 198 0
174 197 0
175 198 0
175 198 0
174 198 0
175 198 0
173 197 0
175 198 0
174 197 0
173 197 0
172 197 0
173 197 0
175 198 0
173 197 0
174 198 0
173 197 0
174 197 0
174 197 0
174 198 0
173 197 0
175 198 0
174 198 0
176 198 0
173 197 0
175 198 0
174 198 0
173 197 0
174 198 0
173 197 0
173 197 0
174 197 0
175 198 0
174 198 0
173 197 0
175 198 0
174 198 0
175 198 0
175 198 0
173 197 0
174 198 0
175 198 0
176 198 0
176 199 0
174 198 0
175 198 0
174 198 0
176 199 0
174 198 0
175 198 0
174 197 0
175 198 0
174 198 0
174 198 0
175 198 0
174 198 0
175 198 0
175 198 0
173 197 0
174 197 0
175 198 0
175 198 0
175 198 0
175 198 0
173 197 0
175 198 0
174 198 0
175 198 0
176 199 0
174 197 0
174 198 0
173 197 0
175 198 0
176 199 0
175 198 0
176 198 0
173 197 0
174 198 0
174 197 0
174 198 0
174 197 0
173 197 0
175 198 0
173 197 0
174 197 0
173 197 0
175 198 0
175 198 0
175 198 0
175 198 0
173 197 0
174 198 0
175 198 0
174 198 0
174 197 0
174 197 0
174 197 0
174 198 0
175 198 0
175 198 0
174 197 0
174 198 0
174 198 0
175 198 0
174 197 0
174 198 0
175 198 0
173 197 0
175 198 0
174 198 0
174 198 0
174 198 0
174 198 0
173 197 0
174 197 0
176 198 0
174 197 0
172 196 0
176 198 0
173 197 0
176 199 0
175 198 0
175 198 0
171 195 0
174 198 0
175 198 0
174 198 0
174 197 0
175 198 0
173 197 0
174 198 0
174 198 0
176 199 0
173 197 0
175 198 0
173 196 0
173 197 0
174 197 0
173 197 0
172 196 0
174 197 0
176 198 0
175 198 0
173 197 0
173 196 0
173 197 0
171 195 0
173 197 0
174 198 0
175 198 0
173 197 0
175 198 0
174 198 0
175 198 0
173 197 0
174 197 0
174 197 0
174 197 0
175 198 0
174 198 0
173 197 0
172 196 0
175 198 0
172 196 0
171 195 0
175 198 0
173 197 0
172 196 0
174 197 0
171 195 0
175 198 0
172 196 0
173 197 0
173 197 0
172 197 0
177 199 0
174 196 0
174 197 0
173 196 0
172 196 0
173 196 0
174 197 0
173 197 0
174 197 0
172 196 0
173 197 0
174 197 0
169 193 0
173 196 0
172 196 0
172 195 0
174 197 0
173 197 0
173 197 0
176 198 0
174 197 0
173 196 0
172 195 0
174 197 0
174 198 0
171 196 0
174 198 0
173 197 0
173 196 0
174 197 0
174 197 0
174 198 0
172 197 0
174 198 0
171 195 0
173 196 0
173 195 0
170 194 0
171 195 0
170 194 0
171 194 0
170 194 0
172 196 0
172 195 0
172 195 0
172 196 0
172 196 0
171 195 0
174 197 0
173 196 0
171 194 0
174 197 0
171 195 0
169 193 0
170 193 0
174 197 0
172 196 0
169 193 0
171 195 0
173 197 0
170 194 0
172 195 0
174 197 0
171 195 0
173 197 0
172 195 0
173 196 0
173 196 0
171 195 0
171 194 0
172 195 0
170 193 0
171 195 0
173 195 0
171 194 0
173 196 0
174 197 0
172 195 0
173 196 0
174 197 0
172 195 0
169 193 0
174 198 0
171 195 0
168 191 0
170 194 0
170 193 0
173 196 0
175 198 0
173 197 0
172 194 0
170 194 0
172 195 0
172 195 0
173 196 0
171 194 0
170 194 0
173 196 0
170 194 0
174 197 0
171 195 0
173 197 0
174 198 0
173 196 0
172 195 0
172 194 0
173 196 0
173 196 0
172 195 0
171 194 0
172 196 0
173 196 0
173 196 0
171 195 0
171 195 0
174 197 0
173 197 0
170 194 0
173 197 0
173 196 0
173 197 0
172 195 0
174 197 0
174 198 0
173 196 0
174 197 0
173 196 0
172 196 0
170 193 0
173 197 0
171 196 0
171 195 0
173 197 0
172 196 0
172 195 0
174 197 0
171 195 0
171 195 0
173 197 0
174 197 0
172 196 0
172 196 0
174 197 0
173 195 0
174 197 0
173 196 0
174 198 0
173 196 0
171 195 0
174 198 0
173 196 0
171 195 0
174 197 0
174 196 0
176 198 0
172 196 0
172 195 0
174 197 0
173 197 0
173 196 0
175 198 0
171 194 0
177 199 0
173 197 0
172 195 0
173 197 0
173 197 0
173 197 0
172 196 0
174 197 0
174 197 0
171 195 0
175 198 0
172 196 0
176 199 0
173 197 0
173 197 0
173 197 0
174 198 0
172 196 0
175 198 0
175 198 0
174 197 0
173 196 0
174 197 0
175 198 0
175 198 0
174 198 0
175 198 0
174 197 0
173 197 0
175 198 0
173 197 0
173 196 0
173 197 0
176 199 0
174 198 0
173 197 0
173 197 0
174 198 0
174 198 0
173 197 0
175 198 0
174 197 0
175 198 0
174 198 0
173 197 0
175 198 0
175 198 0
175 198 0
175 198 0
172 196 0
175 197 0
173 197 0
173 197 0
175 198 0
173 197 0
172 197 0
172 196 0
175 198 0
175 198 0
175 198 0
174 198 0
175 198 0
176 198 0
175 198 0
175 198 0
176 199 0
175 198 0
175 198 0
175 198 0
174 197 0
175 198 0
173 197 0
175 198 0
175 198 0
176 199 0
175 198 0
173 197 0
174 198 0
174 198 0
174 198 0
176 198 0
172 196 0
173 197 0
174 198 0
174 197 0
172 197 0
173 197 0
174 198 0
175 198 0
175 198 0
175 198 0
174 198 0
173 197 0
175 198 0
175 198 0
175 198 0
174 198 0
173 197 0
174 197 0
174 198 0
175 198 0
175 198 0
175 198 0
175 198 0
174 197 0
174 197 0
175 198 0
174 198 0
175 198 0
176 198 0
172 197 0
174 197 0
177 199 0
173 197 0
173 197 0
176 199 0
177 199 0
174 198 0
175 198 0
174 198 0
175 198 0
175 198 0
176 199 0
174 197 0
174 198 0
174 198 0
175 198 0
175 198 0
174 197 0
173 197 0
173 197 0
174 197 0
174 198 0
172 197 0
175 198 0
176 198 0
175 197 0
174 198 0
173 196 0
174 198 0
175 198 0
173 197 0
174 198 0
173 197 0
174 198 0
175 198 0
173 197 0
174 197 0
174 198 0
175 198 0
175 198 0
173 197 0
174 198 0
176 198 0
173 196 0
174 198 0
175 198 0
173 197 0
175 198 0
172 197 0
173 197 0
174 198 0
173 197 0
174 198 0
174 198 0
174 197 0
175 198 0
173 197 0
175 198 0
175 198 0
172 196 0
172 196 0
174 198 0
174 198 0
174 198 0
175 198 0
174 198 0
175 198 0
174 197 0
171 196 0
173 197 0
175 198 0
175 198 0
173 197 0
174 198 0
172 195 0
173 197 0
175 198 0
173 197 0
175 198 0
175 198 0
175 198 0
173 197 0
174 198 0
174 197 0
173 197 0
173 197 0
175 198 0
175 198 0
174 197 0
174 197 0
172 196 0
175 198 0
173 197 0
175 198 0
174 198 0
174 197 0
173 197 0
173 197 0
174 197 0
175 198 0
174 197 0
173 197 0
174 197 0
174 197 0
175 198 0
173 197 0
175 198 0
174 198 0
172 196 0
176 198 0
172 196 0
173 197 0
173 196 0
173 197 0
173 196 0
173 197 0
172 197 0
174 197 0
175 198 0
172 196 0
174 197 0
173 196 0
171 195 0
174 197 0
174 197 0
175 197 0
174 198 0
174 198 0
172 196 0
172 196 0
173 197 0
174 197 0
175 198 0
173 197 0
175 198 0
174 198 0
174 198 0
172 195 0
174 197 0
170 194 0
173 197 0
173 196 0
171 195 0
172 196 0
174 197 0
173 196 0
174 198 0
172 196 0
174 197 0
174 197 0
172 195 0
173 197 0
173 196 0
170 194 0
173 197 0
173 196 0
173 197 0
173 197 0
171 195 0
172 195 0
172 196 0
174 197 0
173 197 0
171 195 0
172 196 0
169 193 0
173 197 0
172 196 0
170 193 0
174 197 0
175 198 0
171 195 0
170 194 0
168 192 0
170 194 0
172 195 0
169 193 0
172 196 0
172 195 0
173 196 0
174 197 0
172 194 0
172 195 0
171 195 0
171 194 0
173 196 0
170 194 0
175 198 0
173 196 0
170 194 0
170 193 0
171 195 0
175 197 0
172 196 0
170 194 0
170 194 0
172 195 0
172 196 0
173 197 0
173 196 0
171 195 0
172 196 0
173 196 0
172 196 0
170 194 0
169 193 0
171 194 0
169 192 0
171 195 0
171 194 0
174 197 0
172 196 0
173 196 0
171 195 0
171 194 0
170 193 0
169 193 0
171 194 0
171 194 0
175 198 0
171 195 0
174 197 0
174 197 0
169 194 0
171 193 0
174 197 0
174 196 0
172 196 0
172 196 0
174 197 0
171 195 0
173 197 0
171 194 0
173 196 0
169 194 0
174 197 0
170 194 0
174 197 0
173 196 0
171 196 0
172 195 0
169 193 0
172 196 0
174 197 0
172 195 0
171 195 0
174 197 0
173 197 0
174 197 0
173 197 0
174 197 0
173 196 0
174 197 0
171 195 0
172 195 0
173 197 0
174 197 0
174 197 0
172 195 0
172 196 0
172 196 0
175 197 0
175 198 0
175 198 0
172 196 0
170 195 0
173 197 0
174 198 0
171 195 0
170 194 0
174 198 0
174 197 0
172 196 0
174 197 0
175 198 0
173 196 0
173 197 0
172 196 0
173 196 0
173 197 0
174 197 0
173 197 0
174 198 0
173 197 0
174 197 0
174 198 0
174 197 0
174 197 0
174 197 0
175 198 0
173 196 0
175 198 0
173 197 0
174 198 0
174 197 0
174 198 0
173 197 0
173 196 0
175 198 0
172 197 0
175 197 0
175 198 0
172 196 0
171 195 0
173 196 0
175 198 0
173 196 0
175 198 0
174 197 0
174 197 0
173 197 0
172 196 0
174 198 0
175 198 0
175 198 0
174 197 0
173 197 0
172 196 0
175 197 0
172 196 0
175 198 0
172 197 0
173 197 0
173 197 0
174 197 0
174 197 0
173 197 0
173 197 0
174 197 0
174 197 0
175 198 0
175 198 0
174 198 0
175 198 0
175 198 0
173 196 0
174 198 0
175 198 0
175 198 0
174 198 0
175 198 0
174 198 0
174 198 0
173 197 0
175 198 0
174 198 0
173 197 0
174 198 0
174 197 0
174 197 0
175 198 0
174 198 0
174 198 0
174 197 0
175 198 0
175 198 0
175 198 0
174 198 0
173 197 0
175 198 0
174 197 0
173 197 0
174 198 0
173 197 0
173 197 0
173 197 0
176 198 0
175 198 0
174 197 0
174 198 0
174 198 0
175 198 0
175 198 0
175 198 0
175 197 0
173 197 0
175 198 0
172 196 0
174 197 0
175 198 0
175 198 0
175 198 0
173 197 0
175 198 0
174 197 0
175 198 0
174 198 0
174 198 0
176 198 0
173 196 0
175 198 0
173 197 0
174 198 0
175 198 0
175 198 0
174 197 0
174 198 0
175 198 0
172 196 0
173 197 0
175 198 0
176 199 0
176 199 0
176 199 0
176 198 0
174 197 0
176 198 0
176 199 0
174 198 0
175 198 0
175 198 0
176 198 0
174 197 0
174 197 0
174 198 0
175 198 0
175 198 0
175 198 0
174 197 0
174 198 0
176 198 0
175 198 0
175 198 0
176 198 0
175 198 0
174 197 0
172 197 0
175 198 0
174 197 0
175 198 0
175 198 0
174 197 0
174 198 0
175 198 0
174 197 0
174 197 0
174 198 0
174 198 0
175 198 0
174 198 0
175 198 0
176 198 0
174 197 0
174 197 0
174 197 0
173 197 0
173 197 0
172 197 0
174 198 0
173 197 0
176 198 0
176 199 0
172 197 0
174 198 0
174 198 0
175 198 0
174 198 0
174 198 0
175 198 0
176 198 0
175 198 0
175 198 0
175 198 0
174 198 0
173 197 0
172 196 0
174 197 0
174 198 0
174 197 0
174 198 0
175 198 0
175 198 0
174 198 0
175 198 0
173 197 0
174 198 0
174 197 0
173 197 0
174 197 0
174 198 0
174 198 0
173 197 0
175 198 0
174 198 0
173 197 0
174 198 0
174 198 0
174 198 0
173 197 0
175 198 0
174 198 0
172 197 0
175 198 0
173 197 0
174 197 0
174 197 0
173 197 0
174 197 0
173 197 0
175 198 0
173 197 0
174 197 0
173 197 0
173 197 0
174 197 0
174 197 0
170 194 0
173 197 0
173 197 0
172 197 0
175 198 0
174 197 0
173 196 0
173 197 0
174 197 0
172 196 0
174 198 0
174 197 0
174 198 0
174 197 0
175 198 0
175 198 0
173 197 0
172 195 0
174 197 0
174 197 0
170 195 0
172 196 0
174 198 0
173 197 0
173 197 0
172 196 0
173 197 0
172 195 0
173 197 0
173 197 0
172 196 0
174 198 0
172 196 0
175 197 0
173 197 0
172 196 0
174 198 0
172 195 0
172 196 0
172 195 0
173 197 0
173 196 0
173 197 0
175 198 0
171 195 0
172 196 0
173 196 0
174 198 0
174 197 0
173 196 0
174 198 0
170 195 0
172 196 0
172 196 0
173 196 0
173 196 0
171 195 0
174 197 0
170 194 0
173 197 0
173 197 0
173 197 0
172 196 0
172 196 0
169 194 0
172 195 0
171 194 0
171 195 0
173 196 0
170 194 0
174 197 0
173 197 0
170 194 0
171 195 0
168 191 0
173 197 0
170 193 0
172 195 0
169 193 0
172 195 0
171 194 0
173 197 0
171 195 0
172 195 0
169 192 0
175 198 0
171 194 0
168 192 0
171 195 0
171 195 0
171 196 0
172 196 0
169 193 0
173 196 0
169 192 0
170 194 0
175 198 0
172 195 0
173 195 0
171 194 0
174 198 0
171 195 0
169 194 0
173 196 0
172 195 0
171 195 0
172 194 0
174 196 0
173 196 0
175 198 0
172 195 0
172 196 0
172 196 0
172 196 0
170 194 0
173 196 0
173 197 0
176 199 0
174 197 0
170 194 0
172 196 0
173 197 0
174 197 0
173 195 0
173 197 0
174 196 0
173 196 0
174 197 0
171 194 0
170 194 0
172 195 0
172 195 0
173 196 0
173 196 0
174 197 0
171 195 0
174 197 0
171 195 0
172 196 0
172 195 0
170 194 0
174 196 0
171 195 0
172 196 0
173 196 0
173 196 0
173 196 0
174 198 0
174 197 0
172 195 0
171 195 0
175 197 0
174 197 0
172 196 0
172 196 0
173 196 0
173 196 0
172 196 0
173 197 0
173 197 0
172 196 0
175 198 0
172 196 0
173 196 0
172 195 0
172 196 0
173 196 0
172 195 0
173 197 0
173 196 0
173 196 0
174 197 0
171 195 0
171 195 0
173 197 0
173 197 0
174 197 0
172 196 0
172 196 0
175 197 0
174 197 0
172 196 0
173 197 0
174 198 0
173 196 0
174 197 0
174 197 0
177 199 0
174 198 0
175 198 0
172 196 0
174 198 0
175 197 0
173 197 0
174 198 0
172 196 0
172 196 0
174 198 0
174 197 0
173 196 0
174 198 0
174 198 0
175 198 0
174 197 0
174 197 0
173 196 0
174 198 0
176 199 0
172 197 0
174 198 0
173 197 0
173 197 0
175 198 0
174 197 0
175 198 0
175 198 0
173 196 0
175 198 0
176 198 0
173 197 0
174 197 0
176 199 0
174 197 0
174 197 0
175 198 0
175 198 0
174 198 0
175 198 0
174 198 0
174 197 0
173 197 0
174 197 0
174 198 0
174 197 0
172 196 0
174 198 0
175 198 0
175 197 0
174 198 0
173 197 0
174 197 0
175 198 0
174 198 0
174 197 0
175 198 0
174 198 0
173 197 0
173 196 0
172 196 0
174 198 0
175 198 0
174 197 0
173 196 0
172 196 0
174 198 0
173 197 0
175 198 0
174 197 0
175 198 0
174 198 0
176 199 0
175 198 0
174 197 0
173 197 0
173 197 0
173 197 0
174 197 0
173 197 0
174 198 0
175 198 0
175 198 0
173 197 0
174 198 0
174 198 0
173 197 0
174 198 0
173 197 0
174 198 0
174 197 0
173 197 0
176 198 0
174 198 0
174 197 0
174 197 0
175 198 0
174 197 0
174 197 0
175 198 0
174 198 0
174 197 0
175 198 0
176 199 0
176 198 0
174 197 0
175 198 0
174 198 0
174 198 0
173 197 0
174 197 0
174 198 0
173 197 0
173 197 0
175 198 0
174 198 0
175 198 0
175 198 0
174 198 0
175 198 0
175 198 0
172 196 0
175 198 0
174 198 0
172 196 0
175 198 0
175 198 0
173 197 0
173 197 0
175 198 0
172 196 0
174 197 0
175 198 0
173 197 0
175 198 0
175 198 0
175 198 0
174 198 0
172 196 0
175 198 0
176 199 0
176 198 0
173 197 0
173 197 0
173 197 0
175 198 0
173 197 0
172 196 0
175 198 0
174 198 0
174 198 0
174 197 0
174 197 0
174 197 0
173 197 0
172 196 0
174 198 0
175 198 0
174 198 0
175 198 0
174 197 0
173 197 0
175 198 0
175 198 0
174 197 0
174 197 0
173 196 0
173 197 0
177 199 0
173 197 0
174 197 0
172 197 0
175 198 0
175 198 0
174 198 0
174 197 0
174 198 0
175 198 0
175 198 0
174 197 0
175 198 0
174 198 0
174 198 0
170 196 0
175 198 0
174 197 0
174 198 0
173 197 0
175 198 0
176 198 0
173 196 0
174 197 0
176 198 0
175 198 0
174 198 0
176 198 0
174 197 0
173 197 0
174 197 0
175 198 0
174 197 0
175 198 0
173 197 0
175 198 0
175 198 0
174 197 0
174 197 0
171 196 0
174 198 0
171 196 0
174 197 0
174 197 0
174 198 0
173 197 0
173 196 0
174 198 0
174 198 0
172 196 0
174 197 0
173 197 0
174 197 0
173 197 0
176 199 0
173 197 0
175 198 0
174 198 0
174 198 0
175 197 0
175 197 0
174 197 0
175 198 0
173 196 0
172 196 0
173 196 0
173 197 0
173 197 0
174 197 0
172 196 0
173 197 0
172 196 0
171 195 0
174 198 0
173 197 0
175 198 0
174 197 0
174 198 0
175 198 0
173 197 0
175 198 0
173 197 0
174 197 0
173 196 0
173 196 0
173 196 0
174 197 0
174 197 0
172 196 0
174 198 0
172 196 0
173 196 0
173 197 0
173 197 0
173 196 0
173 196 0
171 196 0
172 196 0
172 196 0
172 196 0
173 197 0
173 196 0
171 195 0
175 198 0
170 194 0
175 198 0
173 196 0
172 195 0
173 197 0
173 196 0
173 196 0
173 196 0
172 196 0
172 196 0
172 195 0
174 197 0
174 197 0
173 197 0
172 194 0
169 192 0
171 195 0
173 196 0
170 193 0
173 196 0
169 193 0
169 193 0
172 196 0
172 196 0
170 194 0
172 195 0
172 196 0
172 196 0
171 194 0
175 198 0
174 197 0
171 194 0
172 196 0
173 197 0
173 197 0
171 195 0
173 197 0
172 195 0
171 195 0
171 194 0
174 197 0
174 197 0
174 197 0
171 195 0
173 197 0
170 195 0
172 196 0
171 195 0
171 195 0
173 197 0
173 197 0
173 196 0
171 195 0
175 197 0
172 196 0
173 196 0
173 196 0
169 194 0
172 196 0
171 195 0
171 195 0
172 196 0
174 197 0
172 196 0
173 196 0
171 194 0
174 197 0
173 196 0
173 196 0
173 196 0
173 197 0
173 196 0
172 196 0
173 197 0
173 197 0
174 198 0
172 195 0
172 196 0
172 196 0
173 196 0
174 197 0
175 198 0
171 194 0
173 197 0
172 196 0
174 198 0
172 195 0
172 195 0
173 196 0
172 196 0
172 196 0
173 197 0
172 195 0
172 196 0
173 197 0
172 195 0
174 197 0
174 197 0
171 195 0
172 195 0
171 195 0
175 198 0
173 197 0
171 195 0
175 198 0
172 196 0
174 197 0
173 197 0
171 195 0
172 195 0
172 196 0
174 197 0
174 198 0
173 197 0
174 197 0
173 197 0
171 195 0
173 196 0
172 196 0
174 198 0
172 196 0
174 197 0
174 197 0
174 197 0
171 195 0
174 196 0
174 196 0
173 197 0
173 196 0
175 198 0
174 197 0
172 196 0
173 197 0
172 196 0
173 197 0
174 197 0
174 197 0
172 195 0
176 199 0
175 198 0
175 198 0
174 197 0
175 198 0
173 196 0
176 199 0
175 198 0
174 198 0
174 198 0
174 197 0
174 197 0
173 197 0
174 197 0
174 197 0
173 197 0
173 197 0
174 197 0
175 198 0
175 198 0
174 198 0
175 198 0
174 197 0
172 196 0
172 196 0
173 197 0
174 198 0
175 198 0
174 198 0
174 197 0
174 198 0
173 196 0
174 197 0
174 197 0
173 197 0
175 198 0
172 196 0
174 197 0
174 197 0
175 198 0
173 197 0
175 198 0
174 197 0
174 198 0
175 198 0
173 197 0
173 197 0
173 197 0
173 196 0
174 198 0
175 198 0
172 197 0
174 197 0
173 197 0
174 197 0
173 196 0
174 198 0
176 198 0
174 197 0
174 197 0
174 197 0
173 197 0
176 199 0
175 198 0
173 197 0
171 195 0
174 197 0
174 198 0
173 197 0
175 198 0
174 198 0
175 198 0
173 197 0
174 198 0
173 197 0
173 197 0
174 198 0
175 198 0
173 197 0
173 196 0
172 196 0
173 197 0
175 198 0
174 198 0
173 197 0
175 198 0
175 198 0
174 198 0
175 198 0
174 198 0
175 198 0
175 198 0
173 197 0
175 198 0
174 197 0
172 197 0
174 197 0
174 198 0
174 197 0
174 197 0
175 198 0
175 198 0
174 198 0
174 198 0
175 198 0
173 197 0
175 198 0
175 198 0
175 198 0
174 197 0
175 198 0
174 198 0
175 198 0
175 198 0
174 197 0
174 198 0
175 198 0
173 197 0
174 198 0
176 199 0
173 197 0
175 198 0
173 197 0
174 198 0
174 197 0
174 198 0
175 198 0
175 198 0
174 197 0
174 198 0
175 198 0
175 198 0
173 197 0
174 197 0
174 198 0
175 198 0
174 198 0
175 198 0
173 197 0
174 198 0
173 197 0
175 198 0
178 200 0
173 197 0
175 198 0
173 197 0
174 197 0
173 197 0
174 197 0
175 198 0
176 199 0
176 198 0
176 198 0
175 198 0
173 197 0
175 198 0
174 197 0
174 198 0
173 197 0
174 198 0
173 197 0
174 198 0
173 197 0
174 198 0
175 198 0
174 197 0
174 197 0
176 198 0
174 198 0
172 197 0
175 198 0
173 197 0
174 198 0
176 198 0
173 197 0
175 198 0
176 199 0
175 198 0
173 196 0
175 198 0
173 197 0
174 198 0
173 197 0
173 197 0
174 198 0
176 198 0
174 197 0
174 198 0
173 197 0
174 198 0
176 199 0
175 198 0
175 198 0
174 198 0
174 197 0
173 197 0
175 198 0
175 198 0
173 197 0
173 196 0
173 197 0
172 196 0
175 198 0
174 197 0
176 199 0
173 197 0
172 196 0
172 196 0
173 197 0
174 197 0
172 196 0
174 198 0
172 196 0
174 198 0
173 197 0
174 198 0
174 197 0
174 197 0
173 196 0
174 198 0
173 196 0
173 197 0
174 197 0
171 195 0
173 196 0
173 197 0
173 196 0
173 197 0
173 196 0
173 197 0
173 197 0
173 197 0
173 197 0
174 197 0
173 196 0
171 195 0
174 197 0
174 198 0
172 196 0
173 196 0
172 196 0
170 194 0
173 196 0
173 196 0
173 197 0
172 197 0
173 197 0
174 198 0
174 198 0
170 194 0
174 197 0
170 194 0
172 195 0
169 194 0
172 196 0
172 196 0
174 197 0
172 196 0
172 196 0
171 195 0
172 194 0
174 197 0
172 196 0
170 193 0
171 194 0
174 197 0
174 197 0
174 198 0
168 191 0
173 197 0
171 194 0
172 195 0
174 198 0
173 196 0
173 197 0
171 195 0
174 197 0
173 196 0
170 193 0
171 194 0
173 196 0
173 196 0
172 195 0
172 195 0
173 196 0
174 198 0
173 196 0
171 194 0
173 196 0
172 195 0
173 197 0
174 197 0
172 196 0
173 196 0
173 196 0
173 196 0
172 195 0
172 195 0
171 196 0
173 197 0
174 197 0
168 191 0
173 197 0
172 195 0
173 197 0
170 194 0
175 198 0
173 197 0
173 196 0
171 194 0
171 195 0
175 198 0
173 197 0
174 197 0
173 197 0
174 197 0
173 196 0
172 195 0
174 198 0
171 195 0
172 196 0
170 194 0
175 198 0
173 196 0
171 195 0
173 197 0
169 193 0
172 195 0
173 196 0
171 194 0
175 198 0
174 196 0
172 195 0
173 196 0
172 196 0
173 197 0
174 197 0
173 196 0
177 199 0
173 196 0
171 194 0
173 197 0
171 195 0
173 197 0
172 195 0
173 196 0
173 197 0
173 196 0
174 197 0
171 194 0
173 197 0
172 195 0
173 196 0
172 196 0
172 196 0
171 194 0
172 195 0
173 197 0
173 197 0
174 197 0
173 196 0
174 197 0
173 196 0
174 197 0
175 198 0
172 196 0
172 196 0
175 198 0
171 195 0
172 196 0
174 197 0
173 197 0
172 196 0
174 198 0
173 197 0
175 198 0
173 197 0
174 197 0
175 198 0
174 197 0
173 196 0
173 197 0
175 198 0
173 196 0
174 197 0
174 197 0
173 197 0
175 198 0
174 198 0
175 198 0
174 197 0
175 198 0
173 196 0
175 198 0
173 196 0
173 197 0
175 198 0
173 197 0
173 196 0
172 196 0
173 196 0
174 197 0
172 196 0
174 197 0
174 197 0
173 197 0
172 196 0
174 197 0
176 198 0
174 198 0
174 198 0
175 198 0
175 198 0
173 197 0
174 197 0
173 197 0
174 198 0
173 197 0
173 196 0
174 197 0
173 197 0
174 198 0
173 197 0
173 197 0
173 197 0
174 198 0
173 197 0
175 197 0
174 197 0
173 196 0
172 196 0
175 198 0
172 197 0
174 197 0
173 197 0
175 198 0
174 198 0
175 197 0
174 197 0
174 197 0
175 197 0
172 196 0
175 198 0
175 198 0
172 196 0
175 198 0
174 198 0
174 198 0
175 198 0
173 196 0
175 198 0
174 198 0
175 198 0
175 198 0
173 197 0
174 197 0
175 198 0
174 198 0
175 198 0
174 198 0
174 198 0
174 197 0
175 198 0
174 198 0
173 197 0
175 198 0
175 198 0
176 199 0
175 198 0
174 197 0
175 198 0
174 198 0
175 198 0
173 197 0
173 197 0
174 197 0
174 198 0
173 197 0
174 198 0
175 198 0
175 198 0
173 197 0
174 198 0
175 198 0
172 196 0
174 198 0
175 198 0
174 198 0
174 197 0
173 197 0
172 196 0
174 198 0
173 197 0
174 198 0
173 197 0
174 198 0
174 198 0
174 198 0
172 195 0
174 198 0
173 197 0
174 198 0
175 198 0
174 198 0
175 198 0
174 197 0
175 198 0
173 197 0
174 198 0
173 197 0
173 197 0
174 197 0
176 198 0
173 197 0
173 196 0
175 198 0
174 198 0
174 197 0
175 198 0
173 197 0
174 197 0
173 197 0
173 197 0
176 198 0
175 198 0
175 198 0
174 198 0
175 198 0
176 198 0
174 197 0
173 196 0
174 198 0
175 198 0
173 197 0
173 196 0
174 198 0
176 198 0
174 197 0
175 198 0
173 197 0
173 197 0
174 198 0
174 198 0
173 196 0
175 198 0
175 198 0
174 198 0
173 197 0
174 198 0
174 197 0
172 196 0
174 198 0
174 198 0
173 196 0
175 198 0
173 197 0
175 198 0
174 197 0
175 198 0
176 199 0
175 198 0
173 197 0
174 198 0
175 198 0
174 198 0
175 198 0
173 197 0
174 197 0
175 198 0
176 198 0
174 197 0
173 197 0
173 197 0
175 198 0
174 198 0
174 197 0
176 198 0
175 198 0
173 197 0
174 198 0
174 197 0
174 198 0
174 198 0
173 197 0
173 197 0
173 197 0
175 198 0
174 198 0
175 198 0
174 198 0
174 197 0
174 198 0
174 198 0
174 198 0
174 198 0
174 198 0
173 197 0
175 198 0
173 197 0
174 198 0
174 197 0
173 197 0
174 198 0
172 196 0
173 197 0
173 197 0
174 197 0
171 195 0
173 197 0
173 197 0
172 196 0
172 196 0
173 197 0
174 197 0
174 197 0
174 197 0
174 197 0
175 198 0
175 198 0
174 197 0
174 198 0
174 198 0
174 198 0
173 197 0
173 196 0
174 197 0
172 196 0
174 198 0
175 198 0
174 197 0
175 198 0
174 197 0
173 196 0
173 196 0
171 195 0
174 198 0
174 198 0
175 198 0
174 197 0
174 198 0
172 195 0
172 196 0
173 197 0
173 197 0
172 196 0
174 198 0
173 197 0
173 196 0
174 197 0
172 196 0
173 197 0
174 197 0
173 197 0
173 197 0
172 196 0
171 195 0
174 197 0
171 195 0
172 196 0
171 195 0
174 197 0
169 193 0
170 194 0
173 196 0
172 196 0
175 198 0
172 196 0
171 195 0
170 194 0
170 194 0
171 194 0
172 194 0
174 197 0
174 197 0
173 196 0
171 195 0
170 194 0
174 197 0
172 195 0
172 196 0
173 196 0
173 196 0
173 196 0
173 197 0
170 194 0
171 195 0
174 197 0
167 191 0
172 196 0
171 195 0
174 197 0
170 193 0
170 193 0
173 197 0
169 194 0
171 195 0
174 197 0
173 196 0
172 196 0
171 195 0
173 197 0
174 197 0
175 198 0
170 195 0
172 196 0
172 195 0
172 196 0
169 193 0
173 196 0
172 196 0
172 195 0
172 196 0
173 196 0
170 193 0
173 196 0
172 196 0
172 196 0
172 196 0
172 195 0
171 195 0
172 196 0
173 196 0
174 197 0
173 196 0
174 197 0
170 193 0
171 195 0
171 195 0
174 196 0
172 196 0
173 197 0
172 196 0
172 196 0
171 194 0
173 196 0
172 196 0
171 196 0
172 196 0
172 196 0
174 197 0
173 196 0
172 196 0
174 197 0
172 196 0
170 194 0
174 197 0
172 196 0
173 197 0
174 197 0
172 196 0
174 197 0
171 195 0
174 197 0
176 198 0
174 198 0
174 198 0
173 196 0
173 197 0
173 196 0
173 197 0
173 197 0
172 196 0
173 196 0
174 197 0
174 197 0
173 197 0
174 197 0
173 197 0
174 197 0
174 197 0
174 198 0
175 198 0
171 195 0
173 197 0
172 196 0
172 195 0
173 196 0
174 197 0
174 197 0
174 197 0
172 196 0
174 197 0
171 196 0
173 196 0
174 197 0
174 198 0
175 198 0
176 198 0
174 197 0
172 196 0
172 196 0
174 198 0
175 198 0
174 197 0
174 197 0
174 198 0
173 197 0
173 197 0
175 198 0
174 197 0
175 198 0
174 198 0
172 196 0
175 198 0
173 197 0
173 196 0
174 197 0
174 198 0
175 198 0
174 198 0
173 197 0
174 197 0
175 198 0
176 199 0
174 198 0
174 197 0
172 196 0
174 198 0
173 197 0
172 196 0
174 197 0
174 197 0
173 196 0
174 198 0
173 197 0
175 197 0
173 197 0
174 197 0
173 197 0
174 198 0
174 197 0
174 196 0
175 198 0
174 198 0
174 197 0
175 198 0
174 198 0
173 197 0
173 197 0
174 197 0
173 197 0
174 197 0
173 196 0
175 198 0
174 197 0
175 198 0
175 198 0
174 197 0
173 197 0
174 197 0
175 198 0
174 198 0
174 198 0
173 197 0
176 198 0
174 197 0
176 199 0
174 198 0
177 199 0
173 197 0
173 197 0
173 197 0
172 196 0
175 198 0
173 197 0
174 198 0
175 198 0
174 197 0
173 197 0
175 198 0
175 198 0
173 197 0
174 197 0
174 197 0
173 197 0
174 198 0
175 198 0
175 198 0
174 198 0
173 197 0
175 198 0
175 198 0
174 197 0
175 198 0
175 198 0
174 198 0
175 198 0
175 198 0
174 198 0
174 198 0
175 198 0
175 198 0
173 197 0
176 199 0
172 197 0
173 197 0
175 198 0
176 198 0
175 198 0
174 197 0
174 197 0
175 198 0
174 198 0
174 197 0
175 198 0
175 198 0
174 198 0
174 197 0
174 197 0
173 197 0
174 198 0
175 198 0
173 197 0
174 197 0
174 198 0
176 199 0
173 197 0
174 198 0
174 198 0
174 198 0
173 197 0
175 198 0
174 198 0
173 197 0
174 197 0
176 199 0
173 196 0
174 197 0
174 198 0
175 198 0
173 197 0
172 196 0
173 197 0
174 197 0
175 198 0
173 197 0
176 199 0
173 197 0
173 197 0
173 197 0
173 196 0
175 198 0
173 196 0
173 197 0
174 198 0
176 199 0
176 199 0
174 198 0
172 196 0
174 197 0
172 197 0
174 197 0
173 197 0
174 198 0
175 198 0
173 197 0
175 198 0
176 199 0
174 198 0
174 198 0
174 198 0
174 197 0
175 198 0
174 198 0
176 199 0
173 197 0
174 197 0
174 197 0
171 195 0
176 199 0
174 198 0
175 198 0
172 196 0
173 196 0
175 198 0
173 197 0
176 198 0
173 197 0
175 198 0
175 198 0
173 197 0
175 198 0
175 197 0
172 197 0
175 198 0
174 197 0
175 198 0
171 196 0
174 197 0
172 196 0
173 197 0
174 198 0
174 197 0
174 197 0
175 198 0
176 199 0
174 198 0
172 196 0
174 198 0
175 198 0
174 198 0
173 196 0
172 196 0
174 197 0
174 198 0
172 196 0
173 196 0
172 196 0
174 197 0
173 197 0
174 198 0
173 196 0
173 197 0
174 197 0
176 199 0
173 197 0
174 197 0
174 197 0
170 194 0
173 197 0
173 197 0
173 196 0
170 195 0
173 197 0
173 197 0
174 198 0
176 198 0
172 196 0
174 197 0
174 197 0
175 198 0
173 197 0
174 197 0
174 197 0
172 196 0
173 197 0
174 198 0
172 196 0
174 197 0
173 197 0
174 198 0
172 196 0
174 198 0
173 196 0
172 196 0
173 197 0
172 195 0
174 198 0
176 198 0
174 198 0
172 196 0
174 197 0
173 196 0
175 198 0
173 197 0
172 196 0
174 197 0
172 196 0
173 197 0
174 197 0
173 197 0
173 197 0
172 195 0
173 197 0
172 195 0
173 197 0
172 196 0
171 194 0
167 191 0
174 197 0
170 194 0
172 195 0
171 195 0
174 197 0
171 194 0
173 197 0
174 197 0
175 198 0
173 197 0
173 197 0
170 194 0
172 196 0
169 193 0
171 195 0
175 198 0
172 196 0
175 198 0
173 196 0
174 197 0
171 195 0
170 195 0
173 196 0
170 194 0
174 197 0
172 196 0
172 196 0
171 194 0
172 196 0
172 196 0
172 195 0
174 197 0
169 193 0
176 198 0
175 198 0
171 195 0
171 194 0
171 195 0
169 193 0
171 194 0
172 196 0
174 198 0
173 196 0
175 198 0
171 194 0
170 194 0
173 197 0
172 196 0
172 195 0
172 196 0
173 197 0
174 198 0
173 196 0
173 196 0
173 196 0
172 195 0
173 196 0
175 198 0
172 195 0
172 195 0
170 194 0
174 198 0
172 195 0
172 196 0
173 196 0
173 196 0
173 196 0
170 193 0
174 196 0
174 198 0
175 198 0
173 196 0
174 198 0
175 198 0
171 195 0
173 196 0
172 196 0
175 198 0
173 197 0
173 196 0
172 195 0
173 195 0
173 196 0
174 197 0
173 196 0
171 194 0
172 196 0
174 197 0
174 198 0
174 198 0
172 196 0
173 196 0
172 195 0
169 193 0
174 198 0
172 195 0
173 197 0
174 196 0
175 198 0
173 196 0
174 198 0
172 195 0
174 197 0
175 197 0
173 196 0
171 195 0
175 198 0
174 197 0
171 195 0
175 197 0
173 197 0
171 195 0
174 198 0
173 197 0
175 198 0
173 196 0
174 197 0
174 197 0
173 197 0
174 197 0
174 198 0
174 197 0
174 197 0
175 198 0
174 197 0
174 198 0
173 196 0
173 197 0
174 198 0
174 197 0
174 198 0
175 198 0
174 197 0
174 197 0
174 197 0
174 198 0
174 197 0
174 198 0
175 198 0
173 197 0
174 197 0
172 196 0
175 198 0
174 197 0
175 198 0
174 198 0
174 197 0
173 196 0
174 197 0
173 197 0
174 197 0
175 198 0
173 197 0
175 198 0
175 198 0
175 198 0
174 197 0
173 197 0
176 199 0
173 197 0
174 198 0
174 198 0
173 197 0
173 196 0
173 197 0
174 198 0
173 196 0
176 198 0
172 196 0
174 198 0
176 198 0
174 198 0
175 198 0
174 197 0
174 197 0
175 198 0
174 197 0
173 196 0
173 197 0
174 198 0
174 197 0
173 197 0
173 197 0
175 198 0
172 196 0
175 198 0
174 198 0
174 198 0
173 197 0
174 198 0
175 198 0
175 198 0
173 197 0
174 197 0
174 198 0
175 198 0
173 197 0
175 198 0
175 198 0
175 198 0
172 196 0
173 197 0
175 198 0
175 198 0
173 197 0
173 197 0
175 198 0
174 197 0
174 197 0
175 198 0
174 198 0
175 198 0
174 197 0
174 197 0
174 198 0
173 197 0
175 198 0
175 198 0
173 197 0
175 198 0
175 198 0
173 197 0
175 198 0
174 197 0
175 198 0
173 196 0
174 197 0
174 198 0
174 198 0
175 198 0
175 198 0
175 198 0
175 198 0
174 197 0
173 197 0
174 197 0
174 198 0
174 197 0
173 197 0
176 199 0
174 197 0
175 198 0
173 197 0
173 197 0
177 199 0
176 199 0
175 198 0
174 198 0
174 198 0
175 198 0
174 198 0
175 198 0
175 198 0
174 198 0
175 198 0
172 196 0
175 198 0
174 198 0
174 197 0
174 197 0
174 197 0
174 197 0
173 197 0
173 197 0
173 197 0
175 198 0
174 198 0
177 199 0
175 198 0
174 197 0
173 197 0
172 197 0
173 197 0
174 198 0
175 198 0
173 197 0
174 198 0
174 198 0
174 197 0
175 198 0
174 198 0
174 198 0
175 198 0
173 197 0
174 198 0
175 198 0
174 197 0
175 198 0
174 197 0
176 198 0
171 195 0
174 198 0
174 198 0
175 198 0
174 198 0
173 197 0
174 198 0
174 198 0
173 197 0
174 198 0
173 197 0
173 197 0
175 198 0
174 197 0
174 198 0
174 198 0
174 197 0
174 198 0
175 198 0
175 198 0
173 197 0
173 197 0
175 197 0
173 197 0
174 197 0
175 198 0
174 198 0
174 198 0
174 197 0
173 197 0
174 198 0
174 197 0
173 197 0
175 198 0
175 197 0
175 198 0
176 198 0
174 198 0
174 197 0
176 199 0
174 198 0
175 198 0
174 197 0
175 198 0
174 197 0
172 196 0
174 197 0
176 198 0
175 198 0
175 198 0
173 196 0
175 198 0
174 197 0
174 197 0
174 197 0
173 197 0
176 198 0
174 197 0
172 196 0
176 198 0
174 197 0
174 197 0
173 197 0
173 197 0
174 198 0
173 197 0
174 197 0
173 196 0
174 197 0
174 197 0
172 196 0
174 197 0
174 197 0
174 197 0
174 197 0
175 198 0
175 198 0
172 195 0
174 198 0
174 197 0
173 197 0
174 198 0
175 198 0
174 196 0
173 197 0
173 197 0
172 197 0
174 197 0
169 193 0
174 197 0
176 199 0
172 196 0
173 197 0
173 196 0
169 193 0
174 198 0
172 195 0
174 197 0
173 196 0
174 197 0
170 194 0
172 196 0
172 195 0
172 197 0
171 195 0
172 196 0
172 195 0
172 196 0
173 196 0
169 194 0
174 197 0
174 197 0
172 196 0
171 195 0
174 197 0
172 195 0
173 197 0
171 194 0
173 197 0
172 196 0
175 198 0
169 193 0
173 197 0
170 194 0
174 197 0
170 193 0
173 197 0
172 195 0
172 196 0
170 195 0
172 196 0
173 196 0
172 195 0
170 193 0
174 197 0
173 196 0
172 195 0
171 194 0
172 196 0
170 194 0
173 196 0
170 194 0
173 196 0
168 193 0
174 197 0
172 195 0
172 196 0
172 195 0
171 195 0
175 197 0
171 195 0
170 194 0
173 196 0
172 196 0
173 196 0
169 193 0
173 196 0
172 196 0
171 194 0
171 194 0
174 198 0
173 196 0
172 196 0
174 197 0
173 196 0
173 196 0
172 196 0
172 196 0
170 194 0
172 195 0
174 197 0
173 197 0
173 196 0
172 196 0
174 197 0
172 195 0
172 196 0
176 199 0
174 198 0
173 197 0
175 198 0
174 197 0
173 196 0
172 196 0
174 198 0
173 197 0
169 193 0
173 196 0
173 197 0
174 197 0
173 195 0
173 196 0
173 197 0
173 196 0
175 198 0
175 198 0
175 198 0
172 195 0
168 192 0
172 196 0
172 195 0
172 196 0
174 198 0
171 195 0
174 197 0
173 197 0
174 197 0
175 197 0
173 197 0
173 196 0
173 196 0
174 197 0
173 197 0
174 197 0
172 195 0
171 195 0
175 198 0
173 196 0
173 196 0
174 198 0
175 198 0
174 198 0
172 196 0
174 197 0
176 199 0
174 197 0
175 198 0
175 198 0
173 196 0
173 197 0
172 196 0
174 198 0
172 195 0
175 198 0
173 197 0
173 197 0
175 198 0
174 197 0
174 197 0
173 197 0
174 197 0
174 197 0
174 197 0
173 197 0
175 198 0
174 197 0
173 197 0
175 197 0
174 197 0
176 199 0
173 197 0
174 198 0
173 197 0
173 196 0
172 196 0
176 199 0
173 196 0
173 197 0
174 197 0
171 194 0
173 197 0
175 198 0
173 197 0
173 197 0
173 197 0
174 197 0
174 197 0
173 197 0
174 198 0
173 196 0
173 197 0
173 197 0
174 198 0
175 198 0
174 198 0
174 197 0
174 198 0
173 197 0
173 197 0
176 198 0
174 197 0
173 196 0
174 197 0
174 198 0
174 197 0
173 197 0
174 197 0
174 197 0
176 199 0
174 198 0
173 197 0
173 197 0
173 197 0
174 197 0
173 196 0
174 197 0
175 198 0
174 198 0
175 198 0
174 197 0
175 198 0
173 197 0
175 198 0
176 198 0
173 197 0
173 197 0
174 198 0
175 198 0
175 198 0
175 198 0
173 196 0
174 197 0
175 198 0
174 197 0
175 198 0
174 198 0
175 198 0
176 198 0
175 198 0
176 198 0
173 197 0
174 198 0
175 198 0
175 198 0
173 197 0
174 197 0
174 198 0
173 197 0
176 199 0
175 198 0
173 197 0
175 198 0
174 198 0
174 198 0
175 198 0
174 198 0
174 198 0
175 198 0
174 198 0
174 198 0
176 198 0
174 198 0
174 198 0
175 198 0
175 198 0
174 198 0
174 198 0
172 196 0
175 198 0
175 198 0
174 198 0
175 198 0
175 198 0
174 198 0
176 199 0
176 198 0
174 198 0
176 199 0
174 198 0
174 198 0
172 196 0
176 199 0
174 198 0
175 198 0
173 197 0
174 197 0
176 198 0
174 198 0
174 198 0
173 197 0
173 197 0
174 197 0
172 197 0
174 198 0
174 197 0
175 198 0
174 198 0
176 198 0
175 198 0
174 197 0
172 197 0
173 197 0
173 197 0
175 198 0
175 198 0
175 198 0
174 197 0
174 197 0
173 197 0
173 197 0
176 198 0
174 197 0
175 198 0
174 198 0
174 198 0
174 198 0
171 196 0
174 198 0
175 198 0
175 198 0
174 197 0
175 198 0
174 198 0
175 198 0
174 198 0
175 198 0
174 197 0
174 198 0
175 198 0
174 198 0
174 197 0
174 197 0
174 198 0
175 198 0
175 198 0
174 197 0
175 198 0
173 197 0
174 198 0
176 199 0
174 197 0
174 198 0
173 196 0
173 197 0
174 197 0
174 198 0
174 197 0
173 196 0
174 198 0
172 197 0
174 198 0
174 198 0
174 197 0
174 197 0
173 197 0
175 197 0
175 198 0
173 197 0
175 198 0
176 199 0
176 199 0
174 198 0
174 197 0
172 196 0
174 198 0
172 196 0
174 197 0
174 197 0
174 197 0
173 197 0
172 196 0
174 198 0
175 198 0
173 197 0
174 198 0
175 197 0
174 197 0
173 197 0
174 198 0
174 198 0
172 196 0
174 197 0
174 197 0
173 196 0
174 198 0
171 195 0
173 196 0
174 198 0
173 197 0
174 197 0
175 198 0
174 198 0
174 197 0
172 197 0
172 196 0
175 198 0
171 195 0
175 198 0
174 198 0
175 198 0
175 198 0
174 197 0
174 198 0
173 196 0
174 198 0
175 198 0
173 197 0
172 196 0
174 197 0
175 198 0
173 196 0
173 197 0
172 195 0
172 196 0
174 198 0
173 197 0
170 194 0
174 197 0
172 195 0
173 197 0
172 195 0
174 197 0
172 195 0
171 195 0
172 196 0
173 196 0
174 197 0
174 197 0
174 197 0
173 197 0
172 195 0
175 198 0
173 196 0
174 197 0
173 197 0
172 196 0
174 197 0
173 196 0
175 198 0
173 196 0
175 198 0
172 196 0
171 195 0
172 196 0
172 195 0
170 193 0
173 197 0
171 195 0
173 197 0
172 195 0
172 196 0
169 193 0
170 194 0
172 195 0
172 195 0
168 191 0
173 197 0
171 194 0
170 195 0
171 194 0
168 193 0
174 197 0
175 198 0
173 197 0
173 196 0
173 196 0
174 197 0
173 196 0
172 196 0
172 195 0
172 196 0
172 195 0
170 194 0
173 197 0
173 196 0
171 195 0
174 197 0
174 197 0
174 197 0
174 197 0
174 198 0
174 196 0
174 197 0
173 197 0
172 196 0
172 196 0
174 197 0
171 195 0
175 198 0
172 196 0
173 197 0
174 197 0
172 196 0
172 196 0
173 197 0
174 197 0
171 193 0
172 195 0
174 196 0
171 194 0
174 197 0
171 195 0
172 195 0
173 196 0
172 196 0
174 197 0
173 197 0
171 195 0
172 196 0
174 197 0
172 196 0
172 195 0
172 195 0
174 197 0
173 197 0
175 198 0
174 197 0
172 196 0
175 198 0
174 197 0
175 198 0
174 197 0
175 198 0
172 196 0
174 197 0
170 194 0
174 197 0
175 198 0
174 197 0
175 197 0
174 197 0
174 198 0
173 197 0
175 198 0
170 194 0
175 198 0
173 196 0
173 196 0
173 197 0
174 197 0
174 197 0
173 197 0
172 196 0
172 196 0
172 196 0
173 197 0
174 197 0
172 196 0
172 196 0
174 197 0
172 196 0
173 196 0
174 198 0
173 197 0
174 197 0
173 197 0
172 197 0
174 198 0
172 196 0
173 197 0
173 196 0
175 198 0
175 198 0
173 196 0
174 197 0
173 197 0
174 196 0
176 198 0
173 197 0
171 195 0
175 198 0
173 197 0
176 198 0
175 198 0
173 196 0
174 198 0
174 197 0
171 196 0
173 196 0
175 198 0
174 197 0
173 197 0
174 198 0
173 197 0
175 198 0
172 196 0
175 198 0
173 196 0
174 197 0
172 196 0
173 197 0
174 198 0
174 198 0
176 199 0
175 198 0
174 198 0
174 197 0
176 199 0
175 197 0
175 198 0
175 198 0
173 196 0
175 198 0
175 198 0
173 197 0
173 197 0
175 198 0
174 197 0
173 196 0
175 198 0
173 197 0
174 197 0
175 198 0
173 197 0
175 198 0
175 198 0
175 198 0
175 198 0
174 197 0
173 197 0
175 198 0
175 198 0
174 198 0
176 198 0
174 197 0
175 198 0
173 197 0
176 198 0
174 197 0
174 197 0
174 198 0
172 196 0
173 197 0
173 197 0
174 197 0
174 197 0
174 198 0
174 198 0
172 196 0
175 198 0
175 198 0
174 198 0
173 197 0
174 197 0
174 197 0
174 198 0
173 197 0
174 197 0
174 197 0
175 198 0
175 198 0
174 198 0
175 198 0
175 198 0
175 198 0
174 198 0
175 198 0
176 198 0
174 198 0
173 197 0
175 198 0
176 199 0
174 197 0
177 199 0
174 198 0
174 198 0
174 198 0
174 197 0
174 197 0
176 199 0
176 199 0
174 198 0
174 198 0
176 199 0
175 198 0
173 197 0
175 198 0
176 198 0
174 198 0
175 198 0
174 197 0
175 198 0
173 197 0
175 198 0
175 198 0
175 198 0
174 197 0
175 198 0
176 198 0
174 197 0
175 198 0
175 198 0
175 198 0
175 198 0
174 198 0
175 198 0
174 197 0
175 198 0
174 197 0
175 198 0
176 199 0
174 197 0
174 198 0
176 198 0
175 198 0
176 199 0
173 197 0
174 197 0
174 197 0
174 198 0
173 197 0
174 198 0
173 196 0
173 197 0
174 198 0
176 198 0
175 198 0
174 197 0
176 198 0
174 198 0
174 198 0
172 197 0
174 198 0
173 197 0
176 198 0
175 198 0
175 198 0
171 196 0
174 197 0
174 197 0
175 198 0
175 198 0
175 198 0
175 198 0
176 198 0
175 198 0
172 196 0
173 196 0
173 197 0
173 196 0
174 198 0
174 197 0
173 197 0
172 196 0
174 197 0
174 198 0
170 195 0
174 198 0
175 198 0
176 199 0
175 198 0
174 198 0
173 197 0
173 197 0
174 198 0
175 198 0
174 198 0
174 198 0
175 198 0
174 197 0
173 197 0
173 197 0
174 198 0
175 198 0
173 197 0
173 197 0
176 199 0
174 198 0
173 196 0
175 198 0
173 197 0
174 198 0
172 196 0
174 197 0
173 197 0
175 198 0
172 196 0
174 198 0
175 198 0
172 196 0
172 196 0
172 195 0
173 197 0
174 197 0
175 198 0
172 196 0
172 196 0
173 197 0
173 196 0
176 199 0
174 197 0
174 197 0
173 197 0
175 198 0
174 198 0
174 197 0
173 197 0
173 196 0
174 197 0
174 198 0
175 198 0
173 197 0
171 195 0
175 198 0
173 197 0
172 196 0
172 196 0
171 194 0
175 198 0
175 198 0
173 197 0
173 196 0
172 196 0
173 196 0
172 196 0
174 197 0
172 196 0
175 198 0
172 196 0
173 197 0
170 194 0
170 193 0
174 197 0
173 197 0
170 195 0
172 196 0
174 197 0
173 196 0
172 196 0
172 196 0
174 197 0
175 198 0
170 193 0
173 196 0
173 196 0
170 194 0
173 196 0
171 195 0
173 196 0
172 196 0
170 194 0
173 196 0
170 194 0
173 197 0
172 195 0
174 197 0
174 197 0
174 198 0
172 195 0
171 195 0
174 197 0
170 193 0
172 196 0
171 195 0
171 195 0
174 197 0
172 196 0
171 195 0
170 194 0
172 196 0
171 195 0
173 196 0
172 194 0
173 196 0
173 196 0
170 194 0
173 196 0
172 196 0
171 195 0
172 196 0
171 195 0
172 195 0
173 197 0
173 196 0
173 197 0
172 195 0
173 196 0
173 197 0
171 194 0
175 198 0
170 194 0
172 196 0
168 191 0
172 196 0
172 196 0
174 198 0
171 195 0
169 194 0
171 194 0
173 196 0
173 197 0
174 197 0
173 196 0
174 198 0
171 195 0
172 196 0
172 196 0
169 193 0
172 196 0
174 197 0
173 197 0
172 196 0
172 196 0
175 198 0
173 196 0
174 197 0
171 194 0
175 198 0
175 197 0
174 197 0
173 196 0
176 199 0
172 196 0
172 196 0
173 197 0
174 198 0
172 196 0
171 195 0
174 197 0
173 197 0
175 198 0
173 196 0
174 198 0
174 197 0
172 195 0
172 196 0
174 197 0
173 197 0
173 196 0
173 197 0
173 197 0
175 198 0
175 198 0
171 195 0
173 197 0
173 195 0
173 197 0
173 197 0
172 197 0
173 197 0
173 196 0
173 196 0
173 196 0
173 196 0
172 197 0
174 198 0
176 198 0
176 198 0
172 195 0
174 197 0
173 197 0
175 198 0
174 198 0
173 197 0
174 197 0
174 197 0
174 198 0
173 197 0
172 196 0
173 197 0
174 197 0
175 198 0
174 198 0
175 198 0
174 198 0
171 194 0
172 195 0
174 197 0
174 197 0
173 197 0
176 198 0
174 197 0
173 197 0
172 196 0
174 197 0
175 198 0
173 196 0
173 197 0
173 196 0
174 198 0
175 198 0
174 197 0
172 197 0
175 198 0
175 198 0
174 198 0
174 197 0
174 198 0
175 198 0
174 197 0
172 196 0
172 195 0
175 198 0
174 197 0
176 198 0
174 198 0
174 198 0
175 198 0
174 198 0
174 198 0
176 199 0
175 198 0
174 198 0
175 198 0
173 197 0
173 197 0
176 199 0
175 198 0
172 196 0
173 197 0
173 197 0
175 198 0
174 197 0
175 198 0
173 197 0
176 199 0
172 196 0
175 198 0
175 198 0
174 197 0
174 198 0
174 197 0
174 198 0
173 197 0
174 198 0
176 198 0
174 197 0
174 197 0
172 196 0
173 197 0
174 198 0
173 196 0
177 199 0
175 198 0
173 197 0
174 197 0
176 199 0
175 198 0
173 196 0
174 197 0
173 197 0
174 198 0
174 197 0
175 198 0
174 198 0
173 197 0
173 196 0
176 198 0
172 197 0
175 198 0
174 197 0
175 198 0
175 198 0
174 197 0
173 197 0
174 198 0
175 198 0
175 198 0
174 198 0
174 198 0
176 199 0
174 197 0
173 197 0
175 198 0
175 198 0
174 197 0
174 198 0
176 199 0
174 197 0
173 197 0
174 198 0
174 198 0
175 198 0
175 198 0
175 198 0
174 198 0
174 197 0
173 197 0
174 198 0
175 198 0
176 198 0
175 198 0
175 198 0
173 197 0
175 198 0
175 198 0
173 197 0
173 197 0
174 198 0
176 198 0
175 198 0
175 198 0
176 198 0
175 198 0
174 198 0
174 197 0
174 198 0
176 198 0
174 198 0
175 198 0
175 198 0
174 198 0
175 198 0
176 198 0
174 197 0
173 197 0
172 196 0
175 198 0
176 199 0
176 198 0
174 198 0
172 197 0
173 197 0
175 198 0
173 196 0
176 198 0
175 198 0
176 199 0
173 197 0
175 198 0
173 197 0
174 198 0
173 196 0
174 197 0
173 197 0
174 197 0
172 196 0
176 198 0
176 199 0
174 198 0
174 197 0
175 198 0
174 198 0
174 197 0
173 197 0
174 197 0
174 198 0
173 197 0
173 197 0
175 198 0
174 198 0
173 197 0
173 197 0
172 197 0
172 196 0
172 196 0
172 196 0
175 198 0
174 197 0
172 196 0
175 198 0
176 198 0
173 197 0
173 196 0
173 197 0
173 197 0
173 197 0
174 198 0
174 198 0
173 197 0
174 197 0
175 198 0
173 197 0
173 196 0
173 197 0
176 198 0
175 198 0
175 198 0
172 196 0
174 197 0
175 198 0
173 197 0
173 197 0
174 198 0
174 198 0
173 197 0
173 197 0
173 196 0
173 197 0
173 197 0
174 197 0
173 196 0
175 198 0
174 197 0
172 196 0
174 198 0
173 197 0
172 196 0
175 198 0
174 198 0
173 197 0
172 197 0
175 198 0
175 198 0
173 197 0
173 197 0
174 197 0
175 198 0
172 196 0
173 197 0
172 196 0
173 196 0
172 196 0
173 196 0
172 196 0
171 195 0
177 199 0
172 196 0
173 196 0
172 196 0
174 197 0
172 196 0
174 197 0
173 197 0
172 196 0
173 197 0
175 198 0
175 198 0
171 195 0
175 198 0
171 195 0
173 196 0
170 194 0
172 195 0
175 198 0
172 196 0
173 196 0
174 197 0
173 197 0
172 196 0
169 193 0
173 197 0
173 196 0
170 194 0
172 195 0
173 196 0
176 199 0
172 195 0
173 196 0
173 196 0
173 196 0
174 197 0
174 197 0
174 198 0
172 196 0
173 196 0
171 194 0
171 194 0
172 195 0
171 195 0
173 196 0
174 198 0
170 193 0
173 196 0
174 197 0
172 195 0
174 197 0
171 195 0
173 196 0
174 197 0
168 192 0
170 194 0
173 195 0
170 193 0
172 196 0
171 196 0
172 195 0
172 196 0
171 195 0
169 193 0
172 195 0
174 197 0
172 196 0
173 196 0
173 196 0
171 194 0
176 198 0
173 197 0
173 197 0
173 196 0
173 197 0
171 194 0
173 196 0
171 195 0
171 195 0
172 196 0
173 196 0
175 197 0
172 195 0
172 196 0
173 197 0
171 195 0
172 195 0
174 197 0
173 197 0
172 196 0
173 196 0
171 195 0
171 195 0
171 195 0
171 195 0
171 195 0
175 198 0
172 196 0
171 194 0
174 197 0
172 196 0
173 196 0
174 197 0
174 197 0
172 195 0
172 196 0
174 197 0
172 196 0
173 197 0
173 197 0
175 198 0
173 196 0
175 198 0
174 197 0
174 197 0
172 195 0
172 196 0
174 197 0
172 195 0
173 197 0
173 196 0
172 196 0
171 195 0
173 196 0
174 197 0
171 195 0
174 198 0
174 198 0
172 195 0
177 199 0
172 196 0
173 197 0
175 198 0
173 197 0
173 196 0
173 197 0
173 196 0
173 197 0
174 198 0
175 198 0
171 195 0
173 196 0
174 197 0
176 198 0
174 197 0
171 195 0
174 197 0
174 197 0
171 195 0
173 197 0
174 197 0
174 197 0
173 195 0
175 198 0
173 196 0
171 195 0
173 196 0
174 197 0
175 198 0
173 195 0
173 196 0
175 198 0
173 197 0
172 196 0
173 196 0
172 196 0
172 196 0
175 198 0
173 196 0
174 197 0
174 198 0
174 197 0
174 198 0
173 197 0
174 198 0
172 196 0
173 197 0
174 197 0
173 197 0
174 197 0
173 197 0
175 198 0
174 197 0
176 199 0
174 198 0
172 196 0
173 197 0
175 198 0
174 198 0
173 197 0
175 198 0
175 198 0
173 197 0
175 198 0
174 198 0
174 197 0
174 198 0
174 198 0
174 198 0
173 197 0
173 197 0
173 197 0
174 197 0
175 198 0
174 197 0
177 199 0
175 198 0
175 198 0
175 198 0
175 198 0
175 198 0
174 198 0
175 198 0
174 197 0
176 198 0
174 197 0
176 198 0
176 198 0
175 198 0
173 196 0
173 196 0
177 199 0
174 197 0
175 198 0
173 197 0
174 197 0
174 198 0
173 197 0
173 197 0
174 198 0
173 197 0
173 197 0
174 198 0
174 198 0
175 198 0
176 199 0
174 198 0
175 198 0
175 198 0
175 198 0
173 197 0
173 197 0
175 198 0
175 198 0
175 198 0
174 198 0
175 198 0
174 198 0
174 198 0
174 198 0
174 197 0
173 197 0
173 197 0
174 197 0
174 198 0
175 198 0
173 197 0
175 198 0
175 198 0
174 198 0
175 198 0
176 199 0
175 198 0
174 197 0
174 198 0
176 199 0
175 198 0
174 197 0
174 197 0
175 198 0
174 198 0
175 198 0
174 198 0
174 197 0
175 198 0
175 198 0
175 198 0
175 198 0
174 198 0
174 197 0
174 198 0
174 197 0
175 198 0
175 198 0
174 198 0
175 198 0
173 197 0
176 199 0
175 198 0
174 198 0
175 198 0
175 198 0
174 197 0
174 198 0
172 197 0
174 198 0
174 197 0
176 199 0
175 198 0
175 198 0
173 197 0
175 198 0
175 198 0
172 196 0
175 198 0
174 198 0
174 198 0
174 198 0
176 198 0
174 198 0
174 198 0
176 198 0
173 197 0
174 198 0
174 197 0
176 199 0
172 196 0
175 197 0
173 197 0
173 197 0
175 198 0
175 198 0
175 198 0
175 198 0
175 198 0
174 198 0
175 198 0
175 198 0
174 197 0
174 198 0
174 197 0
175 198 0
174 198 0
173 197 0
175 198 0
175 198 0
172 196 0
174 198 0
172 196 0
174 198 0
173 197 0
176 198 0
174 197 0
172 196 0
173 197 0
173 196 0
173 196 0
174 197 0
174 198 0
172 196 0
173 197 0
172 196 0
174 198 0
174 197 0
174 197 0
174 197 0
176 198 0
172 196 0
175 198 0
174 198 0
174 197 0
173 196 0
175 198 0
175 198 0
174 198 0
174 197 0
173 197 0
173 197 0
174 197 0
175 198 0
172 196 0
174 198 0
172 195 0
175 197 0
174 197 0
174 197 0
173 197 0
175 198 0
171 195 0
171 196 0
173 196 0
174 198 0
173 197 0
174 197 0
174 197 0
174 198 0
173 196 0
174 197 0
172 195 0
176 198 0
173 197 0
172 196 0
174 198 0
174 197 0
173 197 0
172 196 0
175 198 0
174 197 0
171 196 0
172 196 0
173 197 0
172 195 0
175 198 0
170 194 0
174 197 0
174 197 0
172 195 0
173 197 0
172 195 0
176 198 0
174 197 0
174 197 0
173 195 0
172 196 0
173 196 0
173 196 0
172 195 0
172 196 0
174 197 0
174 198 0
174 197 0
170 194 0
173 196 0
171 195 0
173 196 0
171 195 0
172 195 0
173 196 0
172 195 0
171 195 0
173 197 0
172 195 0
172 196 0
172 196 0
172 196 0
171 195 0
173 197 0
172 196 0
173 197 0
174 197 0
172 194 0
173 196 0
172 195 0
171 195 0
173 197 0
171 195 0
172 195 0
173 196 0
172 195 0
174 198 0
171 194 0
170 194 0
174 198 0
173 196 0
174 197 0
172 195 0
171 195 0
171 194 0
172 195 0
173 196 0
171 195 0
173 196 0
172 196 0
172 196 0
174 197 0
172 195 0
173 197 0
170 194 0
174 197 0
173 196 0
170 194 0
174 197 0
170 194 0
174 197 0
170 193 0
172 196 0
173 197 0
170 193 0
173 195 0
173 197 0
172 196 0
174 195 0
172 196 0
172 196 0
176 198 0
174 198 0
174 197 0
173 196 0
170 193 0
174 197 0
172 196 0
172 196 0
174 197 0
174 197 0
172 196 0
173 196 0
171 195 0
173 197 0
173 197 0
174 197 0
172 195 0
174 198 0
173 196 0
172 195 0
174 198 0
173 197 0
171 194 0
173 197 0
173 196 0
172 196 0
174 197 0
173 197 0
175 197 0
172 196 0
171 195 0
171 195 0
174 198 0
173 197 0
171 195 0
175 198 0
173 196 0
173 197 0
173 196 0
173 197 0
172 196 0
174 197 0
173 196 0
174 196 0
172 196 0
172 195 0
173 196 0
172 196 0
171 196 0
174 197 0
174 197 0
175 198 0
172 195 0
174 197 0
172 195 0
174 198 0
173 197 0
174 197 0
173 197 0
174 197 0
174 197 0
174 197 0
174 197 0
175 198 0
175 198 0
173 197 0
174 197 0
173 197 0
172 195 0
172 196 0
175 197 0
175 198 0
174 197 0
175 198 0
173 197 0
174 198 0
172 196 0
174 197 0
175 198 0
175 198 0
175 198 0
173 197 0
173 196 0
174 198 0
175 198 0
174 198 0
172 196 0
172 196 0
175 198 0
175 198 0
174 197 0
175 198 0
174 198 0
172 197 0
176 198 0
175 198 0
173 197 0
176 199 0
174 198 0
174 197 0
175 198 0
174 198 0
173 197 0
174 197 0
175 198 0
174 197 0
174 198 0
175 198 0
173 197 0
174 198 0
174 197 0
175 198 0
174 198 0
176 199 0
174 198 0
174 197 0
174 197 0
174 197 0
173 197 0
174 198 0
174 198 0
174 197 0
174 197 0
175 198 0
173 197 0
175 198 0
175 198 0
173 197 0
174 198 0
173 197 0
174 198 0
175 198 0
176 199 0
173 197 0
175 198 0
173 197 0
176 199 0
174 197 0
175 198 0
174 198 0
173 197 0
175 198 0
172 197 0
174 197 0
173 197 0
173 197 0
174 198 0
173 197 0
175 198 0
174 197 0
173 197 0
174 198 0
174 198 0
174 198 0
175 198 0
176 199 0
174 198 0
175 198 0
175 198 0
173 197 0
174 197 0
174 198 0
176 199 0
175 198 0
175 198 0
175 198 0
174 197 0
175 198 0
174 198 0
174 198 0
174 198 0
175 198 0
173 197 0
174 198 0
174 198 0
175 198 0
174 197 0
175 198 0
175 198 0
174 198 0
173 197 0
174 197 0
173 197 0
175 198 0
175 198 0
174 198 0
175 198 0
174 198 0
175 198 0
175 198 0
174 198 0
175 198 0
175 198 0
172 196 0
176 198 0
174 198 0
175 198 0
174 197 0
175 198 0
175 198 0
175 198 0
173 197 0
174 198 0
174 197 0
174 197 0
174 198 0
174 198 0
175 198 0
173 197 0
175 198 0
174 198 0
173 197 0
175 198 0
175 198 0
173 197 0
174 198 0
175 198 0
174 198 0
172 196 0
174 198 0
175 198 0
175 198 0
173 197 0
174 198 0
172 196 0
175 198 0
175 198 0
174 198 0
174 197 0
174 197 0
174 198 0
174 198 0
173 197 0
174 198 0
175 198 0
174 197 0
174 197 0
174 197 0
175 198 0
177 199 0
174 198 0
173 197 0
175 198 0
174 197 0
174 198 0
171 196 0
176 199 0
176 199 0
174 197 0
174 198 0
174 198 0
175 198 0
174 198 0
174 198 0
174 198 0
174 197 0
174 197 0
174 197 0
173 197 0
175 198 0
173 197 0
176 198 0
174 198 0
174 198 0
173 197 0
174 198 0
173 197 0
173 197 0
175 198 0
174 197 0
173 197 0
174 198 0
174 197 0
175 198 0
174 197 0
173 197 0
174 198 0
174 197 0
172 196 0
175 198 0
174 197 0
175 198 0
173 197 0
172 196 0
174 198 0
175 198 0
174 197 0
174 198 0
175 198 0
173 196 0
173 197 0
174 198 0
174 198 0
175 198 0
172 197 0
173 197 0
173 197 0
173 197 0
174 198 0
173 197 0
173 197 0
175 197 0
172 196 0
173 197 0
173 197 0
173 196 0
174 197 0
174 197 0
175 198 0
174 198 0
173 197 0
173 196 0
175 198 0
174 198 0
174 197 0
174 197 0
174 197 0
174 197 0
174 198 0
174 197 0
172 196 0
172 196 0
170 195 0
173 197 0
173 197 0
173 197 0
174 196 0
173 196 0
172 196 0
173 197 0
173 196 0
173 197 0
172 195 0
171 195 0
174 197 0
174 197 0
172 196 0
173 196 0
174 197 0
171 195 0
172 196 0
172 196 0
172 196 0
173 196 0
173 196 0
172 195 0
174 197 0
171 195 0
171 194 0
172 195 0
173 196 0
174 197 0
174 197 0
174 197 0
172 196 0
172 195 0
171 195 0
170 195 0
173 196 0
173 197 0
172 196 0
174 196 0
172 196 0
173 196 0
170 193 0
170 193 0
172 196 0
176 199 0
170 194 0
172 195 0
171 195 0
174 197 0
175 198 0
172 196 0
172 196 0
173 197 0
172 195 0
173 196 0
172 196 0
170 193 0
173 197 0
171 194 0
171 195 0
172 195 0
175 198 0
171 195 0
170 194 0
173 196 0
173 197 0
170 194 0
173 196 0
173 197 0
171 195 0
171 195 0
174 197 0
172 195 0
173 196 0
174 197 0
170 193 0
173 196 0
175 198 0
174 197 0
173 196 0
172 195 0
174 196 0
172 195 0
174 197 0
170 195 0
173 196 0
173 196 0
172 196 0
174 198 0
172 196 0
174 197 0
172 195 0
174 198 0
174 198 0
171 195 0
174 197 0
170 194 0
174 197 0
173 196 0
173 197 0
173 197 0
170 194 0
173 197 0
175 198 0
174 198 0
174 197 0
174 197 0
172 195 0
173 197 0
174 196 0
174 197 0
172 196 0
174 198 0
172 196 0
172 197 0
173 196 0
174 197 0
173 196 0
175 198 0
173 196 0
174 197 0
175 198 0
174 198 0
175 198 0
174 198 0
174 196 0
174 197 0
173 197 0
175 197 0
174 197 0
174 197 0
174 197 0
175 198 0
175 198 0
173 196 0
175 198 0
174 197 0
174 197 0
174 197 0
176 198 0
173 197 0
173 197 0
172 196 0
173 197 0
173 197 0
174 197 0
175 198 0
174 198 0
173 197 0
174 197 0
175 197 0
174 198 0
174 197 0
173 197 0
175 198 0
173 196 0
172 196 0
175 198 0
173 197 0
174 197 0
172 196 0
176 198 0
174 197 0
173 197 0
174 197 0
175 198 0
176 198 0
174 197 0
174 197 0
174 197 0
174 198 0
175 197 0
174 198 0
176 198 0
175 197 0
173 197 0
173 197 0
174 198 0
174 198 0
175 198 0
173 197 0
173 197 0
174 198 0
175 198 0
174 198 0
174 197 0
173 197 0
173 196 0
176 199 0
173 197 0
176 198 0
174 197 0
175 198 0
175 198 0
174 198 0
173 197 0
175 198 0
175 198 0
174 197 0
174 198 0
175 198 0
171 196 0
175 198 0
174 198 0
175 198 0
173 197 0
175 198 0
174 197 0
173 197 0
173 197 0
175 198 0
175 198 0
175 198 0
175 198 0
174 198 0
174 197 0
172 196 0
174 197 0
173 197 0
175 198 0
175 198 0
174 197 0
174 198 0
173 197 0
174 197 0
175 198 0
175 198 0
175 198 0
172 197 0
174 198 0
175 198 0
175 198 0
172 196 0
174 198 0
176 199 0
174 198 0
173 197 0
174 198 0
175 198 0
173 197 0
175 198 0
173 197 0
172 195 0
174 198 0
174 198 0
174 197 0
174 198 0
175 198 0
174 198 0
175 198 0
174 198 0
174 198 0
176 199 0
174 197 0
174 197 0
176 198 0
173 197 0
172 197 0
175 198 0
174 198 0
173 197 0
174 198 0
175 198 0
174 198 0
174 197 0
175 198 0
174 198 0
176 199 0
175 198 0
173 197 0
172 196 0
175 198 0
174 198 0
173 197 0
175 198 0
173 197 0
173 197 0
174 197 0
174 197 0
173 197 0
174 198 0
174 198 0
174 197 0
175 198 0
176 198 0
176 199 0
174 198 0
175 198 0
174 197 0
174 198 0
174 198 0
176 199 0
174 197 0
173 197 0
174 198 0
174 198 0
174 198 0
172 197 0
174 197 0
175 198 0
175 198 0
176 198 0
175 198 0
172 196 0
174 198 0
174 197 0
174 198 0
174 197 0
174 197 0
174 198 0
175 198 0
174 198 0
175 198 0
175 198 0
174 198 0
173 197 0
174 198 0
174 197 0
173 197 0
174 197 0
174 197 0
173 197 0
175 198 0
173 197 0
173 197 0
174 198 0
173 197 0
173 196 0
174 198 0
174 198 0
173 197 0
175 198 0
174 197 0
176 199 0
175 198 0
174 198 0
175 198 0
173 197 0
174 198 0
174 197 0
174 198 0
172 196 0
172 197 0
174 197 0
173 197 0
174 198 0
173 197 0
174 198 0
174 198 0
173 197 0
173 197 0
175 198 0
174 197 0
172 197 0
172 197 0
173 197 0
175 198 0
174 197 0
173 197 0
170 194 0
173 196 0
172 196 0
175 198 0
174 198 0
174 197 0
174 198 0
171 195 0
174 197 0
174 197 0
176 198 0
175 198 0
174 198 0
175 198 0
172 195 0
173 196 0
176 199 0
174 197 0
172 196 0
174 198 0
174 197 0
173 197 0
174 197 0
174 198 0
172 196 0
172 195 0
173 197 0
174 197 0
171 194 0
173 196 0
173 197 0
172 196 0
173 196 0
173 196 0
173 197 0
173 196 0
172 195 0
172 195 0
173 197 0
174 197 0
174 198 0
173 196 0
173 197 0
174 198 0
174 197 0
170 194 0
172 196 0
172 196 0
175 198 0
172 195 0
173 197 0
172 196 0
173 197 0
174 196 0
173 196 0
173 197 0
169 193 0
175 198 0
172 195 0
173 197 0
173 197 0
173 196 0
174 198 0
169 193 0
171 195 0
171 195 0
172 196 0
170 194 0
175 198 0
172 195 0
174 198 0
175 197 0
172 195 0
172 196 0
173 197 0
174 198 0
173 197 0
172 196 0
173 196 0
172 195 0
171 195 0
173 196 0
174 198 0
171 195 0
171 195 0
172 195 0
171 195 0
173 196 0
175 198 0
170 193 0
171 195 0
171 194 0
173 196 0
174 197 0
173 196 0
172 196 0
174 197 0
175 198 0
174 197 0
170 193 0
176 199 0
173 197 0
173 197 0
173 197 0
172 196 0
173 197 0
170 195 0
172 196 0
172 195 0
174 197 0
172 196 0
174 197 0
172 195 0
173 196 0
173 197 0
174 198 0
173 196 0
172 195 0
173 197 0
173 196 0
174 197 0
171 196 0
172 195 0
172 196 0
173 196 0
174 198 0
172 196 0
172 196 0
173 196 0
174 197 0
175 197 0
172 196 0
175 198 0
173 197 0
171 194 0
176 198 0
172 196 0
173 196 0
172 196 0
174 197 0
174 197 0
172 196 0
173 197 0
174 197 0
172 195 0
174 197 0
173 197 0
169 193 0
174 197 0
175 198 0
174 197 0
176 198 0
175 198 0
172 196 0
173 196 0
173 197 0
174 197 0
172 195 0
175 198 0
174 197 0
173 197 0
172 196 0
175 198 0
174 197 0
173 196 0
174 197 0
173 196 0
175 197 0
173 197 0
173 197 0
175 198 0
173 197 0
174 198 0
173 197 0
175 198 0
171 196 0
174 197 0
174 197 0
175 198 0
174 197 0
175 198 0
173 197 0
174 197 0
174 197 0
174 198 0
174 197 0
173 197 0
175 198 0
171 195 0
172 196 0
173 196 0
174 197 0
175 198 0
175 198 0
175 198 0
174 197 0
173 196 0
174 197 0
173 196 0
174 197 0
173 197 0
175 198 0
172 196 0
173 197 0
174 198 0
174 197 0
172 196 0
174 197 0
175 198 0
175 198 0
174 197 0
175 198 0
174 198 0
173 197 0
176 199 0
173 196 0
175 198 0
174 197 0
175 198 0
175 198 0
175 198 0
175 198 0
173 196 0
174 197 0
175 198 0
174 197 0
175 198 0
174 197 0
174 197 0
176 199 0
174 197 0
173 197 0
174 197 0
175 198 0
171 195 0
173 197 0
174 197 0
174 198 0
173 197 0
174 198 0
172 195 0
174 198 0
174 197 0
172 196 0
174 197 0
173 197 0
174 197 0
175 198 0
175 198 0
174 198 0
174 198 0
174 198 0
174 198 0
174 198 0
175 198 0
174 197 0
172 197 0
175 198 0
174 197 0
175 198 0
175 198 0
174 197 0
175 198 0
173 197 0
176 199 0
174 197 0
176 199 0
174 197 0
172 196 0
175 198 0
174 197 0
175 198 0
174 197 0
173 197 0
173 197 0
174 197 0
174 197 0
174 197 0
174 197 0
175 198 0
174 197 0
175 198 0
175 198 0
174 198 0
175 198 0
173 197 0
173 197 0
176 199 0
173 197 0
174 198 0
173 196 0
174 198 0
174 197 0
174 198 0
175 198 0
174 198 0
174 198 0
176 199 0
174 197 0
173 197 0
174 197 0
174 198 0
173 197 0
174 198 0
175 198 0
173 197 0
174 198 0
174 198 0
174 198 0
174 197 0
174 197 0
175 198 0
174 197 0
175 198 0
175 198 0
175 198 0
176 199 0
173 197 0
176 198 0
174 197 0
174 197 0
175 198 0
176 199 0
175 198 0
175 198 0
175 198 0
175 198 0
175 198 0
173 197 0
174 197 0
173 197 0
173 197 0
174 197 0
173 197 0
175 198 0
174 198 0
172 197 0
175 198 0
174 198 0
173 197 0
176 198 0
174 198 0
174 198 0
174 197 0
174 197 0
172 197 0
175 198 0
172 197 0
173 197 0
174 197 0
174 197 0
175 198 0
174 198 0
173 197 0
173 196 0
175 198 0
173 197 0
173 197 0
174 198 0
175 198 0
174 198 0
175 198 0
175 198 0
175 198 0
174 197 0
174 198 0
172 196 0
173 197 0
174 198 0
174 198 0
174 197 0
174 197 0
174 198 0
173 197 0
174 197 0
176 198 0
175 198 0
173 197 0
175 198 0
175 198 0
173 197 0
173 197 0
174 197 0
173 197 0
173 196 0
174 197 0
174 197 0
175 198 0
171 195 0
174 197 0
174 198 0
175 198 0
173 197 0
172 196 0
174 197 0
176 198 0
173 197 0
174 197 0
175 198 0
173 197 0
174 197 0
173 196 0
172 196 0
174 198 0
174 197 0
174 198 0
174 198 0
175 198 0
173 197 0
173 196 0
173 197 0
174 198 0
173 197 0
174 198 0
173 196 0
174 197 0
174 198 0
173 197 0
171 195 0
174 197 0
175 198 0
173 196 0
171 195 0
174 197 0
175 198 0
174 197 0
173 197 0
172 196 0
173 197 0
173 197 0
170 194 0
174 197 0
173 196 0
173 197 0
173 197 0
175 198 0
174 198 0
174 196 0
174 197 0
173 197 0
175 198 0
174 197 0
174 197 0
173 197 0
172 195 0
172 196 0
171 195 0
173 196 0
173 195 0
172 195 0
173 196 0
173 196 0
174 197 0
171 194 0
170 194 0
173 196 0
172 195 0
172 196 0
174 197 0
173 196 0
171 195 0
170 194 0
173 196 0
173 196 0
173 196 0
170 193 0
172 195 0
171 195 0
174 197 0
174 197 0
172 196 0
172 195 0
170 194 0
169 194 0
172 195 0
172 196 0
173 197 0
172 196 0
172 195 0
174 198 0
174 197 0
171 195 0
171 195 0
174 198 0
173 196 0
170 194 0
172 196 0
173 196 0
170 193 0
173 197 0
169 192 0
173 196 0
171 194 0
173 197 0
172 194 0
172 195 0
171 195 0
173 196 0
172 195 0
173 197 0
174 197 0
175 197 0
174 196 0
173 197 0
172 195 0
173 196 0
173 197 0
173 196 0
175 198 0
174 197 0
173 197 0
172 196 0
174 197 0
172 195 0
170 195 0
173 196 0
170 194 0
172 196 0
174 198 0
175 198 0
174 197 0
172 195 0
174 197 0
173 196 0
173 196 0
173 196 0
174 197 0
173 197 0
175 198 0
174 197 0
174 197 0
173 197 0
172 196 0
176 199 0
172 197 0
173 196 0
174 197 0
174 197 0
174 197 0
172 196 0
172 196 0
175 198 0
172 195 0
173 197 0
172 195 0
172 196 0
172 196 0
172 197 0
173 197 0
174 198 0
175 197 0
172 196 0
173 196 0
173 196 0
174 197 0
176 198 0
173 196 0
175 198 0
175 198 0
173 196 0
175 198 0
172 195 0
174 198 0
174 196 0
172 195 0
174 197 0
175 198 0
173 196 0
173 196 0
175 198 0
174 197 0
174 197 0
175 198 0
175 198 0
175 198 0
174 197 0
175 198 0
175 198 0
172 196 0
175 198 0
173 197 0
175 198 0
173 197 0
174 197 0
171 195 0
175 197 0
177 199 0
174 198 0
173 197 0
174 197 0
174 197 0
174 197 0
173 196 0
175 198 0
174 198 0
172 196 0
176 199 0
174 198 0
174 197 0
174 197 0
174 198 0
174 198 0
173 197 0
172 196 0
173 197 0
174 197 0
174 198 0
173 197 0
174 198 0
175 198 0
176 199 0
174 197 0
173 196 0
173 197 0
175 198 0
173 196 0
175 198 0
173 197 0
173 197 0
174 197 0
174 198 0
175 198 0
173 197 0
173 197 0
175 198 0
175 197 0
174 197 0
175 198 0
174 197 0
174 197 0
174 198 0
174 198 0
173 197 0
174 197 0
173 196 0
174 197 0
173 197 0
172 196 0
173 197 0
173 197 0
173 197 0
174 198 0
173 197 0
173 197 0
171 195 0
174 198 0
173 196 0
174 198 0
175 198 0
174 198 0
176 198 0
175 198 0
173 196 0
174 198 0
174 197 0
173 196 0
175 198 0
174 197 0
175 198 0
174 197 0
172 196 0
174 198 0
175 198 0
173 197 0
175 198 0
175 198 0
172 196 0
174 198 0
172 196 0
174 197 0
174 197 0
172 196 0
174 197 0
174 198 0
175 198 0
176 198 0
175 198 0
174 197 0
173 197 0
173 197 0
173 197 0
175 198 0
175 198 0
174 198 0
174 198 0
174 198 0
174 198 0
174 197 0
174 198 0
175 198 0
176 199 0
174 198 0
175 198 0
175 198 0
176 199 0
176 198 0
175 198 0
174 197 0
175 198 0
173 196 0
175 198 0
174 198 0
175 198 0
173 197 0
174 197 0
174 197 0
175 198 0
174 198 0
176 199 0
175 198 0
175 198 0
173 197 0
174 198 0
176 199 0
175 198 0
174 198 0
174 198 0
173 197 0
176 199 0
173 197 0
174 198 0
174 198 0
174 197 0
173 197 0
175 198 0
173 197 0
175 198 0
174 198 0
175 198 0
174 197 0
173 197 0
174 197 0
173 197 0
176 199 0
175 198 0
176 199 0
174 198 0
176 199 0
174 198 0
173 197 0
175 198 0
174 198 0
176 199 0
173 197 0
175 198 0
172 196 0
174 197 0
175 198 0
174 198 0
173 197 0
174 198 0
174 198 0
174 198 0
174 198 0
175 198 0
174 198 0
176 198 0
174 197 0
173 197 0
173 197 0
175 198 0
176 199 0
172 196 0
175 198 0
176 199 0
175 198 0
175 198 0
174 197 0
172 197 0
174 198 0
175 198 0
173 197 0
175 198 0
175 198 0
174 198 0
176 198 0
175 198 0
176 199 0
175 198 0
173 197 0
174 198 0
174 198 0
174 197 0
175 197 0
174 198 0
174 197 0
173 196 0
174 197 0
176 198 0
173 197 0
175 198 0
173 196 0
172 196 0
173 197 0
175 198 0
174 197 0
174 198 0
173 196 0
173 197 0
173 197 0
173 196 0
173 197 0
176 198 0
174 197 0
174 198 0
174 198 0
173 197 0
173 197 0
174 197 0
173 197 0
174 198 0
173 197 0
171 195 0
171 195 0
172 196 0
174 197 0
175 198 0
173 197 0
172 195 0
174 197 0
172 196 0
172 197 0
173 197 0
173 196 0
173 196 0
173 197 0
173 196 0
172 196 0
174 197 0
174 197 0
172 196 0
173 197 0
173 197 0
175 198 0
173 197 0
170 195 0
174 197 0
171 195 0
174 197 0
173 196 0
173 197 0
173 196 0
171 195 0
172 196 0
172 196 0
172 196 0
170 194 0
171 196 0
173 197 0
173 196 0
174 198 0
171 195 0
173 197 0
172 196 0
172 196 0
175 198 0
175 197 0
171 195 0
172 196 0
172 195 0
171 194 0
174 197 0
172 196 0
173 197 0
174 197 0
173 196 0
172 195 0
171 196 0
172 196 0
173 196 0
173 196 0
174 197 0
174 197 0
172 196 0
173 196 0
173 197 0
171 195 0
172 196 0
172 196 0
173 196 0
173 197 0
173 196 0
171 195 0
172 195 0
170 194 0
174 197 0
171 195 0
171 195 0
172 196 0
170 194 0
174 197 0
173 196 0
174 198 0
173 197 0
173 197 0
173 197 0
172 196 0
173 196 0
172 196 0
174 198 0
174 197 0
174 197 0
172 195 0
172 197 0
174 197 0
170 194 0
171 195 0
171 194 0
172 196 0
172 195 0
175 198 0
174 198 0
171 195 0
174 197 0
169 194 0
174 197 0
172 197 0
170 195 0
173 196 0
174 197 0
174 197 0
172 196 0
173 196 0
173 195 0
173 196 0
173 196 0
171 195 0
174 197 0
174 197 0
173 196 0
174 197 0
174 198 0
173 197 0
173 195 0
173 197 0
173 196 0
173 196 0
174 197 0
174 197 0
174 198 0
174 197 0
171 195 0
172 197 0
173 196 0
173 197 0
172 196 0
173 196 0
174 197 0
174 197 0
172 197 0
174 197 0
174 197 0
172 196 0
172 196 0
172 195 0
173 197 0
173 197 0
172 196 0
173 196 0
173 196 0
172 195 0
172 195 0
174 198 0
174 197 0
172 196 0
173 196 0
172 196 0
172 195 0
174 197 0
172 196 0
173 197 0
173 196 0
172 196 0
173 197 0
174 197 0
171 195 0
174 198 0
175 198 0
174 198 0
174 197 0
175 198 0
173 196 0
174 198 0
175 198 0
174 197 0
174 198 0
173 196 0
174 198 0
173 197 0
172 196 0
175 198 0
174 198 0
173 197 0
174 197 0
173 197 0
173 196 0
174 198 0
175 198 0
174 197 0
174 197 0
174 198 0
175 198 0
173 197 0
175 198 0
174 198 0
172 195 0
174 198 0
174 198 0
174 197 0
176 198 0
175 197 0
174 198 0
175 198 0
174 197 0
174 198 0
173 197 0
173 197 0
174 197 0
175 198 0
174 197 0
173 197 0
173 197 0
177 199 0
172 196 0
175 198 0
174 198 0
172 196 0
176 199 0
174 198 0
175 198 0
174 197 0
173 197 0
174 197 0
174 197 0
174 198 0
172 196 0
174 197 0
172 197 0
174 197 0
175 198 0
174 198 0
173 197 0
173 196 0
175 198 0
174 197 0
175 198 0
174 197 0
173 197 0
175 198 0
175 198 0
174 197 0
174 197 0
174 198 0
173 197 0
174 198 0
176 199 0
175 198 0
174 198 0
174 197 0
174 197 0
173 197 0
173 197 0
173 197 0
175 198 0
175 198 0
175 198 0
176 198 0
173 196 0
174 198 0
173 197 0
175 198 0
174 198 0
175 198 0
173 197 0
173 197 0
176 198 0
172 197 0
175 198 0
174 198 0
175 198 0
174 198 0
174 198 0
173 197 0
174 197 0
174 198 0
175 198 0
172 196 0
175 198 0
174 198 0
173 197 0
175 198 0
173 197 0
174 197 0
173 197 0
173 197 0
173 197 0
175 198 0
175 198 0
174 198 0
175 198 0
172 197 0
176 198 0
176 198 0
174 197 0
174 198 0
173 197 0
175 198 0
174 197 0
174 198 0
175 198 0
173 197 0
174 197 0
173 197 0
174 197 0
175 198 0
175 198 0
175 198 0
173 197 0
175 198 0
174 198 0
174 198 0
173 197 0
174 197 0
174 197 0
174 198 0
171 196 0
174 198 0
173 197 0
174 198 0
174 198 0
173 197 0
176 199 0
175 198 0
173 197 0
175 198 0
173 197 0
174 198 0
175 198 0
174 197 0
175 198 0
173 197 0
174 198 0
174 197 0
174 198 0
172 196 0
174 198 0
174 197 0
176 198 0
175 198 0
174 198 0
175 198 0
174 198 0
173 196 0
173 197 0
174 198 0
175 198 0
174 197 0
175 198 0
174 198 0
175 198 0
174 198 0
175 198 0
174 198 0
174 197 0
175 198 0
174 197 0
175 198 0
173 197 0
173 197 0
173 197 0
175 198 0
174 198 0
174 197 0
175 198 0
174 198 0
173 197 0
173 197 0
175 198 0
172 197 0
175 198 0
172 197 0
172 196 0
175 198 0
174 197 0
175 198 0
173 197 0
175 198 0
175 198 0
174 198 0
173 196 0
173 196 0
174 197 0
174 197 0
173 196 0
175 198 0
174 198 0
174 197 0
175 198 0
174 197 0
170 195 0
172 197 0
175 198 0
173 197 0
172 195 0
174 197 0
174 198 0
177 199 0
173 196 0
176 198 0
174 197 0
174 197 0
174 197 0
172 195 0
175 198 0
175 198 0
173 196 0
174 197 0
175 198 0
173 196 0
173 197 0
173 197 0
173 197 0
174 197 0
170 194 0
174 197 0
174 197 0
174 197 0
175 198 0
171 195 0
172 196 0
174 198 0
174 197 0
173 196 0
173 197 0
174 197 0
170 194 0
174 197 0
171 195 0
171 195 0
175 197 0
173 196 0
174 197 0
172 196 0
172 196 0
173 196 0
174 197 0
172 196 0
175 198 0
174 197 0
172 196 0
171 195 0
174 197 0
172 196 0
172 197 0
174 198 0
173 197 0
173 197 0
172 196 0
173 197 0
174 198 0
170 193 0
173 196 0
175 198 0
171 194 0
173 196 0
173 197 0
169 194 0
175 198 0
172 195 0
169 193 0
175 198 0
173 197 0
173 196 0
172 195 0
173 197 0
173 197 0
171 195 0
173 197 0
169 193 0
172 196 0
174 198 0
172 195 0
174 197 0
173 197 0
173 197 0
174 197 0
174 197 0
172 195 0
172 195 0
173 196 0
175 198 0
175 198 0
172 196 0
175 198 0
173 196 0
174 197 0
169 194 0
174 197 0
174 197 0
172 196 0
173 197 0
171 194 0
172 195 0
171 195 0
172 196 0
172 197 0
172 195 0
173 197 0
173 196 0
171 195 0
174 197 0
175 198 0
173 196 0
172 195 0
173 197 0
174 198 0
171 195 0
174 197 0
174 198 0
174 197 0
173 197 0
173 197 0
175 198 0
173 196 0
175 198 0
171 195 0
170 194 0
171 195 0
174 196 0
172 195 0
171 195 0
172 197 0
173 196 0
171 195 0
173 197 0
173 196 0
175 198 0
173 197 0
173 196 0
170 194 0
172 196 0
174 197 0
175 198 0
171 195 0
173 197 0
173 197 0
174 198 0
174 198 0
172 196 0
170 194 0
173 196 0
175 198 0
173 196 0
173 196 0
172 196 0
172 196 0
174 197 0
175 197 0
173 196 0
174 198 0
174 198 0
172 196 0
173 197 0
175 198 0
174 197 0
175 198 0
173 197 0
174 197 0
173 197 0
173 197 0
175 197 0
173 196 0
174 197 0
175 198 0
171 195 0
172 195 0
173 196 0
174 197 0
175 198 0
174 198 0
174 198 0
174 197 0
171 195 0
173 197 0
173 197 0
174 197 0
174 198 0
173 197 0
174 197 0
172 196 0
173 197 0
175 197 0
174 197 0
173 197 0
173 197 0
173 197 0
172 197 0
175 198 0
174 198 0
173 197 0
174 198 0
173 196 0
174 198 0
173 197 0
175 198 0
174 197 0
174 197 0
175 198 0
176 199 0
174 197 0
175 198 0
174 198 0
173 197 0
174 197 0
173 196 0
175 198 0
172 197 0
172 196 0
173 197 0
173 197 0
174 198 0
175 198 0
173 196 0
174 198 0
175 198 0
173 197 0
174 198 0
173 196 0
176 199 0
175 198 0
175 198 0
174 198 0
173 197 0
174 197 0
174 198 0
176 198 0
174 198 0
174 198 0
176 199 0
173 196 0
172 196 0
174 197 0
174 198 0
175 198 0
174 198 0
175 198 0
174 197 0
175 198 0
175 198 0
175 198 0
174 198 0
173 197 0
175 198 0
174 198 0
175 198 0
173 197 0
173 197 0
174 197 0
174 197 0
174 197 0
176 198 0
173 197 0
174 197 0
174 197 0
174 197 0
175 198 0
175 198 0
173 197 0
173 197 0
174 198 0
173 197 0
174 197 0
174 198 0
175 198 0
175 198 0
174 197 0
174 198 0
174 197 0
175 198 0
173 197 0
175 198 0
174 198 0
175 198 0
174 198 0
175 198 0
177 199 0
174 198 0
173 197 0
174 197 0
175 198 0
174 198 0
176 199 0
175 198 0
174 197 0
174 198 0
174 198 0
174 197 0
176 199 0
174 198 0
176 198 0
175 198 0
173 197 0
175 198 0
174 198 0
176 198 0
173 197 0
175 198 0
173 197 0
174 197 0
173 197 0
175 198 0
173 197 0
173 197 0
176 199 0
175 198 0
175 198 0
174 197 0
174 198 0
175 198 0
174 198 0
176 199 0
174 197 0
175 198 0
173 197 0
176 199 0
176 199 0
173 197 0
173 197 0
174 198 0
174 197 0
174 197 0
172 197 0
176 198 0
174 197 0
175 198 0
175 198 0
175 198 0
173 197 0
173 197 0
174 197 0
175 198 0
175 198 0
175 198 0
175 198 0
174 198 0
173 197 0
173 197 0
175 198 0
175 198 0
173 197 0
174 198 0
175 198 0
176 199 0
174 198 0
174 197 0
173 197 0
175 198 0
174 198 0
175 198 0
174 198 0
174 197 0
174 198 0
173 197 0
175 198 0
174 198 0
173 196 0
173 197 0
173 197 0
175 198 0
173 197 0
174 197 0
174 197 0
174 197 0
172 196 0
172 197 0
175 198 0
173 197 0
175 198 0
174 197 0
174 197 0
176 199 0
174 198 0
172 196 0
174 197 0
174 197 0
173 197 0
174 198 0
173 197 0
173 197 0
173 197 0
174 198 0
176 198 0
175 198 0
172 196 0
175 198 0
172 197 0
172 196 0
174 198 0
174 197 0
174 197 0
173 197 0
173 197 0
174 198 0
174 198 0
174 197 0
173 196 0
173 196 0
171 195 0
175 198 0
173 197 0
174 197 0
173 197 0
174 198 0
175 198 0
174 197 0
172 196 0
172 196 0
173 197 0
175 198 0
174 198 0
172 196 0
175 198 0
174 197 0
174 198 0
174 197 0
174 197 0
172 196 0
174 197 0
174 197 0
174 197 0
173 196 0
175 198 0
173 196 0
174 197 0
174 197 0
174 197 0
171 195 0
175 198 0
172 196 0
176 198 0
176 199 0
173 197 0
175 198 0
173 196 0
174 197 0
172 197 0
174 198 0
173 197 0
173 196 0
171 194 0
172 196 0
171 195 0
170 194 0
173 197 0
174 197 0
174 197 0
171 196 0
173 197 0
172 196 0
172 196 0
173 196 0
171 195 0
173 197 0
173 196 0
173 197 0
171 194 0
174 197 0
173 196 0
173 196 0
174 197 0
173 197 0
173 197 0
175 198 0
172 195 0
172 195 0
173 197 0
173 196 0
173 196 0
173 197 0
171 195 0
175 198 0
173 196 0
173 197 0
173 196 0
174 197 0
174 197 0
172 196 0
174 197 0
172 195 0
171 195 0
173 197 0
171 195 0
176 198 0
171 195 0
174 197 0
172 196 0
173 196 0
174 198 0
172 196 0
172 196 0
171 195 0
173 196 0
174 197 0
173 197 0
173 196 0
173 196 0
173 197 0
174 197 0
171 195 0
171 194 0
172 195 0
171 196 0
174 197 0
171 194 0
172 196 0
173 196 0
172 196 0
171 194 0
172 196 0
174 197 0
173 196 0
176 198 0
174 198 0
172 196 0
175 198 0
171 196 0
173 196 0
175 198 0
175 198 0
174 197 0
172 196 0
174 197 0
173 195 0
172 195 0
173 196 0
172 195 0
173 197 0
173 196 0
174 198 0
172 196 0
175 198 0
174 198 0
173 197 0
173 196 0
173 197 0
175 198 0
175 198 0
173 197 0
176 199 0
174 197 0
173 197 0
174 197 0
174 197 0
174 198 0
174 197 0
172 195 0
174 197 0
174 198 0
174 197 0
173 197 0
172 195 0
174 198 0
173 196 0
174 197 0
173 197 0
174 197 0
174 198 0
175 198 0
173 197 0
173 197 0
173 197 0
172 195 0
175 198 0
173 196 0
172 196 0
176 199 0
176 199 0
174 197 0
176 199 0
173 196 0
173 197 0
176 199 0
175 198 0
175 198 0
175 198 0
175 198 0
173 197 0
173 197 0
172 196 0
173 196 0
174 198 0
173 197 0
173 197 0
173 197 0
175 198 0
174 198 0
177 199 0
174 198 0
174 198 0
175 198 0
173 197 0
173 197 0
173 197 0
173 197 0
173 197 0
172 197 0
175 198 0
173 197 0
174 197 0
172 196 0
173 196 0
173 197 0
174 197 0
174 197 0
176 198 0
174 198 0
173 196 0
173 196 0
175 198 0
174 197 0
174 198 0
173 197 0
175 198 0
173 197 0
173 197 0
173 197 0
175 198 0
175 198 0
174 197 0
173 197 0
175 198 0
175 198 0
174 197 0
174 198 0
174 197 0
173 197 0
174 198 0
176 199 0
174 197 0
173 197 0
173 197 0
174 197 0
173 197 0
175 198 0
175 198 0
173 197 0
175 198 0
174 198 0
176 198 0
176 198 0
175 198 0
173 197 0
175 198 0
174 197 0
174 198 0
174 197 0
174 198 0
175 198 0
174 197 0
174 198 0
173 197 0
174 197 0
174 198 0
175 198 0
174 198 0
173 196 0
174 197 0
174 197 0
174 197 0
173 197 0
174 198 0
175 198 0
175 198 0
174 198 0
174 197 0
176 199 0
176 199 0
175 198 0
174 198 0
174 198 0
174 198 0
174 198 0
174 197 0
173 197 0
172 197 0
175 198 0
176 199 0
175 198 0
173 197 0
173 197 0
175 198 0
175 198 0
174 197 0
175 198 0
175 198 0
175 198 0
174 198 0
173 197 0
176 199 0
173 197 0
174 198 0
174 197 0
174 198 0
174 198 0
174 198 0
175 198 0
173 197 0
174 197 0
174 198 0
172 197 0
175 198 0
175 198 0
175 198 0
174 198 0
173 197 0
175 198 0
175 198 0
175 198 0
175 198 0
174 197 0
174 198 0
174 197 0
175 198 0
175 198 0
175 198 0
173 197 0
173 197 0
174 198 0
174 198 0
175 198 0
174 198 0
175 198 0
172 196 0
176 198 0
175 198 0
176 199 0
173 197 0
174 198 0
175 198 0
175 198 0
175 198 0
175 198 0
175 198 0
175 198 0
174 197 0
175 198 0
173 197 0
174 198 0
175 198 0
174 198 0
174 197 0
174 198 0
172 196 0
175 198 0
174 197 0
173 196 0
176 199 0
173 197 0
174 198 0
173 197 0
174 197 0
174 197 0
174 198 0
174 198 0
173 196 0
173 197 0
175 198 0
174 198 0
174 198 0
173 197 0
174 197 0
175 198 0
175 198 0
175 198 0
172 196 0
175 197 0
173 197 0
174 197 0
175 198 0
176 199 0
173 197 0
174 197 0
175 198 0
174 198 0
172 196 0
174 197 0
173 197 0
174 197 0
174 197 0
173 197 0
175 198 0
174 198 0
174 197 0
172 197 0
175 198 0
174 197 0
174 197 0
172 196 0
174 197 0
174 198 0
174 197 0
175 198 0
173 197 0
173 196 0
174 198 0
175 198 0
174 197 0
173 197 0
173 197 0
173 196 0
174 198 0
176 198 0
174 197 0
173 197 0
173 197 0
174 197 0
174 198 0
174 197 0
172 195 0
174 197 0
172 196 0
174 197 0
173 197 0
173 197 0
173 196 0
173 196 0
172 196 0
175 197 0
174 198 0
172 196 0
173 196 0
175 198 0
174 197 0
175 198 0
173 197 0
173 197 0
173 197 0
173 197 0
174 198 0
172 195 0
173 197 0
174 197 0
175 198 0
173 196 0
172 196 0
172 196 0
174 197 0
172 196 0
174 198 0
175 198 0
173 197 0
173 197 0
172 197 0
173 196 0
173 196 0
173 196 0
173 197 0
173 197 0
172 195 0
171 195 0
171 195 0
174 197 0
174 197 0
173 196 0
172 196 0
172 196 0
172 196 0
174 197 0
170 195 0
172 195 0
173 196 0
174 197 0
172 196 0
173 197 0
172 196 0
174 197 0
171 195 0
175 198 0
175 198 0
173 196 0
172 196 0
173 197 0
171 195 0
172 195 0
174 197 0
172 195 0
172 195 0
173 197 0
173 197 0
173 197 0
173 197 0
174 197 0
173 197 0
175 198 0
173 196 0
172 196 0
175 197 0
172 196 0
171 194 0
173 196 0
175 198 0
174 198 0
175 198 0
172 196 0
173 197 0
173 197 0
173 196 0
174 197 0
175 198 0
173 197 0
173 196 0
171 195 0
170 194 0
173 196 0
171 195 0
172 196 0
172 195 0
172 195 0
173 196 0
174 196 0
173 196 0
171 195 0
172 196 0
168 192 0
174 197 0
173 196 0
173 196 0
174 196 0
174 197 0
172 195 0
172 196 0
171 195 0
174 197 0
173 197 0
176 198 0
174 198 0
171 195 0
174 197 0
172 196 0
174 197 0
175 198 0
174 197 0
173 196 0
173 197 0
173 196 0
172 196 0
173 197 0
172 196 0
174 197 0
175 198 0
174 198 0
174 197 0
174 198 0
171 194 0
173 196 0
174 197 0
175 198 0
174 197 0
174 198 0
174 197 0
174 197 0
175 198 0
174 197 0
174 197 0
175 197 0
172 196 0
174 197 0
173 197 0
176 198 0
174 198 0
175 198 0
173 196 0
172 196 0
174 198 0
173 197 0
173 197 0
173 197 0
171 195 0
172 196 0
176 199 0
174 197 0
172 197 0
175 197 0
175 198 0
173 197 0
174 198 0
174 197 0
175 197 0
172 196 0
173 197 0
172 197 0
176 198 0
175 198 0
174 198 0
173 197 0
174 197 0
174 197 0
174 197 0
174 197 0
175 198 0
175 198 0
175 198 0
173 197 0
174 197 0
174 197 0
172 196 0
175 198 0
175 198 0
173 197 0
173 197 0
174 198 0
175 198 0
172 196 0
173 197 0
173 197 0
174 197 0
173 197 0
173 197 0
175 198 0
173 197 0
173 197 0
173 197 0
175 198 0
174 197 0
174 198 0
175 198 0
176 199 0
174 197 0
173 197 0
175 198 0
174 197 0
175 198 0
173 197 0
174 197 0
175 198 0
174 198 0
174 198 0
174 197 0
174 197 0
175 198 0
176 198 0
172 196 0
174 197 0
175 198 0
175 198 0
174 198 0
174 197 0
175 198 0
173 197 0
175 198 0
175 198 0
173 196 0
173 197 0
174 198 0
174 198 0
174 197 0
174 197 0
173 197 0
175 198 0
174 197 0
173 197 0
173 197 0
174 197 0
174 197 0
175 198 0
175 198 0
175 198 0
174 197 0
174 197 0
172 196 0
175 198 0
175 198 0
175 198 0
173 197 0
174 197 0
176 198 0
174 198 0
173 197 0
174 197 0
174 198 0
175 198 0
176 199 0
174 198 0
173 197 0
175 198 0
174 197 0
175 198 0
174 198 0
174 198 0
174 197 0
175 198 0
175 198 0
174 198 0
175 198 0
175 198 0
174 198 0
174 198 0
174 198 0
172 196 0
175 198 0
174 197 0
175 198 0
174 198 0
174 197 0
173 197 0
174 198 0
174 197 0
173 197 0
173 197 0
174 197 0
173 197 0
175 198 0
175 198 0
174 197 0
174 198 0
174 197 0
173 197 0
175 198 0
175 198 0
173 197 0
172 196 0
175 198 0
174 198 0
175 198 0
173 197 0
174 198 0
173 197 0
173 197 0
175 198 0
173 197 0
174 198 0
173 197 0
174 197 0
174 197 0
175 198 0
175 198 0
175 198 0
174 198 0
173 197 0
173 197 0
175 198 0
175 198 0
173 197 0
175 198 0
176 199 0
176 199 0
174 198 0
175 198 0
172 196 0
175 198 0
175 198 0
174 198 0
173 196 0
174 197 0
174 198 0
175 198 0
174 198 0
174 198 0
173 197 0
173 197 0
174 197 0
175 198 0
173 197 0
174 197 0
173 197 0
173 197 0
173 197 0
175 198 0
175 198 0
172 196 0
175 198 0
174 198 0
174 198 0
173 197 0
176 198 0
174 197 0
175 198 0
174 198 0
174 198 0
174 198 0
172 196 0
173 197 0
175 198 0
175 198 0
173 197 0
174 198 0
174 198 0
173 197 0
176 199 0
175 198 0
174 197 0
172 196 0
174 198 0
173 197 0
172 196 0
173 197 0
173 196 0
173 197 0
173 197 0
174 198 0
175 198 0
173 197 0
172 196 0
174 197 0
172 196 0
174 197 0
174 198 0
173 196 0
175 198 0
174 197 0
172 196 0
172 196 0
175 198 0
176 199 0
173 197 0
176 199 0
174 198 0
174 198 0
174 198 0
176 198 0
171 195 0
171 195 0
173 197 0
173 196 0
173 197 0
172 195 0
175 198 0
173 197 0
174 197 0
172 195 0
173 197 0
172 196 0
173 197 0
173 197 0
175 198 0
172 196 0
173 197 0
173 196 0
173 197 0
174 197 0
174 197 0
174 197 0
171 195 0
174 198 0
174 198 0
172 196 0
171 195 0
173 196 0
171 194 0
174 197 0
173 197 0
173 196 0
176 198 0
174 198 0
173 197 0
175 198 0
173 197 0
176 198 0
173 197 0
173 196 0
174 198 0
174 198 0
171 196 0
173 197 0
175 198 0
172 195 0
173 197 0
173 196 0
172 196 0
172 196 0
174 198 0
172 196 0
174 197 0
172 195 0
172 196 0
173 196 0
172 196 0
172 195 0
172 196 0
174 197 0
173 196 0
174 197 0
169 192 0
173 197 0
173 197 0
171 195 0
172 196 0
171 195 0
173 196 0
174 197 0
174 198 0
173 196 0
173 196 0
171 195 0
172 196 0
173 196 0
174 197 0
174 197 0
173 197 0
173 197 0
172 196 0
172 196 0
173 197 0
171 195 0
173 196 0
174 198 0
170 193 0
172 196 0
173 196 0
173 196 0
175 198 0
173 196 0
174 197 0
172 195 0
174 197 0
173 197 0
171 195 0
175 198 0
173 197 0
175 198 0
173 196 0
172 196 0
174 197 0
172 195 0
172 196 0
176 199 0
174 197 0
174 197 0
174 196 0
170 194 0
173 196 0
173 196 0
173 197 0
172 196 0
173 197 0
171 195 0
172 196 0
173 197 0
173 197 0
174 197 0
172 196 0
173 196 0
173 196 0
175 197 0
175 198 0
173 197 0
174 197 0
174 197 0
175 198 0
173 196 0
175 198 0
174 197 0
172 195 0
174 197 0
175 198 0
175 198 0
171 195 0
174 197 0
174 198 0
174 197 0
173 196 0
172 196 0
173 197 0
175 198 0
171 196 0
173 196 0
175 198 0
170 194 0
175 198 0
172 195 0
174 197 0
173 197 0
176 199 0
174 198 0
172 196 0
173 197 0
173 197 0
175 198 0
174 197 0
172 196 0
174 197 0
173 197 0
173 196 0
173 197 0
173 197 0
174 197 0
174 197 0
174 197 0
172 197 0
173 197 0
172 196 0
174 197 0
174 197 0
173 197 0
174 197 0
173 196 0
175 198 0
174 197 0
173 197 0
172 196 0
174 197 0
174 198 0
173 197 0
174 197 0
174 198 0
174 197 0
175 198 0
174 197 0
175 198 0
176 198 0
175 198 0
173 196 0
172 195 0
174 198 0
173 197 0
172 196 0
174 198 0
176 198 0
175 198 0
174 197 0
173 196 0
174 197 0
174 197 0
173 197 0
175 198 0
174 197 0
174 197 0
176 199 0
174 198 0
173 197 0
176 199 0
175 198 0
176 199 0
173 197 0
175 198 0
173 197 0
175 198 0
174 197 0
176 199 0
174 197 0
175 198 0
173 197 0
173 197 0
174 198 0
174 197 0
175 198 0
175 198 0
174 197 0
173 197 0
174 197 0
175 198 0
173 197 0
174 197 0
174 197 0
174 197 0
175 198 0
174 197 0
176 198 0
177 199 0
173 196 0
176 198 0
175 198 0
173 197 0
173 197 0
174 197 0
175 198 0
174 197 0
174 198 0
174 197 0
175 198 0
173 197 0
173 197 0
172 197 0
175 198 0
175 197 0
175 198 0
173 197 0
173 197 0
175 198 0
175 198 0
176 198 0
174 197 0
174 197 0
173 197 0
173 197 0
176 198 0
175 198 0
173 197 0
174 198 0
175 198 0
173 197 0
174 198 0
175 198 0
173 197 0
174 198 0
174 198 0
174 198 0
174 198 0
171 196 0
176 199 0
173 197 0
175 198 0
175 198 0
174 197 0
173 197 0
175 198 0
175 198 0
174 197 0
173 197 0
176 199 0
174 197 0
174 198 0
175 198 0
175 198 0
176 199 0
174 197 0
174 197 0
173 196 0
173 197 0
174 198 0
174 198 0
175 198 0
175 198 0
174 197 0
173 197 0
176 199 0
173 197 0
175 198 0
176 199 0
175 198 0
173 197 0
172 197 0
176 199 0
174 198 0
173 197 0
174 198 0
176 199 0
174 198 0
174 197 0
173 197 0
174 198 0
176 198 0
175 198 0
174 197 0
174 197 0
174 198 0
175 198 0
175 198 0
175 198 0
174 197 0
175 198 0
174 198 0
174 197 0
173 197 0
174 198 0
173 197 0
174 198 0
175 198 0
174 197 0
176 199 0
174 198 0
174 198 0
175 198 0
176 199 0
174 198 0
173 197 0
174 197 0
176 199 0
173 197 0
174 197 0
173 197 0
173 197 0
173 197 0
175 198 0
174 198 0
175 198 0
173 197 0
174 198 0
173 197 0
173 197 0
175 198 0
171 195 0
172 196 0
174 197 0
175 198 0
174 198 0
176 198 0
174 198 0
174 198 0
174 197 0
173 196 0
175 198 0
175 198 0
173 196 0
173 197 0
172 197 0
174 198 0
175 198 0
172 197 0
174 197 0
174 198 0
172 196 0
174 197 0
172 196 0
173 197 0
176 199 0
174 197 0
176 199 0
175 198 0
175 198 0
175 198 0
174 197 0
173 197 0
174 198 0
174 197 0
173 197 0
176 199 0
172 196 0
174 198 0
174 198 0
173 196 0
174 198 0
174 197 0
175 198 0
174 197 0
174 198 0
174 198 0
173 196 0
174 198 0
172 196 0
174 197 0
173 197 0
169 194 0
173 196 0
174 197 0
173 197 0
172 195 0
174 197 0
174 197 0
172 196 0
172 196 0
174 197 0
172 196 0
173 197 0
174 197 0
173 196 0
172 195 0
172 196 0
172 195 0
174 197 0
172 196 0
172 195 0
174 197 0
172 196 0
172 196 0
171 195 0
174 197 0
170 194 0
173 196 0
173 196 0
171 194 0
173 197 0
173 197 0
172 196 0
174 197 0
172 196 0
172 196 0
173 195 0
172 194 0
174 197 0
169 193 0
172 196 0
171 194 0
173 197 0
172 196 0
172 196 0
173 196 0
172 196 0
170 194 0
171 194 0
173 196 0
174 198 0
173 197 0
173 197 0
174 197 0
173 196 0
174 197 0
173 196 0
174 197 0
172 196 0
173 197 0
173 195 0
173 196 0
171 195 0
174 198 0
174 197 0
171 195 0
173 197 0
173 197 0
173 197 0
173 197 0
172 195 0
174 197 0
174 197 0
173 197 0
175 198 0
173 197 0
171 194 0
172 196 0
174 197 0
172 196 0
173 196 0
174 197 0
174 198 0
173 197 0
172 196 0
174 197 0
173 197 0
174 197 0
172 195 0
172 196 0
175 198 0
173 196 0
171 195 0
172 196 0
173 196 0
173 197 0
172 195 0
174 197 0
174 196 0
174 197 0
172 196 0
172 196 0
173 196 0
176 198 0
175 198 0
173 197 0
174 198 0
172 196 0
173 196 0
171 194 0
173 197 0
174 197 0
174 198 0
173 197 0
175 197 0
173 196 0
174 197 0
176 198 0
173 197 0
174 198 0
173 195 0
173 196 0
173 197 0
172 196 0
173 197 0
174 198 0
171 193 0
173 196 0
172 196 0
173 197 0
173 196 0
175 198 0
174 197 0
174 197 0
174 198 0
175 198 0
173 197 0
173 197 0
174 197 0
173 197 0
173 197 0
173 196 0
173 196 0
173 197 0
174 197 0
175 198 0
173 197 0
173 196 0
176 199 0
175 198 0
175 198 0
173 197 0
174 196 0
175 198 0
174 197 0
175 197 0
172 196 0
174 197 0
175 198 0
173 196 0
173 196 0
169 193 0
173 197 0
175 198 0
173 196 0
171 196 0
172 196 0
173 197 0
172 196 0
175 198 0
175 198 0
175 198 0
173 196 0
176 199 0
172 196 0
173 197 0
173 196 0
174 198 0
174 197 0
173 197 0
174 198 0
175 198 0
175 198 0
174 198 0
173 197 0
175 198 0
175 198 0
173 197 0
177 199 0
174 198 0
174 198 0
175 197 0
174 197 0
174 198 0
176 198 0
174 197 0
173 197 0
175 198 0
174 198 0
174 197 0
174 198 0
174 197 0
175 198 0
174 198 0
175 198 0
175 198 0
173 197 0
175 198 0
175 198 0
173 197 0
173 197 0
175 198 0
174 198 0
173 197 0
173 197 0
174 197 0
175 198 0
173 197 0
175 198 0
174 197 0
175 198 0
174 198 0
176 198 0
175 198 0
174 198 0
175 198 0
174 198 0
173 197 0
175 198 0
175 198 0
173 197 0
173 197 0
173 197 0
176 199 0
176 198 0
174 197 0
175 198 0
174 198 0
176 198 0
174 197 0
172 196 0
173 197 0
175 198 0
175 198 0
174 198 0
175 198 0
175 198 0
175 198 0
172 197 0
175 198 0
175 198 0
174 197 0
174 198 0
174 198 0
174 198 0
174 197 0
173 197 0
174 198 0
174 198 0
176 198 0
173 197 0
174 198 0
175 198 0
174 198 0
176 198 0
172 197 0
175 198 0
175 198 0
175 198 0
176 199 0
173 197 0
176 199 0
174 198 0
173 197 0
174 197 0
175 198 0
174 198 0
174 197 0
176 199 0
175 198 0
173 197 0
173 197 0
174 198 0
175 198 0
172 197 0
174 198 0
175 198 0
175 198 0
176 199 0
174 198 0
173 197 0
176 199 0
173 197 0
173 197 0
173 197 0
174 197 0
173 197 0
173 197 0
174 198 0
175 198 0
174 198 0
175 198 0
176 198 0
174 198 0
175 198 0
172 197 0
174 198 0
175 198 0
175 198 0
175 198 0
176 199 0
176 198 0
174 197 0
174 197 0
175 198 0
174 198 0
174 198 0
173 197 0
175 198 0
174 198 0
175 198 0
175 198 0
174 197 0
173 197 0
176 199 0
175 198 0
174 198 0
174 197 0
175 198 0
172 197 0
173 197 0
174 198 0
175 198 0
174 198 0
175 198 0
175 198 0
174 198 0
173 197 0
174 197 0
173 197 0
173 196 0
174 198 0
175 198 0
174 198 0
174 197 0
173 197 0
174 197 0
174 197 0
174 198 0
174 198 0
174 198 0
173 197 0
175 198 0
174 197 0
174 198 0
172 196 0
174 197 0
173 197 0
172 196 0
175 198 0
174 197 0
176 198 0
175 197 0
173 197 0
175 198 0
173 197 0
174 198 0
174 198 0
174 198 0
174 198 0
175 198 0
175 198 0
173 197 0
173 197 0
172 196 0
173 196 0
173 197 0
174 197 0
173 197 0
172 196 0
174 197 0
174 197 0
175 198 0
174 198 0
171 195 0
174 197 0
174 197 0
173 196 0
174 197 0
172 196 0
173 197 0
173 197 0
176 198 0
173 197 0
173 197 0
172 196 0
174 198 0
173 196 0
173 197 0
175 198 0
173 197 0
173 197 0
175 198 0
172 196 0
173 197 0
173 196 0
172 196 0
174 198 0
172 196 0
174 198 0
172 196 0
173 196 0
172 196 0
172 196 0
172 196 0
172 196 0
173 197 0
172 196 0
174 197 0
172 196 0
173 195 0
175 198 0
172 196 0
173 197 0
174 198 0
175 198 0
175 198 0
174 197 0
173 196 0
171 195 0
170 193 0
175 198 0
173 197 0
174 197 0
173 196 0
173 197 0
173 196 0
173 197 0
174 197 0
172 196 0
172 196 0
175 198 0
173 197 0
173 196 0
173 196 0
172 195 0
173 196 0
174 197 0
172 195 0
174 197 0
173 196 0
173 197 0
171 194 0
173 196 0
172 195 0
175 198 0
173 197 0
170 193 0
172 196 0
173 196 0
171 194 0
173 197 0
172 196 0
174 197 0
172 196 0
172 196 0
172 196 0
174 197 0
171 195 0
174 197 0
175 198 0
173 197 0
173 196 0
172 195 0
174 197 0
173 196 0
173 197 0
175 198 0
171 195 0
172 195 0
173 196 0
173 197 0
171 195 0
170 195 0
173 196 0
171 195 0
172 196 0
174 197 0
175 198 0
174 198 0
174 197 0
173 197 0
174 197 0
172 196 0
173 197 0
172 196 0
172 195 0
172 195 0
174 197 0
173 196 0
174 198 0
172 195 0
174 198 0
176 199 0
174 198 0
172 195 0
173 197 0
173 197 0
175 198 0
173 197 0
174 198 0
173 197 0
174 197 0
173 196 0
172 195 0
174 197 0
174 197 0
173 196 0
172 196 0
175 198 0
171 195 0
175 198 0
176 199 0
174 197 0
173 196 0
173 197 0
173 197 0
175 198 0
173 196 0
174 197 0
172 196 0
172 195 0
175 198 0
175 198 0
175 198 0
173 196 0
173 196 0
172 196 0
172 196 0
174 197 0
173 196 0
172 196 0
173 196 0
172 196 0
173 197 0
173 196 0
175 198 0
174 197 0
174 197 0
174 197 0
174 198 0
175 198 0
174 198 0
173 197 0
174 197 0
172 196 0
171 195 0
175 198 0
172 196 0
175 197 0
174 197 0
174 197 0
174 198 0
173 197 0
174 197 0
174 198 0
175 198 0
173 197 0
174 197 0
175 198 0
175 198 0
173 197 0
173 196 0
174 198 0
172 195 0
173 196 0
174 198 0
173 197 0
175 198 0
174 198 0
171 196 0
173 196 0
173 197 0
173 197 0
174 197 0
175 198 0
172 196 0
173 197 0
173 197 0
174 198 0
174 197 0
174 198 0
174 197 0
173 197 0
174 197 0
172 196 0
175 198 0
174 197 0
173 197 0
174 198 0
173 197 0
176 199 0
175 198 0
175 198 0
173 197 0
176 198 0
174 197 0
172 196 0
175 198 0
173 197 0
172 196 0
174 197 0
176 198 0
174 198 0
174 198 0
174 198 0
174 198 0
175 198 0
174 198 0
173 197 0
174 197 0
175 198 0
175 198 0
173 197 0
174 197 0
174 197 0
175 197 0
174 198 0
174 197 0
173 197 0
174 198 0
174 197 0
175 198 0
175 198 0
174 198 0
173 197 0
174 197 0
176 198 0
174 197 0
174 198 0
174 198 0
175 198 0
174 197 0
174 197 0
174 198 0
173 197 0
174 198 0
173 196 0
175 198 0
175 198 0
175 198 0
175 198 0
175 198 0
174 198 0
175 198 0
175 198 0
175 198 0
173 197 0
173 197 0
174 197 0
174 198 0
173 197 0
176 198 0
176 199 0
173 197 0
175 198 0
174 198 0
174 197 0
175 198 0
173 197 0
174 198 0
175 198 0
174 197 0
175 198 0
175 198 0
172 197 0
174 197 0
174 197 0
175 198 0
173 196 0
174 198 0
174 198 0
175 198 0
174 198 0
173 197 0
174 198 0
173 197 0
175 198 0
175 198 0
175 198 0
172 197 0
174 197 0
175 198 0
175 198 0
173 197 0
174 198 0
175 198 0
174 198 0
172 196 0
174 197 0
175 198 0
175 198 0
173 197 0
174 198 0
175 198 0
175 198 0
174 197 0
175 198 0
174 198 0
174 198 0
174 198 0
175 198 0
175 198 0
176 199 0
175 198 0
174 198 0
175 198 0
173 197 0
174 198 0
175 198 0
173 197 0
173 197 0
175 198 0
174 197 0
172 196 0
174 197 0
175 198 0
172 197 0
173 196 0
174 197 0
173 197 0
173 197 0
176 199 0
175 198 0
175 198 0
173 197 0
174 198 0
174 197 0
173 197 0
175 198 0
176 199 0
172 196 0
174 197 0
175 198 0
172 196 0
173 197 0
173 197 0
173 197 0
174 198 0
176 199 0
176 199 0
173 197 0
170 195 0
174 197 0
175 198 0
175 198 0
175 198 0
174 197 0
173 197 0
174 197 0
173 197 0
175 198 0
175 198 0
174 197 0
173 197 0
172 196 0
175 198 0
173 197 0
172 196 0
172 196 0
174 197 0
174 197 0
174 197 0
175 198 0
173 197 0
173 197 0
173 197 0
174 198 0
174 197 0
172 196 0
175 198 0
172 196 0
174 197 0
173 197 0
171 196 0
173 197 0
174 197 0
171 196 0
173 197 0
174 198 0
173 197 0
174 197 0
171 195 0
173 196 0
172 196 0
174 197 0
172 195 0
173 197 0
174 197 0
174 197 0
175 198 0
173 197 0
172 196 0
174 197 0
174 197 0
173 197 0
172 195 0
174 197 0
169 193 0
175 198 0
175 198 0
174 197 0
173 197 0
174 197 0
174 197 0
172 196 0
170 194 0
174 197 0
172 196 0
174 197 0
171 196 0
173 197 0
173 197 0
174 197 0
174 197 0
172 196 0
173 196 0
173 197 0
173 196 0
174 197 0
174 197 0
174 198 0
173 197 0
171 195 0
174 197 0
177 199 0
173 196 0
172 196 0
174 197 0
173 197 0
172 195 0
173 197 0
175 198 0
173 197 0
175 197 0
174 197 0
174 197 0
174 197 0
173 197 0
173 196 0
174 197 0
173 196 0
171 194 0
173 197 0
175 198 0
173 196 0
172 196 0
175 198 0
172 196 0
173 196 0
170 194 0
173 197 0
173 196 0
173 197 0
174 197 0
171 195 0
170 194 0
174 197 0
174 197 0
173 197 0
172 195 0
175 198 0
173 196 0
175 198 0
174 197 0
175 198 0
174 197 0
174 198 0
173 196 0
173 197 0
174 197 0
174 196 0
171 195 0
173 196 0
172 196 0
171 194 0
172 196 0
172 197 0
174 197 0
174 197 0
172 196 0
169 194 0
174 197 0
172 196 0
174 198 0
172 196 0
171 194 0
173 196 0
172 196 0
174 198 0
174 197 0
172 195 0
174 197 0
172 196 0
173 196 0
173 197 0
172 196 0
173 196 0
174 197 0
173 197 0
171 195 0
174 197 0
175 198 0
174 197 0
173 196 0
175 198 0
175 198 0
174 197 0
176 199 0
175 197 0
174 197 0
172 196 0
173 196 0
174 197 0
172 196 0
172 195 0
175 198 0
175 198 0
173 197 0
172 196 0
173 197 0
174 197 0
175 198 0
172 196 0
172 196 0
174 197 0
173 197 0
173 197 0
174 197 0
171 195 0
174 198 0
173 197 0
175 198 0
173 197 0
172 196 0
174 197 0
175 198 0
174 197 0
175 197 0
172 196 0
174 198 0
174 197 0
173 197 0
175 198 0
174 198 0
173 197 0
175 198 0
173 197 0
173 197 0
174 197 0
174 197 0
173 197 0
172 196 0
174 198 0
175 197 0
173 197 0
173 197 0
174 198 0
176 199 0
173 197 0
173 197 0
174 197 0
175 198 0
173 197 0
174 197 0
173 197 0
172 196 0
175 198 0
174 197 0
171 195 0
174 197 0
175 198 0
175 198 0
172 196 0
174 198 0
175 198 0
173 197 0
174 198 0
175 198 0
174 198 0
175 198 0
175 198 0
174 197 0
172 196 0
175 198 0
174 197 0
173 197 0
174 198 0
174 197 0
174 197 0
173 197 0
174 197 0
175 198 0
173 197 0
172 196 0
175 198 0
174 198 0
176 198 0
173 197 0
174 198 0
173 197 0
176 199 0
175 198 0
174 198 0
174 197 0
173 197 0
175 198 0
174 197 0
176 199 0
175 198 0
176 199 0
171 195 0
175 198 0
173 197 0
174 198 0
174 197 0
173 197 0
174 198 0
176 199 0
175 198 0
174 197 0
174 198 0
176 199 0
175 198 0
174 198 0
173 197 0
175 198 0
175 198 0
172 197 0
175 198 0
172 197 0
175 198 0
174 198 0
175 198 0
174 198 0
174 197 0
173 197 0
173 197 0
175 198 0
174 198 0
175 198 0
174 198 0
174 197 0
174 197 0
174 198 0
176 199 0
173 197 0
174 198 0
173 197 0
174 197 0
175 198 0
173 197 0
173 197 0
172 196 0
173 197 0
173 197 0
175 198 0
174 198 0
173 197 0
176 199 0
174 197 0
176 199 0
174 197 0
174 198 0
175 198 0
173 196 0
174 197 0
174 198 0
174 198 0
174 197 0
175 198 0
174 198 0
172 196 0
175 198 0
172 196 0
174 198 0
175 198 0
172 197 0
175 198 0
174 198 0
173 197 0
174 198 0
173 197 0
173 197 0
174 197 0
173 197 0
173 197 0
176 198 0
176 198 0
176 198 0
174 197 0
174 198 0
173 197 0
175 198 0
172 196 0
175 198 0
175 198 0
174 198 0
173 197 0
173 197 0
174 197 0
172 197 0
174 198 0
175 198 0
174 198 0
174 197 0
174 197 0
174 197 0
174 197 0
174 198 0
176 199 0
174 198 0
173 197 0
174 197 0
175 198 0
173 197 0
175 198 0
174 198 0
174 198 0
174 197 0
173 197 0
174 198 0
175 198 0
174 198 0
173 197 0
174 198 0
174 198 0
174 197 0
173 196 0
173 197 0
172 196 0
174 197 0
173 197 0
175 198 0
174 197 0
174 198 0
175 198 0
174 197 0
174 197 0
174 198 0
174 198 0
174 198 0
174 198 0
174 198 0
174 197 0
173 197 0
173 196 0
175 198 0
175 198 0
175 198 0
174 198 0
172 196 0
173 197 0
174 198 0
175 198 0
175 198 0
172 196 0
175 198 0
174 197 0
174 198 0
172 196 0
175 198 0
177 199 0
173 197 0
175 198 0
174 198 0
173 196 0
173 197 0
175 198 0
173 197 0
174 197 0
172 197 0
173 196 0
173 197 0
174 197 0
174 197 0
174 198 0
171 195 0
170 195 0
172 196 0
173 197 0
173 197 0
174 198 0
175 198 0
173 197 0
173 196 0
173 196 0
171 195 0
172 196 0
173 197 0
173 196 0
174 197 0
173 197 0
172 196 0
172 196 0
174 197 0
173 196 0
172 196 0
173 197 0
171 195 0
173 197 0
171 195 0
174 197 0
176 199 0
174 198 0
173 196 0
175 198 0
175 198 0
173 196 0
172 196 0
173 196 0
174 197 0
175 198 0
174 197 0
173 196 0
172 196 0
173 196 0
173 197 0
174 197 0
173 197 0
173 197 0
173 197 0
174 198 0
173 197 0
174 197 0
169 194 0
171 195 0
173 196 0
171 194 0
172 196 0
174 197 0
173 197 0
173 196 0
172 195 0
173 197 0
173 197 0
173 197 0
170 194 0
174 197 0
175 198 0
174 197 0
173 197 0
172 196 0
174 198 0
172 195 0
171 195 0
173 197 0
173 196 0
172 196 0
174 197 0
174 198 0
172 196 0
174 197 0
174 197 0
173 196 0
174 197 0
174 197 0
173 197 0
174 197 0
173 197 0
173 197 0
173 197 0
171 194 0
174 197 0
171 195 0
175 197 0
170 194 0
173 196 0
173 196 0
172 195 0
170 194 0
174 197 0
174 197 0
172 196 0
173 196 0
175 198 0
173 196 0
175 198 0
174 197 0
170 194 0
173 196 0
173 196 0
174 197 0
172 196 0
174 197 0
172 196 0
171 195 0
174 197 0
172 196 0
175 198 0
173 197 0
173 196 0
173 197 0
175 198 0
174 198 0
174 197 0
173 197 0
174 197 0
173 196 0
174 197 0
172 196 0
175 198 0
173 196 0
173 197 0
172 196 0
172 196 0
173 197 0
173 196 0
173 196 0
174 197 0
173 196 0
172 195 0
173 197 0
174 197 0
174 197 0
173 196 0
174 197 0
172 196 0
173 197 0
173 196 0
175 198 0
174 197 0
172 196 0
173 196 0
173 197 0
174 198 0
174 197 0
174 198 0
174 197 0
173 197 0
171 194 0
172 196 0
173 197 0
170 193 0
174 196 0
172 196 0
173 197 0
174 198 0
172 196 0
174 197 0
173 197 0
175 198 0
173 197 0
173 197 0
174 197 0
172 195 0
173 197 0
175 198 0
173 197 0
172 196 0
173 196 0
173 196 0
175 198 0
175 198 0
174 197 0
173 197 0
174 197 0
174 197 0
174 198 0
175 198 0
173 197 0
174 198 0
173 197 0
174 198 0
173 196 0
173 196 0
172 196 0
176 199 0
173 197 0
175 198 0
174 197 0
174 198 0
175 198 0
174 197 0
175 198 0
176 199 0
175 198 0
174 197 0
173 197 0
175 198 0
174 197 0
173 197 0
175 198 0
175 198 0
173 197 0
174 197 0
175 198 0
174 197 0
174 197 0
175 198 0
175 198 0
173 197 0
174 198 0
172 195 0
176 199 0
174 198 0
175 198 0
174 197 0
175 198 0
174 198 0
176 199 0
175 198 0
173 197 0
173 197 0
174 198 0
172 196 0
174 198 0
174 198 0
173 196 0
173 197 0
172 197 0
176 198 0
175 198 0
174 197 0
174 198 0
172 196 0
173 197 0
173 197 0
176 199 0
174 197 0
171 196 0
175 198 0
175 198 0
174 197 0
175 198 0
175 198 0
174 198 0
175 198 0
176 198 0
174 198 0
174 198 0
174 197 0
174 197 0
175 198 0
173 196 0
174 198 0
176 198 0
173 197 0
176 199 0
175 198 0
174 198 0
173 197 0
175 198 0
173 197 0
174 198 0
174 198 0
176 199 0
174 198 0
175 198 0
173 197 0
174 198 0
174 197 0
176 198 0
174 198 0
174 198 0
174 198 0
175 198 0
174 198 0
174 198 0
174 198 0
176 199 0
174 198 0
174 198 0
173 197 0
176 199 0
173 196 0
173 197 0
172 196 0
175 198 0
172 197 0
172 197 0
173 197 0
176 198 0
174 198 0
174 198 0
175 198 0
174 198 0
174 198 0
176 198 0
175 198 0
174 198 0
174 198 0
175 198 0
174 198 0
174 198 0
175 198 0
174 198 0
176 198 0
175 198 0
173 197 0
174 197 0
174 198 0
175 198 0
173 196 0
174 197 0
174 198 0
175 198 0
174 198 0
173 197 0
175 198 0
174 198 0
174 197 0
174 198 0
173 197 0
174 197 0
175 198 0
174 197 0
173 197 0
173 197 0
173 197 0
172 197 0
173 197 0
173 197 0
173 197 0
174 198 0
174 197 0
174 197 0
172 196 0
174 197 0
172 196 0
173 197 0
173 197 0
175 198 0
174 198 0
174 198 0
173 197 0
174 198 0
177 199 0
174 197 0
173 197 0
174 197 0
174 198 0
176 198 0
175 198 0
174 198 0
175 198 0
174 198 0
174 197 0
173 197 0
173 197 0
174 198 0
174 198 0
176 199 0
172 196 0
173 195 0
172 196 0
174 198 0
172 197 0
174 198 0
173 197 0
174 198 0
173 197 0
173 196 0
175 198 0
174 198 0
174 198 0
173 197 0
172 197 0
173 197 0
174 198 0
174 197 0
174 197 0
173 197 0
172 196 0
174 198 0
174 197 0
171 195 0
172 195 0
174 197 0
175 198 0
174 198 0
173 197 0
174 197 0
173 197 0
174 198 0
174 198 0
173 197 0
174 197 0
173 197 0
174 197 0
172 196 0
175 198 0
173 196 0
173 196 0
174 197 0
174 198 0
176 199 0
173 196 0
174 197 0
175 198 0
174 197 0
174 197 0
173 197 0
174 197 0
174 197 0
174 198 0
173 197 0
174 197 0
173 197 0
173 196 0
172 196 0
175 198 0
174 197 0
174 197 0
172 195 0
176 198 0
173 197 0
174 198 0
175 198 0
175 198 0
173 197 0
175 198 0
174 197 0
174 198 0
173 196 0
173 197 0
172 195 0
174 198 0
173 196 0
172 196 0
174 198 0
173 197 0
174 197 0
173 196 0
173 197 0
175 198 0
174 197 0
171 194 0
171 195 0
172 195 0
174 197 0
170 194 0
172 196 0
173 196 0
176 199 0
173 196 0
172 196 0
175 198 0
174 196 0
176 198 0
174 197 0
170 194 0
172 196 0
175 198 0
174 197 0
174 197 0
173 197 0
173 196 0
173 196 0
173 196 0
173 197 0
172 196 0
171 196 0
173 197 0
174 197 0
173 196 0
172 196 0
173 196 0
174 198 0
174 197 0
173 197 0
173 196 0
173 196 0
172 195 0
171 195 0
171 195 0
173 196 0
172 196 0
174 198 0
173 197 0
172 196 0
174 197 0
174 197 0
174 198 0
173 197 0
176 198 0
170 194 0
171 195 0
173 197 0
173 197 0
172 196 0
173 196 0
174 197 0
171 194 0
173 196 0
174 198 0
172 195 0
173 196 0
175 198 0
174 197 0
174 198 0
173 196 0
174 198 0
170 195 0
174 197 0
174 197 0
174 197 0
173 197 0
173 197 0
174 197 0
172 195 0
173 196 0
173 196 0
174 197 0
172 196 0
173 196 0
174 197 0
174 197 0
173 197 0
172 196 0
175 198 0
173 197 0
174 198 0
172 196 0
174 197 0
173 197 0
172 195 0
173 197 0
174 197 0
173 197 0
175 198 0
175 198 0
174 197 0
176 198 0
175 198 0
173 196 0
173 196 0
174 198 0
173 197 0
173 196 0
173 196 0
176 199 0
173 197 0
174 197 0
173 197 0
172 196 0
174 197 0
175 198 0
173 197 0
175 198 0
172 195 0
173 197 0
174 197 0
174 197 0
174 197 0
174 197 0
173 197 0
174 196 0
175 198 0
174 198 0
174 197 0
173 196 0
173 197 0
173 197 0
171 195 0
175 198 0
174 198 0
175 198 0
175 198 0
172 195 0
171 196 0
174 197 0
176 198 0
174 197 0
175 198 0
175 198 0
175 198 0
174 198 0
175 198 0
173 197 0
175 198 0
173 196 0
174 197 0
174 197 0
174 197 0
175 198 0
174 197 0
175 198 0
175 198 0
174 198 0
174 198 0
174 198 0
173 197 0
172 196 0
175 198 0
174 197 0
175 198 0
175 198 0
174 198 0
172 195 0
176 199 0
174 197 0
174 197 0
175 198 0
174 197 0
175 198 0
173 197 0
174 198 0
174 198 0
175 198 0
175 198 0
175 198 0
174 198 0
173 197 0
174 197 0
176 198 0
176 198 0
174 197 0
174 197 0
174 198 0
174 197 0
174 197 0
172 196 0
173 197 0
173 197 0
175 198 0
175 198 0
174 198 0
174 197 0
174 198 0
174 198 0
172 197 0
174 197 0
175 198 0
173 197 0
175 198 0
173 197 0
174 198 0
173 196 0
175 198 0
173 197 0
176 199 0
174 197 0
174 197 0
174 198 0
174 197 0
175 198 0
175 198 0
173 197 0
174 197 0
174 198 0
174 198 0
174 197 0
174 198 0
174 198 0
175 198 0
173 197 0
173 197 0
175 198 0
176 199 0
176 198 0
176 199 0
176 198 0
176 199 0
174 198 0
175 198 0
172 197 0
174 198 0
175 198 0
174 198 0
174 198 0
174 197 0
174 197 0
173 197 0
174 198 0
175 198 0
173 197 0
174 198 0
174 197 0
173 197 0
174 197 0
174 197 0
174 198 0
173 197 0
175 198 0
174 198 0
175 198 0
175 198 0
175 198 0
175 198 0
175 198 0
176 199 0
173 197 0
174 198 0
174 197 0
173 197 0
174 198 0
175 198 0
174 197 0
173 197 0
174 197 0
173 197 0
174 198 0
174 198 0
173 197 0
175 198 0
174 197 0
174 198 0
175 198 0
176 198 0
175 198 0
175 198 0
175 197 0
175 198 0
175 198 0
174 198 0
175 198 0
175 198 0
173 197 0
175 198 0
174 198 0
175 198 0
175 198 0
174 198 0
175 198 0
175 198 0
175 198 0
173 197 0
172 196 0
173 197 0
174 198 0
174 198 0
176 199 0
174 197 0
175 198 0
174 198 0
174 198 0
173 197 0
174 198 0
174 198 0
175 198 0
175 197 0
174 197 0
173 197 0
174 197 0
174 197 0
172 196 0
175 198 0
175 198 0
172 196 0
175 198 0
174 197 0
174 198 0
174 197 0
174 198 0
175 198 0
174 197 0
174 197 0
175 198 0
176 199 0
172 197 0
174 198 0
174 198 0
173 197 0
174 198 0
174 198 0
174 197 0
173 196 0
175 198 0
173 197 0
175 198 0
174 197 0
174 198 0
172 196 0
173 197 0
172 196 0
173 196 0
174 198 0
176 198 0
173 197 0
173 197 0
173 196 0
174 198 0
174 197 0
173 197 0
174 197 0
174 198 0
174 197 0
174 197 0
173 196 0
174 197 0
175 198 0
174 197 0
172 196 0
174 197 0
171 195 0
175 198 0
172 197 0
174 197 0
175 198 0
174 198 0
174 198 0
174 197 0
174 197 0
172 195 0
174 197 0
173 197 0
171 195 0
173 197 0
173 197 0
174 198 0
174 197 0
175 198 0
173 197 0
174 198 0
170 194 0
174 198 0
172 196 0
173 197 0
174 197 0
173 197 0
171 194 0
174 197 0
174 198 0
172 196 0
174 197 0
173 197 0
172 196 0
170 193 0
175 198 0
173 196 0
173 196 0
172 195 0
174 197 0
175 198 0
173 197 0
173 196 0
174 197 0
172 196 0
172 194 0
175 198 0
174 197 0
174 197 0
174 197 0
172 196 0
173 196 0
171 195 0
172 196 0
173 197 0
173 197 0
172 196 0
173 197 0
171 194 0
174 197 0
173 196 0
174 197 0
171 195 0
174 197 0
171 195 0
174 197 0
174 197 0
172 196 0
173 196 0
175 198 0
172 195 0
172 196 0
172 195 0
174 197 0
173 197 0
173 196 0
172 195 0
173 196 0
174 197 0
174 197 0
174 197 0
172 196 0
173 197 0
175 198 0
173 197 0
171 194 0
174 197 0
175 198 0
172 196 0
174 197 0
171 195 0
174 198 0
175 198 0
172 195 0
175 198 0
174 197 0
173 197 0
172 196 0
173 196 0
171 195 0
173 196 0
174 197 0
175 198 0
173 197 0
174 197 0
170 193 0
171 195 0
173 196 0
172 196 0
174 198 0
174 198 0
173 197 0
172 196 0
174 197 0
174 197 0
175 198 0
173 197 0
173 196 0
173 196 0
175 197 0
174 197 0
173 196 0
174 198 0
175 197 0
171 195 0
172 195 0
175 198 0
174 197 0
177 199 0
173 196 0
174 197 0
170 195 0
173 197 0
173 196 0
172 195 0
174 197 0
174 197 0
173 197 0
175 198 0
174 198 0
174 198 0
174 197 0
174 198 0
173 197 0
174 197 0
176 199 0
174 198 0
173 197 0
174 197 0
175 198 0
175 198 0
173 196 0
172 196 0
174 197 0
173 196 0
175 198 0
174 197 0
175 198 0
176 198 0
174 197 0
175 198 0
176 199 0
173 197 0
173 197 0
175 198 0
174 198 0
174 197 0
173 197 0
174 197 0
174 197 0
173 197 0
173 196 0
174 197 0
175 198 0
173 197 0
175 197 0
172 196 0
176 198 0
175 198 0
171 195 0
175 198 0
175 198 0
172 196 0
171 196 0
173 197 0
173 197 0
172 196 0
174 198 0
174 198 0
175 198 0
174 197 0
175 198 0
175 198 0
173 197 0
174 197 0
173 196 0
174 197 0
176 199 0
174 197 0
175 198 0
175 198 0
175 198 0
173 196 0
174 197 0
174 197 0
174 198 0
173 197 0
174 198 0
174 197 0
174 198 0
172 195 0
173 197 0
175 198 0
173 197 0
175 198 0
175 198 0
175 198 0
175 198 0
173 197 0
173 197 0
174 198 0
173 197 0
173 197 0
175 198 0
176 199 0
175 198 0
173 197 0
174 197 0
175 198 0
174 198 0
175 198 0
174 197 0
176 198 0
173 197 0
172 196 0
174 197 0
175 198 0
176 199 0
175 198 0
175 198 0
174 198 0
173 197 0
173 196 0
173 197 0
175 198 0
175 198 0
175 198 0
173 197 0
175 198 0
173 197 0
175 198 0
175 198 0
175 198 0
174 198 0
173 197 0
174 198 0
175 198 0
174 197 0
175 198 0
175 198 0
174 198 0
172 197 0
175 198 0
173 197 0
175 198 0
172 197 0
175 198 0
173 197 0
174 198 0
175 198 0
175 198 0
174 197 0
175 198 0
175 198 0
176 199 0
173 197 0
175 198 0
175 198 0
175 198 0
174 198 0
174 197 0
175 198 0
174 198 0
172 197 0
174 198 0
175 198 0
176 198 0
174 198 0
174 198 0
175 198 0
174 197 0
175 198 0
174 198 0
174 198 0
176 199 0
174 198 0
174 198 0
173 197 0
174 198 0
176 199 0
173 197 0
173 197 0
174 198 0
174 198 0
174 198 0
174 198 0
175 198 0
176 199 0
175 198 0
175 197 0
175 198 0
174 198 0
173 197 0
173 197 0
174 197 0
175 197 0
173 197 0
174 198 0
173 197 0
175 198 0
174 197 0
174 198 0
173 197 0
173 197 0
173 197 0
175 198 0
177 199 0
174 198 0
174 198 0
172 197 0
174 198 0
173 197 0
175 198 0
176 198 0
175 198 0
175 198 0
173 197 0
175 198 0
173 197 0
173 197 0
171 195 0
175 198 0
174 197 0
176 198 0
172 196 0
174 197 0
173 197 0
175 198 0
175 198 0
174 197 0
175 198 0
175 198 0
173 196 0
175 198 0
174 198 0
175 198 0
173 197 0
172 196 0
172 196 0
174 197 0
174 197 0
173 197 0
173 197 0
174 198 0
174 198 0
175 198 0
173 197 0
175 198 0
173 197 0
174 197 0
174 198 0
173 196 0
173 196 0
174 197 0
174 197 0
173 197 0
172 197 0
173 196 0
172 196 0
174 197 0
174 198 0
173 197 0
173 197 0
175 198 0
174 197 0
174 198 0
175 198 0
173 197 0
174 197 0
176 198 0
176 198 0
174 197 0
174 197 0
174 197 0
174 197 0
173 196 0
173 197 0
174 198 0
171 195 0
172 196 0
175 198 0
172 196 0
175 198 0
174 197 0
173 197 0
173 197 0
174 197 0
172 196 0
175 198 0
173 197 0
175 198 0
175 197 0
174 198 0
172 196 0
174 198 0
173 197 0
173 196 0
173 196 0
174 198 0
173 196 0
175 197 0
176 198 0
173 197 0
174 197 0
174 197 0
174 197 0
174 197 0
173 196 0
173 197 0
173 197 0
173 196 0
172 196 0
175 197 0
171 195 0
176 198 0
174 198 0
173 196 0
170 194 0
173 197 0
174 197 0
173 196 0
172 196 0
174 196 0
171 195 0
172 196 0
174 197 0
173 197 0
174 197 0
173 197 0
172 195 0
174 197 0
173 197 0
172 196 0
173 196 0
173 196 0
172 196 0
172 196 0
173 196 0
174 197 0
173 197 0
174 197 0
171 195 0
173 197 0
173 197 0
172 196 0
176 198 0
170 193 0
173 197 0
171 195 0
173 197 0
174 198 0
171 195 0
172 196 0
173 196 0
171 195 0
174 197 0
174 197 0
173 196 0
171 194 0
173 197 0
170 194 0
172 196 0
176 199 0
172 196 0
173 197 0
174 197 0
173 197 0
175 198 0
175 198 0
174 198 0
174 198 0
172 196 0
173 196 0
174 197 0
174 197 0
173 196 0
173 196 0
175 198 0
173 196 0
174 197 0
173 197 0
173 196 0
171 195 0
172 196 0
174 198 0
173 197 0
173 196 0
173 197 0
173 196 0
173 196 0
171 195 0
173 197 0
173 197 0
173 196 0
174 197 0
172 196 0
173 197 0
174 197 0
173 196 0
175 198 0
172 196 0
173 197 0
172 196 0
172 195 0
175 198 0
172 196 0
171 194 0
172 196 0
173 196 0
174 198 0
173 196 0
172 196 0
174 198 0
174 197 0
174 197 0
175 198 0
174 197 0
174 197 0
173 197 0
173 196 0
174 197 0
174 198 0
175 198 0
174 197 0
174 197 0
174 197 0
174 197 0
175 198 0
174 197 0
174 197 0
174 198 0
175 198 0
175 198 0
173 197 0
174 196 0
174 197 0
173 197 0
172 196 0
170 194 0
173 197 0
171 196 0
175 198 0
172 195 0
173 196 0
174 198 0
176 199 0
173 197 0
173 197 0
174 197 0
172 196 0
176 199 0
173 197 0
175 198 0
175 198 0
174 198 0
175 198 0
173 197 0
174 198 0
173 197 0
176 198 0
173 197 0
173 197 0
173 196 0
175 198 0
175 197 0
173 197 0
175 198 0
174 198 0
173 197 0
175 198 0
175 198 0
175 198 0
174 198 0
171 195 0
173 197 0
175 198 0
172 197 0
175 198 0
175 198 0
176 199 0
174 197 0
173 197 0
174 198 0
172 196 0
173 197 0
173 197 0
175 198 0
173 197 0
174 198 0
173 196 0
172 196 0
174 197 0
176 198 0
174 197 0
174 198 0
175 198 0
174 197 0
175 198 0
173 197 0
174 198 0
176 199 0
175 198 0
174 197 0
174 197 0
175 198 0
175 198 0
175 198 0
173 197 0
175 198 0
173 196 0
175 198 0
173 197 0
176 198 0
175 198 0
175 198 0
174 198 0
176 199 0
173 197 0
173 197 0
176 198 0
174 197 0
175 198 0
175 198 0
176 198 0
174 198 0
174 198 0
174 198 0
174 197 0
173 197 0
175 198 0
175 198 0
173 197 0
175 198 0
173 196 0
175 198 0
174 197 0
174 198 0
173 197 0
174 198 0
176 199 0
175 198 0
174 197 0
174 197 0
173 197 0
174 198 0
175 198 0
175 198 0
172 197 0
174 198 0
175 198 0
176 199 0
173 197 0
175 198 0
172 197 0
175 198 0
175 198 0
173 196 0
173 197 0
176 198 0
174 198 0
175 198 0
174 198 0
175 198 0
173 197 0
174 198 0
174 198 0
174 198 0
175 198 0
176 198 0
174 197 0
175 198 0
174 198 0
175 198 0
174 197 0
174 198 0
174 197 0
175 198 0
175 198 0
174 198 0
174 198 0
174 197 0
173 197 0
174 198 0
175 198 0
173 197 0
175 198 0
174 198 0
175 198 0
174 198 0
174 198 0
174 198 0
175 198 0
175 198 0
175 198 0
175 198 0
173 197 0
176 199 0
176 198 0
174 197 0
175 198 0
174 197 0
174 198 0
174 198 0
175 198 0
176 199 0
175 198 0
174 198 0
175 198 0
173 197 0
175 198 0
174 198 0
174 198 0
175 198 0
174 198 0
172 196 0
175 198 0
176 199 0
174 197 0
173 197 0
174 197 0
174 198 0
176 199 0
172 196 0
174 197 0
173 197 0
175 198 0
173 197 0
173 197 0
175 198 0
175 198 0
175 197 0
175 198 0
174 197 0
175 198 0
174 198 0
174 197 0
174 198 0
173 197 0
175 197 0
173 196 0
176 199 0
172 196 0
174 198 0
174 197 0
173 197 0
174 198 0
173 197 0
176 198 0
174 197 0
175 198 0
173 197 0
173 197 0
172 197 0
173 197 0
172 196 0
174 198 0
175 198 0
175 197 0
173 197 0
174 197 0
174 198 0
175 198 0
173 197 0
175 198 0
172 196 0
173 197 0
174 197 0
173 197 0
171 196 0
173 197 0
174 198 0
174 198 0
174 197 0
171 195 0
173 197 0
173 197 0
173 197 0
175 198 0
175 198 0
172 196 0
173 197 0
175 198 0
173 197 0
174 197 0
172 196 0
174 197 0
173 197 0
174 198 0
172 196 0
175 198 0
176 199 0
173 196 0
173 197 0
174 198 0
173 196 0
172 196 0
173 197 0
174 198 0
175 198 0
173 197 0
173 197 0
173 196 0
172 196 0
174 197 0
172 196 0
173 197 0
171 196 0
174 197 0
174 197 0
170 194 0
172 196 0
175 198 0
173 197 0
171 194 0
173 196 0
172 196 0
171 195 0
172 196 0
174 197 0
172 196 0
174 197 0
173 197 0
175 198 0
173 196 0
169 192 0
172 195 0
174 197 0
172 196 0
174 198 0
174 198 0
173 197 0
172 195 0
172 195 0
175 197 0
171 195 0
171 195 0
173 197 0
171 195 0
173 197 0
173 196 0
173 197 0
176 199 0
172 196 0
171 195 0
175 198 0
174 197 0
174 197 0
172 195 0
172 196 0
172 196 0
173 197 0
174 197 0
170 194 0
172 195 0
172 196 0
174 198 0
175 198 0
174 197 0
175 198 0
175 197 0
171 194 0
173 196 0
172 196 0
174 197 0
175 198 0
170 195 0
173 196 0
173 196 0
171 195 0
173 197 0
173 196 0
173 197 0
175 198 0
173 197 0
174 197 0
169 194 0
173 197 0
173 196 0
175 198 0
177 199 0
174 197 0
173 197 0
174 197 0
174 197 0
174 197 0
173 197 0
172 197 0
174 198 0
174 197 0
172 196 0
175 198 0
172 196 0
173 197 0
174 197 0
174 197 0
174 198 0
174 197 0
172 196 0
174 197 0
172 195 0
174 198 0
174 197 0
173 197 0
172 196 0
171 195 0
173 196 0
173 196 0
172 196 0
171 195 0
172 196 0
174 197 0
173 197 0
174 197 0
176 199 0
172 196 0
173 197 0
173 196 0
173 196 0
174 198 0
173 197 0
175 198 0
173 197 0
173 196 0
174 197 0
174 198 0
174 198 0
171 195 0
175 198 0
173 197 0
175 198 0
173 196 0
172 196 0
172 197 0
172 195 0
175 198 0
175 198 0
173 197 0
172 195 0
174 198 0
173 197 0
173 196 0
175 198 0
175 198 0
175 198 0
172 195 0
174 197 0
175 198 0
174 198 0
175 198 0
174 197 0
174 198 0
174 198 0
173 197 0
175 198 0
174 198 0
175 198 0
174 197 0
174 197 0
174 198 0
173 197 0
174 198 0
174 198 0
176 198 0
173 197 0
176 198 0
172 196 0
173 197 0
175 198 0
174 198 0
172 197 0
174 197 0
174 198 0
174 197 0
174 198 0
175 198 0
174 197 0
174 198 0
175 198 0
173 197 0
175 198 0
173 197 0
175 198 0
173 197 0
175 198 0
173 197 0
176 199 0
174 197 0
173 197 0
173 197 0
175 198 0
174 198 0
174 197 0
174 198 0
173 197 0
176 199 0
175 198 0
172 196 0
174 197 0
174 197 0
172 196 0
173 197 0
175 198 0
173 197 0
174 198 0
174 197 0
174 198 0
173 197 0
175 198 0
174 197 0
174 198 0
175 198 0
174 197 0
175 197 0
173 197 0
174 198 0
175 198 0
174 197 0
174 198 0
172 197 0
176 199 0
174 197 0
176 199 0
172 196 0
174 198 0
174 197 0
175 198 0
175 198 0
175 198 0
174 197 0
176 199 0
173 197 0
174 198 0
174 198 0
176 199 0
174 198 0
174 197 0
174 198 0
173 197 0
172 197 0
174 198 0
174 197 0
175 198 0
174 197 0
174 198 0
175 198 0
173 197 0
174 198 0
177 199 0
174 197 0
174 198 0
174 197 0
174 198 0
173 197 0
175 198 0
173 197 0
174 198 0
176 198 0
174 198 0
174 198 0
176 198 0
176 199 0
175 198 0
175 198 0
173 197 0
173 197 0
175 198 0
173 197 0
175 198 0
175 198 0
174 197 0
174 198 0
174 198 0
173 197 0
176 199 0
174 198 0
175 198 0
175 198 0
174 197 0
176 199 0
174 197 0
174 198 0
173 197 0
174 197 0
174 198 0
175 198 0
174 198 0
174 198 0
174 198 0
173 197 0
175 198 0
175 198 0
174 198 0
173 197 0
174 197 0
173 197 0
176 199 0
174 198 0
174 197 0
175 198 0
175 198 0
173 197 0
174 197 0
175 198 0
173 197 0
173 197 0
174 197 0
174 198 0
175 198 0
173 197 0
176 199 0
174 198 0
174 198 0
175 198 0
176 199 0
173 197 0
174 197 0
172 196 0
176 199 0
176 198 0
174 197 0
174 197 0
175 198 0
172 196 0
175 198 0
177 199 0
175 198 0
173 196 0
174 197 0
175 198 0
172 197 0
176 199 0
172 196 0
175 198 0
175 198 0
175 198 0
171 195 0
175 198 0
171 195 0
175 198 0
175 198 0
174 198 0
172 196 0
174 198 0
173 197 0
175 198 0
173 197 0
174 197 0
173 197 0
174 198 0
172 196 0
174 197 0
175 198 0
174 198 0
174 197 0
174 197 0
173 197 0
173 196 0
174 197 0
174 197 0
173 197 0
173 197 0
173 197 0
173 197 0
174 198 0
173 197 0
175 198 0
174 198 0
175 198 0
175 198 0
172 196 0
174 198 0
172 195 0
172 196 0
172 196 0
173 197 0
174 197 0
173 197 0
173 196 0
172 195 0
172 196 0
175 198 0
175 198 0
174 197 0
173 197 0
173 197 0
175 198 0
173 196 0
172 196 0
173 197 0
174 198 0
173 197 0
174 197 0
175 198 0
173 195 0
175 198 0
174 197 0
174 197 0
174 197 0
173 197 0
176 198 0
173 197 0
175 198 0
174 197 0
171 195 0
172 195 0
171 194 0
174 197 0
172 196 0
175 197 0
174 197 0
175 198 0
172 196 0
174 197 0
169 193 0
174 197 0
171 195 0
173 197 0
168 192 0
175 198 0
172 196 0
170 194 0
174 197 0
173 197 0
171 195 0
168 192 0
172 197 0
173 197 0
174 197 0
173 196 0
173 196 0
175 198 0
173 196 0
173 196 0
170 194 0
175 198 0
174 197 0
173 197 0
172 195 0
172 195 0
173 197 0
173 197 0
174 198 0
172 196 0
171 195 0
175 198 0
173 196 0
175 198 0
173 196 0
173 196 0
173 197 0
176 199 0
171 195 0
172 196 0
172 196 0
173 196 0
173 196 0
174 197 0
173 197 0
171 195 0
173 197 0
173 197 0
171 195 0
173 197 0
172 196 0
170 193 0
172 196 0
171 195 0
171 195 0
171 195 0
174 197 0
174 198 0
174 197 0
175 198 0
174 197 0
170 194 0
174 197 0
173 197 0
174 197 0
172 195 0
173 196 0
172 196 0
174 197 0
174 197 0
174 197 0
172 196 0
173 196 0
174 197 0
172 196 0
175 198 0
174 197 0
173 197 0
173 196 0
174 197 0
172 195 0
174 197 0
171 195 0
173 196 0
171 196 0
174 197 0
174 197 0
174 198 0
172 196 0
174 197 0
173 196 0
171 196 0
173 197 0
174 198 0
172 196 0
175 198 0
174 197 0
173 197 0
174 197 0
173 197 0
174 198 0
173 196 0
175 198 0
174 197 0
174 197 0
176 199 0
171 195 0
175 197 0
174 197 0
172 196 0
174 197 0
173 197 0
174 197 0
175 198 0
172 196 0
175 198 0
174 197 0
174 197 0
173 196 0
172 196 0
173 197 0
174 197 0
172 197 0
173 197 0
175 198 0
174 197 0
173 197 0
173 197 0
174 197 0
172 196 0
172 195 0
173 196 0
175 198 0
174 198 0
175 198 0
173 197 0
172 196 0
174 197 0
174 197 0
174 197 0
175 198 0
175 198 0
174 198 0
175 198 0
174 197 0
175 198 0
175 198 0
176 199 0
173 197 0
175 198 0
173 197 0
173 196 0
174 197 0
174 198 0
175 198 0
174 198 0
175 198 0
174 198 0
174 197 0
175 198 0
175 198 0
173 197 0
172 196 0
173 196 0
175 198 0
173 197 0
174 198 0
172 196 0
174 197 0
173 197 0
174 197 0
173 197 0
171 195 0
174 198 0
175 198 0
172 197 0
175 198 0
173 197 0
175 197 0
174 197 0
174 197 0
175 198 0
174 197 0
173 196 0
173 197 0
175 198 0
175 198 0
174 197 0
174 198 0
175 198 0
174 198 0
173 197 0
174 198 0
174 197 0
172 197 0
175 198 0
175 198 0
174 198 0
174 198 0
173 197 0
174 197 0
173 197 0
175 198 0
175 198 0
174 198 0
175 198 0
173 197 0
173 197 0
174 197 0
174 198 0
175 198 0
174 198 0
175 198 0
174 198 0
174 198 0
174 198 0
173 197 0
173 197 0
175 198 0
175 198 0
173 197 0
174 197 0
174 198 0
174 198 0
176 198 0
175 198 0
174 197 0
175 198 0
174 198 0
174 197 0
174 197 0
175 198 0
175 198 0
174 197 0
176 198 0
174 197 0
174 198 0
175 198 0
175 198 0
175 198 0
175 198 0
175 198 0
175 198 0
174 197 0
174 198 0
173 197 0
175 198 0
176 198 0
173 197 0
175 198 0
176 199 0
173 197 0
174 198 0
175 198 0
175 198 0
173 197 0
172 196 0
174 198 0
174 198 0
174 198 0
174 198 0
176 198 0
175 198 0
176 199 0
174 197 0
175 198 0
175 198 0
174 198 0
174 198 0
175 198 0
174 198 0
174 197 0
174 198 0
173 197 0
174 198 0
174 198 0
176 199 0
175 198 0
174 198 0
174 198 0
175 198 0
173 197 0
174 197 0
173 197 0
174 197 0
175 198 0
175 198 0
176 199 0
176 198 0
172 197 0
175 198 0
175 198 0
174 197 0
175 198 0
171 195 0
174 198 0
175 198 0
175 198 0
174 198 0
176 199 0
175 198 0
174 197 0
173 197 0
174 197 0
173 197 0
174 197 0
173 196 0
174 197 0
176 198 0
174 198 0
175 198 0
174 197 0
174 197 0
174 197 0
174 197 0
174 198 0
173 197 0
173 197 0
174 197 0
173 197 0
175 198 0
173 197 0
174 198 0
173 197 0
175 198 0
173 196 0
176 198 0
174 197 0
172 196 0
173 197 0
174 198 0
173 197 0
173 197 0
174 197 0
174 198 0
175 198 0
175 198 0
174 198 0
175 198 0
175 198 0
175 198 0
174 198 0
173 197 0
174 198 0
172 196 0
174 198 0
175 198 0
172 196 0
172 197 0
175 198 0
174 197 0
172 196 0
174 198 0
174 198 0
173 197 0
174 198 0
175 198 0
174 198 0
173 197 0
175 198 0
172 195 0
174 198 0
173 197 0
174 198 0
174 197 0
173 197 0
174 197 0
175 198 0
174 197 0
174 198 0
174 197 0
173 197 0
173 197 0
173 197 0
173 197 0
174 197 0
172 196 0
173 197 0
172 196 0
173 196 0
172 196 0
173 196 0
172 196 0
173 196 0
173 196 0
174 198 0
174 197 0
174 197 0
173 197 0
169 192 0
172 196 0
170 194 0
174 197 0
173 197 0
173 196 0
172 195 0
174 197 0
174 198 0
174 197 0
172 195 0
174 198 0
172 196 0
172 195 0
171 195 0
171 194 0
174 197 0
171 195 0
174 197 0
173 196 0
173 196 0
173 197 0
170 194 0
174 198 0
173 196 0
171 195 0
174 197 0
171 193 0
174 198 0
172 196 0
172 195 0
170 193 0
172 195 0
174 197 0
172 196 0
172 195 0
174 198 0
174 197 0
176 198 0
174 197 0
172 196 0
170 194 0
171 195 0
174 198 0
174 197 0
173 197 0
169 193 0
174 197 0
172 195 0
172 196 0
172 196 0
175 198 0
171 195 0
173 196 0
172 195 0
174 197 0
172 195 0
173 197 0
172 196 0
174 197 0
173 197 0
173 197 0
174 197 0
173 197 0
173 197 0
174 197 0
173 197 0
171 194 0
171 195 0
174 197 0
172 196 0
174 198 0
174 198 0
172 195 0
174 197 0
174 198 0
172 196 0
173 197 0
170 194 0
175 198 0
174 197 0
173 197 0
174 198 0
175 198 0
173 197 0
173 197 0
175 198 0
173 197 0
174 197 0
174 197 0
172 196 0
175 198 0
174 198 0
174 197 0
174 198 0
174 197 0
173 197 0
172 195 0
175 198 0
173 197 0
175 198 0
170 194 0
175 198 0
172 196 0
171 195 0
172 195 0
171 195 0
175 198 0
174 197 0
172 196 0
175 198 0
174 196 0
174 198 0
175 197 0
174 198 0
174 197 0
174 197 0
175 198 0
175 198 0
173 197 0
173 196 0
173 197 0
174 197 0
172 195 0
174 197 0
174 197 0
170 193 0
174 197 0
174 198 0
173 197 0
175 198 0
175 198 0
173 197 0
175 198 0
175 198 0
173 197 0
173 196 0
173 197 0
172 195 0
174 197 0
172 196 0
175 198 0
174 197 0
175 198 0
174 198 0
174 197 0
173 196 0
174 197 0
173 197 0
175 198 0
173 197 0
174 197 0
175 198 0
175 198 0
174 197 0
174 197 0
174 198 0
173 197 0
175 198 0
175 198 0
175 198 0
174 197 0
174 197 0
173 197 0
174 197 0
174 198 0
173 197 0
175 198 0
173 197 0
172 196 0
175 198 0
175 198 0
173 197 0
175 198 0
173 196 0
177 199 0
174 197 0
174 198 0
173 197 0
173 197 0
174 197 0
173 197 0
174 197 0
174 198 0
174 198 0
172 196 0
174 197 0
174 197 0
173 197 0
173 197 0
174 198 0
175 198 0
174 197 0
175 198 0
176 198 0
175 198 0
175 198 0
174 198 0
174 198 0
172 197 0
175 198 0
173 197 0
175 197 0
174 197 0
174 198 0
175 198 0
176 199 0
175 198 0
173 197 0
175 198 0
174 197 0
173 197 0
174 197 0
175 198 0
175 198 0
175 198 0
174 198 0
175 198 0
174 198 0
175 198 0
175 198 0
174 198 0
174 197 0
175 198 0
174 197 0
175 198 0
175 198 0
176 199 0
175 198 0
176 198 0
175 198 0
175 198 0
174 197 0
173 197 0
175 198 0
175 198 0
175 198 0
173 197 0
174 197 0
174 198 0
175 198 0
174 197 0
174 198 0
174 198 0
174 198 0
173 197 0
173 197 0
177 199 0
174 198 0
174 198 0
175 198 0
174 197 0
173 197 0
175 198 0
174 197 0
173 196 0
176 199 0
176 199 0
176 199 0
174 198 0
175 198 0
174 197 0
174 198 0
174 198 0
174 198 0
173 197 0
175 198 0
174 198 0
174 198 0
172 196 0
175 198 0
174 198 0
175 198 0
174 198 0
174 198 0
174 197 0
175 198 0
174 197 0
175 198 0
175 198 0
175 198 0
173 197 0
174 198 0
174 198 0
177 199 0
174 198 0
174 198 0
173 197 0
173 197 0
175 198 0
175 198 0
176 199 0
173 197 0
175 198 0
173 197 0
174 197 0
174 197 0
173 197 0
175 198 0
174 197 0
172 196 0
173 197 0
174 197 0
174 198 0
173 197 0
175 198 0
174 197 0
174 197 0
174 197 0
174 197 0
173 197 0
175 198 0
174 197 0
174 197 0
173 196 0
173 196 0
174 198 0
175 198 0
174 197 0
176 199 0
173 196 0
173 197 0
173 197 0
174 197 0
175 198 0
175 198 0
175 198 0
174 198 0
175 198 0
174 197 0
174 197 0
174 198 0
175 198 0
172 197 0
174 198 0
173 197 0
173 197 0
175 198 0
174 197 0
176 198 0
173 197 0
171 196 0
174 197 0
173 197 0
174 197 0
173 197 0
174 197 0
174 198 0
175 198 0
175 198 0
174 198 0
173 197 0
174 198 0
175 198 0
174 197 0
176 199 0
171 195 0
174 198 0
173 197 0
174 197 0
174 198 0
174 197 0
175 198 0
173 197 0
175 198 0
174 197 0
174 198 0
174 197 0
174 197 0
175 198 0
175 198 0
174 197 0
172 196 0
176 199 0
172 196 0
173 197 0
173 197 0
174 198 0
173 197 0
173 197 0
173 196 0
172 195 0
174 198 0
174 197 0
173 196 0
174 197 0
173 196 0
173 197 0
172 195 0
172 196 0
173 196 0
174 197 0
173 196 0
174 198 0
174 197 0
172 196 0
174 197 0
173 197 0
172 195 0
174 198 0
173 197 0
172 195 0
172 196 0
172 195 0
173 197 0
172 196 0
174 197 0
174 197 0
174 197 0
173 197 0
174 197 0
173 197 0
172 196 0
174 198 0
173 197 0
173 196 0
174 197 0
172 196 0
172 197 0
173 196 0
172 195 0
174 197 0
171 195 0
173 196 0
174 197 0
173 197 0
172 196 0
174 197 0
172 196 0
172 196 0
172 195 0
171 194 0
174 198 0
174 197 0
172 196 0
172 196 0
173 197 0
174 198 0
172 196 0
175 198 0
173 197 0
172 196 0
175 198 0
171 195 0
173 196 0
174 197 0
174 197 0
173 197 0
172 196 0
173 197 0
173 197 0
173 197 0
173 197 0
173 196 0
174 197 0
176 199 0
174 197 0
173 196 0
173 197 0
172 196 0
173 196 0
174 198 0
174 197 0
174 197 0
174 197 0
173 197 0
173 197 0
176 199 0
174 198 0
173 197 0
176 199 0
173 197 0
172 195 0
173 196 0
173 196 0
172 196 0
173 196 0
174 197 0
175 198 0
173 197 0
174 197 0
171 195 0
171 195 0
173 196 0
174 197 0
174 198 0
175 198 0
172 196 0
174 198 0
174 197 0
173 197 0
173 197 0
175 198 0
173 196 0
173 196 0
175 198 0
171 195 0
175 198 0
171 194 0
170 193 0
173 196 0
173 197 0
173 197 0
173 197 0
176 198 0
173 197 0
174 198 0
172 196 0
173 197 0
173 197 0
173 196 0
174 197 0
174 197 0
172 195 0
173 196 0
175 198 0
174 198 0
173 197 0
175 198 0
173 197 0
174 197 0
171 195 0
174 198 0
174 197 0
174 197 0
174 198 0
174 197 0
174 197 0
175 198 0
174 197 0
173 196 0
175 198 0
173 197 0
174 197 0
175 198 0
176 198 0
172 196 0
175 198 0
173 196 0
173 197 0
174 197 0
173 197 0
175 198 0
173 196 0
174 197 0
172 196 0
175 198 0
175 198 0
174 198 0
172 196 0
173 197 0
174 197 0
174 198 0
173 195 0
173 197 0
173 197 0
176 198 0
174 198 0
175 198 0
172 196 0
172 197 0
176 199 0
173 197 0
175 198 0
174 197 0
173 196 0
173 197 0
174 198 0
174 197 0
176 199 0
173 197 0
173 196 0
175 198 0
172 196 0
175 198 0
175 198 0
174 198 0
174 197 0
175 198 0
175 198 0
174 197 0
172 196 0
174 197 0
176 198 0
174 197 0
175 198 0
173 197 0
174 198 0
174 197 0
175 198 0
175 198 0
176 199 0
174 198 0
174 198 0
173 197 0
174 198 0
175 198 0
174 198 0
176 198 0
174 198 0
173 197 0
175 198 0
173 197 0
172 196 0
175 198 0
175 198 0
175 198 0
173 196 0
175 198 0
175 198 0
174 198 0
174 198 0
175 198 0
175 198 0
173 197 0
173 197 0
174 197 0
174 197 0
174 198 0
175 198 0
173 196 0
174 198 0
174 198 0
172 196 0
173 197 0
172 196 0
173 197 0
174 198 0
174 197 0
173 197 0
175 198 0
174 198 0
176 198 0
175 198 0
175 198 0
173 196 0
175 198 0
175 198 0
175 198 0
175 198 0
175 198 0
175 198 0
173 197 0
176 198 0
176 199 0
174 197 0
174 198 0
175 198 0
174 198 0
175 198 0
174 197 0
175 198 0
175 198 0
173 197 0
175 198 0
173 197 0
175 198 0
173 197 0
175 198 0
174 198 0
172 196 0
174 198 0
175 198 0
173 197 0
174 197 0
176 199 0
174 198 0
173 197 0
175 198 0
173 197 0
174 198 0
175 198 0
175 198 0
172 196 0
173 197 0
175 198 0
175 198 0
174 198 0
175 198 0
175 198 0
175 198 0
174 198 0
175 198 0
172 196 0
174 197 0
174 198 0
174 197 0
174 198 0
173 197 0
175 198 0
175 198 0
175 198 0
173 197 0
174 198 0
173 197 0
175 198 0
174 197 0
175 198 0
176 198 0
175 198 0
176 198 0
174 198 0
174 198 0
172 196 0
173 197 0
175 198 0
177 199 0
174 198 0
175 198 0
175 198 0
173 197 0
172 196 0
176 199 0
174 198 0
174 198 0
174 198 0
175 198 0
173 197 0
174 197 0
175 198 0
174 197 0
174 198 0
173 197 0
175 198 0
174 198 0
174 197 0
172 197 0
171 196 0
174 197 0
175 198 0
172 196 0
174 198 0
174 197 0
174 198 0
175 198 0
174 198 0
172 196 0
174 198 0
173 197 0
175 198 0
175 197 0
175 198 0
174 198 0
173 197 0
174 197 0
173 197 0
173 196 0
173 197 0
174 198 0
173 197 0
172 196 0
174 198 0
175 198 0
175 198 0
175 198 0
174 198 0
173 197 0
171 195 0
172 196 0
174 197 0
173 196 0
172 196 0
174 197 0
175 198 0
175 198 0
173 197 0
173 197 0
176 198 0
173 197 0
174 197 0
175 198 0
173 197 0
174 198 0
173 197 0
172 195 0
172 196 0
172 196 0
173 197 0
174 197 0
173 197 0
172 196 0
173 196 0
175 198 0
173 197 0
175 197 0
173 196 0
172 196 0
174 197 0
174 197 0
174 197 0
173 197 0
175 198 0
174 197 0
171 195 0
174 197 0
173 197 0
172 196 0
174 197 0
173 197 0
173 197 0
174 197 0
174 198 0
172 196 0
174 197 0
172 196 0
173 196 0
175 198 0
171 194 0
175 198 0
174 197 0
174 198 0
173 197 0
173 197 0
173 197 0
173 196 0
171 195 0
172 195 0
176 198 0
173 197 0
173 196 0
172 195 0
171 195 0
175 198 0
173 197 0
174 197 0
173 196 0
172 196 0
172 196 0
175 198 0
171 195 0
173 196 0
174 197 0
173 197 0
173 196 0
173 197 0
171 196 0
175 198 0
172 196 0
171 195 0
173 197 0
173 197 0
173 197 0
171 195 0
173 196 0
171 195 0
173 197 0
172 196 0
174 197 0
174 197 0
176 199 0
173 197 0
173 196 0
173 196 0
173 196 0
173 197 0
172 195 0
173 197 0
173 197 0
173 197 0
174 197 0
174 197 0
172 196 0
174 197 0
176 199 0
173 197 0
172 196 0
173 196 0
174 197 0
174 198 0
171 196 0
173 197 0
174 197 0
173 196 0
175 198 0
172 195 0
172 195 0
175 198 0
175 198 0
174 197 0
171 196 0
174 198 0
174 197 0
175 198 0
174 197 0
173 196 0
170 194 0
172 196 0
174 197 0
173 197 0
173 197 0
172 196 0
174 197 0
170 194 0
174 197 0
173 197 0
175 197 0
173 196 0
173 197 0
173 196 0
173 197 0
173 196 0
174 198 0
170 194 0
173 197 0
173 197 0
173 196 0
171 195 0
173 196 0
173 197 0
172 196 0
175 198 0
175 198 0
174 197 0
174 197 0
173 196 0
173 196 0
174 197 0
174 197 0
173 197 0
171 195 0
171 195 0
173 196 0
173 197 0
173 197 0
173 196 0
173 197 0
173 197 0
173 196 0
173 196 0
174 197 0
173 197 0
173 197 0
175 198 0
173 197 0
174 197 0
174 198 0
172 196 0
174 197 0
170 194 0
174 198 0
175 198 0
173 197 0
175 198 0
172 197 0
173 197 0
174 197 0
173 197 0
176 198 0
175 198 0
172 196 0
173 197 0
174 198 0
172 196 0
174 198 0
174 197 0
173 196 0
173 197 0
173 196 0
173 197 0
173 197 0
174 197 0
173 196 0
175 197 0
175 198 0
175 198 0
174 197 0
174 197 0
176 199 0
172 197 0
174 198 0
174 197 0
174 198 0
174 197 0
174 197 0
175 198 0
173 197 0
174 198 0
176 198 0
173 197 0
174 198 0
174 197 0
173 197 0
173 197 0
174 197 0
176 199 0
173 197 0
176 198 0
173 196 0
173 197 0
174 198 0
174 197 0
174 198 0
174 197 0
172 196 0
174 198 0
175 198 0
174 197 0
175 198 0
175 198 0
175 198 0
173 197 0
176 198 0
175 198 0
174 197 0
174 197 0
175 198 0
173 197 0
174 197 0
173 197 0
175 198 0
174 198 0
175 198 0
173 197 0
173 197 0
175 198 0
175 198 0
174 196 0
176 199 0
174 197 0
173 197 0
175 198 0
173 197 0
175 198 0
174 198 0
175 198 0
173 197 0
177 199 0
173 197 0
174 198 0
175 198 0
174 197 0
175 198 0
174 198 0
174 198 0
174 197 0
173 197 0
174 198 0
175 198 0
175 198 0
176 198 0
175 198 0
175 198 0
174 198 0
174 198 0
175 198 0
173 197 0
174 197 0
173 197 0
174 197 0
174 198 0
174 198 0
175 198 0
174 197 0
174 198 0
176 198 0
175 198 0
175 198 0
174 197 0
171 196 0
174 198 0
172 197 0
174 198 0
174 198 0
174 198 0
172 197 0
174 198 0
174 198 0
175 198 0
174 198 0
174 197 0
176 199 0
174 198 0
174 197 0
175 198 0
174 198 0
172 196 0
176 199 0
175 198 0
174 197 0
175 198 0
172 197 0
175 198 0
176 199 0
176 199 0
173 197 0
174 198 0
173 197 0
174 198 0
176 198 0
174 197 0
176 199 0
174 198 0
175 198 0
175 198 0
174 197 0
176 199 0
175 198 0
175 198 0
173 197 0
174 198 0
173 197 0
174 197 0
174 197 0
174 197 0
174 197 0
173 196 0
174 197 0
175 198 0
175 198 0
173 197 0
175 198 0
174 198 0
174 197 0
175 198 0
174 197 0
175 198 0
174 198 0
174 198 0
175 198 0
174 197 0
174 197 0
173 197 0
174 197 0
175 198 0
175 198 0
175 198 0
173 197 0
175 198 0
175 198 0
176 199 0
174 197 0
173 197 0
174 198 0
177 199 0
174 197 0
176 198 0
173 197 0
172 195 0
175 198 0
175 198 0
174 198 0
174 197 0
174 197 0
174 198 0
172 196 0
176 198 0
172 197 0
171 195 0
175 198 0
173 196 0
175 197 0
174 198 0
174 197 0
173 197 0
174 197 0
175 198 0
174 198 0
171 195 0
174 197 0
173 197 0
174 198 0
171 195 0
174 198 0
174 198 0
171 195 0
174 197 0
173 196 0
171 194 0
175 198 0
175 198 0
174 198 0
173 197 0
173 197 0
175 198 0
176 199 0
174 197 0
175 198 0
175 198 0
174 197 0
173 197 0
173 197 0
174 197 0
173 197 0
172 196 0
172 196 0
172 196 0
173 197 0
173 197 0
174 197 0
173 196 0
170 193 0
175 198 0
174 197 0
173 196 0
172 196 0
173 197 0
174 197 0
175 198 0
174 197 0
175 198 0
172 196 0
175 198 0
171 195 0
172 195 0
173 196 0
172 196 0
172 196 0
174 197 0
173 196 0
173 197 0
174 197 0
174 197 0
171 195 0
174 197 0
174 197 0
172 196 0
174 198 0
174 197 0
171 195 0
172 196 0
173 196 0
173 196 0
175 198 0
174 197 0
175 198 0
175 198 0
173 197 0
171 195 0
170 194 0
174 197 0
172 196 0
172 196 0
173 196 0
172 196 0
171 195 0
173 197 0
174 197 0
170 193 0
173 196 0
174 197 0
173 196 0
174 197 0
173 197 0
171 195 0
175 198 0
174 197 0
171 195 0
175 198 0
175 198 0
173 197 0
173 196 0
173 196 0
172 196 0
173 196 0
172 195 0
171 195 0
173 197 0
172 196 0
174 197 0
174 197 0
172 196 0
172 195 0
173 197 0
174 197 0
173 197 0
172 196 0
173 196 0
171 194 0
173 196 0
174 197 0
172 196 0
173 197 0
174 197 0
173 196 0
173 197 0
173 196 0
172 196 0
173 196 0
174 197 0
171 194 0
174 198 0
172 196 0
172 196 0
173 196 0
175 198 0
172 196 0
173 196 0
171 195 0
173 197 0
174 196 0
173 197 0
171 195 0
173 197 0
172 196 0
173 197 0
174 198 0
172 195 0
173 196 0
176 198 0
174 197 0
174 197 0
174 198 0
174 198 0
175 198 0
173 197 0
174 197 0
173 197 0
174 198 0
172 196 0
174 197 0
172 196 0
171 195 0
174 198 0
176 199 0
174 197 0
172 196 0
174 197 0
173 196 0
172 196 0
173 196 0
174 198 0
173 196 0
174 197 0
175 198 0
172 196 0
173 197 0
172 195 0
173 197 0
174 197 0
173 196 0
173 196 0
173 197 0
175 198 0
173 197 0
173 197 0
176 198 0
174 197 0
174 198 0
175 198 0
173 197 0
174 197 0
176 199 0
175 198 0
176 198 0
174 198 0
175 198 0
175 198 0
176 199 0
174 197 0
174 198 0
174 198 0
174 198 0
175 198 0
175 198 0
174 197 0
172 196 0
172 197 0
175 198 0
176 198 0
173 197 0
173 197 0
174 198 0
173 197 0
176 198 0
173 197 0
173 197 0
174 198 0
172 196 0
174 197 0
173 196 0
173 197 0
174 197 0
174 197 0
175 198 0
176 199 0
174 197 0
175 198 0
176 198 0
175 198 0
173 197 0
175 198 0
174 197 0
175 198 0
175 198 0
173 197 0
175 198 0
172 196 0
174 198 0
173 197 0
175 198 0
173 197 0
172 196 0
174 197 0
174 198 0
174 197 0
172 196 0
174 197 0
174 198 0
173 197 0
174 197 0
173 197 0
174 197 0
175 198 0
174 197 0
173 196 0
174 198 0
172 196 0
175 198 0
174 198 0
175 198 0
174 198 0
173 197 0
174 198 0
173 197 0
174 198 0
173 197 0
174 197 0
176 198 0
174 197 0
175 198 0
172 196 0
175 198 0
174 197 0
174 198 0
175 198 0
173 197 0
174 198 0
173 197 0
174 198 0
173 197 0
174 197 0
174 197 0
173 197 0
174 198 0
175 198 0
175 198 0
175 198 0
173 197 0
175 198 0
172 196 0
176 199 0
174 197 0
176 199 0
176 199 0
173 197 0
174 198 0
173 197 0
173 197 0
175 198 0
173 197 0
173 197 0
175 198 0
174 198 0
173 197 0
174 198 0
174 197 0
174 198 0
174 198 0
176 198 0
174 198 0
174 197 0
174 197 0
174 198 0
174 197 0
174 198 0
175 198 0
174 197 0
175 198 0
175 198 0
173 197 0
176 199 0
174 198 0
175 198 0
175 198 0
174 198 0
175 198 0
174 198 0
173 196 0
174 197 0
174 198 0
175 198 0
176 199 0
176 199 0
175 198 0
176 199 0
175 198 0
174 198 0
173 197 0
175 198 0
174 198 0
177 199 0
172 196 0
175 198 0
176 198 0
173 197 0
175 198 0
174 198 0
174 197 0
174 198 0
174 198 0
175 198 0
173 197 0
173 197 0
175 198 0
174 197 0
176 199 0
174 197 0
174 197 0
173 196 0
175 198 0
172 196 0
173 197 0
175 198 0
175 198 0
174 197 0
173 197 0
173 197 0
173 197 0
175 198 0
174 198 0
174 198 0
175 198 0
175 198 0
175 198 0
174 197 0
176 199 0
174 197 0
175 198 0
173 197 0
174 197 0
174 198 0
173 197 0
174 198 0
175 198 0
173 197 0
175 198 0
175 198 0
175 198 0
173 197 0
175 198 0
173 197 0
173 197 0
174 198 0
175 198 0
173 196 0
174 197 0
172 196 0
174 197 0
173 197 0
174 197 0
173 197 0
173 197 0
175 198 0
175 198 0
173 197 0
174 198 0
173 197 0
172 196 0
174 197 0
174 198 0
172 196 0
173 197 0
175 198 0
173 197 0
174 197 0
173 197 0
173 196 0
173 197 0
174 197 0
175 198 0
173 197 0
174 198 0
171 195 0
174 197 0
175 198 0
173 196 0
175 198 0
174 198 0
175 198 0
173 197 0
174 197 0
173 196 0
174 197 0
171 195 0
175 198 0
173 196 0
173 197 0
174 197 0
173 197 0
175 198 0
174 198 0
174 197 0
173 196 0
175 198 0
174 197 0
174 197 0
173 197 0
173 197 0
175 198 0
175 198 0
172 196 0
172 196 0
173 196 0
173 197 0
175 198 0
173 197 0
173 196 0
174 197 0
173 197 0
175 198 0
175 198 0
172 196 0
174 197 0
174 198 0
172 197 0
174 197 0
174 197 0
174 197 0
175 198 0
174 197 0
174 197 0
173 196 0
175 198 0
173 197 0
174 197 0
173 197 0
174 197 0
174 198 0
171 195 0
171 195 0
175 198 0
173 197 0
174 198 0
173 196 0
172 196 0
173 197 0
172 195 0
174 197 0
173 197 0
174 197 0
173 196 0
173 197 0
173 197 0
173 196 0
174 197 0
172 196 0
175 198 0
172 197 0
172 196 0
174 198 0
172 197 0
173 197 0
172 196 0
175 198 0
174 197 0
174 197 0
174 197 0
174 197 0
174 197 0
174 197 0
174 197 0
173 197 0
172 195 0
174 197 0
173 197 0
172 196 0
172 195 0
175 198 0
173 197 0
174 197 0
172 196 0
173 196 0
174 197 0
174 197 0
172 196 0
174 197 0
174 197 0
175 198 0
173 196 0
174 197 0
173 197 0
173 196 0
172 196 0
175 198 0
175 198 0
173 196 0
174 198 0
174 197 0
174 196 0
172 196 0
173 197 0
175 198 0
174 197 0
171 195 0
174 197 0
174 197 0
171 194 0
174 197 0
174 197 0
174 198 0
172 196 0
176 199 0
174 198 0
174 197 0
173 196 0
172 196 0
173 197 0
172 196 0
172 196 0
172 195 0
173 197 0
173 197 0
175 198 0
173 196 0
171 195 0
175 198 0
171 195 0
171 195 0
172 196 0
173 197 0
175 198 0
175 198 0
174 197 0
174 197 0
174 197 0
173 197 0
175 197 0
175 197 0
174 197 0
174 197 0
176 198 0
173 196 0
173 197 0
172 196 0
174 197 0
174 197 0
174 197 0
175 198 0
173 196 0
174 197 0
173 197 0
173 197 0
176 198 0
173 197 0
176 199 0
174 197 0
175 198 0
172 197 0
175 198 0
174 197 0
175 198 0
174 198 0
174 198 0
174 197 0
174 197 0
174 198 0
174 197 0
173 197 0
175 198 0
174 197 0
172 196 0
174 197 0
175 198 0
173 197 0
175 198 0
174 198 0
172 196 0
173 197 0
172 196 0
177 199 0
174 198 0
174 198 0
173 196 0
175 198 0
172 196 0
175 198 0
175 197 0
173 197 0
173 197 0
174 198 0
174 197 0
173 197 0
173 197 0
174 197 0
173 196 0
175 198 0
174 197 0
173 197 0
174 197 0
173 197 0
174 197 0
175 198 0
174 197 0
176 199 0
175 198 0
174 197 0
175 198 0
172 196 0
174 197 0
176 199 0
175 198 0
174 197 0
173 197 0
175 198 0
175 198 0
174 197 0
173 197 0
174 197 0
174 198 0
175 198 0
175 198 0
173 196 0
174 198 0
174 197 0
174 197 0
174 198 0
174 198 0
176 199 0
173 197 0
173 197 0
173 197 0
173 197 0
173 197 0
174 197 0
174 198 0
175 198 0
175 198 0
174 197 0
175 198 0
174 198 0
176 199 0
175 198 0
174 198 0
173 197 0
175 198 0
174 198 0
173 197 0
174 198 0
175 198 0
175 198 0
174 198 0
175 198 0
175 198 0
173 197 0
174 197 0
174 198 0
175 198 0
172 197 0
175 198 0
176 199 0
176 199 0
175 198 0
174 198 0
174 197 0
175 198 0
174 198 0
175 198 0
175 198 0
174 198 0
173 197 0
173 197 0
175 198 0
174 198 0
175 198 0
173 197 0
174 197 0
173 197 0
174 197 0
174 197 0
173 197 0
175 198 0
173 197 0
174 198 0
176 198 0
174 198 0
175 198 0
174 198 0
174 198 0
175 198 0
174 198 0
172 197 0
175 198 0
174 197 0
172 197 0
175 198 0
176 198 0
173 197 0
176 199 0
174 197 0
174 198 0
173 196 0
174 197 0
174 198 0
175 198 0
172 196 0
175 198 0
173 197 0
174 198 0
173 197 0
175 198 0
175 198 0
174 197 0
173 197 0
172 197 0
174 198 0
173 197 0
173 197 0
174 198 0
176 199 0
175 198 0
174 197 0
174 198 0
174 198 0
174 198 0
173 196 0
174 197 0
173 197 0
175 198 0
175 198 0
173 197 0
174 198 0
174 198 0
173 197 0
174 197 0
174 198 0
175 198 0
174 197 0
173 197 0
175 198 0
176 199 0
174 198 0
173 197 0
174 198 0
173 197 0
176 198 0
174 198 0
175 198 0
174 198 0
174 198 0
175 198 0
174 198 0
173 197 0
174 198 0
174 197 0
173 197 0
174 198 0
174 198 0
175 198 0
176 198 0
174 197 0
172 196 0
173 197 0
173 197 0
173 197 0
174 197 0
172 195 0
175 198 0
174 197 0
175 198 0
173 196 0
172 196 0
174 197 0
174 198 0
176 199 0
174 198 0
173 197 0
174 198 0
172 196 0
173 197 0
175 198 0
175 198 0
175 198 0
172 195 0
174 197 0
173 197 0
173 196 0
174 198 0
175 198 0
173 197 0
175 198 0
174 197 0
172 196 0
176 198 0
173 197 0
171 195 0
173 197 0
174 198 0
175 198 0
173 197 0
175 198 0
172 195 0
171 195 0
175 198 0
174 197 0
175 198 0
173 196 0
172 197 0
174 197 0
175 198 0
175 198 0
175 198 0
173 197 0
174 197 0
174 197 0
174 197 0
173 197 0
175 198 0
173 197 0
174 197 0
173 196 0
171 196 0
174 198 0
173 197 0
173 197 0
175 198 0
172 195 0
172 195 0
173 196 0
174 198 0
175 198 0
176 198 0
171 195 0
175 198 0
172 195 0
173 197 0
173 197 0
175 198 0
172 196 0
173 197 0
172 195 0
173 196 0
175 198 0
175 198 0
173 196 0
175 198 0
172 196 0
173 197 0
174 197 0
171 195 0
175 198 0
174 197 0
174 197 0
173 196 0
174 197 0
172 195 0
174 197 0
174 197 0
173 196 0
173 196 0
174 197 0
173 197 0
174 197 0
174 198 0
173 196 0
174 197 0
173 197 0
173 197 0
174 197 0
174 197 0
173 196 0
175 198 0
172 196 0
174 198 0
173 197 0
175 198 0
175 198 0
174 197 0
173 197 0
175 198 0
173 197 0
174 197 0
173 196 0
173 197 0
173 197 0
171 195 0
175 198 0
170 194 0
173 197 0
172 196 0
174 198 0
174 197 0
173 197 0
173 197 0
173 196 0
173 195 0
173 196 0
175 198 0
173 197 0
172 195 0
173 197 0
172 196 0
175 198 0
174 197 0
173 197 0
174 198 0
172 195 0
173 197 0
173 196 0
172 196 0
174 197 0
173 197 0
172 196 0
173 196 0
173 197 0
173 197 0
174 197 0
174 197 0
173 197 0
173 196 0
175 198 0
175 198 0
173 197 0
172 196 0
175 198 0
173 197 0
174 198 0
174 197 0
174 197 0
174 198 0
174 197 0
174 197 0
174 197 0
174 197 0
174 197 0
173 197 0
173 197 0
173 196 0
173 196 0
175 197 0
173 196 0
173 197 0
175 198 0
174 197 0
174 197 0
172 195 0
175 198 0
174 198 0
175 197 0
176 198 0
175 198 0
173 197 0
173 197 0
173 197 0
175 198 0
174 197 0
174 197 0
174 198 0
175 198 0
173 197 0
173 197 0
174 197 0
174 198 0
173 197 0
173 197 0
174 198 0
174 197 0
175 198 0
173 197 0
173 196 0
174 198 0
174 198 0
175 198 0
175 198 0
174 197 0
174 196 0
173 197 0
174 198 0
174 197 0
174 197 0
173 196 0
174 198 0
175 198 0
174 198 0
176 199 0
174 197 0
173 197 0
175 198 0
175 198 0
173 197 0
174 197 0
175 198 0
172 196 0
172 197 0
174 198 0
174 198 0
176 198 0
176 199 0
174 197 0
174 198 0
173 197 0
174 197 0
176 199 0
174 197 0
175 198 0
175 198 0
175 198 0
172 196 0
173 197 0
172 196 0
174 198 0
174 197 0
174 198 0
174 198 0
173 197 0
176 199 0
174 198 0
172 196 0
174 197 0
173 197 0
173 197 0
174 197 0
174 198 0
175 198 0
175 198 0
175 198 0
175 198 0
174 198 0
174 198 0
174 198 0
175 198 0
173 197 0
175 198 0
175 198 0
174 198 0
176 199 0
174 197 0
176 198 0
174 198 0
173 197 0
176 198 0
175 198 0
176 199 0
174 198 0
176 198 0
174 198 0
174 198 0
174 198 0
175 198 0
173 197 0
173 197 0
173 197 0
175 198 0
173 197 0
174 197 0
175 198 0
174 198 0
174 197 0
176 198 0
175 198 0
173 197 0
175 198 0
174 197 0
176 199 0
174 197 0
176 198 0
174 197 0
175 198 0
173 197 0
175 198 0
175 198 0
177 199 0
174 198 0
174 198 0
175 198 0
174 197 0
174 198 0
174 198 0
173 197 0
172 196 0
175 198 0
174 197 0
174 198 0
176 198 0
174 198 0
175 198 0
175 198 0
174 198 0
175 198 0
177 199 0
175 198 0
174 198 0
175 198 0
174 197 0
175 198 0
174 198 0
173 197 0
174 197 0
174 197 0
173 197 0
173 197 0
175 198 0
175 198 0
174 198 0
174 197 0
175 198 0
174 198 0
174 197 0
174 197 0
174 198 0
175 198 0
174 197 0
173 197 0
176 199 0
175 198 0
174 198 0
174 198 0
175 198 0
176 199 0
175 198 0
174 198 0
174 197 0
173 197 0
175 198 0
173 197 0
173 197 0
173 197 0
174 197 0
173 197 0
175 198 0
174 198 0
173 197 0
173 197 0
174 197 0
174 198 0
174 197 0
174 198 0
173 197 0
173 197 0
175 198 0
175 198 0
173 197 0
174 197 0
174 197 0
175 198 0
173 197 0
175 198 0
174 197 0
174 197 0
174 198 0
174 198 0
174 197 0
174 197 0
174 197 0
174 197 0
175 198 0
175 198 0
172 196 0
174 197 0
174 197 0
176 198 0
174 198 0
174 197 0
174 197 0
174 198 0
173 197 0
176 198 0
174 198 0
174 197 0
173 197 0
173 197 0
175 198 0
175 198 0
175 198 0
174 197 0
173 196 0
171 194 0
174 198 0
176 199 0
174 197 0
172 196 0
174 197 0
176 198 0
175 198 0
171 195 0
173 196 0
174 197 0
174 197 0
174 198 0
176 198 0
173 197 0
172 196 0
173 197 0
174 197 0
174 197 0
174 198 0
173 196 0
173 197 0
172 197 0
172 196 0
175 198 0
173 197 0
175 198 0
172 196 0
174 197 0
175 198 0
175 198 0
170 195 0
173 196 0
174 197 0
174 197 0
174 197 0
172 196 0
173 197 0
172 196 0
173 196 0
173 196 0
172 195 0
174 197 0
171 195 0
173 196 0
174 197 0
175 198 0
173 196 0
174 198 0
172 196 0
172 196 0
171 195 0
173 197 0
173 197 0
172 196 0
174 197 0
175 198 0
173 197 0
173 197 0
172 196 0
173 197 0
173 196 0
172 196 0
170 195 0
172 195 0
173 196 0
175 198 0
174 197 0
172 196 0
173 196 0
172 196 0
173 196 0
171 194 0
174 197 0
174 198 0
173 197 0
170 194 0
173 196 0
172 195 0
171 195 0
170 193 0
174 197 0
174 197 0
173 197 0
172 195 0
175 198 0
171 195 0
173 197 0
175 198 0
171 195 0
176 199 0
172 196 0
171 195 0
173 197 0
174 197 0
175 198 0
176 198 0
173 197 0
173 196 0
173 197 0
174 197 0
174 197 0
174 197 0
175 198 0
174 198 0
172 195 0
172 196 0
173 196 0
174 198 0
174 197 0
173 197 0
170 194 0
177 199 0
175 198 0
172 196 0
172 196 0
177 199 0
174 197 0
176 198 0
173 197 0
173 197 0
174 198 0
173 196 0
173 196 0
174 197 0
174 198 0
174 197 0
174 197 0
175 198 0
174 197 0
174 197 0
175 198 0
173 197 0
172 194 0
174 197 0
175 198 0
174 198 0
173 196 0
175 198 0
173 197 0
173 197 0
171 195 0
171 195 0
174 197 0
173 196 0
173 196 0
173 196 0
173 196 0
174 197 0
174 197 0
174 197 0
173 197 0
175 198 0
173 196 0
171 196 0
172 196 0
173 197 0
173 197 0
174 198 0
174 197 0
175 198 0
174 197 0
175 198 0
175 198 0
173 196 0
175 198 0
174 197 0
174 198 0
174 198 0
174 197 0
173 197 0
174 198 0
174 197 0
175 198 0
174 197 0
175 198 0
173 197 0
172 197 0
172 196 0
173 197 0
174 197 0
174 197 0
174 197 0
175 198 0
173 197 0
173 197 0
172 196 0
174 198 0
172 196 0
174 197 0
173 196 0
174 197 0
176 199 0
175 198 0
172 196 0
174 197 0
173 196 0
173 196 0
174 198 0
173 197 0
173 197 0
177 199 0
173 197 0
173 197 0
175 198 0
174 197 0
175 198 0
174 197 0
174 198 0
174 198 0
174 198 0
173 197 0
174 197 0
175 198 0
174 198 0
174 198 0
173 197 0
173 197 0
174 198 0
172 196 0
174 197 0
172 196 0
171 195 0
174 197 0
175 198 0
175 198 0
174 198 0
173 197 0
173 197 0
175 198 0
173 197 0
173 196 0
176 198 0
174 198 0
174 197 0
174 198 0
173 197 0
175 198 0
176 199 0
174 197 0
174 197 0
174 197 0
173 197 0
175 198 0
175 198 0
176 199 0
173 197 0
174 197 0
175 198 0
174 198 0
174 198 0
174 197 0
175 198 0
175 198 0
174 198 0
174 198 0
175 198 0
174 198 0
174 198 0
174 197 0
173 197 0
175 197 0
175 198 0
175 198 0
174 198 0
175 198 0
173 197 0
174 198 0
174 198 0
173 197 0
175 198 0
176 198 0
173 197 0
174 197 0
177 199 0
173 197 0
175 198 0
174 197 0
174 198 0
174 198 0
175 197 0
174 198 0
174 198 0
175 198 0
175 198 0
174 198 0
175 198 0
173 197 0
175 198 0
173 197 0
175 198 0
174 197 0
176 198 0
176 199 0
175 198 0
175 198 0
175 198 0
173 197 0
174 197 0
175 198 0
173 197 0
175 198 0
173 197 0
174 197 0
173 197 0
175 198 0
173 197 0
174 198 0
175 198 0
173 197 0
174 198 0
174 197 0
173 197 0
174 198 0
174 198 0
174 198 0
175 198 0
173 197 0
176 199 0
174 197 0
174 198 0
174 197 0
173 197 0
174 198 0
175 198 0
174 197 0
174 197 0
174 198 0
176 198 0
174 197 0
174 198 0
174 197 0
173 197 0
174 198 0
174 198 0
174 198 0
175 198 0
174 198 0
176 199 0
173 197 0
174 198 0
175 198 0
173 197 0
175 198 0
174 198 0
172 196 0
175 198 0
173 197 0
176 198 0
175 198 0
173 196 0
173 197 0
174 198 0
174 197 0
175 198 0
173 197 0
173 197 0
174 198 0
174 198 0
173 197 0
174 197 0
174 197 0
175 198 0
173 196 0
172 196 0
173 197 0
173 197 0
175 198 0
174 197 0
173 197 0
175 198 0
173 197 0
173 197 0
174 197 0
175 198 0
174 198 0
172 196 0
174 197 0
173 197 0
174 197 0
172 196 0
175 198 0
174 198 0
174 197 0
174 198 0
176 198 0
174 197 0
173 197 0
172 197 0
175 198 0
175 198 0
173 197 0
175 198 0
173 197 0
174 198 0
174 197 0
172 196 0
175 198 0
175 198 0
173 197 0
174 198 0
173 197 0
173 197 0
174 198 0
174 197 0
175 198 0
174 197 0
176 198 0
175 198 0
174 198 0
175 198 0
172 196 0
174 197 0
175 198 0
175 198 0
173 197 0
172 196 0
174 197 0
172 196 0
175 197 0
172 196 0
173 196 0
175 198 0
174 197 0
172 196 0
173 197 0
173 197 0
174 197 0
175 198 0
174 198 0
174 198 0
173 197 0
172 196 0
172 195 0
174 197 0
172 196 0
172 196 0
175 197 0
173 197 0
174 198 0
172 196 0
174 197 0
175 198 0
173 196 0
174 197 0
170 193 0
173 196 0
172 196 0
173 197 0
173 197 0
174 197 0
174 197 0
173 196 0
173 197 0
174 198 0
174 197 0
175 198 0
173 197 0
172 195 0
175 198 0
173 196 0
174 198 0
168 192 0
173 196 0
174 197 0
170 194 0
172 196 0
174 197 0
174 197 0
173 197 0
173 196 0
172 196 0
172 196 0
174 197 0
173 196 0
172 194 0
170 194 0
175 198 0
173 197 0
173 197 0
173 197 0
172 195 0
174 198 0
173 197 0
172 196 0
172 196 0
170 194 0
171 195 0
174 197 0
171 195 0
173 196 0
171 195 0
172 197 0
173 196 0
174 197 0
171 195 0
171 195 0
172 195 0
173 197 0
174 197 0
171 194 0
174 198 0
170 194 0
172 196 0
173 197 0
175 198 0
172 196 0
175 197 0
174 197 0
171 195 0
173 197 0
173 196 0
175 197 0
174 198 0
175 198 0
173 197 0
175 198 0
174 198 0
175 198 0
174 197 0
174 197 0
174 197 0
173 197 0
173 196 0
174 197 0
174 197 0
173 197 0
172 196 0
173 196 0
175 197 0
173 197 0
173 197 0
171 194 0
174 197 0
174 197 0
171 195 0
174 197 0
172 196 0
175 198 0
173 197 0
174 197 0
171 195 0
175 198 0
172 195 0
173 197 0
176 199 0
173 197 0
173 197 0
175 198 0
174 197 0
172 196 0
173 197 0
173 196 0
171 195 0
174 197 0
174 197 0
172 196 0
175 198 0
173 196 0
174 198 0
174 197 0
173 197 0
176 199 0
172 195 0
172 196 0
174 197 0
172 196 0
175 198 0
174 198 0
174 197 0
174 198 0
173 197 0
174 197 0
173 197 0
174 197 0
174 197 0
173 196 0
175 198 0
175 198 0
175 197 0
173 197 0
175 198 0
173 196 0
174 197 0
173 197 0
173 197 0
174 198 0
175 198 0
174 198 0
175 198 0
175 198 0
174 197 0
173 196 0
176 198 0
174 198 0
173 197 0
174 197 0
173 197 0
175 198 0
174 197 0
173 197 0
173 197 0
175 198 0
173 197 0
172 197 0
175 198 0
174 198 0
175 198 0
176 198 0
174 198 0
173 197 0
176 199 0
175 198 0
174 197 0
173 196 0
174 197 0
175 198 0
174 198 0
174 197 0
175 198 0
174 197 0
173 197 0
174 198 0
174 197 0
175 198 0
173 196 0
174 197 0
173 197 0
172 196 0
174 198 0
173 196 0
174 198 0
174 197 0
173 196 0
174 197 0
175 198 0
176 199 0
174 198 0
173 196 0
174 197 0
175 198 0
175 198 0
174 198 0
174 197 0
176 199 0
174 197 0
173 197 0
174 197 0
175 198 0
173 197 0
174 198 0
175 198 0
174 198 0
174 197 0
174 197 0
176 199 0
175 198 0
174 198 0
174 198 0
172 196 0
174 198 0
174 198 0
173 197 0
176 199 0
174 197 0
172 197 0
174 198 0
176 199 0
175 198 0
173 197 0
174 198 0
175 198 0
175 198 0
174 198 0
174 198 0
174 197 0
175 198 0
174 198 0
173 197 0
175 198 0
175 198 0
173 197 0
175 198 0
173 197 0
174 198 0
174 197 0
176 199 0
175 198 0
174 198 0
174 198 0
173 197 0
173 197 0
174 198 0
174 198 0
174 198 0
176 199 0
176 199 0
173 197 0
175 198 0
175 198 0
175 198 0
174 198 0
174 198 0
174 198 0
173 197 0
175 198 0
176 198 0
173 197 0
174 198 0
174 198 0
175 198 0
174 198 0
174 198 0
173 197 0
174 198 0
174 198 0
174 197 0
176 199 0
174 198 0
175 198 0
174 197 0
175 198 0
173 197 0
174 198 0
174 197 0
174 197 0
174 197 0
175 198 0
174 197 0
175 198 0
174 198 0
175 198 0
173 197 0
175 198 0
174 197 0
174 197 0
172 196 0
175 198 0
175 198 0
174 198 0
175 198 0
174 198 0
173 197 0
173 197 0
175 198 0
175 198 0
175 198 0
173 196 0
173 197 0
176 199 0
173 197 0
174 198 0
175 198 0
175 198 0
173 197 0
172 197 0
174 198 0
174 198 0
175 198 0
173 197 0
173 197 0
174 198 0
175 198 0
172 197 0
176 198 0
173 197 0
174 197 0
174 197 0
174 197 0
174 198 0
175 198 0
174 197 0
174 198 0
173 197 0
176 199 0
173 197 0
172 197 0
172 196 0
175 198 0
173 197 0
173 197 0
174 197 0
175 198 0
173 197 0
172 196 0
173 197 0
174 198 0
175 198 0
173 197 0
175 198 0
174 197 0
176 198 0
174 197 0
173 197 0
171 195 0
172 197 0
174 197 0
173 197 0
174 197 0
173 196 0
174 197 0
175 198 0
172 196 0
173 196 0
174 197 0
173 196 0
174 197 0
173 197 0
171 195 0
172 196 0
173 196 0
174 197 0
174 197 0
174 197 0
174 197 0
175 198 0
174 197 0
174 197 0
172 196 0
173 196 0
172 196 0
174 197 0
174 198 0
172 196 0
173 197 0
172 196 0
174 197 0
174 198 0
172 196 0
174 198 0
174 198 0
174 198 0
172 196 0
173 196 0
174 197 0
174 197 0
174 197 0
173 197 0
172 196 0
173 196 0
175 198 0
172 196 0
172 196 0
174 197 0
177 199 0
174 197 0
174 197 0
175 198 0
173 197 0
172 196 0
172 196 0
173 196 0
174 198 0
174 198 0
172 196 0
172 196 0
174 197 0
173 197 0
174 197 0
172 195 0
173 196 0
173 196 0
175 198 0
173 196 0
172 196 0
172 195 0
171 194 0
171 195 0
174 197 0
173 197 0
172 196 0
172 195 0
172 196 0
174 197 0
172 196 0
171 195 0
172 196 0
171 195 0
174 197 0
174 197 0
175 198 0
174 197 0
173 197 0
169 193 0
172 196 0
174 197 0
174 197 0
173 197 0
174 197 0
173 197 0
172 196 0
174 198 0
174 197 0
174 197 0
174 197 0
171 195 0
173 197 0
175 197 0
175 198 0
172 196 0
175 198 0
175 198 0
173 197 0
175 198 0
173 196 0
172 195 0
172 195 0
171 194 0
172 196 0
174 197 0
173 197 0
172 196 0
171 195 0
174 198 0
174 198 0
171 195 0
173 197 0
173 196 0
174 197 0
173 197 0
173 196 0
173 197 0
174 197 0
173 196 0
172 196 0
173 197 0
173 196 0
174 196 0
176 199 0
173 196 0
171 193 0
174 198 0
173 197 0
172 196 0
173 197 0
174 197 0
174 198 0
174 198 0
173 197 0
174 197 0
174 197 0
175 198 0
176 198 0
173 196 0
172 196 0
174 197 0
175 198 0
175 198 0
175 198 0
173 197 0
173 197 0
173 196 0
174 197 0
174 197 0
175 198 0
172 196 0
175 197 0
173 196 0
173 197 0
175 198 0
173 197 0
174 198 0
173 197 0
174 198 0
172 196 0
172 196 0
173 197 0
173 197 0
175 198 0
174 197 0
174 197 0
174 198 0
174 197 0
175 197 0
173 197 0
173 197 0
175 197 0
175 198 0
174 198 0
174 197 0
174 198 0
173 197 0
176 198 0
173 196 0
173 197 0
173 197 0
174 197 0
173 197 0
176 198 0
175 198 0
175 198 0
173 197 0
173 197 0
172 197 0
173 197 0
175 198 0
174 197 0
173 196 0
175 198 0
173 196 0
173 197 0
173 197 0
175 198 0
173 197 0
175 198 0
173 197 0
174 197 0
173 197 0
173 197 0
174 198 0
173 197 0
173 197 0
174 197 0
174 198 0
174 197 0
174 198 0
173 197 0
175 198 0
174 197 0
174 197 0
174 197 0
174 198 0
175 198 0
175 198 0
173 197 0
173 196 0
174 198 0
173 197 0
174 197 0
174 197 0
173 197 0
175 198 0
174 197 0
175 198 0
174 198 0
173 196 0
174 197 0
175 198 0
173 197 0
176 198 0
173 197 0
175 198 0
174 197 0
175 198 0
175 198 0
175 198 0
175 198 0
174 198 0
175 198 0
175 198 0
175 198 0
174 198 0
175 198 0
175 198 0
172 196 0
174 197 0
174 198 0
174 197 0
174 198 0
174 198 0
175 198 0
175 198 0
174 197 0
173 197 0
176 199 0
174 198 0
176 198 0
176 199 0
173 197 0
174 197 0
174 197 0
175 198 0
174 197 0
175 198 0
175 198 0
174 198 0
174 198 0
174 197 0
174 198 0
174 198 0
174 198 0
174 198 0
174 197 0
174 198 0
174 198 0
174 198 0
173 197 0
173 197 0
174 198 0
174 197 0
174 198 0
176 199 0
173 196 0
175 198 0
173 197 0
174 198 0
174 197 0
174 197 0
175 198 0
176 199 0
173 197 0
175 198 0
174 198 0
174 198 0
176 199 0
174 198 0
174 198 0
174 198 0
173 197 0
175 198 0
174 198 0
174 197 0
175 198 0
174 198 0
175 198 0
174 198 0
174 198 0
174 198 0
174 198 0
174 198 0
176 199 0
174 198 0
174 198 0
175 198 0
175 198 0
174 198 0
175 198 0
173 197 0
175 198 0
174 198 0
174 198 0
175 198 0
175 198 0
174 198 0
174 198 0
174 197 0
174 197 0
174 198 0
174 197 0
175 198 0
174 198 0
174 198 0
175 198 0
174 197 0
171 195 0
175 198 0
174 197 0
174 197 0
176 198 0
173 197 0
175 198 0
174 198 0
174 198 0
175 198 0
172 196 0
173 197 0
174 197 0
174 198 0
171 196 0
173 197 0
173 197 0
174 197 0
173 197 0
176 198 0
175 198 0
173 197 0
176 198 0
174 197 0
173 196 0
173 197 0
176 198 0
174 198 0
174 197 0
174 198 0
174 198 0
173 197 0
174 197 0
173 197 0
174 197 0
173 197 0
174 198 0
174 197 0
174 198 0
174 198 0
175 198 0
174 197 0
175 198 0
175 198 0
173 197 0
174 197 0
175 198 0
174 197 0
172 196 0
174 198 0
174 197 0
174 198 0
175 198 0
176 198 0
173 196 0
175 198 0
175 198 0
171 195 0
173 197 0
175 198 0
174 198 0
174 197 0
174 198 0
174 198 0
173 197 0
174 197 0
174 198 0
174 197 0
174 197 0
173 197 0
175 198 0
172 196 0
175 198 0
173 196 0
172 196 0
174 198 0
172 196 0
173 197 0
173 196 0
174 197 0
175 198 0
170 195 0
175 198 0
173 197 0
172 196 0
172 196 0
172 196 0
173 196 0
172 196 0
173 197 0
174 197 0
177 199 0
174 197 0
170 194 0
174 198 0
175 198 0
172 196 0
172 196 0
175 198 0
173 196 0
172 197 0
174 197 0
173 197 0
173 197 0
173 196 0
175 198 0
173 197 0
173 196 0
174 197 0
174 197 0
174 198 0
172 196 0
171 195 0
173 196 0
175 198 0
173 196 0
173 197 0
173 196 0
173 196 0
172 196 0
175 198 0
171 195 0
172 196 0
173 196 0
173 197 0
173 197 0
172 196 0
173 196 0
176 198 0
174 197 0
172 196 0
173 196 0
174 197 0
175 198 0
172 196 0
172 196 0
175 198 0
172 196 0
175 198 0
173 197 0
171 195 0
173 197 0
172 196 0
174 198 0
174 197 0
171 195 0
174 197 0
174 197 0
173 197 0
173 197 0
174 197 0
174 197 0
173 197 0
173 197 0
174 197 0
173 197 0
172 196 0
173 196 0
173 197 0
175 198 0
172 196 0
175 198 0
173 196 0
174 197 0
174 198 0
175 198 0
173 197 0
174 198 0
174 198 0
175 197 0
172 195 0
174 197 0
174 197 0
174 198 0
174 197 0
173 197 0
172 194 0
173 196 0
174 197 0
175 198 0
173 197 0
174 197 0
173 196 0
174 198 0
174 197 0
175 198 0
173 197 0
174 198 0
173 196 0
175 197 0
172 197 0
174 197 0
174 197 0
172 196 0
175 198 0
174 197 0
173 197 0
175 198 0
174 198 0
172 196 0
174 198 0
174 197 0
174 197 0
172 196 0
173 196 0
174 197 0
173 196 0
174 197 0
173 197 0
176 199 0
175 198 0
175 198 0
172 196 0
175 198 0
176 199 0
173 196 0
175 197 0
175 198 0
171 196 0
174 197 0
174 197 0
172 196 0
174 197 0
172 196 0
174 197 0
173 196 0
173 196 0
174 198 0
174 197 0
174 197 0
174 197 0
172 196 0
174 197 0
175 198 0
173 197 0
174 197 0
174 197 0
173 197 0
174 198 0
173 197 0
174 198 0
174 197 0
174 197 0
174 197 0
173 197 0
173 197 0
174 198 0
174 197 0
174 197 0
173 197 0
173 197 0
173 197 0
174 198 0
175 198 0
172 196 0
173 197 0
172 196 0
174 197 0
174 197 0
174 197 0
173 197 0
173 197 0
173 197 0
173 197 0
173 197 0
173 197 0
175 198 0
172 196 0
174 197 0
173 197 0
174 198 0
173 197 0
174 198 0
176 198 0
175 198 0
173 197 0
174 198 0
173 197 0
174 197 0
176 199 0
175 198 0
175 198 0
173 197 0
174 197 0
174 198 0
173 197 0
172 197 0
176 199 0
174 198 0
174 197 0
174 197 0
172 197 0
174 197 0
175 198 0
174 198 0
175 198 0
175 198 0
174 197 0
174 198 0
174 198 0
176 199 0
173 197 0
174 197 0
176 199 0
174 198 0
174 198 0
174 197 0
174 198 0
175 198 0
174 198 0
174 198 0
174 198 0
175 197 0
176 198 0
174 198 0
175 198 0
173 197 0
176 199 0
174 198 0
174 198 0
175 198 0
173 197 0
174 198 0
174 198 0
173 197 0
175 198 0
174 197 0
172 197 0
174 197 0
173 197 0
177 199 0
175 198 0
173 197 0
173 197 0
175 198 0
174 198 0
175 198 0
175 198 0
175 198 0
175 198 0
176 199 0
173 197 0
174 198 0
172 197 0
174 198 0
173 197 0
173 196 0
176 198 0
175 198 0
174 197 0
174 198 0
174 198 0
175 198 0
173 197 0
172 196 0
175 198 0
175 198 0
174 198 0
174 198 0
175 198 0
174 198 0
172 196 0
174 198 0
173 197 0
175 198 0
174 198 0
174 197 0
175 198 0
173 197 0
174 198 0
173 197 0
175 198 0
174 198 0
174 198 0
173 197 0
175 198 0
173 197 0
176 198 0
174 198 0
173 197 0
175 198 0
174 197 0
174 198 0
175 198 0
177 199 0
174 198 0
175 198 0
172 197 0
172 197 0
174 197 0
176 199 0
174 198 0
174 197 0
173 197 0
174 198 0
174 198 0
174 198 0
173 197 0
173 197 0
173 197 0
174 198 0
176 199 0
175 198 0
171 195 0
174 198 0
173 197 0
174 198 0
175 198 0
174 198 0
175 198 0
175 198 0
172 197 0
175 198 0
174 197 0
174 197 0
173 197 0
174 197 0
172 196 0
173 197 0
173 197 0
174 197 0
174 198 0
174 197 0
175 198 0
172 197 0
173 197 0
174 197 0
172 196 0
175 198 0
175 198 0
173 197 0
172 196 0
174 198 0
174 198 0
173 197 0
175 198 0
174 197 0
174 198 0
174 197 0
174 197 0
172 196 0
173 197 0
172 197 0
174 198 0
173 197 0
172 196 0
174 197 0
175 198 0
174 198 0
173 196 0
175 198 0
174 197 0
174 197 0
173 197 0
173 197 0
173 196 0
175 198 0
173 197 0
174 197 0
174 197 0
172 195 0
174 197 0
175 198 0
173 197 0
174 198 0
174 197 0
173 197 0
173 196 0
174 197 0
175 198 0
175 198 0
173 197 0
175 198 0
175 198 0
175 198 0
175 198 0
171 195 0
172 196 0
173 197 0
174 197 0
173 197 0
175 198 0
176 198 0
174 197 0
174 198 0
176 198 0
174 197 0
174 197 0
173 196 0
172 197 0
174 198 0
175 198 0
175 198 0
175 198 0
173 197 0
172 196 0
172 196 0
174 198 0
174 197 0
175 197 0
171 195 0
175 198 0
176 198 0
174 198 0
172 196 0
174 198 0
170 193 0
175 198 0
171 195 0
173 197 0
172 196 0
173 196 0
174 198 0
173 197 0
173 196 0
174 197 0
175 198 0
172 196 0
174 197 0
174 198 0
175 198 0
172 195 0
173 196 0
173 197 0
171 196 0
175 198 0
173 196 0
173 196 0
173 196 0
171 196 0
174 197 0
175 198 0
174 197 0
173 196 0
174 197 0
172 196 0
173 197 0
176 199 0
177 198 0
174 197 0
173 196 0
174 198 0
172 196 0
174 197 0
173 196 0
173 196 0
173 196 0
172 196 0
172 196 0
172 196 0
173 196 0
171 195 0
174 198 0
175 198 0
171 195 0
174 197 0
174 197 0
174 197 0
175 198 0
174 197 0
175 198 0
172 196 0
175 198 0
173 197 0
174 197 0
173 197 0
173 197 0
173 196 0
174 197 0
174 197 0
173 197 0
174 197 0
173 196 0
173 197 0
173 197 0
174 197 0
174 197 0
173 196 0
172 196 0
173 197 0
173 196 0
173 197 0
173 196 0
175 198 0
173 196 0
174 197 0
174 197 0
173 196 0
174 197 0
171 195 0
173 197 0
174 197 0
175 198 0
174 197 0
173 197 0
174 198 0
173 197 0
171 195 0
175 198 0
172 196 0
174 197 0
175 198 0
174 198 0
173 196 0
174 197 0
174 197 0
174 198 0
174 197 0
172 197 0
175 198 0
173 197 0
174 197 0
173 197 0
174 197 0
173 197 0
172 196 0
174 197 0
173 197 0
174 197 0
173 196 0
173 197 0
174 197 0
174 198 0
174 197 0
173 197 0
174 198 0
173 197 0
175 198 0
174 198 0
171 195 0
176 199 0
175 198 0
175 198 0
173 197 0
173 197 0
174 198 0
172 195 0
174 198 0
173 196 0
174 197 0
173 196 0
173 196 0
174 198 0
173 197 0
174 197 0
174 197 0
175 198 0
174 197 0
172 196 0
173 197 0
172 197 0
176 199 0
174 197 0
174 197 0
173 197 0
173 196 0
174 197 0
175 198 0
175 198 0
173 197 0
173 196 0
175 198 0
172 197 0
173 197 0
174 197 0
175 198 0
173 197 0
173 197 0
173 197 0
175 198 0
174 198 0
175 198 0
174 198 0
175 198 0
173 197 0
174 197 0
176 198 0
174 198 0
173 197 0
176 198 0
175 198 0
171 195 0
176 198 0
174 198 0
174 197 0
175 198 0
175 198 0
174 197 0
173 197 0
172 196 0
176 198 0
173 197 0
174 197 0
174 198 0
173 196 0
175 198 0
173 197 0
175 198 0
175 198 0
173 196 0
174 197 0
175 198 0
174 197 0
174 197 0
171 196 0
173 197 0
174 198 0
175 198 0
175 198 0
175 198 0
174 198 0
175 198 0
174 198 0
174 197 0
172 196 0
175 198 0
175 198 0
177 199 0
174 197 0
175 198 0
175 198 0
173 197 0
173 197 0
175 198 0
173 197 0
174 198 0
175 198 0
175 198 0
174 198 0
174 197 0
173 197 0
175 198 0
174 198 0
174 198 0
174 197 0
174 198 0
175 198 0
174 197 0
174 198 0
175 198 0
174 198 0
172 196 0
174 197 0
176 198 0
174 198 0
174 198 0
174 198 0
174 197 0
174 198 0
172 196 0
174 198 0
175 198 0
175 198 0
175 198 0
175 198 0
174 198 0
177 199 0
174 197 0
174 198 0
173 197 0
174 198 0
174 197 0
175 198 0
174 198 0
173 197 0
173 197 0
176 198 0
175 198 0
174 197 0
173 197 0
174 198 0
174 197 0
174 198 0
174 198 0
174 198 0
175 198 0
174 198 0
174 198 0
174 198 0
173 197 0
176 198 0
174 198 0
172 196 0
175 198 0
174 198 0
175 198 0
174 197 0
175 198 0
174 197 0
174 198 0
174 198 0
175 198 0
173 197 0
174 198 0
174 198 0
175 198 0
175 198 0
175 198 0
174 198 0
174 198 0
175 198 0
175 198 0
175 198 0
174 198 0
175 198 0
174 198 0
174 197 0
173 197 0
173 196 0
173 197 0
175 197 0
175 198 0
172 196 0
174 198 0
174 198 0
174 198 0
174 198 0
176 198 0
175 198 0
174 197 0
174 197 0
174 198 0
174 198 0
174 197 0
174 198 0
171 196 0
173 197 0
175 198 0
174 197 0
172 197 0
175 198 0
173 197 0
176 199 0
175 197 0
174 197 0
174 198 0
174 198 0
173 197 0
174 198 0
174 197 0
172 196 0
173 197 0
175 198 0
174 198 0
176 198 0
174 197 0
174 197 0
175 198 0
174 197 0
175 198 0
173 197 0
172 196 0
172 196 0
173 197 0
174 197 0
174 198 0
175 198 0
172 196 0
174 197 0
175 198 0
175 198 0
174 198 0
173 197 0
173 197 0
174 197 0
174 197 0
174 197 0
174 197 0
175 198 0
175 198 0
174 198 0
173 196 0
172 196 0
174 198 0
172 195 0
173 197 0
174 198 0
177 199 0
172 196 0
173 196 0
171 195 0
174 197 0
175 198 0
175 198 0
172 196 0
173 197 0
173 197 0
175 198 0
173 196 0
174 196 0
173 197 0
174 197 0
171 195 0
174 197 0
173 197 0
172 196 0
175 198 0
175 198 0
171 195 0
174 198 0
173 197 0
175 198 0
174 198 0
175 198 0
173 197 0
175 198 0
174 198 0
173 197 0
174 197 0
172 196 0
175 198 0
173 196 0
174 198 0
174 197 0
174 197 0
172 196 0
174 198 0
173 197 0
172 196 0
173 196 0
172 196 0
175 198 0
173 197 0
174 197 0
174 198 0
174 197 0
173 196 0
171 195 0
171 195 0
174 198 0
173 196 0
173 196 0
172 197 0
172 196 0
175 198 0
173 197 0
172 196 0
172 195 0
175 198 0
173 197 0
173 197 0
172 195 0
175 197 0
172 196 0
175 198 0
172 196 0
175 198 0
174 197 0
175 198 0
174 197 0
171 195 0
174 198 0
173 197 0
174 197 0
175 198 0
174 197 0
173 196 0
174 197 0
174 197 0
173 196 0
175 198 0
170 195 0
173 196 0
173 197 0
173 196 0
174 197 0
174 197 0
173 197 0
172 196 0
174 198 0
172 195 0
175 197 0
173 197 0
173 195 0
174 197 0
172 196 0
174 197 0
173 196 0
172 196 0
174 198 0
172 195 0
173 197 0
175 198 0
174 197 0
173 197 0
172 196 0
175 198 0
173 196 0
172 196 0
174 197 0
174 197 0
171 195 0
172 195 0
172 197 0
171 195 0
173 196 0
172 197 0
173 197 0
174 198 0
174 197 0
172 196 0
172 196 0
173 197 0
174 197 0
174 198 0
173 197 0
173 196 0
172 195 0
174 197 0
173 197 0
175 197 0
173 196 0
174 198 0
172 195 0
175 198 0
173 197 0
174 198 0
173 196 0
173 197 0
174 197 0
172 195 0
174 197 0
173 197 0
174 197 0
174 198 0
174 198 0
173 197 0
173 197 0
174 197 0
173 196 0
174 197 0
175 198 0
174 197 0
174 197 0
175 197 0
173 196 0
173 197 0
173 196 0
173 197 0
174 197 0
172 196 0
174 197 0
175 198 0
176 199 0
175 198 0
173 197 0
172 196 0
174 197 0
174 198 0
175 198 0
171 195 0
172 196 0
175 198 0
176 199 0
174 197 0
175 198 0
175 198 0
175 198 0
174 198 0
173 197 0
175 198 0
174 198 0
174 197 0
173 196 0
175 198 0
173 197 0
174 198 0
174 198 0
173 197 0
172 196 0
174 197 0
175 198 0
173 196 0
174 197 0
175 198 0
174 198 0
174 197 0
173 197 0
175 198 0
174 198 0
176 199 0
172 196 0
173 197 0
173 197 0
174 198 0
175 198 0
175 198 0
174 197 0
174 197 0
173 197 0
175 198 0
175 198 0
175 198 0
176 198 0
173 197 0
174 198 0
175 198 0
175 198 0
175 197 0
174 198 0
174 198 0
172 196 0
173 197 0
174 198 0
173 197 0
175 198 0
174 198 0
174 198 0
174 197 0
175 198 0
173 197 0
174 198 0
174 197 0
174 198 0
174 198 0
173 196 0
175 198 0
172 196 0
175 197 0
175 198 0
175 198 0
175 198 0
173 197 0
175 198 0
176 199 0
174 198 0
174 198 0
175 198 0
174 198 0
174 198 0
173 197 0
173 197 0
171 196 0
173 197 0
175 198 0
175 198 0
174 198 0
174 197 0
173 197 0
174 198 0
173 197 0
174 197 0
174 197 0
175 198 0
175 198 0
174 197 0
173 197 0
174 198 0
174 198 0
174 198 0
174 197 0
175 198 0
174 197 0
174 197 0
175 198 0
174 197 0
174 198 0
176 198 0
174 197 0
172 197 0
173 197 0
175 198 0
175 198 0
174 198 0
174 197 0
174 197 0
173 197 0
175 198 0
175 198 0
174 198 0
173 197 0
175 198 0
175 198 0
174 198 0
173 197 0
176 198 0
174 197 0
175 198 0
175 198 0
174 198 0
175 198 0
174 197 0
174 197 0
174 198 0
174 197 0
174 197 0
173 197 0
173 197 0
174 198 0
174 198 0
174 197 0
175 198 0
174 197 0
176 198 0
173 197 0
174 198 0
176 199 0
173 197 0
175 198 0
173 197 0
174 198 0
176 199 0
173 197 0
173 197 0
174 198 0
174 198 0
173 197 0
175 198 0
175 198 0
173 196 0
174 197 0
174 197 0
175 198 0
171 196 0
173 196 0
175 198 0
174 197 0
175 198 0
175 198 0
175 198 0
175 198 0
174 197 0
174 198 0
175 198 0
174 197 0
173 197 0
173 197 0
173 197 0
175 198 0
173 197 0
175 198 0
174 197 0
175 198 0
176 199 0
173 197 0
174 197 0
173 197 0
174 197 0
175 198 0
174 197 0
173 196 0
174 197 0
175 198 0
174 197 0
174 198 0
174 197 0
174 198 0
174 197 0
175 198 0
173 197 0
176 199 0
175 198 0
174 197 0
173 197 0
173 197 0
173 197 0
175 198 0
174 197 0
174 197 0
174 197 0
173 196 0
174 197 0
173 196 0
174 198 0
174 198 0
174 197 0
175 197 0
173 196 0
173 197 0
173 197 0
174 197 0
173 197 0
173 197 0
174 197 0
173 197 0
173 197 0
174 198 0
175 198 0
175 198 0
175 198 0
174 197 0
174 198 0
172 196 0
173 197 0
174 197 0
174 197 0
173 197 0
173 197 0
174 196 0
173 196 0
172 197 0
175 198 0
173 196 0
171 195 0
174 197 0
172 196 0
176 199 0
174 198 0
174 198 0
174 197 0
174 198 0
173 196 0
175 198 0
173 196 0
174 197 0
175 198 0
173 197 0
171 195 0
172 195 0
173 197 0
173 197 0
173 197 0
173 197 0
173 197 0
175 198 0
174 198 0
175 198 0
174 197 0
174 197 0
172 196 0
174 197 0
174 197 0
173 196 0
173 197 0
174 197 0
171 195 0
173 197 0
173 195 0
173 196 0
172 195 0
174 198 0
173 197 0
170 194 0
173 197 0
176 199 0
173 197 0
171 195 0
174 197 0
171 195 0
173 196 0
172 196 0
175 198 0
172 195 0
174 198 0
172 196 0
173 197 0
174 197 0
172 196 0
173 196 0
171 195 0
174 198 0
172 195 0
175 198 0
175 198 0
173 197 0
172 195 0
174 197 0
173 197 0
174 198 0
173 197 0
174 198 0
173 196 0
174 197 0
172 196 0
174 197 0
172 195 0
174 197 0
172 196 0
175 198 0
173 196 0
174 197 0
173 197 0
173 196 0
172 196 0
172 196 0
174 198 0
173 197 0
174 197 0
170 194 0
173 197 0
173 197 0
173 197 0
172 196 0
174 197 0
171 195 0
173 197 0
174 198 0
173 197 0
172 195 0
171 195 0
173 197 0
174 197 0
174 197 0
175 198 0
172 196 0
172 195 0
173 197 0
172 195 0
175 198 0
173 196 0
170 194 0
174 197 0
176 199 0
175 198 0
172 196 0
172 195 0
174 198 0
174 197 0
173 197 0
175 198 0
172 196 0
174 198 0
176 199 0
175 198 0
174 197 0
174 197 0
173 197 0
175 198 0
174 197 0
173 197 0
175 198 0
173 197 0
173 196 0
174 198 0
174 198 0
173 197 0
173 197 0
175 198 0
175 198 0
175 198 0
175 198 0
173 197 0
175 198 0
176 198 0
173 196 0
172 196 0
174 198 0
174 197 0
175 198 0
172 197 0
171 195 0
173 197 0
172 196 0
173 197 0
176 199 0
174 198 0
174 198 0
173 196 0
173 196 0
175 198 0
175 198 0
173 197 0
175 198 0
172 196 0
174 198 0
174 197 0
173 197 0
174 198 0
174 198 0
174 197 0
174 198 0
175 198 0
174 198 0
176 199 0
174 197 0
174 198 0
175 198 0
173 197 0
170 194 0
175 198 0
173 197 0
176 199 0
174 197 0
174 198 0
175 198 0
172 196 0
174 197 0
175 198 0
174 198 0
174 197 0
175 198 0
174 197 0
173 197 0
173 197 0
173 196 0
175 198 0
175 198 0
175 198 0
173 197 0
172 196 0
175 198 0
174 198 0
175 198 0
175 198 0
176 199 0
173 196 0
174 197 0
173 197 0
173 197 0
175 198 0
174 198 0
175 198 0
173 197 0
174 198 0
174 197 0
174 197 0
175 198 0
174 198 0
174 198 0
174 198 0
175 198 0
177 199 0
174 198 0
174 197 0
174 197 0
174 197 0
176 198 0
174 197 0
174 197 0
174 198 0
174 198 0
174 198 0
174 198 0
175 198 0
174 198 0
174 198 0
174 198 0
174 197 0
175 198 0
173 197 0
174 197 0
176 199 0
175 198 0
173 197 0
175 198 0
174 197 0
175 198 0
174 198 0
174 198 0
174 198 0
174 198 0
175 198 0
175 198 0
174 198 0
174 197 0
174 197 0
174 197 0
175 198 0
176 198 0
175 198 0
173 196 0
173 197 0
174 198 0
175 198 0
175 198 0
173 197 0
174 198 0
175 198 0
172 197 0
174 197 0
173 197 0
174 198 0
175 198 0
174 198 0
173 197 0
173 197 0
173 197 0
174 198 0
174 197 0
175 198 0
175 198 0
174 197 0
174 197 0
175 198 0
174 198 0
175 198 0
174 197 0
174 198 0
171 196 0
174 198 0
174 198 0
176 198 0
173 197 0
174 197 0
174 197 0
175 198 0
174 198 0
174 197 0
174 197 0
174 198 0
173 197 0
174 198 0
176 199 0
175 198 0
175 198 0
173 197 0
173 197 0
175 197 0
174 198 0
174 198 0
176 199 0
175 198 0
172 196 0
172 196 0
175 198 0
175 198 0
173 197 0
175 198 0
174 197 0
174 197 0
174 198 0
174 197 0
175 198 0
174 197 0
174 197 0
174 198 0
176 199 0
173 197 0
173 197 0
172 196 0
174 198 0
173 197 0
174 198 0
175 198 0
176 198 0
174 197 0
173 197 0
173 197 0
174 198 0
175 198 0
175 198 0
171 195 0
175 198 0
174 197 0
172 196 0
175 198 0
172 196 0
174 198 0
174 198 0
175 198 0
176 199 0
174 198 0
173 197 0
175 198 0
172 196 0
175 198 0
174 197 0
172 196 0
174 197 0
176 199 0
173 197 0
175 198 0
174 198 0
174 197 0
174 197 0
173 197 0
174 198 0
174 198 0
174 197 0
174 197 0
173 196 0
174 198 0
173 196 0
174 197 0
175 198 0
174 197 0
173 196 0
173 197 0
173 196 0
173 197 0
173 197 0
172 196 0
174 197 0
175 198 0
174 198 0
173 197 0
175 198 0
173 196 0
175 198 0
172 197 0
172 196 0
173 196 0
174 197 0
173 196 0
174 198 0
171 195 0
173 197 0
174 197 0
174 197 0
174 198 0
173 197 0
173 197 0
172 196 0
172 196 0
172 195 0
172 196 0
174 197 0
174 197 0
175 198 0
172 197 0
174 197 0
172 196 0
175 198 0
174 198 0
173 197 0
173 196 0
173 196 0
174 197 0
174 197 0
174 197 0
173 196 0
173 197 0
173 197 0
172 196 0
173 196 0
172 196 0
172 196 0
173 197 0
173 197 0
174 197 0
173 196 0
172 196 0
174 197 0
175 198 0
174 197 0
171 195 0
172 195 0
171 195 0
169 192 0
172 195 0
175 198 0
173 197 0
172 196 0
171 195 0
173 196 0
174 197 0
174 197 0
175 198 0
171 195 0
171 196 0
173 197 0
173 196 0
174 197 0
173 196 0
172 196 0
172 197 0
172 196 0
174 197 0
173 197 0
174 197 0
174 197 0
173 197 0
175 198 0
174 197 0
173 196 0
173 196 0
171 194 0
175 198 0
174 198 0
172 196 0
172 196 0
173 196 0
174 197 0
174 197 0
172 196 0
172 196 0
174 197 0
172 195 0
175 198 0
170 193 0
174 197 0
175 198 0
174 197 0
175 198 0
173 196 0
173 196 0
176 198 0
174 198 0
173 197 0
175 198 0
176 198 0
175 198 0
172 196 0
173 196 0
171 195 0
172 196 0
174 198 0
171 195 0
172 195 0
172 196 0
172 195 0
172 196 0
174 197 0
174 197 0
173 197 0
173 196 0
176 198 0
175 198 0
172 196 0
172 196 0
173 197 0
172 196 0
173 197 0
173 197 0
173 196 0
173 197 0
174 197 0
174 197 0
172 196 0
175 198 0
171 195 0
173 197 0
174 197 0
175 198 0
174 198 0
173 197 0
175 198 0
175 198 0
173 197 0
173 197 0
172 196 0
175 198 0
174 198 0
175 198 0
174 197 0
174 197 0
172 196 0
172 196 0
174 197 0
174 197 0
173 197 0
173 197 0
174 197 0
173 197 0
173 196 0
173 197 0
174 197 0
172 196 0
174 197 0
171 195 0
174 198 0
174 197 0
174 197 0
173 196 0
175 198 0
174 197 0
175 198 0
174 198 0
174 198 0
174 198 0
175 198 0
173 197 0
175 198 0
174 198 0
175 198 0
172 196 0
173 196 0
174 197 0
174 198 0
173 196 0
173 197 0
174 197 0
175 198 0
173 197 0
175 198 0
174 198 0
173 197 0
174 197 0
173 197 0
174 197 0
173 196 0
174 197 0
173 197 0
175 198 0
174 198 0
175 198 0
174 198 0
175 198 0
174 198 0
173 197 0
175 198 0
173 197 0
174 198 0
175 198 0
174 198 0
173 197 0
173 197 0
174 198 0
174 197 0
176 198 0
175 198 0
174 198 0
173 197 0
176 198 0
173 197 0
173 197 0
174 198 0
174 197 0
176 198 0
173 197 0
174 198 0
175 198 0
173 197 0
173 196 0
175 198 0
174 198 0
174 198 0
174 198 0
176 199 0
176 198 0
175 198 0
175 198 0
174 198 0
174 198 0
174 198 0
175 198 0
173 197 0
174 197 0
172 196 0
175 198 0
173 197 0
175 198 0
174 198 0
173 197 0
174 198 0
174 197 0
173 197 0
176 199 0
174 197 0
175 198 0
174 198 0
174 198 0
175 198 0
174 197 0
175 198 0
175 198 0
174 198 0
175 198 0
174 197 0
174 198 0
173 197 0
173 197 0
175 198 0
174 198 0
174 197 0
174 198 0
174 198 0
174 198 0
176 199 0
174 197 0
175 198 0
172 197 0
175 198 0
175 198 0
175 198 0
172 197 0
175 198 0
174 198 0
175 198 0
176 199 0
175 198 0
175 198 0
175 198 0
174 197 0
175 198 0
176 199 0
175 198 0
174 198 0
174 198 0
175 198 0
173 197 0
173 197 0
173 197 0
174 198 0
174 198 0
174 198 0
175 198 0
175 198 0
177 199 0
175 198 0
175 198 0
175 198 0
174 197 0
176 198 0
173 197 0
173 197 0
174 197 0
174 197 0
173 197 0
175 198 0
173 197 0
175 198 0
174 197 0
175 198 0
175 198 0
173 197 0
175 198 0
175 198 0
174 198 0
173 197 0
175 198 0
173 197 0
175 198 0
175 198 0
173 197 0
173 197 0
172 196 0
172 196 0
174 198 0
175 198 0
176 199 0
176 198 0
174 198 0
173 197 0
173 197 0
175 198 0
173 197 0
174 197 0
174 198 0
174 198 0
173 197 0
174 197 0
175 198 0
176 198 0
173 197 0
174 197 0
174 197 0
176 198 0
173 197 0
174 197 0
173 197 0
172 196 0
175 198 0
173 197 0
173 197 0
172 196 0
173 197 0
174 197 0
172 196 0
174 197 0
173 196 0
172 197 0
175 198 0
173 197 0
174 198 0
175 198 0
172 196 0
175 198 0
172 197 0
176 198 0
175 198 0
175 198 0
172 196 0
174 197 0
173 196 0
173 196 0
174 198 0
175 198 0
173 197 0
174 198 0
175 198 0
173 196 0
174 198 0
172 196 0
176 199 0
173 197 0
173 197 0
174 197 0
174 198 0
176 198 0
174 197 0
175 198 0
174 198 0
174 197 0
175 198 0
173 197 0
171 195 0
172 196 0
174 197 0
176 198 0
172 196 0
172 196 0
175 198 0
172 196 0
175 198 0
171 196 0
174 197 0
173 197 0
175 198 0
172 196 0
174 197 0
174 197 0
174 197 0
172 196 0
175 198 0
173 197 0
173 197 0
173 197 0
174 197 0
172 196 0
174 198 0
174 197 0
174 197 0
174 198 0
174 197 0
171 196 0
174 197 0
171 195 0
171 194 0
174 197 0
172 196 0
174 197 0
174 197 0
174 197 0
173 197 0
173 197 0
173 197 0
174 197 0
173 197 0
173 196 0
173 197 0
173 197 0
174 197 0
175 198 0
172 196 0
171 194 0
173 196 0
175 198 0
175 198 0
173 197 0
172 196 0
174 197 0
174 197 0
172 196 0
175 197 0
172 196 0
173 196 0
171 195 0
174 198 0
172 196 0
173 196 0
173 196 0
172 196 0
175 198 0
174 197 0
174 197 0
174 198 0
173 197 0
175 198 0
173 197 0
174 197 0
172 196 0
175 198 0
174 197 0
174 198 0
173 197 0
172 196 0
174 197 0
174 198 0
174 197 0
171 195 0
174 198 0
174 198 0
171 194 0
174 198 0
174 197 0
173 197 0
172 195 0
171 195 0
172 196 0
172 196 0
173 196 0
173 196 0
173 197 0
173 197 0
175 198 0
174 197 0
174 197 0
173 197 0
170 194 0
174 196 0
171 195 0
174 197 0
174 197 0
174 198 0
173 196 0
173 197 0
174 197 0
174 198 0
174 198 0
174 197 0
173 197 0
172 195 0
172 196 0
172 196 0
174 197 0
175 198 0
174 197 0
173 197 0
171 196 0
173 197 0
176 198 0
175 198 0
174 198 0
176 199 0
174 197 0
174 198 0
175 197 0
175 198 0
175 198 0
172 196 0
173 197 0
174 198 0
174 197 0
173 196 0
173 196 0
173 197 0
173 197 0
172 196 0
176 199 0
175 198 0
174 196 0
173 197 0
171 196 0
174 197 0
174 197 0
173 196 0
173 197 0
174 198 0
172 196 0
174 197 0
175 198 0
172 196 0
176 198 0
172 196 0
172 197 0
174 197 0
174 197 0
174 198 0
174 198 0
172 196 0
175 198 0
174 197 0
173 197 0
174 197 0
175 198 0
175 198 0
174 198 0
174 197 0
174 197 0
173 196 0
175 198 0
174 198 0
174 197 0
173 197 0
174 198 0
175 198 0
174 198 0
174 197 0
173 196 0
175 198 0
175 198 0
174 198 0
174 198 0
172 196 0
174 197 0
175 198 0
172 196 0
173 197 0
174 198 0
175 198 0
174 197 0
175 198 0
175 198 0
174 198 0
174 197 0
173 197 0
174 198 0
175 198 0
173 196 0
173 197 0
174 198 0
174 198 0
175 198 0
173 196 0
174 197 0
176 198 0
175 198 0
173 197 0
175 198 0
175 198 0
175 198 0
174 197 0
175 198 0
173 197 0
177 199 0
173 197 0
175 198 0
174 197 0
174 198 0
174 197 0
174 198 0
174 198 0
175 198 0
175 198 0
173 197 0
174 197 0
176 199 0
175 198 0
173 196 0
174 198 0
175 198 0
174 198 0
174 198 0
174 197 0
175 197 0
176 199 0
174 198 0
174 198 0
175 198 0
176 199 0
174 198 0
176 198 0
175 198 0
174 197 0
174 197 0
176 199 0
174 198 0
174 198 0
175 198 0
173 197 0
174 198 0
175 198 0
176 199 0
173 197 0
173 197 0
174 198 0
174 197 0
176 199 0
174 198 0
174 198 0
173 197 0
174 198 0
174 198 0
175 198 0
174 198 0
174 197 0
174 197 0
174 198 0
174 198 0
174 197 0
174 198 0
173 197 0
174 198 0
176 199 0
176 199 0
174 198 0
172 197 0
174 198 0
174 197 0
173 197 0
173 197 0
176 198 0
175 198 0
175 198 0
175 198 0
173 197 0
174 198 0
176 198 0
173 197 0
174 198 0
175 198 0
175 198 0
174 197 0
173 197 0
174 197 0
175 198 0
173 197 0
174 198 0
174 198 0
176 199 0
174 198 0
174 198 0
175 198 0
175 198 0
175 198 0
174 198 0
173 197 0
173 197 0
176 198 0
173 197 0
174 197 0
173 196 0
176 199 0
173 197 0
176 199 0
176 199 0
175 198 0
175 198 0
175 198 0
174 198 0
175 198 0
173 197 0
172 196 0
175 198 0
173 197 0
175 198 0
175 198 0
175 198 0
173 197 0
175 198 0
172 197 0
174 197 0
174 198 0
175 198 0
172 196 0
173 196 0
174 198 0
175 198 0
174 198 0
175 198 0
175 198 0
175 198 0
175 197 0
174 197 0
172 196 0
175 198 0
175 198 0
175 198 0
175 198 0
174 198 0
172 196 0
174 198 0
174 197 0
175 198 0
175 198 0
174 198 0
174 197 0
173 196 0
171 196 0
173 197 0
174 198 0
174 198 0
173 197 0
173 197 0
174 198 0
173 197 0
175 198 0
173 197 0
174 198 0
171 196 0
174 197 0
175 198 0
175 198 0
175 198 0
175 198 0
173 196 0
173 196 0
174 198 0
173 197 0
175 198 0
175 198 0
172 196 0
174 198 0
174 197 0
174 198 0
175 198 0
174 197 0
173 197 0
173 196 0
174 197 0
173 196 0
174 198 0
174 198 0
173 197 0
174 198 0
174 197 0
175 198 0
174 198 0
175 198 0
174 197 0
174 197 0
173 196 0
173 196 0
172 197 0
174 197 0
174 198 0
174 198 0
175 198 0
175 198 0
174 197 0
173 196 0
172 196 0
173 196 0
175 198 0
173 197 0
173 197 0
174 198 0
175 198 0
175 198 0
173 197 0
174 196 0
172 196 0
176 198 0
174 198 0
174 197 0
174 197 0
174 198 0
176 198 0
174 197 0
174 197 0
172 196 0
173 197 0
174 197 0
173 197 0
175 198 0
172 196 0
174 198 0
171 195 0
175 198 0
173 196 0
172 196 0
172 196 0
175 198 0
174 197 0
173 196 0
171 195 0
171 195 0
173 196 0
173 196 0
171 194 0
173 197 0
175 198 0
175 198 0
172 196 0
173 197 0
172 196 0
174 198 0
176 198 0
173 196 0
172 195 0
176 198 0
174 197 0
173 197 0
174 197 0
173 196 0
172 195 0
173 197 0
174 197 0
173 196 0
172 196 0
174 197 0
175 198 0
173 197 0
174 198 0
173 197 0
172 197 0
174 197 0
174 197 0
172 196 0
175 198 0
173 197 0
172 196 0
173 197 0
174 197 0
171 195 0
173 197 0
174 198 0
173 197 0
175 198 0
173 196 0
174 197 0
172 196 0
176 199 0
173 196 0
171 196 0
174 198 0
173 197 0
175 198 0
173 197 0
173 197 0
173 196 0
172 196 0
174 197 0
172 196 0
173 196 0
172 195 0
172 196 0
173 196 0
175 198 0
173 197 0
174 197 0
176 199 0
173 197 0
172 196 0
174 197 0
172 195 0
173 196 0
173 196 0
174 198 0
174 197 0
175 198 0
174 197 0
171 195 0
175 198 0
174 198 0
175 198 0
174 198 0
172 196 0
174 197 0
173 197 0
173 197 0
174 198 0
174 197 0
174 197 0
172 195 0
175 198 0
175 198 0
174 197 0
175 197 0
174 197 0
174 197 0
173 196 0
173 197 0
173 197 0
173 196 0
174 197 0
174 198 0
174 197 0
174 197 0
176 198 0
174 197 0
175 198 0
174 197 0
175 198 0
174 198 0
174 197 0
174 197 0
174 198 0
172 196 0
174 198 0
173 197 0
174 197 0
172 196 0
174 197 0
173 197 0
173 196 0
174 197 0
173 196 0
173 196 0
173 197 0
173 197 0
173 196 0
173 197 0
173 197 0
173 197 0
173 197 0
172 197 0
175 198 0
173 197 0
174 197 0
174 197 0
174 197 0
175 198 0
173 197 0
173 197 0
173 196 0
172 196 0
173 197 0
175 198 0
173 197 0
174 198 0
173 197 0
174 198 0
173 196 0
174 197 0
175 198 0
175 198 0
173 197 0
175 198 0
173 197 0
175 198 0
174 197 0
176 198 0
174 197 0
175 198 0
174 197 0
174 197 0
173 196 0
175 198 0
174 197 0
174 198 0
174 198 0
176 199 0
172 196 0
173 197 0
174 197 0
174 197 0
174 197 0
175 198 0
176 198 0
174 198 0
175 198 0
174 197 0
174 198 0
175 198 0
174 198 0
174 198 0
173 196 0
172 196 0
172 196 0
175 198 0
174 198 0
174 198 0
176 198 0
174 198 0
176 198 0
173 197 0
175 198 0
175 198 0
173 197 0
175 198 0
175 198 0
174 198 0
174 198 0
174 198 0
174 198 0
176 198 0
175 198 0
175 198 0
174 197 0
173 197 0
175 198 0
174 198 0
175 198 0
174 198 0
174 198 0
174 198 0
174 198 0
175 198 0
175 198 0
174 198 0
174 198 0
173 197 0
173 197 0
174 197 0
173 197 0
172 197 0
174 198 0
174 197 0
176 198 0
176 199 0
176 199 0
172 196 0
174 198 0
173 197 0
174 198 0
175 198 0
175 198 0
176 198 0
173 197 0
174 198 0
172 197 0
176 199 0
175 198 0
174 198 0
175 198 0
176 199 0
175 198 0
175 198 0
174 198 0
173 197 0
173 197 0
174 198 0
175 198 0
174 198 0
174 197 0
176 199 0
174 198 0
173 197 0
175 198 0
175 198 0
175 198 0
175 198 0
174 198 0
174 198 0
174 198 0
174 198 0
175 198 0
175 198 0
175 198 0
174 197 0
174 198 0
175 198 0
173 197 0
175 198 0
173 196 0
175 198 0
174 197 0
175 198 0
175 198 0
175 198 0
174 198 0
173 197 0
174 197 0
173 197 0
173 197 0
174 197 0
172 195 0
174 197 0
173 197 0
172 195 0
174 197 0
175 198 0
172 197 0
175 198 0
175 198 0
174 198 0
175 198 0
173 197 0
174 197 0
174 197 0
175 198 0
172 196 0
175 198 0
176 198 0
175 198 0
173 196 0
174 198 0
174 198 0
175 198 0
174 197 0
173 197 0
173 197 0
172 196 0
173 197 0
175 198 0
174 197 0
172 196 0
173 197 0
175 198 0
172 196 0
175 198 0
173 197 0
172 196 0
173 197 0
175 198 0
173 197 0
175 198 0
175 198 0
174 197 0
174 198 0
174 197 0
174 197 0
174 197 0
175 198 0
173 197 0
171 195 0
174 197 0
174 198 0
172 196 0
175 198 0
174 198 0
175 198 0
172 196 0
174 197 0
173 197 0
175 198 0
172 197 0
173 197 0
175 198 0
175 198 0
172 196 0
174 197 0
172 196 0
174 198 0
174 197 0
173 197 0
174 197 0
174 197 0
174 198 0
173 197 0
173 196 0
174 197 0
174 198 0
174 197 0
173 197 0
172 196 0
173 197 0
175 198 0
176 199 0
174 197 0
173 197 0
174 196 0
173 197 0
174 198 0
173 197 0
174 197 0
172 195 0
172 196 0
175 198 0
176 198 0
172 195 0
173 197 0
174 197 0
174 197 0
173 197 0
174 197 0
175 198 0
173 197 0
175 198 0
174 198 0
174 197 0
172 196 0
175 197 0
174 197 0
174 197 0
171 195 0
174 198 0
171 195 0
171 195 0
173 197 0
174 197 0
173 197 0
174 198 0
171 195 0
174 197 0
173 197 0
177 199 0
173 196 0
176 198 0
172 196 0
171 196 0
174 198 0
173 197 0
174 197 0
172 194 0
173 197 0
170 194 0
173 197 0
174 197 0
172 196 0
172 195 0
173 197 0
175 198 0
171 195 0
173 197 0
174 197 0
173 196 0
173 197 0
173 196 0
172 196 0
175 198 0
173 197 0
174 196 0
173 197 0
175 198 0
173 196 0
172 196 0
172 196 0
173 197 0
174 198 0
176 199 0
174 198 0
175 198 0
174 197 0
174 197 0
173 196 0
174 197 0
174 197 0
171 195 0
175 198 0
175 198 0
174 197 0
174 197 0
172 196 0
174 197 0
174 197 0
174 197 0
173 197 0
173 197 0
174 198 0
175 197 0
172 197 0
174 197 0
173 197 0
171 195 0
174 197 0
173 197 0
174 197 0
173 196 0
174 197 0
173 197 0
173 196 0
173 196 0
175 198 0
174 198 0
174 197 0
174 197 0
174 197 0
173 197 0
175 198 0
173 197 0
173 197 0
172 196 0
175 198 0
173 197 0
174 198 0
173 197 0
175 198 0
174 198 0
174 197 0
173 197 0
173 197 0
174 198 0
173 196 0
174 197 0
173 197 0
174 198 0
175 198 0
174 198 0
173 197 0
173 197 0
174 197 0
174 198 0
174 198 0
173 196 0
174 197 0
175 197 0
175 198 0
174 198 0
175 198 0
173 196 0
174 197 0
171 195 0
173 197 0
174 198 0
173 197 0
173 197 0
174 198 0
174 197 0
176 198 0
175 198 0
175 198 0
172 196 0
174 197 0
174 197 0
175 198 0
174 198 0
173 197 0
174 198 0
172 196 0
175 198 0
176 198 0
175 198 0
175 198 0
173 197 0
173 197 0
174 198 0
175 198 0
174 198 0
175 198 0
173 197 0
174 197 0
173 197 0
174 197 0
173 196 0
176 199 0
174 198 0
173 197 0
174 197 0
173 197 0
173 197 0
174 198 0
175 198 0
175 198 0
174 198 0
175 198 0
173 197 0
174 198 0
175 198 0
174 197 0
173 197 0
174 197 0
174 198 0
174 197 0
175 198 0
173 197 0
175 198 0
175 198 0
174 197 0
174 198 0
173 197 0
174 198 0
175 198 0
174 197 0
175 198 0
176 199 0
173 196 0
176 198 0
174 197 0
173 197 0
174 198 0
171 195 0
174 198 0
175 198 0
175 198 0
174 198 0
175 198 0
172 196 0
175 198 0
174 197 0
173 197 0
175 198 0
175 198 0
172 196 0
175 198 0
174 198 0
175 198 0
176 198 0
174 198 0
175 198 0
173 197 0
175 198 0
176 198 0
176 198 0
171 195 0
174 198 0
173 197 0
175 198 0
174 197 0
175 198 0
174 198 0
175 198 0
175 198 0
174 198 0
175 198 0
173 197 0
174 198 0
174 198 0
174 198 0
174 197 0
175 198 0
174 197 0
174 198 0
174 198 0
175 198 0
174 198 0
174 198 0
175 198 0
175 198 0
173 197 0
173 197 0
175 198 0
173 197 0
174 197 0
175 198 0
175 198 0
174 197 0
174 197 0
174 198 0
173 197 0
173 197 0
174 198 0
174 198 0
174 198 0
172 196 0
173 197 0
175 198 0
175 198 0
172 197 0
174 197 0
174 197 0
174 197 0
174 198 0
174 198 0
173 197 0
174 198 0
173 197 0
174 197 0
174 197 0
174 197 0
175 198 0
175 198 0
175 198 0
175 198 0
174 198 0
175 198 0
174 197 0
175 198 0
175 198 0
172 196 0
174 197 0
176 198 0
174 197 0
173 197 0
174 198 0
174 197 0
174 197 0
173 197 0
174 197 0
173 197 0
175 198 0
174 197 0
173 197 0
172 196 0
175 198 0
175 198 0
176 198 0
175 198 0
173 197 0
174 197 0
176 199 0
175 198 0
175 198 0
175 197 0
173 197 0
174 197 0
173 197 0
173 196 0
175 198 0
174 197 0
173 197 0
175 198 0
174 197 0
173 197 0
173 197 0
173 197 0
174 198 0
173 197 0
174 197 0
175 198 0
173 196 0
175 198 0
175 198 0
172 196 0
175 198 0
175 198 0
175 198 0
174 198 0
174 197 0
175 198 0
174 197 0
172 196 0
172 196 0
174 198 0
174 198 0
175 198 0
174 197 0
174 197 0
173 197 0
175 198 0
173 197 0
173 197 0
176 199 0
174 197 0
175 198 0
174 198 0
175 198 0
175 198 0
172 196 0
171 195 0
173 197 0
174 198 0
173 197 0
173 197 0
172 196 0
174 198 0
175 198 0
174 197 0
173 197 0
175 198 0
171 194 0
171 194 0
172 196 0
173 197 0
173 197 0
173 197 0
172 196 0
174 197 0
174 197 0
171 196 0
172 196 0
172 196 0
174 197 0
173 197 0
175 198 0
173 196 0
171 194 0
174 197 0
172 195 0
174 197 0
174 198 0
172 196 0
176 198 0
172 195 0
174 196 0
173 197 0
172 195 0
172 196 0
174 197 0
172 196 0
174 197 0
173 197 0
172 196 0
174 197 0
174 197 0
174 198 0
173 197 0
172 196 0
173 197 0
174 198 0
172 196 0
170 193 0
172 196 0
173 196 0
175 198 0
172 196 0
173 196 0
173 196 0
173 197 0
173 197 0
173 197 0
175 198 0
173 197 0
173 197 0
176 198 0
174 198 0
174 197 0
174 197 0
174 197 0
172 195 0
173 196 0
173 196 0
174 197 0
172 195 0
175 198 0
173 196 0
174 197 0
175 198 0
173 197 0
174 198 0
172 196 0
170 194 0
174 197 0
171 194 0
173 197 0
174 197 0
173 196 0
174 197 0
173 197 0
174 197 0
170 194 0
174 197 0
174 197 0
173 196 0
173 197 0
173 197 0
176 199 0
174 197 0
174 198 0
172 196 0
174 197 0
173 197 0
170 194 0
173 197 0
173 196 0
172 196 0
173 196 0
173 197 0
173 197 0
174 197 0
173 197 0
175 198 0
174 198 0
173 197 0
174 198 0
174 197 0
172 196 0
173 196 0
172 196 0
173 196 0
174 198 0
175 198 0
174 197 0
175 198 0
174 197 0
174 197 0
172 196 0
174 198 0
172 195 0
172 195 0
175 198 0
174 197 0
174 198 0
173 196 0
174 198 0
171 195 0
174 197 0
173 197 0
174 198 0
175 198 0
174 197 0
174 197 0
175 198 0
174 198 0
173 197 0
174 198 0
174 197 0
174 197 0
172 196 0
173 197 0
175 198 0
174 197 0
174 197 0
172 196 0
174 197 0
175 198 0
173 197 0
173 197 0
172 196 0
174 197 0
174 197 0
176 198 0
174 197 0
173 197 0
172 196 0
175 198 0
173 197 0
174 197 0
173 197 0
173 197 0
173 196 0
173 196 0
174 197 0
175 198 0
174 197 0
174 198 0
172 196 0
173 197 0
172 196 0
174 198 0
174 197 0
173 197 0
174 197 0
175 198 0
172 197 0
174 197 0
175 198 0
174 198 0
175 198 0
175 198 0
172 196 0
173 196 0
174 197 0
174 197 0
174 198 0
173 197 0
175 198 0
171 196 0
174 198 0
174 197 0
176 199 0
174 198 0
174 197 0
175 198 0
174 197 0
176 198 0
174 197 0
173 197 0
173 197 0
173 197 0
174 198 0
173 197 0
175 198 0
172 196 0
173 197 0
173 197 0
174 197 0
175 198 0
175 198 0
175 198 0
174 197 0
174 198 0
174 197 0
175 198 0
175 197 0
172 196 0
175 198 0
173 196 0
175 198 0
175 198 0
176 198 0
174 197 0
175 198 0
174 198 0
175 198 0
173 197 0
174 198 0
175 198 0
175 198 0
173 197 0
175 198 0
174 197 0
174 197 0
175 198 0
175 198 0
175 198 0
173 197 0
173 197 0
174 197 0
175 198 0
175 198 0
174 197 0
176 199 0
175 198 0
174 198 0
174 198 0
173 197 0
175 198 0
173 197 0
173 197 0
174 198 0
174 198 0
174 198 0
176 198 0
175 198 0
173 197 0
175 198 0
174 197 0
174 198 0
174 198 0
173 197 0
175 198 0
176 199 0
174 197 0
173 197 0
173 197 0
174 198 0
175 198 0
174 197 0
173 197 0
174 198 0
174 197 0
174 198 0
175 198 0
174 198 0
175 198 0
172 197 0
175 198 0
175 198 0
173 197 0
176 198 0
175 198 0
174 198 0
175 198 0
175 198 0
174 198 0
174 197 0
176 198 0
174 198 0
174 198 0
175 198 0
174 198 0
175 197 0
174 198 0
173 197 0
175 198 0
174 198 0
175 198 0
174 198 0
175 198 0
173 197 0
174 197 0
174 198 0
174 198 0
174 198 0
174 198 0
175 198 0
174 198 0
176 199 0
175 198 0
174 198 0
174 197 0
173 197 0
175 198 0
173 197 0
174 198 0
176 198 0
174 197 0
174 198 0
174 197 0
175 198 0
174 198 0
175 198 0
175 198 0
174 197 0
174 197 0
176 198 0
175 198 0
174 197 0
173 197 0
175 198 0
172 196 0
176 199 0
173 197 0
176 198 0
175 198 0
172 196 0
173 197 0
175 198 0
175 198 0
175 197 0
176 199 0
174 197 0
172 196 0
173 196 0
173 197 0
174 197 0
173 197 0
172 197 0
172 196 0
174 197 0
174 197 0
173 197 0
173 197 0
176 199 0
173 197 0
175 198 0
174 198 0
174 197 0
175 198 0
174 198 0
174 197 0
174 197 0
175 198 0
173 197 0
174 197 0
174 197 0
174 197 0
173 196 0
174 198 0
174 198 0
174 197 0
173 197 0
173 197 0
172 196 0
173 197 0
174 197 0
174 197 0
172 196 0
175 198 0
174 197 0
174 197 0
176 198 0
173 197 0
174 198 0
174 197 0
173 197 0
173 197 0
172 196 0
173 197 0
172 197 0
173 197 0
174 198 0
174 198 0
175 198 0
176 198 0
175 198 0
172 196 0
174 197 0
174 197 0
174 197 0
174 198 0
173 197 0
174 197 0
172 196 0
174 197 0
173 196 0
171 195 0
174 197 0
172 196 0
174 197 0
173 197 0
173 197 0
173 196 0
173 197 0
174 197 0
173 197 0
173 197 0
173 197 0
173 196 0
172 196 0
170 194 0
173 196 0
174 197 0
174 197 0
174 198 0
173 197 0
173 197 0
174 198 0
174 198 0
174 197 0
173 196 0
173 196 0
173 196 0
175 198 0
173 196 0
174 197 0
175 198 0
175 198 0
173 197 0
177 199 0
172 196 0
172 196 0
173 196 0
172 197 0
175 197 0
174 197 0
171 196 0
173 197 0
172 196 0
175 198 0
174 197 0
173 197 0
172 196 0
173 196 0
172 196 0
174 198 0
174 198 0
173 197 0
175 198 0
176 199 0
171 195 0
172 196 0
173 197 0
174 198 0
171 196 0
173 196 0
172 196 0
172 196 0
172 195 0
171 195 0
175 198 0
174 197 0
173 197 0
174 197 0
173 197 0
171 194 0
173 197 0
175 198 0
174 197 0
173 197 0
173 197 0
173 197 0
172 195 0
174 197 0
172 196 0
173 196 0
176 198 0
173 196 0
171 196 0
171 194 0
175 198 0
172 195 0
174 197 0
173 196 0
175 198 0
174 197 0
173 197 0
173 197 0
173 197 0
174 197 0
173 197 0
172 196 0
173 197 0
172 195 0
172 196 0
173 197 0
173 197 0
173 196 0
175 198 0
173 197 0
175 198 0
173 197 0
175 198 0
173 196 0
173 197 0
174 197 0
175 198 0
174 198 0
174 197 0
173 197 0
174 198 0
173 197 0
173 197 0
174 197 0
174 198 0
172 196 0
174 197 0
174 197 0
173 197 0
174 198 0
175 198 0
173 197 0
173 197 0
174 197 0
174 197 0
172 196 0
173 197 0
173 196 0
172 197 0
174 197 0
173 197 0
175 197 0
174 197 0
175 198 0
174 197 0
168 192 0
172 196 0
174 198 0
172 196 0
173 196 0
172 196 0
173 197 0
175 198 0
173 197 0
174 198 0
175 198 0
174 197 0
172 195 0
173 196 0
175 198 0
173 197 0
173 197 0
174 198 0
174 197 0
174 197 0
174 198 0
174 197 0
174 198 0
175 198 0
173 197 0
174 197 0
175 198 0
175 198 0
174 198 0
172 196 0
175 198 0
176 199 0
173 197 0
175 198 0
175 197 0
176 198 0
173 197 0
175 198 0
174 198 0
173 197 0
173 197 0
173 196 0
175 198 0
174 197 0
174 197 0
174 198 0
173 197 0
174 198 0
173 197 0
174 198 0
175 198 0
174 198 0
175 198 0
177 199 0
173 197 0
174 198 0
174 198 0
172 196 0
175 198 0
172 196 0
174 198 0
176 199 0
174 197 0
173 197 0
174 198 0
173 197 0
175 198 0
174 197 0
175 198 0
174 198 0
175 198 0
174 198 0
173 197 0
174 197 0
173 197 0
174 197 0
174 197 0
177 199 0
174 197 0
173 197 0
174 198 0
174 197 0
174 198 0
175 198 0
174 197 0
173 197 0
175 198 0
172 196 0
172 196 0
174 198 0
174 197 0
174 197 0
175 198 0
176 198 0
174 198 0
174 198 0
174 197 0
172 196 0
176 198 0
173 197 0
173 197 0
174 197 0
175 198 0
175 198 0
175 198 0
174 198 0
173 197 0
175 198 0
175 198 0
174 198 0
173 197 0
173 197 0
175 198 0
175 198 0
174 198 0
176 198 0
175 198 0
174 198 0
175 198 0
175 198 0
173 197 0
174 198 0
173 197 0
176 199 0
173 197 0
174 197 0
174 197 0
175 198 0
174 198 0
176 199 0
174 198 0
174 198 0
175 198 0
174 198 0
174 198 0
174 197 0
173 197 0
174 197 0
174 197 0
175 198 0
174 198 0
174 198 0
175 198 0
175 198 0
173 197 0
174 198 0
175 198 0
174 198 0
175 198 0
175 198 0
175 198 0
175 198 0
174 198 0
173 197 0
173 197 0
175 198 0
175 198 0
175 198 0
174 197 0
175 198 0
174 198 0
177 199 0
175 198 0
173 197 0
174 198 0
174 197 0
175 198 0
174 198 0
173 197 0
174 198 0
174 198 0
173 197 0
174 198 0
174 198 0
174 197 0
174 198 0
175 198 0
173 197 0
175 198 0
176 199 0
176 199 0
174 198 0
175 198 0
174 197 0
175 198 0
173 197 0
175 198 0
174 197 0
174 197 0
174 197 0
175 198 0
175 198 0
174 197 0
175 198 0
175 198 0
175 198 0
173 197 0
174 197 0
174 198 0
174 197 0
174 198 0
175 198 0
173 197 0
174 197 0
173 196 0
174 197 0
173 196 0
173 197 0
174 198 0
174 198 0
170 194 0
174 197 0
174 197 0
174 197 0
175 198 0
175 198 0
174 197 0
175 198 0
174 197 0
174 197 0
174 197 0
173 197 0
173 197 0
173 197 0
175 198 0
173 197 0
175 198 0
173 197 0
173 196 0
174 198 0
173 197 0
173 196 0
175 198 0
174 197 0
173 197 0
174 197 0
175 198 0
174 198 0
174 198 0
172 196 0
174 197 0
174 197 0
175 198 0
176 199 0
173 197 0
173 197 0
173 197 0
174 198 0
174 197 0
174 198 0
175 198 0
174 197 0
173 196 0
174 198 0
173 196 0
173 197 0
173 196 0
175 198 0
172 195 0
175 198 0
173 197 0
173 196 0
174 197 0
174 197 0
174 197 0
172 196 0
173 197 0
174 198 0
176 199 0
174 196 0
175 198 0
173 196 0
171 195 0
175 198 0
174 197 0
172 196 0
175 198 0
174 196 0
173 197 0
174 197 0
174 198 0
172 196 0
173 197 0
173 197 0
174 197 0
175 198 0
174 197 0
172 195 0
174 198 0
170 195 0
176 198 0
174 198 0
174 197 0
174 198 0
174 197 0
174 197 0
174 197 0
173 197 0
173 197 0
173 197 0
172 196 0
174 197 0
175 198 0
172 195 0
174 197 0
172 197 0
174 197 0
173 197 0
172 196 0
173 196 0
172 196 0
174 197 0
170 194 0
173 197 0
173 197 0
175 198 0
170 194 0
173 197 0
173 197 0
174 197 0
172 197 0
171 195 0
173 196 0
172 195 0
173 196 0
171 195 0
173 197 0
172 196 0
174 198 0
173 197 0
173 196 0
172 195 0
174 197 0
174 197 0
172 196 0
172 196 0
172 196 0
175 198 0
175 198 0
175 198 0
172 196 0
172 196 0
174 197 0
172 196 0
173 197 0
175 198 0
173 197 0
173 197 0
173 196 0
174 198 0
172 196 0
175 198 0
173 196 0
173 196 0
173 197 0
174 197 0
175 197 0
171 196 0
173 196 0
174 198 0
175 198 0
174 198 0
174 197 0
173 197 0
176 198 0
173 197 0
174 197 0
173 197 0
174 197 0
174 197 0
174 197 0
174 197 0
172 197 0
175 198 0
174 196 0
174 197 0
174 198 0
173 197 0
176 198 0
173 197 0
173 197 0
174 198 0
173 197 0
174 197 0
173 197 0
174 198 0
174 198 0
172 196 0
173 197 0
172 196 0
176 199 0
174 197 0
172 196 0
175 197 0
172 196 0
171 196 0
173 197 0
172 196 0
173 197 0
174 198 0
174 197 0
172 196 0
175 198 0
173 197 0
172 196 0
175 198 0
173 196 0
175 198 0
175 198 0
175 198 0
174 198 0
174 197 0
175 198 0
174 197 0
173 196 0
175 198 0
173 197 0
173 197 0
175 198 0
173 197 0
175 198 0
171 195 0
171 195 0
173 196 0
174 197 0
174 198 0
173 196 0
175 198 0
172 196 0
175 198 0
175 198 0
174 198 0
174 197 0
174 197 0
175 198 0
175 198 0
172 196 0
174 198 0
174 197 0
173 197 0
174 197 0
175 198 0
174 197 0
175 198 0
173 197 0
177 199 0
172 196 0
174 197 0
174 197 0
173 197 0
174 197 0
176 198 0
174 198 0
175 198 0
174 198 0
173 197 0
174 197 0
172 196 0
175 198 0
176 199 0
174 198 0
175 198 0
176 199 0
174 197 0
173 197 0
174 198 0
174 198 0
175 198 0
173 196 0
172 197 0
175 198 0
173 197 0
175 198 0
173 197 0
172 196 0
173 197 0
175 198 0
174 197 0
175 198 0
176 199 0
175 198 0
174 198 0
174 197 0
174 197 0
173 197 0
175 198 0
176 198 0
174 197 0
173 197 0
175 198 0
173 197 0
173 196 0
174 197 0
175 197 0
176 199 0
175 198 0
175 198 0
175 198 0
175 198 0
174 198 0
174 198 0
