P3
400 225
255
174 197 0
173 197 0
174 198 0
175 198 0
173 197 0
175 198 0
174 198 0
174 198 0
176 199 0
174 197 0
175 198 0
176 199 0
175 198 0
175 198 0
177 199 0
174 198 0
173 197 0
177 199 0
175 198 0
174 197 0
174 198 0
175 198 0
175 198 0
174 198 0
174 198 0
174 197 0
175 198 0
174 198 0
175 198 0
173 197 0
174 197 0
174 198 0
174 198 0
175 198 0
173 197 0
174 198 0
174 198 0
174 197 0
173 197 0
173 197 0
174 197 0
175 198 0
176 198 0
174 198 0
174 197 0
174 197 0
174 198 0
174 197 0
174 197 0
173 196 0
173 197 0
175 198 0
173 197 0
174 198 0
174 197 0
175 198 0
175 198 0
175 198 0
173 197 0
173 197 0
174 198 0
174 198 0
174 198 0
174 197 0
176 199 0
172 196 0
174 197 0
173 197 0
175 198 0
175 198 0
175 198 0
175 198 0
173 197 0
176 199 0
174 197 0
174 198 0
174 197 0
175 198 0
173 197 0
174 197 0
173 197 0
174 198 0
174 198 0
175 198 0
174 198 0
175 198 0
174 197 0
175 197 0
175 198 0
174 197 0
174 198 0
174 198 0
176 199 0
175 198 0
176 199 0
173 197 0
174 197 0
176 198 0
175 198 0
174 197 0
173 197 0
174 198 0
175 198 0
175 198 0
174 197 0
176 198 0
172 196 0
173 197 0
172 196 0
174 198 0
174 197 0
174 197 0
174 198 0
175 198 0
174 198 0
174 198 0
173 197 0
173 197 0
175 198 0
173 197 0
173 197 0
175 198 0
174 198 0
173 197 0
175 198 0
174 198 0
174 198 0
175 198 0
173 196 0
174 198 0
175 198 0
172 196 0
174 198 0
174 197 0
174 197 0
174 197 0
177 199 0
173 197 0
175 198 0
172 197 0
175 198 0
175 198 0
175 198 0
174 198 0
174 198 0
174 197 0
173 197 0
173 197 0
174 198 0
174 198 0
173 196 0
174 197 0
174 197 0
172 197 0
172 196 0
175 198 0
175 198 0
174 197 0
172 196 0
175 198 0
174 198 0
174 198 0
173 197 0
175 198 0
173 197 0
172 197 0
175 198 0
175 198 0
172 196 0
175 198 0
173 197 0
176 199 0
174 198 0
174 198 0
174 197 0
175 198 0
173 197 0
172 197 0
173 197 0
174 197 0
175 198 0
176 199 0
174 198 0
172 196 0
173 197 0
174 198 0
173 197 0
174 198 0
174 197 0
174 197 0
174 198 0
173 197 0
174 198 0
175 198 0
175 198 0
174 197 0
174 197 0
173 197 0
174 198 0
174 197 0
176 198 0
174 198 0
173 197 0
172 196 0
174 197 0
173 197 0
173 197 0
174 198 0
173 197 0
175 198 0
174 197 0
175 198 0
176 199 0
174 197 0
174 197 0
173 197 0
176 198 0
174 198 0
174 197 0
174 198 0
174 198 0
175 198 0
174 198 0
175 198 0
173 197 0
173 197 0
173 196 0
173 197 0
175 198 0
176 199 0
173 197 0
175 198 0
174 198 0
174 198 0
174 197 0
174 198 0
174 197 0
175 198 0
173 197 0
175 198 0
173 197 0
174 198 0
176 198 0
174 198 0
175 198 0
175 198 0
174 198 0
174 197 0
173 196 0
174 198 0
174 197 0
175 198 0
173 197 0
173 197 0
173 197 0
174 198 0
173 197 0
173 197 0
173 197 0
176 199 0
172 196 0
174 198 0
173 197 0
173 197 0
175 198 0
175 198 0
176 198 0
174 198 0
175 198 0
173 197 0
175 198 0
174 197 0
174 198 0
174 197 0
174 197 0
174 197 0
173 196 0
172 197 0
174 198 0
175 198 0
175 198 0
172 196 0
174 197 0
174 198 0
175 197 0
174 197 0
175 198 0
174 198 0
175 198 0
175 198 0
175 198 0
174 198 0
174 198 0
174 197 0
173 197 0
173 197 0
173 197 0
174 198 0
174 197 0
175 198 0
173 197 0
175 198 0
174 198 0
173 197 0
174 198 0
174 198 0
175 198 0
174 198 0
174 197 0
176 198 0
174 197 0
175 198 0
175 198 0
173 197 0
175 198 0
175 198 0
173 197 0
176 199 0
174 198 0
173 197 0
174 198 0
175 198 0
175 198 0
175 198 0
174 198 0
173 197 0
172 196 0
174 198 0
176 198 0
175 197 0
175 198 0
175 198 0
176 198 0
176 198 0
175 198 0
173 197 0
173 197 0
174 197 0
173 197 0
176 199 0
173 197 0
174 198 0
174 198 0
175 198 0
174 197 0
175 198 0
174 197 0
176 198 0
175 198 0
174 198 0
173 197 0
176 199 0
174 198 0
174 197 0
174 197 0
173 197 0
173 197 0
175 198 0
174 197 0
174 197 0
173 197 0
173 197 0
175 198 0
174 198 0
175 198 0
174 198 0
174 198 0
173 197 0
174 198 0
174 197 0
175 198 0
174 197 0
174 197 0
174 198 0
174 197 0
176 198 0
174 197 0
175 198 0
174 198 0
175 198 0
175 198 0
174 198 0
175 198 0
173 197 0
175 198 0
175 198 0
173 197 0
175 198 0
175 198 0
175 197 0
174 198 0
173 197 0
174 197 0
175 198 0
174 197 0
173 197 0
175 198 0
173 197 0
176 198 0
174 198 0
175 198 0
174 197 0
174 198 0
174 198 0
175 198 0
174 198 0
175 198 0
174 198 0
172 197 0
176 199 0
176 199 0
173 197 0
174 198 0
174 198 0
174 198 0
174 197 0
173 197 0
174 198 0
175 198 0
174 197 0
173 196 0
174 198 0
173 197 0
175 198 0
174 197 0
174 198 0
176 199 0
174 198 0
174 198 0
172 197 0
175 198 0
176 199 0
175 198 0
172 196 0
175 198 0
175 198 0
175 198 0
175 198 0
173 197 0
173 197 0
175 198 0
174 197 0
173 197 0
175 198 0
174 197 0
174 198 0
174 198 0
174 198 0
175 198 0
174 198 0
174 198 0
174 197 0
174 198 0
175 198 0
173 196 0
175 197 0
173 196 0
173 197 0
175 198 0
176 199 0
174 197 0
175 198 0
174 198 0
174 197 0
172 197 0
174 197 0
176 198 0
175 198 0
173 197 0
175 198 0
175 198 0
176 198 0
175 198 0
173 197 0
175 198 0
175 197 0
175 197 0
174 198 0
174 197 0
173 197 0
174 198 0
173 197 0
173 197 0
175 198 0
174 198 0
174 197 0
174 197 0
174 197 0
175 198 0
174 197 0
175 198 0
175 198 0
174 197 0
173 197 0
173 196 0
174 197 0
173 197 0
172 196 0
176 198 0
175 198 0
174 197 0
173 197 0
174 198 0
175 198 0
174 197 0
174 197 0
175 197 0
173 197 0
175 198 0
173 197 0
173 197 0
173 197 0
175 198 0
173 197 0
174 197 0
174 198 0
174 197 0
177 199 0
174 197 0
174 198 0
175 198 0
173 197 0
174 197 0
174 198 0
174 197 0
174 198 0
174 198 0
176 198 0
174 197 0
174 198 0
173 196 0
175 198 0
173 197 0
176 198 0
174 198 0
175 198 0
173 197 0
173 197 0
174 197 0
174 197 0
174 198 0
171 195 0
174 197 0
172 196 0
174 198 0
174 198 0
174 197 0
174 198 0
174 198 0
175 198 0
174 198 0
176 199 0
173 197 0
174 197 0
175 198 0
177 199 0
173 197 0
175 198 0
174 198 0
173 196 0
172 196 0
172 196 0
174 197 0
174 198 0
173 197 0
174 198 0
174 198 0
174 197 0
176 199 0
173 197 0
173 197 0
174 198 0
173 197 0
175 198 0
176 198 0
174 197 0
176 199 0
174 198 0
176 199 0
174 197 0
173 197 0
175 198 0
173 197 0
173 197 0
174 198 0
175 198 0
175 198 0
174 197 0
174 198 0
174 197 0
174 198 0
175 198 0
174 197 0
174 197 0
174 198 0
175 198 0
174 198 0
176 199 0
174 198 0
173 197 0
174 198 0
173 197 0
173 197 0
172 196 0
172 197 0
175 198 0
173 197 0
175 198 0
175 198 0
174 197 0
176 199 0
174 198 0
174 197 0
175 198 0
173 197 0
174 197 0
174 197 0
175 198 0
174 198 0
175 198 0
175 198 0
172 196 0
173 197 0
174 198 0
174 198 0
174 198 0
173 197 0
174 197 0
174 198 0
175 198 0
174 197 0
174 197 0
173 197 0
175 198 0
174 198 0
174 198 0
175 198 0
175 198 0
175 198 0
174 197 0
176 199 0
172 196 0
173 197 0
173 197 0
176 198 0
175 198 0
174 197 0
174 197 0
171 195 0
175 198 0
175 198 0
175 198 0
171 195 0
173 197 0
174 198 0
174 198 0
174 197 0
175 198 0
174 197 0
173 197 0
174 198 0
174 197 0
173 197 0
175 198 0
174 198 0
176 199 0
175 198 0
176 199 0
174 198 0
176 199 0
174 198 0
173 197 0
173 197 0
174 198 0
174 197 0
174 197 0
175 198 0
176 198 0
173 197 0
174 197 0
173 197 0
174 197 0
175 198 0
173 197 0
174 197 0
174 197 0
175 198 0
176 198 0
175 198 0
174 197 0
173 197 0
175 198 0
172 196 0
173 197 0
175 198 0
173 197 0
172 196 0
175 198 0
174 197 0
171 196 0
175 198 0
174 197 0
175 198 0
172 196 0
174 198 0
175 198 0
173 196 0
174 198 0
175 198 0
173 197 0
174 197 0
176 198 0
175 198 0
175 198 0
173 196 0
173 197 0
174 197 0
175 198 0
175 198 0
173 197 0
175 198 0
175 198 0
173 197 0
174 198 0
174 197 0
174 198 0
174 198 0
175 198 0
175 198 0
174 198 0
173 197 0
174 197 0
174 198 0
173 197 0
174 197 0
175 198 0
175 198 0
173 197 0
175 198 0
173 197 0
174 197 0
172 196 0
174 197 0
173 197 0
174 198 0
174 197 0
174 198 0
172 196 0
175 198 0
174 198 0
175 198 0
175 198 0
175 198 0
175 198 0
174 197 0
174 198 0
173 197 0
174 197 0
174 198 0
173 197 0
174 198 0
173 197 0
173 197 0
176 199 0
175 198 0
175 198 0
174 198 0
173 197 0
175 198 0
175 198 0
172 196 0
175 198 0
173 197 0
174 198 0
173 197 0
175 198 0
174 198 0
173 197 0
174 197 0
174 198 0
174 198 0
174 198 0
175 198 0
173 197 0
174 198 0
176 199 0
175 198 0
175 198 0
173 197 0
173 197 0
174 198 0
174 197 0
176 198 0
175 198 0
175 198 0
176 199 0
175 198 0
173 197 0
175 198 0
174 198 0
176 198 0
175 198 0
175 198 0
174 198 0
173 197 0
174 198 0
172 197 0
175 198 0
173 197 0
175 198 0
175 198 0
175 198 0
173 196 0
174 197 0
174 198 0
176 198 0
175 198 0
174 197 0
176 199 0
173 197 0
175 198 0
174 197 0
174 198 0
174 198 0
174 198 0
176 199 0
174 197 0
175 198 0
173 197 0
175 198 0
175 198 0
175 198 0
174 198 0
174 197 0
174 198 0
175 198 0
176 199 0
176 199 0
175 198 0
173 197 0
175 198 0
177 199 0
175 198 0
176 199 0
174 198 0
175 198 0
173 197 0
173 197 0
175 198 0
175 198 0
174 197 0
173 197 0
175 198 0
174 197 0
173 197 0
175 198 0
175 198 0
171 196 0
174 198 0
174 198 0
175 198 0
175 198 0
172 196 0
174 198 0
174 198 0
174 198 0
173 196 0
175 198 0
173 197 0
175 198 0
173 197 0
174 197 0
175 198 0
176 199 0
174 197 0
175 198 0
175 198 0
174 198 0
176 199 0
172 196 0
175 198 0
174 198 0
175 198 0
173 197 0
175 198 0
176 198 0
174 198 0
175 198 0
173 197 0
175 198 0
174 197 0
175 198 0
174 197 0
174 197 0
174 198 0
174 198 0
175 198 0
175 198 0
175 198 0
175 198 0
174 198 0
175 198 0
174 197 0
175 198 0
174 197 0
175 198 0
174 197 0
174 197 0
175 198 0
174 197 0
176 198 0
175 198 0
175 198 0
174 198 0
174 197 0
175 198 0
172 196 0
173 197 0
172 197 0
174 198 0
174 197 0
175 198 0
175 198 0
175 197 25
175 198 0
173 197 0
174 198 0
172 197 0
175 198 0
174 198 0
175 198 0
175 198 0
174 197 0
174 198 0
176 199 0
175 198 0
173 197 0
174 197 0
173 197 0
175 198 0
175 198 0
174 197 0
176 199 0
172 197 0
173 197 0
174 197 0
176 198 0
173 196 0
174 198 0
175 198 0
175 198 0
173 197 0
173 197 0
175 198 0
174 197 0
176 199 0
174 197 0
173 197 0
173 197 0
173 197 0
174 197 0
175 198 0
174 197 0
174 198 0
175 198 0
173 196 0
174 198 0
175 198 0
173 197 0
176 199 0
174 198 0
174 197 0
171 196 0
173 196 0
175 198 0
174 197 0
174 198 0
174 197 0
174 197 0
173 197 0
174 197 0
175 198 0
173 197 0
176 199 0
175 198 0
172 196 0
173 196 0
175 198 0
174 197 0
176 198 0
172 196 0
174 197 0
174 198 0
175 198 0
173 196 0
173 197 0
174 198 0
173 197 0
175 198 0
173 197 0
175 198 0
173 197 0
174 197 0
176 199 0
175 198 0
175 198 0
175 198 0
174 198 0
174 197 0
172 197 0
173 197 0
176 198 0
175 198 0
175 198 0
174 198 0
175 198 0
174 198 0
175 198 0
172 196 0
174 197 0
175 198 0
174 197 0
175 198 0
174 198 0
174 197 0
174 197 0
174 198 0
174 197 0
176 198 0
173 196 0
173 197 0
174 197 0
173 197 0
175 198 0
174 198 0
174 198 0
174 197 0
174 197 0
173 197 0
174 198 0
175 198 0
175 198 0
173 197 0
173 196 0
175 198 0
175 198 0
172 196 0
173 197 0
175 198 0
174 197 0
174 197 0
173 197 0
173 197 0
174 197 0
174 197 0
173 197 0
174 198 0
174 197 0
175 198 0
174 197 0
174 197 0
176 199 0
174 197 0
175 198 0
176 198 0
175 198 0
174 197 0
175 198 0
173 197 0
174 198 0
174 198 0
175 198 0
174 198 0
176 198 0
176 199 0
174 197 0
176 198 0
173 197 0
174 197 0
174 198 0
174 198 0
172 196 0
172 196 0
175 198 0
173 197 0
174 198 0
173 197 0
174 197 0
176 199 0
174 198 0
175 198 0
174 197 0
176 198 0
175 198 0
173 196 0
175 198 0
175 198 0
175 198 0
175 198 0
175 198 0
174 198 0
173 197 0
175 198 0
174 197 0
175 198 0
174 198 0
174 198 0
173 197 0
174 197 0
173 197 0
173 197 0
173 196 0
173 197 0
172 196 0
175 198 0
175 198 0
174 198 0
174 198 0
173 197 0
173 197 0
174 197 0
178 200 0
175 198 0
171 196 0
173 197 0
175 198 0
175 198 0
174 197 0
173 197 0
174 198 0
174 198 0
174 197 0
175 198 0
175 198 0
175 198 0
172 196 0
172 196 0
174 197 0
175 198 0
172 195 0
174 198 0
174 198 0
175 198 0
175 198 0
174 197 0
175 198 0
173 197 0
174 197 0
175 198 0
175 198 0
176 199 0
174 198 0
173 197 0
172 197 0
175 198 0
174 197 0
173 197 0
173 197 0
174 198 0
173 197 0
174 197 0
174 197 0
173 197 0
173 197 0
175 198 0
173 197 0
175 198 0
174 198 0
174 197 0
175 198 0
174 198 0
174 197 0
174 198 0
174 198 0
174 198 0
174 197 0
172 196 0
175 198 0
177 199 0
176 198 0
174 197 0
175 198 0
174 198 0
173 197 0
175 198 0
174 197 0
173 196 0
175 198 0
174 198 0
174 198 0
175 198 0
175 198 0
174 197 0
173 197 0
174 198 0
175 198 0
174 198 0
174 197 0
173 197 0
176 199 0
174 198 0
176 198 0
175 198 0
173 197 0
174 198 0
175 198 0
173 197 0
176 198 0
174 198 0
173 196 0
175 198 0
174 197 0
173 197 0
177 199 0
174 198 0
173 197 0
174 198 0
174 197 0
175 198 0
175 198 0
175 198 0
173 197 0
175 198 0
174 198 0
173 197 0
174 197 0
174 198 0
176 199 0
172 197 0
174 197 0
173 197 0
173 197 0
176 199 0
171 195 0
175 198 0
173 197 0
174 197 0
175 198 0
175 198 0
175 198 0
175 198 0
174 198 0
175 198 0
174 198 0
173 197 0
174 198 0
173 197 0
175 198 0
175 198 0
174 198 0
173 197 0
176 199 0
174 198 0
176 199 0
174 198 0
172 197 0
174 198 0
174 198 0
175 198 0
174 198 0
174 198 0
175 198 0
173 197 0
174 197 0
174 198 0
174 198 0
175 198 0
174 198 0
175 198 0
175 198 0
174 198 0
173 197 0
175 198 0
176 199 0
175 198 0
174 198 0
174 198 0
174 197 0
174 198 0
174 197 0
175 198 0
174 198 0
174 197 0
173 197 0
173 197 0
175 198 0
173 197 0
176 198 0
175 198 0
174 198 0
174 198 0
175 198 0
174 197 0
174 198 0
173 197 0
175 198 0
176 198 0
174 198 0
174 197 0
173 197 0
175 198 0
173 197 0
174 198 0
174 197 0
174 198 0
175 198 0
175 198 0
175 198 0
177 199 0
174 198 0
173 197 0
173 197 0
176 199 25
173 197 0
175 198 0
174 198 25
175 198 0
173 197 25
175 198 36
174 197 25
175 198 25
174 197 36
176 199 0
175 198 0
173 197 0
175 198 25
174 198 0
175 198 36
173 197 0
174 197 0
175 198 25
173 197 0
172 196 0
174 198 0
173 197 0
173 197 0
174 197 0
173 197 0
174 198 0
174 197 0
174 198 0
174 197 0
175 198 0
175 198 0
175 198 0
176 199 0
175 198 0
174 197 0
172 197 0
176 198 0
175 198 0
173 197 0
175 198 0
174 197 0
174 198 0
175 198 0
173 197 0
174 198 0
174 197 0
175 198 0
175 198 0
176 198 0
177 199 0
175 198 0
172 196 0
174 197 0
174 198 0
172 196 0
174 198 0
173 197 0
172 196 0
173 197 0
172 196 0
174 197 0
174 197 0
173 197 0
174 198 0
174 197 0
175 198 0
174 197 0
173 196 0
174 198 0
175 198 0
175 197 0
173 196 0
175 198 0
175 198 0
175 198 0
174 198 0
172 196 0
176 198 0
174 197 0
173 197 0
173 197 0
174 198 0
174 197 0
174 198 0
173 197 0
172 196 0
174 198 0
174 197 0
175 198 0
174 198 0
174 197 0
173 197 0
172 196 0
173 197 0
173 197 0
177 199 0
173 197 0
173 197 0
173 197 0
174 198 0
174 198 0
175 197 0
173 197 0
174 197 0
175 198 0
174 198 0
173 197 0
175 198 0
172 195 0
174 198 0
175 198 0
174 197 0
174 197 0
175 198 0
173 197 0
174 197 0
174 197 0
174 197 0
174 198 0
174 197 0
174 197 0
173 197 0
174 197 0
173 196 0
174 197 0
173 196 0
174 197 0
174 198 0
173 197 0
174 198 0
175 198 0
173 197 0
176 199 0
173 197 0
172 196 0
174 197 0
175 198 0
174 198 0
175 198 0
175 198 0
174 198 0
176 198 0
176 198 0
175 198 0
175 198 0
172 196 0
174 197 0
175 198 0
173 197 0
174 197 0
176 199 0
173 197 0
176 198 0
171 195 0
174 197 0
175 198 0
173 196 0
172 196 0
174 198 0
176 199 0
173 197 0
174 198 0
174 197 0
174 197 0
173 197 0
174 198 0
175 198 0
172 196 0
173 197 0
174 198 0
175 198 0
174 197 0
174 198 0
175 198 0
174 198 0
175 198 0
174 198 0
174 198 0
174 198 0
174 198 0
173 197 0
173 197 0
176 199 0
173 197 0
174 197 0
172 196 0
174 197 0
175 198 0
175 198 0
175 198 0
174 198 0
173 197 0
174 198 0
174 197 0
173 196 0
174 197 0
173 197 0
175 198 0
173 197 0
174 197 0
173 196 0
174 198 0
174 197 0
175 198 0
175 198 0
174 197 0
174 198 0
173 197 0
175 198 0
175 198 0
175 197 0
173 197 0
174 197 0
175 198 0
173 197 0
174 198 0
174 198 0
175 198 0
176 199 0
173 197 0
174 198 0
174 197 0
174 197 0
173 197 0
175 198 0
174 197 0
175 198 0
175 198 0
174 197 0
175 198 0
177 199 0
174 197 0
173 197 0
174 198 0
175 198 0
175 198 0
173 197 0
174 198 0
175 198 0
173 197 0
175 198 0
174 198 0
175 198 0
174 197 0
176 199 0
174 197 0
174 197 0
172 196 0
174 198 0
173 197 0
175 198 0
174 198 0
175 197 0
177 199 0
175 198 0
172 196 0
173 197 0
174 198 0
175 198 0
175 198 0
174 198 0
177 199 0
173 197 0
172 196 0
174 198 0
174 198 0
173 197 0
174 198 0
174 197 0
175 198 0
174 197 0
175 198 0
174 198 0
175 198 0
174 198 0
173 197 0
174 198 0
173 197 0
174 197 0
175 198 0
175 198 0
176 199 0
174 198 0
173 197 0
174 198 0
175 198 0
174 197 0
174 198 0
175 198 0
174 198 0
175 198 0
176 199 0
175 198 0
176 199 0
175 198 0
175 198 0
173 197 0
174 198 0
175 198 0
174 198 0
173 197 0
173 197 0
174 198 0
174 197 0
175 198 0
173 197 0
174 198 0
173 197 0
175 198 0
173 197 0
176 198 0
173 197 0
174 197 0
175 198 0
172 197 0
173 197 0
175 198 0
174 198 0
174 198 0
175 198 0
173 197 0
175 198 0
175 198 0
174 198 0
174 197 0
174 197 0
175 198 0
175 198 0
174 198 0
174 197 0
174 198 0
175 198 0
174 198 0
173 197 0
175 198 0
175 198 0
173 197 0
173 197 0
173 197 0
174 197 0
174 197 0
174 198 0
173 197 0
175 198 0
174 198 0
176 199 0
175 198 0
175 198 0
174 198 0
174 197 0
176 199 0
174 197 0
173 197 0
174 198 0
175 198 0
174 198 0
174 198 0
175 198 0
174 197 0
175 198 0
175 198 0
174 197 0
173 197 0
173 197 0
172 196 0
175 198 0
175 198 0
173 197 0
173 197 0
175 198 0
175 198 0
175 198 0
174 197 0
176 199 0
174 198 0
175 198 0
174 198 0
174 197 0
174 197 0
175 198 0
175 198 0
175 198 0
175 198 0
174 197 0
175 198 0
174 198 0
175 198 0
176 198 0
173 197 0
175 198 0
174 198 0
174 197 0
172 196 0
173 197 0
174 198 0
176 199 25
173 197 0
174 197 0
175 199 36
176 199 25
173 197 0
178 200 25
175 198 25
176 199 44
175 198 25
174 198 0
176 199 25
173 197 0
174 198 25
175 198 36
174 198 0
175 197 25
173 196 0
174 197 25
173 197 25
175 198 25
175 198 25
176 199 25
174 198 0
175 198 36
175 198 25
173 197 0
175 198 0
175 198 25
175 198 0
175 198 0
174 198 0
175 198 0
176 198 0
175 198 0
174 198 0
173 196 0
174 197 0
174 198 0
174 198 0
174 197 0
174 197 0
173 197 0
173 197 0
175 198 0
174 198 0
175 198 0
175 198 0
172 196 0
174 197 0
174 198 0
172 197 0
175 198 0
174 197 0
174 197 0
174 198 0
174 197 0
175 198 0
172 196 0
174 198 0
173 197 0
174 198 0
174 198 0
174 198 0
174 197 0
175 198 0
175 198 0
175 198 0
175 198 0
175 198 0
173 197 0
173 197 0
175 198 0
173 197 0
175 198 0
175 198 0
175 198 0
174 197 0
175 198 0
173 197 0
173 197 0
175 198 0
175 198 0
171 195 0
173 196 0
174 198 0
171 195 0
174 198 0
173 196 0
174 197 0
173 197 0
173 197 0
175 198 0
173 196 0
173 197 0
175 198 0
175 198 0
173 196 0
173 197 0
174 198 0
175 198 0
174 197 0
174 198 0
173 197 0
174 197 0
176 199 0
173 197 0
174 197 0
173 197 0
174 197 0
172 196 0
173 197 0
174 197 0
175 198 0
173 197 0
174 197 0
175 198 0
173 197 0
175 198 0
174 197 0
174 197 0
177 199 0
174 197 0
175 198 0
174 197 0
172 196 0
174 197 0
173 197 0
175 198 0
174 197 0
175 198 0
173 197 0
175 198 0
176 198 0
175 198 0
174 198 0
175 198 0
175 198 0
175 198 0
174 197 0
175 198 0
174 198 0
175 198 0
173 197 0
174 198 0
175 198 0
174 197 0
174 197 0
175 197 0
175 198 0
173 196 0
176 199 0
173 197 0
175 198 0
174 198 0
174 198 0
175 198 0
175 198 0
175 198 0
174 197 0
174 198 0
173 197 0
174 198 0
173 197 0
174 198 0
174 197 0
174 198 0
175 198 0
174 197 0
174 197 0
173 196 0
176 198 0
175 198 0
172 196 0
174 198 0
175 198 0
174 197 0
173 197 0
174 197 0
176 199 0
175 198 0
175 198 0
176 199 0
176 198 0
175 198 0
174 198 0
172 196 0
177 199 0
174 197 0
173 197 0
173 197 0
174 197 0
174 198 0
175 198 0
174 198 0
173 196 0
173 197 0
175 198 0
174 198 0
175 198 0
172 196 0
175 198 0
175 198 0
175 198 0
175 198 0
174 197 0
173 197 0
175 198 0
174 197 0
173 197 0
173 197 0
175 198 0
174 198 0
175 198 0
173 197 0
175 197 0
174 198 0
176 198 0
172 197 0
173 197 0
174 197 0
174 197 0
175 198 0
176 199 0
172 196 0
174 198 0
172 196 0
175 198 0
173 197 0
174 198 0
176 199 0
175 198 0
173 197 0
175 198 0
175 198 0
175 198 0
173 197 0
174 198 0
175 198 0
174 198 0
176 198 0
174 198 0
174 198 0
174 197 0
174 197 0
175 198 0
173 196 0
174 198 0
175 198 0
173 196 0
173 197 0
175 198 0
174 197 0
173 197 0
174 197 0
176 198 0
173 197 0
176 198 0
175 198 0
173 197 0
173 197 0
175 198 0
173 197 0
175 198 0
172 196 0
175 198 0
175 198 0
176 199 0
173 197 0
174 197 0
173 197 0
174 197 0
173 197 0
176 199 0
175 198 0
176 198 0
174 198 0
175 198 0
175 198 0
173 197 0
174 197 0
174 198 0
173 197 0
173 197 0
173 197 0
173 197 0
174 198 0
173 197 0
174 198 0
175 198 0
175 198 0
173 197 0
173 197 0
174 198 0
174 198 0
174 198 0
173 197 0
175 198 0
173 197 0
174 198 0
175 198 0
175 197 0
175 198 0
172 196 0
176 199 0
175 198 0
175 198 0
175 198 0
175 198 0
174 198 0
175 198 0
173 197 0
176 198 0
175 198 0
175 198 0
176 198 0
174 198 0
173 197 0
175 198 0
176 199 0
174 197 0
174 197 0
174 197 0
172 196 0
172 196 0
175 197 0
175 198 0
173 197 0
174 198 0
174 197 0
174 197 0
174 198 0
174 197 0
174 198 0
173 197 0
172 196 0
176 199 0
175 198 0
176 198 0
175 198 0
175 198 0
174 198 0
174 197 0
174 197 0
175 198 0
174 198 0
174 197 0
175 198 0
175 198 0
177 199 0
174 197 0
174 198 0
176 198 0
174 198 0
173 197 0
174 198 0
175 198 0
174 197 0
173 197 0
174 198 0
175 198 0
174 198 0
176 198 0
175 198 0
175 198 0
173 196 0
175 198 0
173 197 0
176 198 0
174 197 0
175 198 0
174 197 0
174 197 0
176 199 0
175 198 0
174 198 0
175 198 0
174 198 0
175 198 0
173 197 0
176 199 0
175 198 0
176 199 0
175 198 0
172 196 0
173 197 0
172 196 0
174 197 0
174 198 0
175 198 0
173 197 0
175 198 0
176 199 0
175 198 0
176 198 0
176 198 0
174 197 0
174 197 0
175 198 0
173 197 0
174 198 0
174 197 0
173 197 36
175 198 25
175 199 36
174 198 0
174 197 0
174 198 0
174 198 25
174 198 36
177 200 44
175 198 44
174 198 25
175 198 25
174 198 44
175 198 25
173 197 36
173 197 36
174 198 36
175 198 36
173 197 0
174 198 25
174 198 44
175 198 0
174 198 36
174 198 36
174 198 0
175 198 25
174 198 25
174 197 0
174 198 0
175 198 0
174 198 0
172 196 0
174 198 0
174 197 0
174 197 0
173 197 0
173 197 0
172 196 0
174 198 0
175 198 0
175 198 0
173 197 0
174 198 0
175 198 0
174 198 0
173 197 0
174 198 0
172 196 0
174 197 0
173 197 0
174 198 0
173 196 0
174 198 0
175 198 0
174 197 0
176 198 0
173 197 0
173 197 0
172 196 0
174 198 0
174 198 0
174 197 0
174 198 0
173 197 0
174 198 0
175 198 0
174 198 0
174 197 0
174 198 0
173 197 0
174 198 0
174 198 0
174 197 0
175 198 0
174 198 0
174 197 0
174 198 0
174 197 0
174 197 0
175 198 0
174 197 0
174 197 0
174 197 0
175 198 0
174 198 0
174 198 0
173 197 0
173 196 0
174 197 0
174 197 0
174 198 0
175 198 0
175 198 0
175 198 0
174 198 0
172 196 0
174 198 0
175 198 0
174 198 0
174 197 0
174 198 0
173 197 0
173 197 0
174 197 0
175 198 0
174 197 0
174 197 0
174 198 0
174 198 0
174 197 0
172 196 0
174 198 0
176 198 0
175 198 0
173 197 0
174 198 0
175 198 0
172 196 0
174 197 0
174 198 0
174 197 0
175 198 0
174 198 0
175 198 0
171 196 0
174 197 0
174 197 0
176 198 0
175 198 0
174 198 0
175 198 0
175 198 0
174 197 0
174 198 0
174 197 0
175 198 0
174 197 0
173 197 0
174 197 0
173 196 0
175 198 0
173 197 0
176 199 0
174 197 0
175 198 0
171 195 0
175 198 0
174 197 0
174 198 0
175 198 0
173 197 0
174 198 0
173 197 0
174 197 0
172 196 0
175 198 0
173 197 0
173 197 0
175 198 0
174 198 0
175 198 0
171 195 0
177 199 0
174 197 0
175 198 0
174 198 0
174 197 0
173 197 0
175 198 0
174 198 0
174 197 0
172 196 0
175 198 0
174 197 0
174 198 0
175 198 0
174 198 0
174 197 0
174 197 0
174 197 0
174 197 0
175 198 0
174 198 0
173 197 0
174 198 0
173 197 0
172 196 0
174 198 0
171 195 0
174 198 0
175 198 0
175 198 0
174 197 0
173 197 0
173 197 0
174 197 0
174 198 0
175 198 0
174 197 0
174 197 0
175 198 0
175 198 0
174 198 0
174 198 0
176 198 0
174 197 0
175 197 0
174 198 0
174 198 0
173 197 0
174 197 0
174 198 0
175 198 0
176 199 0
173 196 0
173 197 0
173 197 0
174 198 0
174 198 0
175 198 0
175 198 0
173 197 0
173 197 0
174 197 0
175 198 0
175 198 0
174 197 0
173 197 0
174 197 0
176 199 0
173 197 0
174 198 0
173 197 0
175 198 0
173 197 0
174 198 0
173 197 0
174 198 0
172 196 0
174 198 0
175 198 0
174 198 0
174 198 0
175 198 0
175 198 0
174 198 0
173 197 0
174 198 0
173 197 0
174 198 0
174 197 0
174 197 0
175 198 0
173 197 0
173 197 0
176 199 0
176 198 0
172 197 0
174 197 0
174 198 0
174 198 0
174 198 0
175 198 0
175 198 0
175 198 0
174 197 0
175 198 0
174 198 0
176 198 0
174 198 0
173 197 0
175 198 0
173 197 0
175 198 0
176 198 0
175 198 0
176 199 0
175 198 0
175 198 0
174 198 0
173 197 0
173 197 0
174 197 0
175 198 0
175 198 0
174 197 0
175 198 0
174 197 0
174 197 0
174 198 0
175 198 0
174 197 0
173 197 0
174 198 0
174 198 0
173 197 0
174 198 0
175 198 0
175 198 0
174 197 0
174 197 0
174 197 0
174 197 0
175 198 0
173 197 0
174 197 0
175 198 0
175 198 0
174 198 0
174 198 0
175 198 0
173 197 0
173 197 0
174 197 0
174 198 0
176 198 0
175 198 0
173 197 0
173 197 0
173 197 0
175 198 0
175 198 0
175 198 0
175 198 0
175 198 0
175 198 0
175 198 0
173 196 0
175 198 0
175 198 0
174 198 0
175 198 0
174 198 0
174 198 0
173 196 0
175 198 0
174 198 0
174 198 0
173 197 0
175 198 0
175 198 0
175 198 0
175 198 0
175 198 0
173 197 0
174 197 0
175 198 0
174 198 0
175 198 0
175 198 0
174 198 0
174 198 0
175 198 0
175 198 0
175 198 0
174 198 0
174 197 0
174 198 0
173 197 0
176 199 0
173 197 0
174 198 0
174 198 0
175 198 0
173 197 0
174 198 0
176 198 0
176 199 0
176 199 0
175 198 0
175 198 0
172 196 0
174 198 0
176 198 0
174 198 0
174 198 0
173 197 0
174 198 0
174 197 0
175 198 0
173 197 0
174 198 0
175 198 0
175 198 0
174 197 0
175 198 0
174 198 0
172 196 0
174 198 0
175 198 0
174 198 0
175 199 44
176 198 0
175 198 0
175 198 25
175 198 0
175 198 0
173 197 0
175 198 36
176 199 36
175 198 36
174 197 0
177 200 57
175 198 36
177 200 57
175 198 36
175 198 25
176 199 51
175 198 36
177 200 57
177 200 44
176 200 57
175 198 36
177 200 44
173 197 25
176 199 36
174 198 25
176 198 36
176 199 25
174 197 0
175 199 36
173 197 25
171 195 0
174 197 25
175 198 0
177 200 51
174 198 36
172 196 0
176 199 36
176 199 25
176 199 25
175 198 0
175 198 0
174 197 0
175 198 0
174 198 0
173 196 0
174 198 0
173 197 0
174 198 0
173 197 0
176 198 0
174 198 0
174 198 0
174 197 0
175 198 0
173 197 0
175 198 0
173 197 0
174 197 0
173 197 0
174 197 0
175 198 0
174 198 0
174 197 0
173 197 0
175 198 0
174 198 0
172 196 0
174 198 0
173 196 0
174 198 0
174 197 0
173 197 0
173 197 0
173 197 0
174 198 0
175 198 0
176 198 0
176 198 0
172 196 0
175 198 0
174 197 0
176 198 0
174 197 0
175 198 0
173 196 0
175 198 0
175 198 0
174 197 0
173 197 0
175 198 0
174 198 0
175 198 0
175 198 0
174 198 0
175 198 0
174 198 0
174 197 0
173 197 0
174 198 0
175 198 0
175 198 0
173 197 0
175 198 0
174 197 0
175 198 0
175 198 0
174 198 0
172 197 0
172 196 0
175 198 0
175 198 0
176 198 0
173 197 0
173 196 0
177 199 0
175 198 0
174 198 0
175 198 0
173 197 0
174 197 0
175 198 0
174 198 0
175 198 0
173 197 0
173 197 0
174 198 0
175 198 0
173 196 0
175 198 0
174 197 0
176 198 0
175 198 0
173 197 0
175 198 0
176 199 0
175 198 0
173 197 0
174 198 0
173 197 0
173 197 0
174 197 0
173 197 0
173 197 0
175 198 0
174 198 0
175 198 0
174 197 0
172 196 0
173 197 0
174 197 0
173 197 0
175 198 0
174 197 0
172 195 0
173 197 0
175 198 0
175 198 0
174 197 0
174 198 0
175 198 0
176 199 0
175 198 0
174 198 0
175 198 0
176 199 0
174 197 0
175 198 0
173 197 0
174 198 0
174 198 0
174 198 0
174 197 0
173 197 0
174 197 0
175 198 0
173 197 0
175 198 0
175 198 0
172 197 0
175 198 0
175 198 0
175 198 0
173 197 0
172 196 0
176 199 0
172 197 0
175 198 0
174 197 0
173 197 0
175 198 0
174 197 0
175 198 0
174 197 0
175 198 0
174 197 0
175 198 0
174 197 0
173 197 0
174 198 0
175 198 0
175 198 0
175 198 0
172 197 0
175 198 0
174 197 0
174 197 0
174 197 0
174 198 0
173 197 0
175 198 0
176 199 0
174 198 0
175 198 0
173 197 0
174 197 0
175 198 0
175 198 0
175 198 0
175 198 0
173 196 0
176 199 0
175 198 0
175 198 0
175 198 0
176 199 0
173 197 0
175 198 0
173 196 0
175 198 0
174 198 0
174 197 0
174 198 0
171 195 0
174 197 0
175 198 0
173 197 0
175 198 0
175 198 0
175 198 0
176 199 0
175 198 0
175 198 0
174 197 0
174 197 0
173 196 0
174 198 0
173 197 0
173 197 0
174 198 0
173 197 0
175 198 0
174 198 0
173 197 0
175 198 0
175 198 0
173 197 0
175 198 0
176 198 0
174 198 0
176 198 0
174 198 0
174 198 0
175 198 0
173 197 0
175 198 0
174 198 0
175 198 0
174 198 0
175 198 0
175 198 0
172 196 0
173 197 0
176 199 0
174 197 0
174 197 0
173 197 0
174 197 0
175 198 0
174 197 0
174 197 0
173 197 0
175 198 0
174 198 0
174 197 0
175 198 0
176 199 0
175 198 0
174 198 0
173 197 0
175 198 0
173 197 0
173 197 0
175 198 0
176 199 0
176 199 0
176 198 0
175 198 0
176 198 0
174 198 0
175 198 0
175 198 0
173 197 0
174 197 0
175 198 0
173 197 0
173 197 0
174 198 0
174 198 0
174 198 0
174 198 0
175 198 0
175 198 0
174 197 0
174 198 0
175 198 0
174 197 0
174 198 0
175 198 0
174 198 0
175 198 0
174 197 0
174 198 0
175 198 0
175 198 0
173 197 0
174 198 0
176 199 0
175 198 0
175 198 0
174 197 0
174 197 0
173 197 0
172 197 0
173 197 0
174 197 0
176 198 0
174 198 0
173 197 0
175 198 0
174 197 0
174 198 0
174 197 0
174 198 0
174 197 0
174 197 0
175 198 0
175 198 0
172 196 0
175 198 0
173 197 0
174 197 0
175 198 0
174 197 0
174 197 0
174 198 0
175 198 0
173 197 0
175 198 0
174 198 0
174 198 0
174 198 0
174 198 0
173 197 0
175 198 0
173 197 0
175 198 0
174 198 0
175 198 0
174 197 0
172 196 0
174 197 0
174 198 0
175 198 0
175 197 0
174 197 0
174 197 0
174 197 0
175 198 0
173 197 0
176 198 0
174 197 0
171 196 0
174 197 0
175 198 0
174 198 0
173 197 0
176 199 0
175 198 0
174 197 0
176 198 0
174 198 0
174 197 0
174 198 0
174 198 0
175 198 0
175 198 0
176 199 25
177 199 36
175 198 25
174 197 0
173 197 25
175 198 0
176 199 51
176 199 44
176 199 44
175 198 36
174 197 25
175 198 36
174 197 0
176 199 36
179 200 36
178 200 62
174 198 36
177 200 51
175 198 36
176 199 57
177 200 57
175 198 36
180 202 72
175 199 62
177 199 51
176 199 44
176 199 51
180 202 72
175 199 36
174 198 0
176 199 51
175 198 36
173 197 36
175 199 51
178 200 44
174 198 25
175 198 44
175 198 36
176 199 36
174 198 36
174 197 0
176 199 25
176 198 0
174 197 0
174 197 25
173 197 0
175 198 25
173 197 0
175 198 0
175 198 0
173 197 0
176 199 0
174 198 0
175 198 0
174 197 0
173 197 0
172 196 0
173 197 0
173 197 0
174 198 0
174 197 0
175 198 0
174 198 0
174 197 0
174 197 0
173 196 0
174 197 0
175 198 0
174 197 0
174 198 0
175 198 0
172 197 0
174 198 0
175 198 0
173 197 0
173 197 0
175 198 0
175 198 0
174 198 0
175 198 0
175 198 0
175 198 0
174 197 0
173 197 0
175 198 0
173 197 0
174 198 0
175 197 0
175 198 0
174 198 0
173 197 0
173 196 0
172 196 0
173 197 0
174 197 0
174 197 0
173 197 0
175 198 0
173 197 0
174 198 0
175 198 0
174 198 0
174 197 0
171 195 0
173 197 0
174 197 0
172 196 0
176 199 0
175 198 0
175 198 0
174 198 0
172 196 0
174 197 0
174 198 0
173 197 0
174 197 0
172 197 0
174 197 0
173 197 0
174 197 0
176 198 0
175 197 0
175 198 0
173 197 0
174 198 0
173 197 0
173 197 0
174 197 0
172 196 0
175 198 0
174 198 0
174 197 0
174 198 0
173 197 0
173 197 0
175 198 0
175 198 0
174 197 0
175 198 0
174 197 0
175 198 0
174 198 0
172 196 0
174 197 0
175 198 0
173 197 0
174 198 0
175 198 0
173 196 0
175 198 0
173 197 0
175 198 0
175 198 0
173 197 0
174 198 0
173 197 0
175 198 0
174 198 0
175 198 0
175 198 0
174 197 0
174 197 0
173 195 0
175 198 0
173 197 0
175 198 0
176 199 0
174 198 0
172 197 0
175 198 0
173 197 0
174 197 0
176 199 0
174 197 0
173 197 0
175 198 0
174 198 0
174 197 0
174 197 0
173 197 0
173 197 0
174 197 0
173 197 0
174 198 0
174 197 0
173 197 0
174 198 0
175 198 0
175 198 0
174 197 0
175 198 0
173 197 0
175 198 0
173 197 0
173 197 0
174 198 0
174 198 0
173 197 0
172 196 0
174 197 0
175 198 0
175 198 0
173 197 0
175 198 0
175 198 0
172 196 0
175 198 0
174 198 0
174 197 0
174 198 0
174 198 0
174 198 0
174 197 0
172 196 0
175 198 0
174 198 0
175 198 0
174 198 0
175 198 0
174 197 0
174 197 0
174 197 0
175 198 0
173 197 0
174 198 0
175 198 0
171 196 0
174 197 0
177 199 0
175 198 0
175 198 0
176 199 0
174 197 0
175 198 0
174 198 0
175 198 0
175 198 0
175 198 0
174 198 0
174 198 0
174 197 0
172 196 0
174 197 0
174 198 0
175 198 0
173 197 0
174 198 0
174 197 0
174 197 0
175 198 0
173 197 0
175 198 0
174 197 0
173 197 0
175 198 0
174 198 0
172 196 0
175 198 0
174 197 0
174 198 0
171 195 0
173 197 0
172 197 0
174 198 0
174 198 0
174 197 0
173 197 0
174 197 0
174 197 0
175 198 0
174 197 0
174 198 0
174 198 0
174 198 0
174 197 0
174 197 0
175 198 0
176 199 0
174 197 0
174 197 0
173 197 0
175 198 0
173 197 0
173 196 0
176 199 0
175 198 0
175 198 0
173 197 0
174 198 0
174 198 0
174 198 0
174 197 0
174 198 0
173 197 0
176 198 0
174 197 0
173 197 0
175 198 0
175 198 0
171 196 0
173 196 0
175 198 0
174 198 0
174 198 0
174 197 0
175 198 0
174 198 0
175 198 0
172 196 0
175 198 0
175 198 0
175 198 0
174 198 0
175 198 0
175 198 0
175 198 0
174 197 0
174 198 0
173 197 0
176 199 0
174 197 0
173 197 0
174 198 0
173 197 0
175 198 0
175 198 0
175 198 0
174 198 0
174 197 0
175 198 0
173 197 0
174 197 0
173 197 0
175 198 0
174 198 0
174 197 0
174 197 0
174 198 0
173 196 0
173 197 0
174 198 0
173 197 0
174 198 0
174 197 0
174 197 0
173 197 0
176 198 0
175 198 0
173 197 0
175 198 0
172 196 0
174 198 0
173 197 0
174 198 0
173 197 0
174 198 0
174 198 0
174 197 0
175 198 0
176 199 0
174 197 0
175 198 0
175 198 0
172 196 0
174 198 0
175 198 0
175 198 0
176 199 0
174 198 0
175 198 0
173 197 0
174 197 0
174 198 0
175 198 0
176 198 0
175 198 0
174 198 0
176 199 0
173 197 0
174 198 0
175 198 0
175 198 0
174 197 0
175 198 0
175 198 0
175 198 0
174 197 0
175 198 0
175 198 0
174 198 0
174 197 0
174 197 0
173 197 0
174 197 0
175 198 0
174 198 0
174 198 0
174 198 0
174 198 0
175 198 0
173 197 0
175 198 25
173 197 25
175 199 44
173 197 0
177 199 44
174 197 44
176 199 36
174 198 25
175 198 25
178 200 51
177 200 57
179 202 76
175 198 25
176 199 44
180 202 72
179 202 80
179 202 84
179 201 76
180 202 76
181 202 92
179 201 76
176 199 67
180 202 80
182 204 92
176 200 62
177 200 62
177 200 51
179 202 84
179 202 80
178 201 72
178 201 67
177 200 62
176 199 51
178 201 67
173 197 36
175 198 36
175 198 36
176 199 44
176 199 44
175 198 36
174 198 36
174 197 0
175 198 36
175 199 36
175 198 25
175 198 36
175 198 0
174 198 0
177 199 25
174 197 0
175 198 0
173 197 0
175 198 0
172 196 0
174 198 0
174 197 0
173 196 0
174 198 0
176 199 0
174 197 0
174 197 0
173 197 0
176 198 0
173 197 0
174 198 0
172 196 0
174 198 0
173 196 0
175 198 0
175 198 0
174 198 0
173 196 0
175 198 0
175 198 0
175 198 0
174 197 0
176 198 0
173 197 0
174 198 0
175 198 0
174 197 0
175 198 0
172 195 0
175 198 0
173 197 0
174 197 0
175 198 0
174 198 0
174 197 0
175 198 0
175 198 0
173 196 0
175 198 0
175 198 0
172 196 0
173 197 0
174 198 0
174 197 0
174 197 0
175 198 0
173 197 0
175 198 0
174 198 0
174 198 0
176 199 0
175 198 0
174 198 0
174 198 0
173 197 0
174 197 0
174 197 0
175 198 0
174 197 0
173 196 0
174 197 0
174 197 0
173 197 0
174 197 0
175 198 0
174 198 0
174 197 0
173 197 0
174 197 0
174 197 0
174 198 0
174 198 0
176 198 0
174 197 0
174 198 0
175 198 0
172 196 0
175 198 0
172 196 0
175 198 0
175 198 0
175 198 0
175 198 0
172 196 0
173 197 0
173 197 0
175 198 0
174 197 0
173 196 0
173 196 0
174 197 0
170 195 0
175 198 0
173 197 0
172 196 0
173 197 0
173 197 0
175 197 0
174 198 0
175 198 0
174 198 0
170 194 0
173 197 0
174 197 0
175 198 0
175 198 0
175 198 0
175 198 0
174 198 0
175 198 0
175 198 0
176 199 0
175 198 0
175 198 0
175 198 0
175 198 0
174 197 0
174 197 0
173 197 0
175 198 0
176 198 0
175 198 0
175 198 0
174 197 0
173 197 0
175 198 0
173 196 0
175 198 0
173 197 0
175 197 0
173 197 0
171 195 0
175 198 0
175 198 0
173 197 0
174 198 0
176 198 0
174 197 0
174 198 0
175 198 0
174 198 0
173 197 0
175 198 0
175 197 0
174 198 0
174 197 0
173 197 0
174 198 0
174 198 0
176 199 0
175 198 0
175 198 0
174 198 0
173 197 0
174 198 0
174 198 0
175 198 0
173 197 0
174 197 0
175 198 0
174 198 0
174 198 0
174 197 0
174 198 0
173 197 0
174 197 0
175 198 0
174 198 0
174 198 0
175 198 0
175 198 0
174 197 0
175 198 0
173 197 0
175 198 0
174 198 0
175 198 0
173 197 0
173 197 0
172 196 0
174 197 0
175 198 0
173 197 0
172 196 0
174 197 0
175 198 0
173 197 0
174 197 0
173 197 0
176 198 0
172 196 0
175 198 0
173 197 0
174 197 0
174 197 0
175 198 0
175 198 0
174 198 0
174 198 0
174 197 0
174 198 0
174 198 0
174 197 0
174 198 0
173 197 0
175 198 0
173 197 0
173 197 0
175 198 0
175 198 0
175 198 0
174 198 0
174 198 0
173 197 0
174 198 0
174 198 0
175 198 0
173 197 0
173 197 0
174 197 0
175 198 0
176 198 0
175 198 0
174 197 0
174 198 0
174 197 0
175 198 0
175 198 0
175 198 0
174 198 0
173 197 0
174 198 0
174 198 0
174 198 0
173 197 0
174 198 0
174 198 0
174 198 0
175 198 0
174 198 0
175 198 0
174 198 0
175 198 0
174 197 0
174 197 0
173 197 0
175 198 0
175 198 0
175 198 0
173 197 0
174 198 0
174 198 0
175 198 0
175 198 0
174 198 0
176 199 0
174 197 0
173 197 0
174 198 0
174 198 0
176 199 0
173 197 0
173 197 0
173 197 0
175 198 0
176 199 0
175 198 0
174 197 0
174 197 0
174 197 0
174 198 0
173 197 0
174 198 0
174 198 0
173 196 0
174 198 0
174 198 0
174 198 0
174 198 0
176 198 0
175 198 0
174 198 0
175 198 0
175 198 0
175 198 0
174 198 0
174 198 0
173 197 0
173 197 0
173 197 0
175 198 0
174 198 0
174 197 0
175 198 0
173 197 0
176 198 0
174 198 0
174 198 0
174 197 0
174 197 0
175 198 0
174 198 0
173 197 0
174 198 0
175 198 0
175 198 0
174 198 0
175 198 0
173 197 0
174 198 0
175 198 0
175 198 0
175 198 0
174 198 0
175 198 0
175 198 0
174 198 0
174 198 0
175 198 0
175 198 0
174 198 0
176 198 0
174 197 0
174 198 0
172 196 0
172 196 0
175 198 0
175 198 0
174 198 0
175 198 0
174 197 0
172 196 0
174 197 0
175 198 0
176 198 0
174 197 0
174 197 0
175 198 0
174 198 0
176 199 0
174 197 0
175 198 0
174 197 0
175 198 25
175 198 25
175 198 36
176 199 36
175 199 36
175 198 36
176 199 36
175 198 25
176 199 62
176 199 44
176 199 44
180 202 80
180 202 80
175 199 51
182 203 88
180 202 80
181 203 84
181 203 92
182 204 95
183 204 99
178 201 72
182 204 102
178 201 80
183 205 105
179 202 84
184 205 105
182 204 102
181 203 95
180 202 92
180 202 84
178 201 84
179 201 72
183 205 99
179 202 80
179 202 80
177 200 62
176 199 51
178 200 57
177 200 57
175 198 25
179 201 67
177 199 44
177 199 36
174 198 44
175 198 25
174 198 36
175 198 25
177 199 25
174 197 25
174 198 36
173 197 0
174 197 0
174 198 0
176 198 0
175 198 0
173 196 0
175 198 0
174 197 0
173 197 0
173 197 0
175 198 0
173 197 0
172 196 0
174 197 0
175 198 0
173 197 0
175 197 0
173 196 0
173 197 0
174 198 0
175 198 0
172 197 0
175 198 0
173 197 0
174 198 0
172 196 0
174 198 0
174 198 0
175 198 0
174 198 0
174 198 0
174 198 0
172 196 0
175 198 0
172 196 0
174 197 0
175 198 0
173 197 0
174 197 0
174 197 0
174 197 0
175 197 0
172 196 0
174 198 0
174 197 0
175 198 0
171 195 0
175 198 0
173 197 0
175 198 0
175 198 0
174 197 0
173 197 0
174 197 0
173 196 0
176 199 0
174 198 0
176 199 0
176 198 0
174 198 0
173 197 0
173 197 0
174 198 0
172 196 0
173 197 0
173 197 0
175 198 0
175 198 0
174 198 0
173 197 0
175 198 0
175 198 0
173 197 0
174 197 0
174 197 0
173 197 0
173 197 0
175 198 0
174 198 0
171 195 0
174 198 0
174 198 0
171 195 0
173 197 0
174 197 0
173 197 0
174 197 0
173 197 0
174 197 0
174 198 0
173 197 0
173 197 0
174 197 0
177 199 0
176 198 0
172 196 0
174 198 0
172 196 0
174 197 0
172 196 0
175 198 0
175 198 0
174 198 0
174 198 0
174 197 0
175 197 0
174 198 0
175 198 0
172 196 0
175 198 0
175 198 0
174 197 0
173 197 0
173 197 0
173 197 0
172 196 0
175 198 0
175 198 0
173 196 0
174 198 0
174 198 0
174 198 0
173 196 0
173 197 0
173 197 0
175 198 0
173 197 0
173 197 0
174 197 0
174 197 0
173 197 0
174 197 0
175 198 0
174 198 0
175 198 0
174 198 0
174 198 0
175 198 0
175 198 0
175 198 0
172 196 0
174 198 0
175 198 0
174 197 0
174 197 0
175 198 0
174 197 0
174 198 0
176 198 0
176 198 0
175 198 0
175 198 0
175 198 0
174 198 0
175 198 0
174 198 0
174 198 0
173 197 0
172 196 0
174 198 0
174 198 0
174 197 0
175 198 0
174 197 0
175 198 0
173 197 0
174 197 0
174 198 0
175 198 0
175 198 0
175 198 0
175 198 0
174 197 0
175 198 0
173 197 0
175 198 0
174 197 0
176 198 0
174 197 0
174 198 0
176 198 0
174 198 0
175 198 0
175 198 0
175 198 0
175 198 0
174 198 0
175 198 0
174 197 0
173 197 0
176 198 0
173 197 0
174 198 0
173 197 0
174 197 0
174 197 0
175 198 0
173 197 0
175 198 0
174 198 0
173 197 0
175 198 0
173 197 0
175 198 0
174 197 0
174 198 0
173 196 0
173 197 0
176 199 0
174 198 0
174 198 0
174 197 0
176 199 0
175 198 0
173 197 0
173 197 0
172 196 0
176 199 0
174 197 0
175 198 0
174 197 0
174 197 0
173 197 0
176 198 0
174 198 0
172 196 0
174 197 0
174 197 0
173 197 0
172 197 0
175 198 0
174 198 0
174 198 0
173 197 0
176 198 0
175 198 0
175 198 0
173 196 0
174 198 0
175 198 0
174 197 0
175 198 0
175 198 0
174 198 0
175 198 0
174 196 0
173 197 0
176 198 0
174 198 0
174 197 0
176 198 0
174 198 0
174 198 0
174 198 0
175 198 0
175 198 0
174 198 0
173 197 0
175 198 0
173 197 0
173 197 0
176 198 0
173 197 0
175 198 0
174 198 0
175 198 0
173 197 0
174 198 0
174 197 0
174 197 0
174 198 0
173 197 0
175 198 0
175 198 0
175 198 0
175 198 0
173 197 0
174 198 0
176 199 0
175 198 0
174 197 0
174 198 0
174 197 0
173 197 0
174 198 0
173 196 0
176 199 0
174 198 0
174 198 0
174 198 0
173 197 0
174 197 0
173 197 0
174 198 0
174 197 0
174 198 0
175 198 0
175 198 0
174 198 0
174 198 0
174 198 0
174 198 0
174 197 0
174 197 0
174 198 0
174 198 0
173 197 0
175 198 0
173 197 0
174 197 0
173 197 0
174 198 0
175 198 0
174 197 0
174 198 0
173 197 0
173 197 0
175 198 0
174 198 0
175 198 0
177 199 0
175 198 0
172 196 0
173 197 0
174 197 0
175 198 0
176 198 0
173 197 0
175 198 0
173 197 0
173 197 0
175 198 0
173 197 0
174 198 0
175 198 0
174 198 0
173 197 0
175 198 0
174 197 0
173 197 0
174 197 0
174 198 0
174 198 0
175 198 0
174 198 0
173 197 0
175 198 0
174 198 25
174 198 25
173 197 0
175 198 36
177 200 51
173 197 0
176 199 25
177 200 57
176 198 36
176 198 44
177 200 51
179 200 44
177 200 57
180 202 72
178 201 76
182 203 88
181 203 84
180 202 88
183 204 99
183 204 99
184 205 102
180 203 92
179 202 95
187 208 128
183 204 102
187 208 128
182 203 95
184 205 105
185 206 111
182 203 108
180 202 88
182 203 95
180 202 95
184 205 114
178 200 67
185 205 114
182 204 99
180 203 92
180 202 88
182 204 102
183 205 111
180 202 84
179 201 72
181 202 84
177 200 57
177 200 62
176 199 67
176 199 57
176 199 57
174 197 36
176 199 44
174 198 25
175 198 25
174 197 25
177 199 36
174 198 25
175 198 0
172 196 0
175 198 0
175 197 0
173 197 0
176 199 0
174 197 0
175 198 0
175 198 0
175 198 0
175 198 0
172 196 0
172 196 0
174 197 0
172 196 0
175 198 0
174 197 0
173 197 0
174 198 0
174 197 0
174 197 0
175 198 0
175 198 0
174 198 0
175 198 0
173 197 0
174 197 0
174 197 0
173 197 0
174 197 0
174 197 0
173 197 0
172 196 0
173 197 0
173 197 0
175 198 0
173 196 0
174 197 0
173 197 0
174 197 0
174 197 0
175 198 0
173 197 0
174 197 0
175 198 0
174 197 0
174 198 0
174 197 0
173 197 0
174 198 0
174 197 0
174 197 0
174 198 0
174 197 0
175 198 0
173 197 0
172 196 0
174 197 0
174 197 0
175 198 0
172 196 0
174 197 0
174 197 0
175 198 0
174 197 0
173 197 0
173 196 0
173 197 0
174 198 0
174 198 0
172 196 0
173 197 0
172 196 0
174 198 0
172 196 0
173 197 0
172 195 0
175 198 0
173 197 0
173 196 0
174 197 0
175 198 0
174 198 0
173 197 0
175 198 0
174 197 0
175 198 0
175 198 0
174 198 0
171 196 0
175 198 0
175 198 0
175 198 0
173 197 0
175 198 0
174 197 0
174 198 0
174 197 0
175 198 0
174 197 0
174 197 0
174 198 0
174 198 0
174 197 0
174 197 0
176 199 0
173 197 0
173 197 0
175 198 0
174 198 0
174 198 0
174 198 0
175 197 0
175 198 0
175 198 0
175 198 0
173 197 0
172 196 0
175 198 0
174 198 0
174 198 0
175 198 0
176 198 0
172 196 0
174 198 0
175 198 0
174 198 0
173 196 0
174 198 0
174 197 0
174 197 0
175 198 0
174 197 0
175 198 0
174 197 0
172 196 0
175 198 0
175 198 0
174 198 0
174 197 0
175 198 0
175 198 0
174 197 0
175 198 0
174 197 0
174 197 0
173 197 0
174 197 0
174 198 0
175 198 0
174 197 0
172 196 0
174 198 0
175 197 0
173 197 0
176 199 0
171 195 0
174 197 0
175 198 0
175 198 0
175 198 0
174 197 0
174 197 0
175 198 0
174 197 0
173 197 0
174 197 0
174 198 0
173 197 0
174 198 0
174 198 0
175 198 0
173 197 0
173 197 0
175 198 0
174 198 0
173 197 0
174 198 0
174 198 0
173 197 0
174 197 0
174 197 0
173 197 0
174 197 0
174 198 0
175 197 0
174 198 0
174 198 0
175 198 0
175 198 0
174 198 0
175 198 0
174 198 0
175 198 0
173 197 0
174 197 0
174 197 0
174 198 0
173 197 0
172 196 0
174 197 0
175 198 0
175 198 0
175 198 0
175 198 0
175 198 0
172 196 0
174 197 0
173 196 0
174 198 0
174 197 0
174 197 0
174 198 0
174 198 0
173 197 0
175 198 0
173 197 0
174 197 0
173 197 0
173 197 0
173 197 0
175 198 0
175 198 0
174 197 0
173 197 0
174 197 0
175 198 0
174 197 0
175 198 0
175 198 0
174 197 0
173 197 0
174 198 0
175 198 0
174 198 0
173 196 0
174 198 0
173 197 0
173 197 0
173 197 0
173 197 0
173 197 0
173 197 0
174 198 0
174 198 0
175 198 0
174 198 0
175 198 0
175 198 0
175 198 0
174 197 0
175 198 0
175 198 0
174 198 0
175 198 0
173 197 0
174 197 0
174 198 0
175 198 0
175 198 0
173 197 0
174 198 0
174 198 0
175 198 0
173 197 0
173 197 0
175 198 0
173 197 0
176 199 0
174 198 0
173 197 0
173 197 0
174 198 0
173 197 0
173 197 0
174 198 0
176 198 0
174 198 0
174 197 0
175 198 0
173 197 0
175 198 0
175 198 0
176 198 0
173 197 0
175 198 0
175 198 0
175 198 0
173 197 0
174 198 0
172 196 0
172 196 0
174 198 0
173 197 0
175 198 0
174 198 0
175 198 0
175 198 0
175 198 0
174 197 0
175 198 0
174 197 0
174 198 0
173 197 0
173 197 0
174 198 0
174 197 0
173 197 0
175 198 0
174 198 0
175 198 0
174 197 0
175 198 0
175 198 0
176 198 0
172 197 0
173 197 0
175 198 0
174 198 0
174 198 0
174 198 0
174 198 0
175 198 0
173 197 0
173 197 0
173 196 0
175 198 0
175 198 0
173 197 0
174 197 0
175 198 0
174 197 0
175 198 0
174 197 0
174 198 0
174 198 0
173 197 0
176 199 0
174 198 0
175 198 0
175 198 25
174 197 25
175 198 0
174 198 25
175 198 25
173 197 0
175 199 44
176 199 36
176 199 25
175 198 36
177 200 44
179 201 72
177 200 51
180 202 76
180 202 80
180 202 80
181 203 95
178 201 72
179 201 80
187 207 122
180 202 80
184 205 108
180 202 88
183 205 111
184 205 114
187 208 128
184 206 114
187 208 128
184 205 114
188 208 130
187 208 135
184 206 111
188 208 130
181 203 105
183 205 111
187 207 125
185 206 122
186 207 125
184 205 117
179 201 88
184 205 111
179 201 72
187 207 122
184 205 111
182 204 102
182 204 108
180 203 88
178 201 88
178 201 67
178 201 72
181 202 80
180 202 84
177 200 62
175 198 25
177 200 57
174 198 36
174 198 36
174 198 36
175 198 25
175 199 36
176 198 36
174 198 0
174 198 0
173 197 25
173 197 25
175 198 0
175 198 0
176 199 0
175 198 0
174 198 0
175 198 0
176 198 0
175 198 0
174 198 0
174 198 0
172 195 0
173 197 0
174 197 0
176 198 0
174 198 0
176 198 0
174 198 0
173 196 0
174 197 0
173 197 0
176 198 0
175 198 0
173 197 0
173 197 0
176 198 0
174 197 0
174 198 0
173 197 0
171 196 0
174 198 0
174 198 0
173 196 0
175 198 0
172 196 0
176 198 0
174 198 0
174 197 0
173 197 0
174 198 0
176 199 0
172 197 0
173 197 0
173 197 0
175 198 0
173 197 0
173 196 0
174 198 0
172 196 0
172 195 0
173 196 0
174 197 0
174 197 0
174 197 0
172 196 0
173 197 0
175 198 0
174 198 0
174 197 0
174 198 0
175 198 0
173 197 0
173 197 0
172 196 0
172 195 0
172 196 0
172 196 0
172 196 0
173 197 0
173 197 0
176 198 0
175 198 0
175 198 0
174 197 0
174 198 0
173 196 0
176 199 0
173 196 0
174 198 0
173 196 0
174 198 0
173 197 0
173 196 0
172 197 0
174 197 0
174 197 0
174 197 0
172 197 0
173 197 0
175 198 0
175 198 0
174 197 0
173 197 0
175 198 0
174 198 0
172 196 0
175 198 0
175 198 0
173 197 0
175 198 0
174 198 0
175 198 0
173 197 0
175 198 0
173 197 0
176 198 0
175 198 0
174 197 0
173 197 0
175 198 0
174 197 0
173 197 0
174 197 0
174 197 0
174 197 0
174 198 0
172 195 0
173 197 0
174 197 0
174 198 0
175 198 0
174 198 0
175 198 0
174 197 0
174 198 0
174 197 0
173 197 0
172 196 0
173 197 0
174 198 0
173 197 0
174 197 0
174 197 0
175 198 0
175 198 0
175 198 0
174 197 0
173 197 0
173 197 0
174 197 0
174 198 0
175 198 0
175 198 0
173 197 0
173 197 0
174 198 0
175 198 0
174 197 0
174 197 0
173 197 0
173 196 0
174 197 0
174 198 0
174 197 0
174 197 0
175 198 0
173 196 0
173 197 0
174 197 0
174 197 0
174 198 0
174 198 0
174 198 0
174 198 0
174 197 0
174 198 0
173 197 0
174 197 0
174 197 0
174 198 0
173 197 0
174 197 0
174 198 0
175 198 0
173 197 0
172 197 0
174 197 0
174 198 0
173 197 0
173 197 0
176 198 0
175 198 0
174 197 0
174 198 0
175 198 0
175 198 0
172 196 0
175 198 0
174 198 0
175 198 0
174 197 0
173 197 0
172 196 0
175 198 0
173 197 0
173 197 0
174 197 0
174 197 0
175 198 0
174 197 0
176 199 0
174 198 0
173 197 0
174 198 0
173 196 0
174 198 0
173 197 0
176 198 0
175 198 0
173 196 0
174 198 0
174 198 0
173 196 0
176 198 0
173 197 0
174 198 0
174 197 0
174 198 0
175 198 0
173 197 0
174 198 0
175 198 0
174 198 0
173 197 0
173 197 0
175 198 0
175 198 0
173 197 0
176 199 0
173 197 0
175 198 0
176 198 0
174 198 0
173 197 0
175 198 0
173 197 0
174 198 0
174 197 0
176 199 0
175 198 0
175 198 0
175 198 0
175 198 0
174 197 0
174 197 0
176 199 0
175 198 0
176 198 0
175 198 0
174 198 0
175 198 0
176 199 0
174 198 0
175 198 0
174 197 0
174 198 0
176 198 0
174 197 0
174 198 0
175 198 0
173 197 0
174 198 0
175 198 0
175 198 0
176 199 0
174 198 0
174 198 0
175 198 0
175 198 0
174 198 0
175 198 0
173 197 0
174 198 0
174 198 0
175 198 0
176 199 0
174 198 0
174 198 0
173 197 0
173 197 0
175 198 0
173 197 0
175 198 0
174 197 0
174 198 0
175 197 0
173 197 0
174 198 0
175 198 0
174 197 0
174 197 0
175 198 0
175 198 0
175 198 0
173 197 0
175 198 0
175 198 0
173 197 0
175 198 0
175 198 0
175 198 0
174 198 0
174 197 0
174 197 0
174 198 0
173 197 0
176 199 0
174 197 0
174 197 0
174 198 0
173 197 0
173 197 0
174 197 0
174 197 0
175 198 0
174 197 0
172 196 0
173 197 0
173 197 0
173 197 0
176 198 0
172 197 0
173 197 0
174 197 0
174 197 0
174 198 0
173 197 0
175 198 0
173 197 0
174 198 0
174 198 0
175 198 0
175 198 0
174 197 0
173 197 0
174 198 0
175 198 0
176 199 25
174 198 0
175 198 25
174 198 25
175 199 51
174 198 36
175 198 25
181 203 84
178 201 80
178 200 72
181 203 92
181 203 80
182 204 92
182 204 99
184 205 105
182 204 102
187 208 125
186 207 120
183 204 111
187 208 133
189 209 133
191 211 147
186 207 128
186 207 122
187 208 133
187 208 133
188 208 133
189 209 135
189 210 142
187 208 137
192 212 159
183 205 111
187 209 137
186 207 130
189 209 142
186 208 130
183 205 120
186 207 128
185 207 125
186 207 130
184 206 120
184 206 114
187 208 130
186 207 120
186 206 117
182 204 105
183 205 108
186 207 125
186 206 122
181 203 84
180 203 95
178 201 80
179 201 72
178 200 57
176 199 57
178 201 67
176 199 44
174 198 25
174 198 0
176 199 25
175 198 25
174 197 0
175 198 25
174 198 0
175 198 25
175 198 0
174 197 0
173 196 0
172 196 0
175 198 0
174 198 0
175 198 0
174 198 0
175 198 0
173 197 0
172 196 0
175 198 0
174 198 0
176 199 0
173 197 0
175 198 0
171 196 0
173 197 0
172 195 0
173 197 0
172 196 0
175 198 0
174 198 0
175 198 0
174 198 0
173 197 0
173 197 0
175 198 0
173 197 0
175 198 0
174 197 0
174 197 0
175 198 0
173 196 0
175 198 0
174 197 0
175 198 0
174 197 0
175 198 0
174 198 0
173 196 0
175 197 0
173 197 0
174 198 0
172 196 0
175 198 0
173 197 0
176 198 0
173 197 0
172 197 0
174 197 0
174 198 0
174 197 0
174 197 0
173 197 0
173 196 0
175 198 0
173 197 0
173 196 0
174 197 0
175 198 0
174 198 0
175 198 0
172 196 0
174 198 0
175 198 0
174 197 0
174 197 0
174 198 0
173 197 0
173 196 0
173 196 0
175 198 0
174 198 0
175 198 0
175 198 0
175 198 0
175 198 0
173 197 0
174 198 0
174 197 0
173 197 0
174 197 0
174 197 0
174 197 0
173 197 0
174 197 0
175 198 0
176 198 0
175 198 0
172 196 0
173 197 0
174 197 0
173 197 0
172 196 0
174 198 0
171 195 0
176 199 0
175 198 0
174 198 0
173 197 0
174 198 0
171 195 0
173 197 0
173 197 0
173 197 0
173 197 0
175 198 0
176 198 0
175 198 0
175 198 0
174 198 0
174 198 0
174 198 0
175 198 0
174 198 0
175 198 0
174 198 0
172 196 0
174 197 0
174 197 0
173 196 0
175 198 0
174 198 0
174 197 0
174 198 0
174 198 0
173 197 0
175 198 0
174 198 0
172 196 0
172 197 0
174 197 0
174 198 0
175 198 0
175 198 0
175 198 0
174 197 0
174 197 0
175 198 0
173 197 0
175 198 0
174 197 0
173 197 0
174 197 0
173 197 0
173 197 0
174 198 0
174 197 0
175 198 0
175 198 0
175 198 0
175 198 0
175 198 0
174 197 0
174 197 0
173 197 0
176 199 0
175 198 0
173 197 0
174 198 0
175 198 0
177 199 0
175 198 0
172 196 0
175 198 0
173 197 0
175 198 0
173 197 0
174 197 0
175 198 0
173 197 0
173 197 0
173 196 0
173 197 0
175 198 0
172 196 0
173 197 0
174 198 0
176 198 0
172 196 0
174 198 0
173 196 0
174 197 0
174 198 0
174 198 0
174 197 0
174 197 0
175 198 0
174 198 0
176 199 0
174 198 0
173 196 0
175 198 0
174 197 0
173 197 0
172 196 0
175 198 0
176 199 0
174 198 0
173 196 0
174 198 0
175 198 0
172 197 0
173 197 0
173 197 0
175 198 0
175 198 0
174 198 0
175 198 0
175 198 0
174 198 0
173 197 0
172 197 0
175 198 0
174 198 0
176 199 0
174 198 0
172 196 0
174 197 0
173 197 0
173 197 0
175 198 0
174 198 0
176 199 0
174 198 0
174 198 0
174 197 0
173 197 0
175 198 0
174 198 0
174 198 0
175 198 0
175 198 0
175 198 0
174 197 0
173 197 0
175 198 0
175 198 0
172 196 0
175 198 0
174 198 0
174 197 0
174 198 0
175 198 0
175 198 0
174 197 0
173 197 0
175 198 0
174 197 0
173 197 0
175 198 0
172 196 0
173 197 0
173 197 0
174 198 0
175 198 0
174 198 0
173 197 0
174 198 0
175 198 0
176 199 0
175 198 0
174 198 0
174 198 0
172 197 0
174 198 0
174 197 0
174 198 0
174 197 0
174 197 0
175 198 0
173 197 0
175 198 0
176 198 0
175 198 0
175 198 0
173 197 0
176 199 0
174 197 0
175 198 0
176 198 0
173 196 0
174 198 0
175 198 0
173 197 0
174 197 0
175 198 0
173 197 0
175 198 0
175 198 0
175 198 0
174 197 0
174 198 0
174 197 0
174 198 0
175 198 0
173 197 0
174 198 0
174 198 0
174 197 0
175 198 0
174 198 0
174 197 0
175 198 0
174 197 0
175 198 0
174 198 0
174 198 0
174 198 0
174 197 0
174 197 0
173 197 0
173 197 0
174 198 0
174 197 0
174 198 0
174 198 0
174 197 0
174 197 0
175 198 0
174 197 0
175 198 0
175 198 0
175 198 0
174 197 0
174 197 0
173 197 0
173 197 0
175 198 0
174 198 0
176 199 0
173 197 25
175 198 0
173 197 25
175 198 36
176 199 25
175 198 25
176 199 36
176 199 36
177 199 57
179 201 72
177 200 67
182 204 99
181 203 84
179 201 76
182 204 102
187 207 122
182 204 102
188 208 130
182 203 102
185 207 125
186 207 128
186 207 125
189 210 144
186 207 128
186 207 130
191 211 142
185 206 111
186 207 130
188 208 133
189 209 140
184 205 122
188 208 133
191 211 149
191 211 149
192 211 151
191 211 153
190 211 149
188 209 135
186 208 130
187 208 135
190 210 144
191 211 149
191 211 153
185 207 122
190 210 151
191 211 149
189 209 149
186 207 125
189 210 142
185 206 114
184 206 117
183 204 95
181 203 95
182 203 108
181 203 92
177 199 67
182 203 92
176 199 57
179 201 76
176 199 51
175 198 44
176 199 36
174 198 0
173 197 36
174 198 25
175 198 36
175 198 36
175 198 0
175 198 0
174 197 0
175 198 0
176 199 0
173 197 0
175 198 0
174 198 0
173 197 0
172 196 0
175 198 0
174 197 0
174 198 0
174 198 0
175 198 0
174 198 0
173 196 0
174 198 0
174 197 0
172 196 0
173 197 0
175 197 0
173 197 0
173 197 0
173 197 0
173 197 0
175 198 0
174 197 0
173 197 0
175 198 0
174 197 0
173 196 0
175 198 0
174 198 0
173 197 0
174 197 0
172 196 0
174 197 0
173 197 0
173 196 0
173 197 0
173 197 0
171 195 0
172 196 0
174 197 0
173 197 0
176 199 0
174 198 0
173 196 0
175 198 0
174 197 0
174 197 0
174 197 0
173 197 0
173 197 0
174 197 0
174 197 0
173 197 0
174 197 0
174 197 0
173 197 0
174 197 0
175 198 0
174 197 0
172 196 0
176 198 0
174 197 0
175 198 0
173 197 0
174 197 0
174 198 0
174 198 0
175 198 0
175 198 0
174 197 0
174 197 0
174 197 0
176 198 0
173 196 0
175 198 0
174 197 0
176 198 0
173 197 0
175 198 0
174 198 0
175 197 0
174 198 0
174 197 0
174 197 0
175 198 0
172 196 0
174 197 0
174 198 0
173 197 0
174 198 0
174 197 0
174 198 0
174 198 0
174 198 0
174 197 0
171 195 0
174 197 0
173 197 0
174 197 0
175 198 0
174 197 0
174 198 0
174 198 0
174 197 0
175 198 0
175 198 0
174 197 0
173 197 0
174 197 0
173 196 0
175 198 0
176 199 0
174 198 0
173 197 0
175 198 0
174 198 0
175 198 0
174 198 0
173 197 0
174 198 0
173 197 0
174 197 0
172 196 0
172 196 0
174 197 0
174 198 0
173 197 0
174 197 0
175 198 0
173 197 0
174 198 0
175 198 0
173 197 0
174 198 0
175 198 0
175 198 0
174 197 0
173 197 0
176 198 0
173 197 0
174 197 0
174 197 0
176 199 0
174 197 0
173 197 0
175 198 0
173 197 0
175 198 0
174 197 0
175 198 0
173 197 0
174 197 0
174 198 0
175 198 0
174 198 0
174 198 0
174 198 0
174 197 0
174 198 0
174 197 0
174 198 0
175 197 0
172 196 0
175 198 0
175 198 0
176 199 0
174 198 0
176 199 0
174 198 0
173 197 0
173 197 0
174 197 0
173 197 0
174 198 0
173 196 0
176 198 0
175 198 0
174 198 0
175 198 0
175 198 0
174 198 0
173 197 0
173 196 0
173 197 0
173 197 0
174 198 0
172 196 0
175 198 0
175 198 0
173 197 0
174 197 0
174 198 0
174 198 0
175 198 0
173 197 0
175 198 0
176 198 0
171 195 0
174 198 0
173 197 0
174 198 0
174 198 0
174 197 0
174 198 0
173 197 0
173 197 0
175 198 0
174 197 0
178 200 0
174 198 0
173 197 0
175 198 0
174 197 0
174 197 0
176 198 0
174 198 0
174 197 0
173 197 0
175 198 0
175 198 0
175 198 0
175 198 0
174 198 0
175 198 0
174 197 0
173 196 0
173 197 0
173 197 0
175 198 0
176 199 0
174 198 0
175 198 0
173 197 0
175 198 0
175 198 0
174 198 0
175 198 0
174 197 0
175 198 0
174 197 0
173 197 0
175 198 0
174 198 0
177 199 0
175 198 0
176 199 0
174 197 0
172 196 0
173 196 0
174 197 0
175 198 0
175 198 0
174 197 0
174 198 0
173 197 0
174 198 0
174 198 0
175 198 0
175 198 0
174 197 0
174 198 0
173 197 0
174 197 0
173 197 0
173 197 0
175 198 0
175 198 0
175 198 0
176 199 0
175 198 0
173 197 0
176 199 0
173 197 0
173 196 0
177 199 0
173 197 0
176 198 0
172 195 0
174 198 0
174 198 0
175 198 0
174 197 0
175 198 0
173 197 0
174 198 0
176 199 0
175 198 0
175 198 0
176 199 0
175 198 0
175 198 0
175 198 0
175 198 0
174 198 0
172 196 0
173 196 0
175 198 0
173 197 0
174 198 0
173 197 0
173 197 0
175 198 0
174 197 0
174 197 0
174 198 0
177 199 0
176 199 0
174 198 0
174 198 0
175 198 0
172 196 0
174 198 0
176 198 0
172 197 0
176 199 0
174 198 0
174 198 0
174 197 0
173 197 0
175 198 0
175 198 0
174 197 0
173 197 0
174 198 0
174 198 0
174 197 0
175 198 0
173 196 36
174 197 0
176 199 25
175 198 25
175 198 44
176 200 57
174 198 36
178 201 72
178 200 67
181 203 84
181 203 84
184 205 108
179 202 80
184 206 111
182 204 102
182 204 105
186 207 120
185 207 120
187 208 137
195 214 165
191 211 144
190 210 142
189 209 142
189 210 149
191 211 147
188 209 144
190 211 149
194 214 163
191 211 147
193 213 159
192 212 153
190 211 151
195 215 167
191 211 142
196 215 175
190 210 149
191 211 153
192 212 157
193 213 159
194 213 161
188 209 142
186 207 128
189 210 142
189 209 140
191 211 151
189 210 140
189 210 144
187 208 137
187 208 130
188 209 140
188 209 133
190 211 149
188 209 144
183 205 114
185 206 130
183 205 111
181 203 88
182 204 99
178 201 72
177 200 51
180 202 80
178 201 62
178 201 67
177 200 67
174 198 44
173 196 25
175 198 25
173 196 25
174 198 0
177 199 36
174 197 0
173 197 0
174 197 0
172 196 0
174 197 0
171 196 0
174 197 0
174 197 0
174 198 0
174 198 0
171 196 0
174 198 0
174 198 0
174 197 0
172 196 0
177 199 0
174 197 0
177 199 0
175 198 0
174 197 0
174 198 0
174 197 0
175 198 0
174 197 0
172 196 0
174 197 0
174 197 0
174 197 0
175 198 0
173 197 0
175 198 0
171 195 0
175 198 0
173 197 0
174 197 0
175 198 0
173 197 0
174 198 0
174 197 0
171 195 0
173 197 0
174 197 0
174 198 0
173 197 0
174 198 0
173 197 0
174 198 0
174 197 0
172 196 0
175 198 0
175 198 0
175 198 0
174 198 0
173 197 0
173 197 0
174 198 0
173 197 0
175 198 0
174 197 0
173 197 0
173 196 0
176 198 0
173 197 0
174 197 0
174 198 0
174 197 0
176 199 0
174 197 0
174 198 0
172 196 0
174 197 0
173 197 0
174 197 0
173 197 0
174 197 0
174 198 0
175 198 0
174 197 0
174 197 0
174 197 0
174 197 0
173 197 0
173 196 0
173 196 0
175 198 0
173 197 0
174 197 0
174 198 0
175 198 0
173 197 0
174 197 0
175 198 0
173 197 0
174 197 0
175 198 0
173 197 0
175 198 0
175 198 0
174 198 0
174 198 0
174 197 0
173 197 0
173 197 0
176 199 0
174 198 0
174 197 0
173 197 0
173 197 0
175 198 0
173 196 0
175 198 0
175 198 0
174 197 0
173 197 0
171 196 0
175 198 0
174 198 0
174 197 0
175 198 0
175 198 0
174 197 0
174 197 0
174 198 0
174 198 0
174 197 0
174 197 0
173 197 0
174 197 0
176 199 0
174 197 0
174 198 0
174 197 0
175 198 0
172 195 0
174 197 0
171 195 0
174 198 0
175 198 0
173 196 0
173 197 0
174 198 0
175 198 0
173 197 0
173 197 0
174 198 0
173 196 0
175 198 0
175 198 0
172 196 0
176 199 0
173 197 0
174 197 0
176 198 0
174 197 0
175 198 0
175 198 0
174 197 0
175 198 0
174 198 0
176 198 0
173 197 0
173 197 0
174 197 0
175 198 0
173 196 0
173 197 0
174 197 0
174 197 0
173 197 0
174 198 0
175 198 0
174 198 0
174 197 0
175 198 0
175 198 0
172 195 0
173 197 0
174 197 0
174 197 0
173 197 0
176 198 0
174 197 0
173 197 0
173 196 0
173 197 0
173 197 0
173 196 0
175 198 0
175 198 0
175 198 0
176 199 0
173 197 0
175 198 0
175 198 0
174 197 0
175 198 0
173 197 0
174 197 0
175 197 0
175 198 0
174 197 0
173 197 0
174 198 0
173 197 0
174 197 0
175 198 0
173 197 0
174 198 0
174 197 0
173 197 0
173 197 0
173 197 0
174 197 0
176 198 0
175 198 0
174 197 0
175 198 0
174 197 0
175 198 0
174 197 0
173 197 0
175 198 0
175 198 0
173 197 0
175 198 0
174 198 0
176 199 0
175 198 0
174 197 0
175 198 0
175 198 0
174 198 0
174 198 0
172 197 0
175 198 0
173 197 0
172 196 0
176 198 0
174 198 0
174 198 0
175 198 0
174 197 0
174 198 0
174 198 0
175 198 0
174 198 0
174 198 0
173 197 0
175 198 0
174 198 0
173 197 0
175 198 0
173 197 0
173 197 0
175 198 0
174 197 0
174 197 0
173 197 0
173 197 0
174 197 0
172 197 0
175 198 0
174 198 0
173 197 0
175 198 0
174 198 0
174 198 0
174 197 0
174 198 0
175 198 0
173 197 0
174 197 0
174 198 0
175 198 0
174 197 0
173 197 0
175 198 0
174 197 0
173 197 0
174 198 0
174 197 0
175 198 0
175 198 0
175 198 0
173 197 0
175 198 0
174 197 0
173 196 0
174 197 0
174 198 0
176 198 0
175 198 0
174 198 0
176 198 0
173 197 0
173 197 0
173 197 0
173 197 0
175 198 0
173 196 0
175 198 0
174 197 0
173 197 0
173 196 0
173 197 0
176 198 0
174 198 0
174 197 0
173 197 0
172 196 0
175 198 0
173 197 0
174 197 0
173 197 0
172 196 0
176 199 0
175 198 0
174 198 0
174 198 0
173 197 0
174 198 0
173 197 0
174 198 0
174 197 0
173 197 0
174 198 0
172 196 0
175 198 0
174 197 0
175 198 36
175 198 0
175 199 36
176 199 36
174 198 0
176 199 51
176 199 51
179 201 67
179 202 72
178 201 88
184 205 102
181 203 88
181 203 88
183 205 108
181 203 105
186 207 125
191 211 147
188 208 128
186 208 130
190 210 142
189 210 149
190 210 155
192 212 155
192 212 159
192 212 153
191 212 165
193 213 163
195 214 171
195 215 175
190 211 155
194 214 171
193 212 157
192 212 159
194 214 169
193 213 161
190 211 147
193 213 163
193 213 167
196 215 173
192 212 157
196 215 173
195 214 167
190 210 149
192 212 163
190 211 159
192 212 161
187 208 137
190 211 151
193 213 163
191 211 153
189 209 137
187 208 130
189 210 149
191 211 151
182 204 102
185 206 122
183 205 111
186 207 125
184 206 120
182 204 99
184 205 111
184 205 111
179 201 84
180 202 80
177 200 67
176 199 44
176 199 51
176 199 36
175 198 25
173 197 0
174 198 0
174 197 0
175 198 25
175 198 0
173 197 0
172 196 0
175 198 0
173 197 0
176 198 0
173 197 0
174 198 0
173 197 0
173 197 0
175 198 0
173 197 0
174 197 0
174 197 0
174 197 0
173 197 0
174 198 0
173 197 0
174 198 0
173 196 0
172 196 0
174 198 0
174 197 0
174 197 0
174 198 0
173 197 0
174 197 0
174 197 0
173 197 0
174 197 0
174 197 0
172 196 0
174 197 0
173 197 0
173 197 0
174 198 0
173 197 0
175 198 0
172 196 0
173 197 0
176 198 0
175 198 0
174 197 0
174 197 0
174 197 0
174 197 0
173 197 0
175 198 0
173 197 0
173 197 0
172 196 0
175 198 0
174 196 0
174 197 0
175 198 0
175 198 0
175 198 0
174 198 0
172 196 0
175 198 0
174 197 0
175 198 0
173 197 0
173 196 0
174 197 0
174 198 0
175 198 0
175 198 0
176 199 0
173 197 0
172 196 0
175 198 0
174 197 0
174 198 0
174 197 0
175 198 0
172 196 0
173 197 0
172 196 0
174 198 0
173 197 0
173 197 0
174 198 0
175 198 0
173 197 0
173 197 0
174 198 0
174 197 0
172 195 0
174 198 0
174 197 0
174 197 0
173 197 0
175 198 0
174 198 0
173 197 0
172 196 0
174 198 0
174 198 0
174 198 0
176 199 0
176 198 0
173 197 0
173 197 0
173 197 0
173 197 0
175 198 0
173 197 0
174 197 0
173 197 0
174 198 0
174 197 0
175 198 0
174 197 0
173 197 0
174 197 0
174 197 0
174 197 0
176 199 0
174 198 0
173 197 0
172 196 0
174 197 0
174 197 0
174 198 0
175 198 0
173 197 0
173 197 0
173 197 0
176 198 0
175 198 0
174 198 0
172 196 0
173 197 0
175 198 0
175 197 0
173 197 0
173 196 0
174 198 0
175 198 0
172 196 0
174 198 0
174 198 0
174 198 0
174 197 0
172 197 0
175 198 0
172 197 0
174 197 0
175 198 0
171 195 0
173 196 0
175 198 0
174 197 0
175 198 0
175 198 0
174 198 0
175 198 0
175 198 0
174 197 0
174 197 0
176 198 0
174 197 0
173 197 0
173 197 0
174 198 0
174 197 0
172 196 0
174 197 0
174 198 0
174 198 0
174 198 0
174 198 0
172 196 0
172 196 0
175 198 0
173 197 0
173 197 0
174 197 0
172 197 0
173 197 0
174 198 0
176 199 0
174 197 0
175 198 0
174 197 0
172 196 0
175 197 0
175 197 0
176 199 0
173 197 0
175 198 0
173 197 0
173 197 0
174 197 0
173 197 0
172 196 0
174 197 0
174 198 0
176 198 0
174 197 0
173 197 0
174 198 0
175 198 0
175 198 0
175 198 0
175 198 0
173 196 0
176 199 0
175 198 0
174 197 0
176 199 0
173 196 0
173 197 0
175 198 0
174 197 0
173 197 0
174 198 0
176 198 0
173 197 0
174 198 0
174 197 0
173 196 0
174 198 0
176 199 0
176 199 0
173 197 0
174 197 0
175 198 0
174 198 0
174 197 0
174 197 0
175 198 0
173 197 0
174 197 0
176 199 0
175 198 0
176 198 0
175 198 0
174 198 0
173 197 0
175 198 0
174 198 0
175 198 0
173 197 0
174 198 0
174 198 0
174 198 0
173 197 0
174 198 0
173 197 0
173 197 0
175 198 0
174 197 0
174 198 0
174 198 0
174 197 0
173 197 0
174 197 0
173 197 0
174 198 0
175 198 0
174 197 0
176 198 0
175 198 0
175 198 0
173 197 0
174 198 0
175 198 0
174 198 0
175 198 0
175 198 0
173 197 0
174 198 0
175 198 0
174 198 0
174 198 0
176 198 0
174 197 0
174 198 0
173 197 0
174 198 0
175 198 0
174 197 0
173 197 0
174 198 0
175 198 0
174 198 0
173 197 0
174 198 0
176 199 0
174 198 0
174 198 0
174 198 0
174 198 0
173 197 0
173 197 0
174 198 0
174 197 0
173 197 0
172 196 0
173 197 0
175 198 0
174 197 0
175 198 0
172 197 0
175 198 0
174 198 0
171 195 0
176 199 0
173 197 0
175 198 0
174 198 0
174 198 0
174 198 0
173 197 0
173 197 0
175 198 0
174 197 0
174 197 0
174 197 0
174 197 0
174 198 0
172 196 0
174 197 0
174 198 25
175 198 36
176 199 36
176 199 36
176 199 36
175 198 36
177 200 57
179 201 67
178 201 62
182 204 95
178 201 72
180 202 88
179 202 88
186 207 120
184 205 114
185 207 130
187 208 135
189 209 147
188 209 137
185 207 122
189 209 137
192 212 157
191 211 151
191 211 151
193 213 169
194 214 165
191 211 159
192 212 157
192 213 161
193 213 163
196 215 169
195 214 169
193 214 171
195 214 165
194 214 165
195 215 175
196 215 175
199 218 189
192 212 159
196 216 181
194 214 167
196 215 167
196 215 171
194 214 171
195 215 179
193 213 167
196 216 181
191 212 155
190 210 153
193 213 163
190 210 153
191 212 161
189 210 142
192 212 155
189 209 142
189 209 144
186 207 133
190 211 147
182 204 108
189 209 140
185 206 111
185 206 120
182 204 99
182 204 108
183 204 105
179 201 76
180 202 80
183 204 102
176 199 57
177 199 44
174 197 25
175 198 36
176 199 36
173 197 0
175 198 36
175 198 25
173 197 0
173 196 25
172 195 0
176 199 0
172 196 0
174 198 0
174 198 0
175 198 0
174 198 0
174 198 0
173 196 0
174 197 0
174 198 0
173 197 0
174 197 0
173 197 0
173 196 0
175 198 0
172 196 0
174 198 0
175 198 0
173 196 0
174 198 0
173 196 0
173 196 0
174 197 0
175 198 0
175 198 0
176 199 0
172 196 0
173 197 0
174 198 0
174 198 0
175 198 0
173 197 0
173 197 0
174 197 0
176 198 0
173 197 0
175 198 0
173 196 0
173 197 0
174 198 0
175 198 0
172 196 0
175 198 0
174 198 0
173 196 0
175 198 0
173 197 0
172 197 0
173 197 0
174 197 0
174 197 0
173 197 0
174 197 0
173 197 0
173 197 0
175 198 0
175 198 0
174 197 0
175 198 0
175 198 0
175 198 0
174 197 0
175 198 0
174 197 0
175 198 0
175 198 0
173 197 0
173 197 0
174 197 0
174 197 0
174 197 0
174 197 0
174 197 0
173 196 0
173 196 0
175 198 0
174 198 0
172 196 0
172 196 0
174 197 0
174 197 0
175 198 0
173 196 0
173 197 0
174 198 0
172 196 0
173 197 0
174 197 0
174 197 0
173 197 0
174 197 0
176 199 0
172 196 0
173 197 0
177 199 0
173 197 0
175 198 0
173 197 0
173 196 0
174 197 0
174 198 0
173 197 0
174 197 0
175 198 0
174 198 0
172 196 0
174 198 0
172 196 0
174 198 0
174 198 0
172 195 0
174 197 0
175 197 0
174 197 0
174 197 0
175 198 0
175 198 0
173 197 0
174 198 0
174 197 0
172 196 0
176 199 0
172 196 0
174 197 0
174 197 0
173 197 0
173 197 0
174 197 0
173 196 0
173 197 0
173 197 0
172 195 0
174 197 0
177 199 0
175 198 0
173 197 0
174 198 0
175 198 0
172 196 0
175 198 0
176 198 0
175 198 0
173 196 0
172 196 0
175 198 0
174 198 0
174 198 0
174 197 0
174 198 0
175 198 0
175 198 0
174 197 0
173 197 0
176 199 0
174 198 0
174 197 0
175 198 0
173 197 0
176 198 0
173 196 0
176 198 0
174 197 0
174 198 0
175 198 0
174 198 0
175 198 0
175 198 0
175 198 0
173 197 0
174 198 0
174 197 0
174 197 0
173 197 0
174 198 0
173 197 0
173 197 0
176 198 0
175 198 0
173 197 0
173 197 0
173 197 0
174 198 0
174 197 0
174 197 0
174 198 0
173 197 0
175 198 0
173 197 0
174 198 0
175 198 0
174 197 0
174 198 0
174 197 0
175 198 0
173 197 0
174 198 0
174 198 0
177 199 0
174 198 0
174 198 0
174 198 0
172 196 0
173 197 0
174 197 0
173 197 0
172 196 0
175 198 0
175 198 0
176 199 0
176 198 0
175 198 0
175 198 0
175 198 0
174 198 0
174 197 0
175 198 0
173 197 0
173 197 0
173 196 0
174 198 0
174 198 0
173 197 0
174 197 0
174 197 0
174 197 0
174 198 0
174 197 0
175 198 0
175 198 0
173 197 0
175 198 0
172 196 0
173 197 0
175 198 0
176 199 0
177 199 0
173 197 0
175 198 0
174 197 0
175 198 0
173 197 0
174 198 0
173 197 0
175 198 0
175 198 0
173 197 0
174 198 0
175 198 0
173 197 0
174 197 0
174 197 0
175 198 0
174 198 0
174 198 0
175 198 0
175 198 0
175 198 0
173 196 0
174 197 0
174 198 0
175 198 0
174 197 0
175 198 0
174 198 0
173 197 0
173 197 0
175 198 0
174 198 0
177 199 0
175 198 0
174 198 0
175 198 0
174 198 0
174 198 0
175 198 0
174 197 0
175 198 0
174 198 0
175 198 0
173 197 0
173 197 0
174 197 0
174 198 0
173 197 0
173 197 0
174 198 0
174 198 0
174 198 0
175 198 0
174 197 0
173 197 0
174 197 0
174 197 0
175 198 0
173 197 0
174 198 0
174 198 0
174 197 0
175 198 0
173 196 0
175 198 0
174 198 0
175 198 0
174 198 0
175 198 0
175 198 0
174 198 0
174 197 0
173 197 0
175 198 0
173 197 0
174 197 0
173 197 0
174 198 0
175 198 0
173 197 0
172 196 0
175 198 0
174 197 0
174 198 25
172 197 0
177 200 36
175 198 25
175 198 25
175 199 44
174 198 25
176 199 36
178 200 62
179 201 67
183 204 95
179 202 84
179 202 92
182 204 102
187 208 128
184 206 117
184 206 120
189 209 133
190 210 147
190 211 149
191 211 151
190 210 151
192 213 163
193 213 163
194 214 169
195 214 169
194 214 171
192 212 161
196 216 181
196 215 169
197 216 184
197 216 182
198 217 186
200 219 194
196 216 184
194 214 171
197 217 186
198 217 189
195 215 173
197 216 182
199 218 191
194 214 169
199 218 189
197 217 188
195 215 171
199 218 191
199 219 194
200 218 189
197 217 184
195 215 173
194 214 175
195 214 167
198 217 182
194 213 161
192 212 161
195 214 163
193 213 163
191 211 149
189 209 142
188 209 137
187 208 122
189 209 140
188 208 128
187 208 135
184 205 114
186 207 125
182 204 102
185 205 105
183 205 111
183 204 92
177 200 67
180 201 62
177 200 51
177 200 62
177 200 62
173 197 25
176 199 36
176 199 36
173 197 0
173 196 0
174 198 25
174 198 25
172 196 0
174 198 0
174 198 0
174 198 0
175 198 0
173 197 0
173 196 0
173 197 0
172 196 0
173 197 0
177 199 0
173 197 0
174 198 0
172 196 0
173 197 0
174 198 0
175 198 0
175 198 0
175 198 0
172 196 0
172 196 0
173 197 0
173 197 0
173 197 0
174 197 0
176 198 0
175 198 0
174 198 0
173 197 0
174 198 0
172 196 0
174 198 0
174 197 0
173 197 0
173 197 0
173 196 0
174 197 0
173 197 0
174 198 0
175 198 0
172 195 0
171 196 0
176 199 0
174 197 0
174 198 0
174 197 0
174 197 0
175 198 0
176 198 0
174 198 0
175 198 0
174 198 0
176 199 0
173 197 0
175 198 0
175 198 0
173 197 0
173 197 0
175 197 0
175 198 0
175 198 0
174 198 0
174 197 0
173 197 0
175 197 0
174 197 0
173 197 0
172 196 0
173 196 0
174 198 0
174 197 0
174 198 0
173 197 0
174 197 0
174 198 0
176 198 0
174 197 0
173 197 0
173 197 0
174 198 0
175 198 0
173 197 0
174 198 0
173 197 0
172 196 0
174 197 0
172 196 0
174 198 0
174 197 0
174 197 0
174 197 0
174 198 0
175 198 0
174 198 0
173 197 0
176 198 0
173 197 0
175 198 0
174 197 0
175 198 0
175 197 0
174 197 0
175 198 0
173 196 0
175 198 0
171 195 0
173 197 0
174 197 0
174 197 0
174 198 0
174 197 0
175 198 0
173 197 0
174 197 0
174 197 0
171 195 0
174 197 0
173 196 0
174 198 0
173 197 0
174 198 0
174 197 0
172 196 0
176 198 0
173 197 0
174 198 0
172 196 0
173 197 0
173 197 0
175 198 0
174 197 0
172 196 0
174 197 0
171 195 0
174 198 0
174 198 0
173 197 0
174 197 0
174 197 0
174 197 0
173 197 0
174 198 0
173 196 0
174 198 0
172 196 0
175 198 0
175 198 0
174 197 0
175 198 0
176 198 0
172 196 0
174 197 0
174 197 0
175 198 0
173 197 0
177 199 0
174 198 0
175 198 0
175 198 0
174 197 0
175 198 0
174 197 0
175 198 0
172 196 0
174 197 0
175 198 0
174 197 0
174 197 0
173 197 0
174 198 0
175 197 0
173 197 0
173 197 0
175 198 0
174 198 0
174 197 0
172 197 0
173 197 0
173 197 0
174 197 0
174 197 0
173 197 0
175 198 0
173 197 0
174 197 0
174 198 0
176 198 0
174 198 0
173 197 0
172 196 0
175 198 0
175 198 0
173 197 0
173 197 0
174 197 0
173 197 0
174 198 0
174 197 0
174 197 0
172 196 0
174 198 0
174 198 0
174 198 0
174 197 0
172 196 0
173 197 0
175 198 0
175 198 0
175 198 0
174 198 0
174 197 0
173 197 0
173 197 0
175 198 0
173 197 0
175 198 0
175 198 0
173 197 0
174 198 0
175 198 0
174 197 0
175 198 0
173 197 0
175 198 0
172 196 0
173 196 0
175 198 0
176 199 0
174 197 0
174 198 0
175 198 0
174 197 0
174 197 0
174 198 0
174 197 0
174 198 0
174 198 0
174 198 0
173 197 0
175 198 0
173 197 0
175 198 0
174 198 0
175 198 0
175 198 0
172 196 0
175 198 0
174 198 0
174 198 0
174 198 0
173 197 0
176 198 0
173 197 0
172 196 0
174 198 0
176 198 0
174 198 0
174 198 0
173 197 0
173 197 0
173 197 0
174 198 0
173 197 0
175 198 0
173 197 0
173 197 0
174 198 0
174 198 0
174 197 0
175 198 0
174 198 0
175 198 0
174 197 0
173 197 0
172 196 0
172 196 0
175 198 0
174 198 0
173 197 0
174 198 0
172 196 0
173 197 0
173 197 0
175 198 0
173 197 0
176 199 0
173 197 0
174 198 0
174 197 0
174 198 0
175 198 0
175 198 0
175 198 0
175 198 0
173 197 0
175 198 0
175 198 0
175 198 0
175 198 0
173 197 0
175 198 0
175 198 0
174 198 0
174 197 0
176 198 0
175 198 0
174 198 0
173 197 0
175 198 0
174 198 0
174 198 0
174 198 0
175 198 0
174 197 0
173 197 0
173 196 0
173 197 0
175 198 25
175 198 25
176 199 25
174 198 25
175 198 25
174 198 25
177 200 57
181 202 72
181 203 92
180 202 72
183 204 108
182 204 99
181 203 84
184 206 120
184 205 102
188 209 135
187 208 130
187 208 133
186 208 133
190 210 151
196 215 173
190 211 155
193 213 163
195 214 163
193 213 167
198 217 186
196 215 173
192 212 157
197 217 182
195 214 171
196 216 186
199 218 191
201 220 201
197 217 184
196 216 181
197 217 188
199 218 198
198 217 186
195 215 175
198 218 194
199 218 191
205 223 212
201 220 203
196 216 182
203 221 207
202 221 204
198 217 189
197 216 181
202 221 207
195 215 177
199 218 184
196 216 179
197 217 186
193 213 161
190 211 153
192 212 159
197 215 169
188 209 144
197 216 173
190 210 147
192 212 159
189 209 140
189 209 147
192 213 163
189 209 144
186 207 128
186 207 122
186 207 120
185 206 114
184 205 120
178 201 80
181 203 92
182 204 92
177 199 62
176 199 44
179 201 80
174 197 44
175 197 0
174 197 25
174 198 25
176 199 36
174 197 25
175 198 0
172 196 25
176 198 0
173 197 0
172 196 0
172 196 0
172 196 0
172 196 0
173 197 0
175 198 0
174 197 0
174 198 0
174 197 0
173 197 0
173 197 0
170 195 0
174 197 0
172 196 0
175 198 0
171 195 0
173 197 0
173 197 0
176 199 0
175 198 0
173 197 0
175 198 0
175 198 0
174 198 0
175 198 0
174 197 0
175 198 0
174 197 0
173 197 0
173 197 0
172 196 0
174 198 0
173 197 0
175 198 0
173 196 0
176 199 0
174 197 0
175 198 0
175 198 0
175 198 0
174 197 0
172 196 0
174 197 0
174 198 0
175 198 0
175 198 0
172 196 0
173 197 0
175 198 0
174 197 0
174 197 0
173 196 0
174 198 0
173 197 0
175 198 0
173 197 0
172 196 0
175 197 0
174 198 0
174 198 0
173 197 0
175 198 0
176 198 0
175 198 0
175 198 0
174 198 0
174 196 0
172 196 0
172 196 0
173 197 0
173 197 0
175 198 0
174 197 0
174 198 0
174 198 0
173 196 0
174 198 0
173 197 0
174 197 0
174 198 0
172 196 0
174 197 0
173 196 0
172 196 0
176 198 0
173 197 0
173 197 0
170 194 0
175 198 0
173 196 0
173 196 0
174 198 0
175 198 0
174 198 0
173 197 0
170 194 0
174 198 0
175 198 0
176 198 0
173 197 0
177 199 0
175 198 0
174 198 0
175 198 0
174 197 0
174 197 0
175 198 0
174 198 0
174 198 0
175 198 0
172 196 0
172 196 0
175 198 0
175 198 0
174 198 0
174 197 0
174 197 0
175 198 0
174 197 0
174 197 0
175 198 0
174 198 0
173 197 0
172 196 0
174 197 0
174 198 0
173 197 0
174 197 0
174 197 0
175 198 0
174 197 0
175 198 0
173 197 0
174 198 0
176 199 0
175 198 0
175 198 0
175 198 0
176 199 0
173 196 0
175 198 0
175 198 0
173 197 0
173 197 0
175 198 0
175 198 0
172 195 0
172 196 0
174 198 0
173 197 0
174 197 0
175 198 0
175 198 0
175 198 0
174 197 0
176 199 0
175 198 0
173 197 0
174 197 0
174 197 0
176 198 0
175 198 0
175 198 0
173 196 0
175 198 0
173 197 0
175 198 0
176 198 0
174 197 0
172 196 0
174 197 0
173 197 0
174 197 0
171 195 0
172 195 0
175 198 0
174 197 0
176 199 0
173 197 0
175 198 0
175 198 0
174 197 0
176 198 0
174 198 0
175 198 0
175 198 0
173 197 0
174 198 0
173 196 0
174 198 0
175 197 0
172 196 0
176 199 0
175 198 0
173 197 0
174 198 0
173 197 0
174 198 0
173 197 0
174 197 0
174 198 0
174 198 0
174 196 0
174 198 0
174 198 0
173 196 0
173 197 0
175 198 0
176 199 0
174 197 0
175 198 0
174 197 0
175 198 0
176 198 0
172 196 0
173 196 0
174 197 0
173 197 0
174 197 0
174 197 0
174 197 0
174 198 0
175 198 0
174 198 0
175 198 0
174 198 0
174 198 0
174 198 0
174 198 0
174 198 0
173 197 0
173 197 0
174 197 0
174 197 0
175 198 0
174 198 0
176 198 0
176 199 0
173 197 0
174 198 0
174 197 0
173 197 0
174 197 0
175 198 0
176 199 0
173 197 0
174 197 0
175 198 0
175 198 0
174 198 0
173 197 0
174 198 0
177 199 0
175 198 0
174 198 0
174 198 0
174 197 0
174 198 0
172 197 0
175 198 0
175 198 0
174 198 0
175 198 0
174 198 0
173 197 0
173 197 0
171 195 0
175 198 0
173 197 0
174 197 0
175 198 0
174 198 0
174 197 0
173 197 0
175 198 0
174 197 0
174 198 0
175 198 0
174 197 0
173 197 0
175 198 0
176 199 0
175 198 0
174 197 0
175 198 0
175 198 0
174 198 0
176 198 0
174 198 0
174 197 0
175 198 0
174 198 0
173 197 0
173 197 0
175 198 0
174 197 0
172 196 0
174 198 0
173 197 0
173 197 0
172 196 0
173 197 0
172 196 0
173 196 0
173 197 0
174 198 0
174 198 0
173 197 0
175 198 0
174 198 0
174 198 0
173 197 0
173 196 0
173 197 0
176 199 25
174 197 0
174 198 25
179 201 57
176 199 36
175 198 25
176 199 51
181 202 80
180 202 76
179 202 76
184 206 114
188 208 122
186 207 122
187 208 137
192 212 151
188 209 135
196 215 171
191 211 155
193 213 161
194 214 171
192 212 161
196 216 177
196 216 179
198 217 188
193 213 163
198 217 189
196 216 181
198 217 188
200 219 191
198 218 191
197 216 189
199 217 189
201 220 203
202 221 206
203 221 204
197 217 189
201 220 203
197 217 184
201 219 196
197 216 182
200 219 201
202 221 209
201 220 201
196 216 181
199 218 191
202 221 199
199 218 196
203 221 204
199 218 193
201 219 196
197 217 182
198 217 186
195 215 177
194 214 177
193 214 171
194 213 163
194 213 159
196 215 177
192 212 151
195 214 167
194 214 165
194 214 163
193 212 155
189 209 147
190 211 149
186 207 125
188 209 140
183 205 120
184 205 114
185 206 120
184 206 114
182 203 99
179 202 80
177 200 72
177 200 67
175 198 51
176 199 51
173 196 25
174 197 25
173 197 0
173 196 0
174 198 25
176 198 25
174 197 0
173 197 0
174 198 0
174 198 0
174 198 0
175 198 0
174 198 0
174 198 0
174 198 0
173 197 0
170 194 0
174 197 0
175 198 0
172 196 0
174 198 0
175 198 0
172 196 0
172 196 0
176 199 0
174 197 0
174 197 0
174 197 0
173 196 0
174 197 0
175 198 0
173 197 0
174 197 0
174 198 0
174 197 0
173 197 0
174 198 0
175 197 0
174 197 0
175 198 0
172 196 0
173 197 0
174 197 0
173 197 0
173 197 0
174 198 0
173 197 0
173 197 0
173 196 0
171 195 0
173 197 0
174 197 0
173 197 0
174 197 0
175 198 0
175 198 0
175 198 0
174 197 0
174 198 0
174 197 0
174 198 0
175 198 0
172 196 0
174 198 0
174 198 0
175 198 0
174 197 0
176 198 0
174 198 0
174 198 0
174 198 0
175 198 0
173 197 0
176 199 0
171 195 0
175 198 0
174 197 0
175 197 0
174 197 0
175 198 0
176 198 0
173 197 0
172 196 0
173 196 0
174 198 0
175 197 0
174 197 0
174 198 0
174 198 0
175 198 0
173 197 0
174 197 0
173 196 0
175 198 0
175 197 0
174 198 0
174 197 0
175 198 0
173 197 0
174 197 0
173 197 0
174 197 0
175 198 0
174 198 0
173 197 0
174 198 0
174 197 0
176 198 0
174 198 0
174 197 0
174 197 0
173 197 0
174 197 0
173 197 0
173 197 0
175 198 0
173 197 0
176 199 0
173 197 0
173 197 0
175 198 0
173 197 0
175 198 0
172 196 0
174 197 0
175 198 0
173 196 0
173 197 0
174 198 0
175 198 0
176 198 0
174 197 0
173 197 0
174 198 0
174 197 0
174 198 0
173 196 0
175 198 0
175 198 0
175 198 0
175 198 0
175 198 0
173 197 0
172 196 0
173 196 0
175 198 0
174 197 0
173 197 0
174 197 0
174 197 0
175 198 0
173 197 0
175 198 0
173 197 0
173 196 0
173 197 0
173 197 0
173 197 0
175 198 0
174 197 0
173 197 0
174 198 0
174 197 0
175 198 0
173 197 0
174 197 0
174 198 0
174 197 0
174 197 0
175 198 0
173 196 0
174 198 0
173 197 0
173 197 0
174 197 0
175 198 0
175 198 0
174 198 0
175 198 0
175 198 0
175 198 0
173 197 0
174 198 0
174 198 0
175 198 0
175 198 0
174 197 0
177 199 0
173 197 0
175 198 0
174 197 0
176 199 0
174 198 0
172 196 0
174 198 0
172 196 0
174 197 0
176 198 0
174 198 0
174 197 0
174 198 0
175 198 0
176 199 0
173 196 0
177 199 0
174 198 0
175 198 0
173 197 0
174 197 0
175 198 0
175 198 0
174 197 0
174 198 0
175 198 0
175 198 0
174 197 0
176 198 0
173 197 0
175 198 0
175 198 0
174 197 0
174 198 0
176 198 0
174 198 0
173 197 0
175 198 0
175 198 0
174 197 0
174 198 0
174 198 0
174 197 0
177 199 0
175 198 0
174 198 0
174 198 0
175 198 0
174 197 0
174 198 0
175 198 0
175 198 0
175 198 0
175 198 0
174 197 0
173 197 0
174 198 0
175 198 0
175 198 0
174 198 0
173 197 0
175 198 0
174 197 0
175 198 0
174 197 0
174 197 0
173 197 0
173 197 0
175 198 0
175 198 0
172 196 0
176 198 0
173 197 0
172 197 0
176 199 0
173 197 0
174 198 0
175 198 0
173 197 0
173 197 0
176 198 0
174 197 0
174 198 0
174 198 0
173 197 0
173 197 0
176 199 0
174 198 0
174 197 0
174 198 0
174 198 0
174 198 0
175 198 0
172 196 0
174 198 0
175 198 0
173 197 0
174 198 0
174 197 0
174 198 0
173 197 0
174 198 0
174 197 0
174 198 0
174 197 0
175 198 0
175 198 0
174 197 0
175 198 0
174 198 0
176 198 0
174 198 0
173 196 0
175 198 0
173 197 0
173 197 0
174 197 0
177 199 0
176 199 0
172 196 0
175 198 0
175 198 0
174 197 0
175 198 0
175 198 0
174 197 0
174 197 0
173 197 0
173 197 0
175 198 0
174 198 0
174 198 0
175 198 36
175 198 25
175 198 25
175 199 25
172 195 0
176 200 57
176 199 51
177 200 57
182 203 84
177 200 72
183 204 108
182 204 99
177 201 76
185 206 122
188 208 130
187 207 122
186 207 130
188 209 140
194 214 165
191 211 147
193 213 159
190 211 151
198 217 181
200 219 193
196 215 171
196 216 184
200 219 194
196 216 184
198 217 186
203 222 209
200 219 193
201 220 198
200 220 201
198 217 188
198 218 191
200 219 199
202 220 196
197 217 186
202 221 207
202 221 207
201 219 196
203 221 207
202 221 206
201 220 201
200 220 206
200 219 201
204 223 218
200 219 196
200 220 206
196 215 181
198 218 193
198 218 193
199 218 196
198 217 193
196 216 181
198 218 191
196 216 193
195 215 179
196 216 182
190 211 157
197 216 175
195 215 173
194 214 169
190 211 155
193 213 159
193 213 163
196 215 175
192 212 155
192 212 153
188 209 137
189 209 137
185 207 122
184 206 120
183 205 105
184 205 111
182 204 102
179 201 72
178 201 76
181 202 80
178 201 67
176 199 44
176 198 36
175 199 51
173 196 25
174 197 0
174 197 0
174 198 0
176 199 25
170 195 0
172 196 0
174 197 0
173 197 0
173 197 0
171 196 0
173 197 0
173 197 0
175 198 0
175 198 0
175 198 0
173 197 0
174 197 0
175 198 0
173 197 0
175 198 0
172 197 0
173 197 0
173 196 0
174 198 0
174 197 0
171 196 0
174 197 0
174 197 0
173 196 0
173 197 0
174 197 0
175 198 0
174 197 0
173 196 0
172 196 0
173 197 0
174 197 0
173 197 0
173 197 0
175 198 0
175 198 0
173 197 0
175 198 0
173 196 0
173 197 0
176 199 0
173 197 0
175 198 0
176 198 0
172 197 0
175 198 0
175 198 0
174 198 0
171 195 0
175 198 0
172 196 0
175 198 0
173 197 0
175 198 0
174 198 0
172 196 0
171 195 0
173 197 0
174 198 0
172 196 0
174 197 0
173 197 0
175 198 0
174 198 0
173 196 0
174 197 0
174 197 0
174 197 0
175 198 0
174 197 0
174 197 0
173 197 0
174 197 0
174 198 0
174 197 0
174 198 0
175 198 0
173 197 0
174 197 0
172 196 0
172 196 0
174 197 0
173 196 0
174 198 0
173 196 0
176 198 0
175 198 0
175 198 0
175 198 0
173 197 0
175 198 0
173 196 0
173 196 0
174 197 0
173 196 0
177 199 0
175 198 0
174 197 0
173 197 0
174 197 0
173 197 0
174 198 0
176 198 0
174 197 0
175 198 0
175 198 0
174 198 0
174 196 0
174 197 0
176 199 0
174 197 0
175 198 0
174 198 0
175 198 0
175 198 0
175 198 0
172 196 0
174 198 0
174 198 0
175 198 0
173 197 0
174 197 0
175 198 0
175 198 0
174 196 0
176 199 0
176 199 0
173 196 0
174 198 0
174 198 0
173 197 0
173 197 0
174 198 0
172 196 0
173 197 0
174 197 0
174 197 0
174 197 0
174 197 0
174 198 0
173 196 0
174 197 0
175 197 0
175 198 0
173 197 0
175 198 0
173 196 0
176 198 0
172 196 0
174 197 0
173 197 0
174 197 0
174 197 0
174 197 0
175 198 0
176 198 0
174 198 0
175 198 0
176 198 0
175 198 0
173 197 0
174 197 0
176 199 0
174 197 0
173 196 0
173 197 0
175 198 0
174 198 0
173 197 0
174 197 0
172 197 0
173 197 0
175 198 0
173 197 0
173 197 0
175 198 0
175 198 0
173 197 0
173 197 0
174 198 0
172 196 0
174 198 0
176 198 0
175 198 0
174 198 0
175 198 0
173 196 0
174 197 0
173 197 0
175 198 0
176 198 0
175 198 0
175 198 0
173 197 0
175 198 0
174 198 0
175 198 0
174 198 0
175 198 0
172 196 0
172 196 0
174 197 0
173 197 0
174 197 0
174 197 0
173 197 0
174 197 0
174 197 0
174 197 0
175 198 0
175 198 0
173 197 0
175 198 0
173 197 0
174 198 0
174 198 0
175 198 0
174 197 0
174 198 0
173 197 0
175 197 0
173 197 0
174 197 0
174 198 0
173 197 0
176 199 0
173 197 0
175 198 0
173 197 0
175 198 0
174 197 0
175 198 0
175 198 0
174 198 0
173 197 0
174 198 0
173 197 0
174 197 0
174 198 0
175 198 0
174 198 0
175 198 0
173 197 0
176 199 0
173 197 0
174 198 0
174 198 0
173 197 0
174 198 0
174 197 0
174 197 0
174 197 0
173 197 0
175 198 0
176 198 0
174 198 0
174 197 0
175 198 0
174 198 0
175 198 0
174 198 0
174 198 0
174 198 0
175 198 0
173 197 0
173 197 0
175 198 0
174 198 0
173 197 0
174 198 0
173 197 0
173 197 0
175 198 0
173 197 0
175 198 0
175 198 0
175 198 0
175 198 0
174 198 0
173 196 0
175 198 0
171 196 0
175 198 0
174 198 0
175 197 0
173 196 0
174 198 0
173 197 0
174 197 0
175 198 0
176 199 0
173 197 0
174 198 0
174 198 0
173 196 0
175 198 0
174 198 0
175 198 0
174 198 0
175 198 0
172 196 0
174 197 0
172 196 0
173 197 0
175 198 0
173 197 0
171 195 0
174 197 0
175 198 0
173 197 0
174 198 0
176 199 25
173 197 0
174 197 25
175 198 25
176 199 44
174 198 25
175 199 57
176 199 51
176 199 57
182 204 95
180 202 88
186 207 122
185 206 128
185 206 120
190 210 135
186 207 130
193 212 155
191 212 153
194 213 163
193 213 161
196 216 181
195 214 167
198 217 184
189 210 151
198 217 182
200 219 196
196 215 177
202 220 199
201 219 196
201 219 198
200 220 203
201 219 203
199 219 196
205 223 215
200 219 199
201 220 204
202 220 207
201 220 203
198 218 198
201 221 207
204 223 220
206 224 221
201 220 207
203 222 214
202 221 207
199 219 199
200 220 206
198 218 198
200 219 204
200 219 196
202 221 207
199 218 194
205 223 217
201 220 201
199 218 193
199 218 194
199 218 193
194 214 171
201 220 198
199 218 189
198 217 188
198 217 184
197 216 177
196 215 169
192 212 161
195 215 169
192 212 163
191 212 157
192 212 155
187 208 137
192 212 155
193 212 155
189 209 133
188 209 133
184 206 117
182 204 102
186 207 122
182 203 95
179 202 80
181 203 88
181 203 84
174 198 36
176 199 51
174 198 44
173 197 0
174 197 0
175 198 0
176 199 44
176 198 0
174 197 0
174 198 0
174 197 0
175 198 0
174 198 0
174 198 0
175 198 0
173 197 0
173 197 0
175 198 0
175 198 0
171 196 0
174 197 0
172 196 0
174 197 0
174 197 0
174 198 0
173 197 0
172 196 0
176 199 0
174 197 0
174 198 0
173 197 0
175 198 0
174 197 0
171 195 0
173 196 0
174 197 0
174 197 0
171 195 0
173 197 0
174 198 0
175 198 0
175 198 0
173 197 0
174 197 0
174 197 0
174 197 0
175 198 0
173 197 0
173 197 0
173 197 0
175 198 0
174 197 0
173 197 0
174 198 0
174 197 0
176 198 0
175 198 0
173 197 0
172 196 0
172 196 0
174 197 0
174 197 0
174 198 0
173 197 0
172 196 0
175 198 0
174 197 0
175 197 0
174 197 0
173 196 0
173 197 0
175 197 0
173 196 0
174 198 0
174 197 0
174 197 0
174 197 0
174 197 0
173 197 0
173 196 0
175 198 0
172 196 0
174 197 0
173 196 0
174 197 0
176 199 0
176 198 0
173 196 0
174 198 0
174 197 0
173 197 0
174 197 0
175 198 0
173 196 0
174 197 0
173 197 0
173 197 0
174 198 0
173 197 0
175 197 0
176 199 0
173 196 0
174 197 0
172 196 0
171 195 0
175 198 0
173 196 0
173 197 0
174 197 0
175 198 0
173 197 0
175 198 0
175 198 0
174 198 0
170 194 0
174 198 0
175 198 0
174 198 0
174 198 0
173 197 0
175 198 0
173 196 0
173 197 0
174 197 0
172 197 0
175 198 0
175 198 0
175 197 0
175 198 0
174 197 0
175 198 0
174 198 0
175 198 0
174 197 0
174 198 0
175 198 0
172 196 0
172 197 0
171 196 0
174 198 0
172 196 0
174 198 0
176 199 0
174 197 0
176 198 0
173 197 0
173 197 0
171 195 0
175 198 0
174 197 0
173 197 0
173 197 0
173 197 0
174 198 0
176 199 0
173 197 0
175 198 0
175 198 0
176 198 0
174 198 0
174 198 0
173 197 0
174 198 0
175 198 0
176 199 0
173 196 0
174 198 0
173 196 0
173 196 0
175 198 0
174 197 0
174 198 0
174 197 0
174 197 0
174 198 0
174 197 0
174 198 0
176 199 0
174 198 0
176 199 0
174 197 0
174 197 0
175 198 0
173 197 0
174 197 0
175 198 0
174 197 0
173 197 0
171 196 0
174 198 0
175 198 0
173 197 0
175 198 0
174 198 0
172 196 0
174 198 0
173 197 0
174 197 0
173 197 0
175 198 0
172 196 0
172 196 0
172 196 0
176 199 0
175 198 0
173 197 0
172 196 0
175 198 0
174 198 0
175 198 0
174 197 0
174 198 0
175 198 0
173 197 0
173 197 0
175 198 0
174 197 0
173 197 0
174 198 0
174 198 0
172 196 0
174 198 0
175 198 0
175 198 0
175 198 0
175 198 0
174 197 0
174 198 0
173 197 0
175 198 0
175 198 0
175 198 0
176 199 0
172 195 0
173 197 0
173 196 0
173 197 0
174 198 0
173 197 0
174 198 0
175 198 0
172 197 0
176 199 0
175 198 0
174 198 0
173 197 0
175 198 0
173 197 0
175 198 0
173 197 0
175 197 0
175 198 0
174 198 0
174 198 0
175 198 0
174 198 0
173 197 0
174 198 0
175 198 0
174 197 0
174 198 0
176 199 0
177 199 0
173 197 0
173 197 0
176 199 0
175 198 0
173 196 0
176 198 0
173 197 0
175 198 0
176 198 0
176 199 0
176 199 0
174 198 0
174 197 0
174 198 0
175 198 0
175 198 0
173 197 0
175 198 0
173 197 0
176 199 0
174 198 0
172 197 0
175 198 0
175 198 0
175 198 0
174 197 0
173 197 0
176 198 0
174 198 0
173 196 0
173 197 0
175 198 0
175 198 0
174 197 0
173 197 0
176 199 0
174 198 0
174 197 0
174 198 0
173 197 0
175 198 0
172 197 0
174 197 0
173 197 0
173 197 0
173 197 0
174 197 0
175 198 0
174 198 0
174 198 0
173 197 0
176 198 0
174 198 0
174 197 0
174 197 0
174 197 0
175 198 0
174 198 25
175 199 36
175 199 44
176 199 36
177 200 57
181 203 88
181 202 88
180 202 84
182 203 102
181 203 99
184 205 111
188 208 133
188 209 137
189 210 149
191 211 149
193 213 167
191 211 151
195 215 171
196 215 171
199 218 188
203 221 198
203 221 207
202 220 201
196 215 177
197 216 186
203 222 212
199 218 191
202 221 206
202 221 214
202 221 203
204 222 212
203 221 207
200 220 203
200 220 204
202 221 211
200 219 201
201 220 209
201 220 209
201 220 206
202 221 211
198 217 198
205 223 217
202 221 207
201 220 207
201 220 206
200 220 206
197 217 191
203 222 215
203 222 214
204 222 211
200 220 207
201 219 201
198 217 188
200 219 204
197 217 191
196 216 182
199 218 193
196 216 181
199 219 196
198 217 181
198 217 182
200 218 191
198 217 182
193 213 167
198 218 188
193 213 167
194 213 165
194 214 163
191 212 159
191 211 153
190 210 142
187 208 135
190 210 140
184 206 117
185 206 122
189 209 137
185 206 117
182 204 95
180 202 84
179 201 67
180 201 67
182 203 80
175 198 44
173 197 25
176 199 44
175 198 36
175 198 0
174 197 25
174 198 25
173 197 0
171 196 0
174 197 0
175 197 0
173 197 0
173 197 0
174 198 0
173 196 0
173 197 0
174 197 0
174 198 0
173 197 0
173 197 0
174 198 0
174 198 0
175 198 0
174 197 0
173 196 0
175 198 0
173 197 0
173 197 0
174 197 0
173 196 0
172 196 0
175 198 0
175 198 0
173 197 0
173 196 0
173 197 0
174 197 0
174 197 0
175 198 0
175 198 0
176 199 0
173 196 0
175 198 0
175 198 0
174 198 0
174 197 0
173 197 0
173 197 0
173 197 0
173 197 0
174 197 0
172 195 0
173 197 0
172 196 0
172 196 0
173 197 0
175 198 0
175 198 0
175 198 0
175 198 0
174 198 0
172 195 0
172 196 0
173 197 0
172 196 0
174 197 0
174 197 0
173 197 0
173 197 0
174 197 0
172 196 0
175 198 0
175 197 0
175 198 0
172 196 0
173 197 0
174 197 0
173 196 0
174 197 0
174 197 0
175 198 0
175 198 0
173 197 0
173 197 0
173 196 0
174 198 0
175 198 0
173 196 0
173 196 0
172 196 0
174 197 0
171 195 0
172 196 0
174 198 0
170 194 0
174 197 0
174 197 0
173 197 0
173 197 0
174 198 0
172 196 0
175 198 0
173 197 0
174 198 0
171 195 0
174 197 0
173 197 0
174 197 0
172 196 0
173 197 0
174 197 0
174 198 0
173 197 0
174 198 0
172 196 0
174 197 0
175 197 0
175 198 0
173 197 0
174 198 0
173 196 0
172 196 0
174 197 0
173 197 0
175 198 0
174 198 0
173 196 0
174 197 0
174 197 0
173 196 0
174 198 0
173 197 0
176 199 0
174 197 0
175 198 0
175 198 0
175 198 0
174 198 0
174 198 0
174 198 0
174 197 0
174 197 0
174 197 0
174 198 0
175 198 0
175 198 0
174 196 0
176 198 0
175 198 0
175 198 0
173 196 0
173 196 0
174 196 0
173 197 0
173 196 0
174 198 0
173 197 0
172 196 0
176 199 0
176 199 0
173 197 0
174 198 0
173 197 0
174 197 0
174 197 0
174 197 0
173 197 0
174 198 0
174 198 0
173 197 0
173 197 0
175 198 0
174 196 0
174 197 0
175 198 0
174 198 0
175 198 0
174 197 0
174 198 0
175 198 0
175 198 0
175 198 0
174 198 0
174 198 0
174 198 0
175 198 0
174 198 0
175 198 0
176 198 0
174 197 0
174 197 0
174 198 0
174 197 0
174 198 0
173 197 0
172 196 0
175 198 0
173 197 0
174 197 0
173 197 0
173 197 0
174 198 0
176 198 0
174 197 0
174 197 0
174 197 0
176 198 0
174 197 0
174 197 0
174 197 0
175 198 0
175 198 0
173 197 0
174 197 0
175 198 0
174 198 0
174 198 0
174 197 0
171 196 0
174 198 0
172 196 0
175 198 0
173 197 0
175 198 0
177 199 0
175 198 0
175 198 0
175 198 0
174 197 0
173 197 0
175 198 0
175 198 0
174 198 0
172 196 0
172 196 0
174 197 0
175 198 0
173 196 0
174 198 0
174 198 0
175 198 0
174 198 0
176 198 0
174 198 0
174 197 0
173 197 0
175 198 0
173 197 0
175 198 0
175 198 0
176 198 0
173 197 0
174 198 0
174 198 0
174 198 0
175 198 0
175 198 0
173 197 0
173 197 0
173 197 0
175 198 0
175 198 0
173 197 0
175 198 0
175 197 0
175 198 0
175 198 0
172 196 0
174 198 0
175 198 0
174 197 0
175 198 0
175 198 0
175 198 0
176 199 0
174 198 0
175 198 0
175 198 0
174 198 0
174 197 0
174 198 0
174 197 0
176 198 0
175 198 0
172 196 0
173 197 0
176 199 0
173 197 0
175 198 0
174 197 0
174 198 0
174 198 0
175 198 0
173 197 0
176 199 0
175 198 0
175 198 0
174 197 0
173 197 0
174 198 0
173 197 0
175 198 0
175 198 0
175 198 0
175 198 0
175 198 0
172 196 0
175 198 0
173 197 0
174 198 0
174 198 0
173 197 0
174 198 0
174 198 0
173 197 0
174 198 0
176 199 0
176 199 25
175 198 0
176 199 25
175 199 36
177 200 51
177 200 57
180 202 92
179 202 95
181 203 92
182 204 105
186 207 128
187 208 133
183 204 108
190 210 144
196 216 175
191 211 153
194 213 163
198 217 188
198 217 184
199 218 191
199 218 191
201 220 203
199 218 191
203 222 211
200 219 196
200 219 194
201 220 196
205 223 217
200 219 198
205 224 218
202 221 206
203 222 218
199 219 203
199 219 201
201 221 209
202 221 211
201 220 203
200 220 204
200 219 198
202 221 215
196 216 193
199 218 198
202 221 211
200 220 207
202 222 218
203 222 214
200 220 206
199 219 199
201 220 206
202 221 206
199 218 201
199 219 199
203 221 211
203 222 212
202 221 207
202 221 207
201 220 206
201 220 199
197 217 181
201 220 201
200 219 196
197 216 182
196 216 181
195 215 175
196 216 181
192 213 165
197 216 181
191 211 159
195 215 171
191 211 153
187 207 125
192 212 157
190 210 144
189 209 137
188 209 140
184 205 120
188 208 130
184 206 111
180 202 88
182 204 102
182 204 102
182 203 92
182 203 92
178 200 57
174 198 36
174 198 44
174 197 0
175 198 44
175 198 25
172 196 25
175 198 36
174 197 0
173 197 0
173 196 0
175 198 0
172 196 0
174 197 0
173 197 0
173 197 0
174 197 0
174 198 0
174 198 0
172 196 0
174 198 0
174 198 0
173 196 0
174 197 0
174 198 0
172 195 0
175 198 0
174 197 0
175 198 0
174 197 0
174 198 0
175 198 0
176 198 0
176 199 0
173 196 0
174 197 0
175 198 0
172 196 0
174 197 0
174 197 0
173 197 0
173 197 0
173 197 0
172 196 0
174 197 0
174 198 0
173 197 0
173 197 0
174 198 0
176 198 0
173 196 0
175 198 0
173 196 0
172 196 0
176 198 0
174 198 0
175 198 0
173 196 0
174 197 0
175 198 0
176 198 0
172 196 0
173 197 0
175 198 0
172 196 0
173 196 0
172 196 0
173 197 0
175 198 0
171 196 0
173 196 0
173 196 0
174 197 0
174 198 0
172 197 0
172 195 0
175 198 0
172 196 0
174 198 0
172 196 0
174 197 0
174 198 0
174 197 0
174 198 0
174 197 0
173 196 0
173 197 0
175 198 0
173 197 0
174 197 0
174 197 0
173 197 0
175 198 0
173 197 0
174 197 0
174 197 0
172 196 0
174 197 0
174 197 0
175 197 0
172 196 0
173 196 0
175 198 0
174 197 0
174 198 0
173 197 0
175 198 0
172 196 0
174 197 0
172 196 0
175 198 0
175 198 0
173 196 0
173 197 0
173 197 0
175 198 0
175 198 0
173 196 0
174 197 0
173 196 0
172 196 0
174 198 0
175 198 0
173 197 0
173 196 0
173 197 0
172 196 0
172 196 0
175 198 0
174 197 0
176 198 0
175 198 0
174 198 0
175 198 0
172 195 0
175 198 0
172 196 0
173 196 0
173 197 0
171 195 0
173 197 0
175 198 0
175 198 0
175 198 0
174 197 0
172 196 0
173 197 0
175 198 0
173 197 0
174 197 0
175 198 0
171 195 0
175 198 0
174 198 0
173 197 0
174 198 0
174 197 0
174 198 0
173 197 0
176 198 0
174 197 0
175 198 0
176 199 0
174 198 0
175 198 0
174 197 0
174 198 0
173 197 0
175 198 0
173 197 0
175 198 0
175 198 0
173 197 0
174 197 0
175 198 0
174 197 0
176 198 0
175 198 0
174 197 0
174 198 0
174 197 0
174 197 0
173 196 0
174 198 0
172 197 0
175 198 0
174 198 0
172 197 0
175 198 0
175 198 0
174 198 0
173 197 0
175 198 0
174 197 0
173 197 0
174 198 0
174 197 0
173 197 0
174 198 0
173 197 0
173 197 0
174 198 0
174 197 0
173 197 0
176 199 0
175 198 0
174 198 0
174 198 0
175 198 0
174 198 0
174 197 0
173 197 0
175 198 0
171 196 0
174 197 0
175 198 0
174 197 0
174 197 0
173 197 0
173 197 0
175 197 0
175 198 0
175 198 0
174 198 0
174 198 0
175 198 0
174 198 0
173 197 0
172 196 0
174 197 0
175 198 0
175 198 0
175 198 0
175 198 0
175 198 0
174 198 0
174 197 0
173 196 0
174 198 0
175 198 0
175 198 0
175 198 0
174 197 0
174 197 0
176 198 0
174 198 0
175 198 0
174 197 0
174 198 0
175 198 0
175 198 0
174 198 0
174 198 0
175 198 0
176 198 0
174 198 0
174 198 0
174 197 0
173 197 0
174 197 0
174 198 0
174 198 0
174 198 0
175 198 0
173 197 0
174 198 0
174 197 0
174 197 0
175 198 0
174 198 0
173 197 0
173 197 0
173 197 0
172 196 0
173 197 0
174 198 0
173 197 0
175 198 0
175 197 0
172 196 0
175 198 0
174 198 0
174 198 0
172 196 0
175 198 0
174 198 0
175 198 0
176 198 0
174 198 0
175 198 0
174 197 0
175 198 0
175 198 0
174 197 0
175 198 0
173 196 0
173 196 0
173 197 0
175 198 0
175 198 0
173 197 0
175 198 0
174 198 0
174 198 0
175 198 0
173 197 0
173 197 0
174 197 0
175 198 0
175 198 0
175 198 0
173 197 0
175 198 0
175 198 0
174 198 25
175 198 36
175 198 25
175 198 36
175 199 36
177 200 57
176 199 51
180 201 72
179 201 72
181 203 84
185 206 117
185 206 122
186 207 125
188 208 128
189 209 133
190 211 153
192 212 157
194 214 165
193 213 163
194 213 163
194 213 161
196 215 179
196 216 181
202 220 196
197 216 177
201 220 198
203 221 206
198 218 189
204 223 220
202 221 206
200 220 206
201 220 206
201 220 215
199 219 199
201 220 207
200 219 201
203 222 215
201 221 215
201 221 211
200 220 203
206 224 226
202 221 211
201 220 203
203 222 217
197 217 193
199 219 199
197 217 193
194 214 182
200 219 203
203 222 212
199 219 203
199 219 203
201 220 206
200 220 207
202 221 211
202 221 211
199 218 196
202 221 214
198 217 193
200 219 199
197 217 189
202 221 203
201 220 206
201 220 206
198 218 191
202 221 204
199 218 189
199 218 188
199 218 186
196 216 181
197 216 182
195 215 177
196 216 177
192 212 157
186 207 130
194 213 163
193 212 155
189 209 144
189 210 142
186 207 120
186 207 120
187 208 128
181 203 99
181 203 95
181 203 114
181 202 84
179 200 67
178 200 76
179 201 72
176 199 51
174 198 25
173 197 0
175 198 44
173 197 0
172 196 0
173 197 0
175 198 0
174 197 0
174 197 0
174 197 0
173 197 0
174 197 0
177 199 0
175 198 0
174 197 0
176 198 0
173 197 0
173 197 0
175 198 0
176 199 0
174 197 0
172 196 0
173 197 0
173 197 0
173 197 0
174 197 0
174 197 0
174 197 0
173 197 0
174 197 0
173 197 0
174 198 0
172 196 0
173 197 0
174 198 0
172 196 0
174 198 0
174 198 0
174 197 0
172 196 0
176 199 0
174 198 0
174 198 0
175 198 0
174 198 0
173 197 0
174 197 0
171 195 0
173 196 0
172 196 0
174 198 0
173 196 0
173 197 0
174 197 0
175 197 0
175 198 0
175 198 0
173 197 0
175 198 0
175 198 0
174 198 0
173 196 0
175 198 0
174 197 0
173 197 0
174 197 0
174 197 0
174 197 0
173 196 0
174 198 0
175 198 0
172 196 0
174 198 0
175 197 0
175 198 0
175 198 0
174 198 0
174 198 0
175 198 0
175 198 0
173 197 0
173 196 0
174 197 0
173 197 0
172 196 0
174 198 0
174 197 0
173 197 0
174 198 0
175 198 0
174 197 0
174 196 0
174 198 0
174 197 0
174 197 0
174 198 0
171 195 0
175 198 0
172 195 0
174 197 0
175 198 0
174 197 0
175 198 0
175 198 0
173 197 0
174 198 0
174 197 0
176 198 0
174 198 0
174 197 0
174 198 0
174 197 0
175 198 0
172 196 0
174 197 0
173 197 0
174 198 0
176 198 0
174 197 0
174 197 0
173 196 0
172 195 0
176 198 0
175 198 0
174 197 0
173 197 0
175 198 0
172 196 0
173 197 0
172 196 0
174 198 0
173 197 0
173 197 0
175 198 0
174 198 0
175 198 0
174 197 0
173 197 0
174 198 0
173 196 0
173 197 0
172 197 0
174 198 0
173 197 0
172 196 0
174 198 0
175 197 0
173 197 0
171 195 0
173 197 0
172 196 0
176 198 0
174 198 0
175 198 0
173 196 0
174 197 0
175 198 0
174 198 0
174 198 0
173 196 0
174 198 0
175 197 0
175 198 0
175 198 0
174 197 0
172 196 0
173 197 0
174 197 0
173 197 0
174 197 0
174 198 0
174 197 0
174 197 0
173 196 0
173 197 0
175 198 0
174 197 0
173 196 0
174 197 0
173 196 0
173 196 0
176 199 0
173 197 0
173 197 0
176 198 0
174 197 0
175 198 0
175 198 0
175 198 0
175 198 0
175 198 0
175 198 0
174 197 0
175 198 0
173 197 0
174 198 0
175 198 0
174 198 0
173 196 0
173 197 0
175 198 0
175 198 0
175 198 0
174 198 0
174 198 0
174 198 0
174 198 0
173 197 0
173 196 0
174 198 0
173 197 0
175 198 0
175 198 0
174 197 0
175 198 0
174 197 0
175 198 0
175 198 0
174 197 0
175 198 0
174 198 0
176 198 0
174 197 0
175 198 0
173 197 0
175 198 0
175 198 0
174 197 0
177 199 0
173 197 0
174 197 0
175 198 0
175 198 0
175 198 0
173 196 0
173 197 0
175 198 0
176 198 0
175 198 0
175 198 0
174 198 0
173 197 0
175 198 0
174 197 0
174 197 0
175 198 0
173 197 0
175 198 0
175 198 0
175 198 0
175 198 0
176 199 0
175 198 0
175 198 0
174 197 0
174 198 0
175 198 0
174 197 0
174 198 0
175 198 0
175 198 0
174 197 0
175 198 0
174 197 0
174 198 0
173 197 0
176 199 0
175 198 0
175 198 0
173 197 0
174 197 0
175 198 0
176 199 0
176 199 0
174 198 0
174 197 0
174 198 0
173 197 0
173 196 0
175 198 0
172 196 0
174 197 0
175 198 0
173 197 0
175 198 0
174 198 0
175 198 0
175 198 0
173 197 0
174 198 0
174 198 0
174 198 0
175 198 0
173 197 0
174 197 0
175 198 0
173 197 0
173 197 0
172 196 0
173 197 0
175 198 0
174 197 0
175 198 0
173 197 0
175 198 0
175 198 0
172 196 0
173 196 0
176 198 0
175 198 0
176 199 0
176 199 44
175 199 44
176 199 0
175 198 51
176 199 51
180 202 72
182 204 92
178 200 76
180 201 84
185 206 117
183 204 114
190 210 144
190 210 137
187 208 137
192 212 153
193 213 157
194 214 165
198 217 184
197 216 177
197 216 182
198 217 188
199 218 194
201 219 199
199 218 189
197 216 186
201 220 203
202 220 203
202 220 206
200 219 198
199 218 196
201 220 206
201 221 211
200 219 196
201 220 204
199 219 203
201 220 206
199 219 206
195 216 193
199 219 208
201 221 211
196 217 203
197 218 196
196 217 201
198 219 209
199 220 209
197 217 194
200 220 207
198 218 201
194 215 194
197 217 203
199 218 198
202 221 212
199 219 204
198 218 199
200 219 198
201 220 204
201 220 214
199 219 203
199 218 196
201 220 199
202 221 211
196 216 184
199 219 194
197 217 184
202 220 199
198 218 189
199 218 188
203 221 204
199 218 188
191 212 155
192 212 161
199 218 186
191 212 163
197 216 179
192 212 153
190 210 149
189 209 142
193 213 161
187 208 133
188 208 135
187 208 133
185 206 117
186 207 122
181 203 99
184 205 114
178 201 76
180 202 76
176 199 62
175 198 25
175 198 25
174 197 36
174 198 25
175 198 25
174 196 0
175 198 0
175 198 0
173 197 0
174 197 0
172 196 0
173 197 0
176 198 0
173 196 0
174 197 0
174 197 0
175 198 0
174 198 0
174 197 0
173 196 0
174 197 0
174 197 0
174 198 0
173 196 0
173 197 0
175 198 0
174 197 0
173 196 0
176 198 0
172 196 0
173 197 0
174 198 0
174 198 0
174 198 0
174 197 0
174 198 0
174 197 0
174 197 0
174 197 0
173 196 0
175 198 0
173 197 0
175 198 0
177 199 0
175 198 0
172 195 0
173 197 0
174 197 0
174 197 0
174 198 0
173 197 0
174 198 0
174 198 0
172 195 0
173 197 0
172 196 0
174 197 0
174 197 0
174 198 0
174 197 0
175 198 0
172 196 0
174 197 0
175 198 0
173 196 0
173 196 0
174 198 0
175 197 0
174 197 0
175 198 0
174 198 0
173 197 0
173 196 0
173 197 0
175 198 0
175 198 0
174 198 0
176 198 0
174 197 0
173 197 0
174 197 0
173 196 0
173 197 0
174 198 0
175 198 0
175 198 0
174 196 0
174 197 0
173 197 0
174 198 0
173 197 0
173 197 0
172 197 0
175 198 0
173 196 0
173 197 0
174 197 0
174 197 0
173 196 0
175 198 0
172 196 0
173 197 0
173 196 0
174 197 0
174 197 0
173 197 0
175 198 0
174 197 0
174 197 0
174 197 0
176 198 0
174 196 0
174 197 0
174 197 0
174 198 0
172 196 0
175 198 0
174 198 0
174 197 0
174 197 0
174 197 0
173 197 0
174 197 0
173 197 0
174 197 0
175 198 0
174 198 0
174 198 0
173 196 0
173 197 0
175 198 0
171 195 0
173 197 0
173 197 0
174 198 0
173 197 0
175 198 0
173 197 0
174 197 0
173 197 0
174 198 0
176 199 0
173 197 0
175 198 0
174 197 0
174 197 0
174 197 0
174 197 0
175 198 0
174 197 0
173 197 0
173 197 0
174 198 0
174 197 0
175 198 0
174 196 0
174 198 0
176 199 0
175 198 0
172 196 0
175 198 0
175 198 0
175 198 0
173 197 0
175 198 0
175 198 0
174 197 0
175 198 0
173 196 0
175 198 0
174 197 0
171 194 0
175 198 0
174 197 0
174 198 0
175 198 0
174 197 0
173 197 0
173 197 0
176 198 0
174 197 0
173 197 0
174 198 0
172 196 0
175 198 0
173 197 0
175 198 0
173 197 0
174 198 0
175 198 0
174 198 0
173 196 0
174 198 0
174 197 0
172 197 0
176 199 0
175 198 0
173 197 0
176 198 0
172 196 0
176 198 0
173 197 0
175 198 0
175 198 0
175 198 0
174 198 0
174 198 0
173 197 0
174 198 0
174 197 0
174 197 0
175 198 0
175 198 0
174 198 0
176 199 0
173 196 0
174 198 0
174 197 0
174 197 0
175 198 0
175 198 0
174 197 0
175 198 0
174 197 0
173 197 0
175 198 0
175 198 0
173 197 0
175 198 0
174 198 0
175 198 0
176 198 0
174 198 0
175 198 0
173 197 0
175 198 0
173 197 0
174 197 0
175 198 0
175 198 0
175 198 0
173 196 0
175 198 0
173 197 0
175 198 0
175 198 0
175 198 0
175 198 0
173 196 0
174 198 0
175 198 0
174 198 0
173 197 0
175 198 0
174 198 0
173 197 0
173 197 0
175 198 0
174 198 0
174 198 0
175 198 0
175 198 0
175 198 0
174 198 0
174 198 0
175 198 0
174 197 0
175 198 0
172 196 0
175 198 0
174 197 0
174 198 0
176 199 0
173 197 0
175 198 0
174 198 0
173 197 0
174 197 0
174 198 0
176 199 0
175 198 0
174 198 0
173 197 0
175 198 0
174 198 0
176 199 0
175 198 0
174 197 0
175 198 0
174 197 0
176 198 0
173 197 0
174 198 0
174 197 0
174 198 0
174 198 0
175 198 0
176 199 0
174 197 0
174 197 0
174 198 0
174 198 0
175 198 0
173 197 0
174 198 0
173 197 0
173 197 0
173 197 0
174 198 0
174 198 0
174 197 25
175 199 36
176 199 25
174 198 25
177 199 44
174 197 36
177 200 62
179 201 62
183 204 95
185 206 108
183 205 111
186 207 120
188 208 130
188 209 140
190 211 153
196 215 167
193 212 155
192 212 155
199 218 186
198 217 184
203 221 198
200 219 196
203 221 203
201 220 199
202 221 203
198 218 193
196 216 186
203 222 211
200 219 198
198 218 201
200 219 193
198 218 196
203 222 215
199 219 203
202 221 214
198 218 203
200 220 214
199 218 206
200 220 206
198 218 204
198 218 196
197 218 198
198 217 189
196 217 198
194 216 193
195 216 196
196 217 193
197 217 193
194 215 188
196 217 201
190 212 173
195 215 186
198 219 203
200 220 206
199 220 209
200 220 211
197 217 198
201 220 209
201 220 204
198 218 198
200 220 203
200 219 196
198 217 196
202 221 206
198 218 193
200 219 199
200 219 199
201 220 199
197 217 188
197 217 184
198 218 194
193 213 169
196 216 182
196 215 175
198 217 186
199 218 186
190 210 153
195 214 167
190 210 144
189 209 142
187 208 128
192 212 151
185 206 117
191 210 140
185 206 120
184 205 111
184 206 111
180 202 92
180 202 80
177 199 57
179 201 57
174 197 44
176 198 44
176 199 36
175 198 0
174 197 25
173 197 0
175 198 0
175 198 0
173 197 0
175 198 0
175 198 0
174 197 0
173 197 0
174 197 0
172 197 0
173 197 0
174 197 0
173 197 0
172 196 0
175 198 0
173 197 0
174 197 0
174 197 0
175 198 0
173 197 0
173 197 0
173 197 0
173 197 0
172 197 0
174 197 0
173 197 0
174 198 0
172 196 0
174 197 0
173 197 0
171 196 0
173 196 0
172 196 0
174 198 0
174 198 0
173 197 0
172 196 0
176 198 0
173 196 0
173 196 0
171 194 0
173 197 0
173 197 0
174 198 0
174 198 0
172 195 0
175 197 0
174 198 0
175 198 0
172 196 0
176 198 0
172 196 0
174 198 0
174 197 0
174 197 0
175 198 0
174 197 0
174 197 0
174 197 0
172 196 0
174 198 0
174 198 0
175 197 0
174 197 0
174 198 0
174 197 0
175 198 0
174 197 0
173 197 0
174 198 0
173 197 0
174 198 0
173 196 0
174 198 0
174 197 0
174 198 0
174 198 0
173 197 0
172 196 0
174 197 0
174 198 0
175 198 0
173 197 0
172 197 0
175 198 0
174 198 0
174 197 0
173 197 0
173 197 0
173 196 0
174 197 0
174 197 0
173 197 0
173 196 0
173 197 0
174 198 0
174 197 0
172 196 0
173 196 0
174 197 0
173 197 0
174 198 0
174 197 0
174 197 0
176 198 0
173 197 0
173 197 0
174 197 0
173 197 0
173 197 0
174 197 0
174 198 0
175 198 0
174 198 0
173 197 0
173 196 0
174 197 0
174 198 0
172 196 0
174 198 0
173 197 0
174 197 0
174 198 0
171 196 0
175 198 0
173 197 0
176 199 0
172 195 0
173 197 0
175 198 0
172 196 0
175 198 0
173 197 0
174 197 0
172 196 0
174 198 0
173 197 0
175 198 0
175 198 0
172 195 0
176 199 0
173 197 0
174 197 0
173 197 0
173 197 0
172 196 0
172 196 0
174 197 0
174 198 0
174 197 0
175 198 0
172 196 0
174 198 0
174 198 0
174 197 0
174 198 0
174 197 0
174 197 0
174 197 0
175 198 0
174 197 0
176 199 0
174 198 0
173 197 0
174 197 0
175 198 0
174 198 0
174 197 0
174 198 0
173 197 0
175 198 0
174 197 0
174 197 0
174 197 0
175 198 0
175 198 0
173 197 0
176 198 0
172 197 0
173 197 0
172 196 0
174 198 0
175 198 0
174 198 0
173 197 0
174 197 0
173 197 0
175 198 0
173 197 0
174 198 0
175 198 0
175 198 0
175 198 0
174 197 0
175 198 0
173 197 0
173 197 0
174 197 0
177 199 0
175 198 0
173 197 0
173 197 0
175 198 0
175 198 0
174 198 0
172 196 0
175 198 0
175 198 0
175 198 0
174 197 0
174 197 0
174 197 0
175 198 0
173 197 0
176 198 0
174 197 0
175 198 0
173 196 0
175 198 0
174 197 0
174 198 0
176 198 0
174 197 0
173 197 0
175 198 0
173 197 0
175 198 0
175 198 0
173 197 0
174 197 0
173 197 0
175 198 0
175 198 0
174 198 0
175 198 0
173 197 0
176 199 0
174 197 0
174 198 0
175 198 0
173 197 0
174 198 0
175 198 0
175 198 0
173 197 0
176 199 0
174 198 0
174 197 0
174 197 0
174 198 0
173 197 0
174 197 0
174 197 0
175 198 0
173 197 0
173 197 0
174 198 0
175 198 0
175 198 0
176 199 0
174 197 0
173 197 0
173 196 0
175 198 0
176 199 0
174 198 0
173 197 0
176 199 0
173 197 0
173 197 0
172 196 0
173 197 0
175 198 0
175 198 0
174 197 0
174 198 0
174 197 0
174 197 0
175 198 0
174 197 0
174 198 0
175 198 0
174 198 0
172 196 0
174 197 0
173 197 0
175 198 0
174 198 0
173 197 0
175 198 0
174 197 0
174 198 0
176 198 0
173 197 0
175 198 0
176 199 0
175 198 0
174 198 0
175 198 0
173 197 0
172 196 0
174 198 25
175 198 0
172 196 0
176 199 25
175 198 44
173 197 0
175 198 44
176 199 51
176 200 62
176 199 62
179 202 88
184 206 114
183 205 114
189 209 135
189 210 142
191 211 149
191 211 151
194 213 159
194 213 165
199 218 184
193 213 167
195 215 173
198 217 188
203 221 201
200 219 199
199 218 189
200 219 198
204 222 207
203 221 207
200 220 206
201 220 207
203 222 212
203 222 211
199 219 203
201 221 209
199 219 203
194 215 188
202 221 215
201 221 212
198 218 199
196 216 194
197 218 203
196 217 191
191 212 169
198 218 199
197 217 188
197 217 194
190 212 171
195 216 188
193 214 182
194 215 189
191 212 173
192 214 184
195 216 191
195 216 194
190 212 184
194 215 191
195 216 189
195 216 191
196 216 184
190 211 167
195 215 182
198 218 203
195 215 189
195 216 184
198 218 199
199 218 194
199 218 196
200 219 204
198 218 194
198 218 196
200 219 196
197 216 191
202 220 196
198 217 182
197 216 182
200 219 189
194 214 171
196 216 177
195 214 169
191 210 149
192 212 163
194 213 159
191 211 151
187 208 125
191 211 147
189 209 135
182 204 108
183 205 105
178 201 67
181 203 95
179 200 76
178 200 67
177 200 51
176 199 57
174 198 36
175 198 44
172 195 0
173 197 0
171 195 0
173 196 0
175 198 25
173 197 0
173 197 0
174 197 0
173 197 0
173 197 0
172 196 0
174 197 0
173 196 0
174 197 0
175 198 0
173 197 0
174 198 0
173 196 0
174 197 0
173 196 0
174 197 0
173 196 0
175 198 0
175 198 0
174 198 0
174 197 0
172 196 0
173 196 0
171 196 0
173 197 0
175 198 0
175 198 0
173 197 0
173 197 0
174 197 0
175 198 0
175 198 0
175 198 0
174 197 0
172 195 0
173 197 0
174 197 0
174 197 0
174 197 0
173 197 0
172 195 0
172 196 0
174 198 0
174 197 0
174 197 0
175 198 0
175 198 0
175 198 0
174 197 0
174 198 0
174 197 0
174 197 0
172 196 0
172 197 0
174 197 0
170 194 0
174 197 0
173 196 0
174 197 0
174 197 0
173 196 0
172 195 0
173 196 0
172 196 0
175 198 0
172 196 0
170 194 0
173 197 0
173 197 0
172 195 0
173 197 0
174 197 0
174 198 0
173 197 0
174 197 0
173 197 0
174 197 0
175 198 0
173 197 0
173 197 0
173 197 0
173 197 0
173 197 0
172 196 0
174 197 0
173 197 0
174 197 0
174 197 0
173 197 0
174 198 0
172 197 0
174 198 0
174 198 0
175 198 0
172 197 0
172 195 0
171 195 0
175 198 0
173 197 0
175 198 0
174 198 0
174 197 0
174 197 0
173 196 0
174 197 0
174 197 0
175 198 0
174 197 0
174 197 0
173 197 0
174 197 0
175 198 0
174 198 0
174 198 0
173 197 0
176 199 0
174 198 0
174 198 0
173 197 0
173 197 0
172 195 0
173 196 0
175 198 0
176 199 0
173 197 0
176 199 0
173 197 0
174 197 0
174 197 0
175 198 0
171 196 0
174 197 0
175 198 0
173 197 0
173 197 0
175 198 0
174 197 0
175 198 0
174 197 0
173 196 0
174 197 0
173 197 0
175 197 0
175 198 0
174 197 0
171 195 0
173 197 0
174 197 0
173 196 0
173 197 0
175 198 0
175 197 0
174 197 0
173 197 0
175 198 0
173 197 0
175 198 0
175 198 0
174 196 0
175 198 0
174 198 0
174 198 0
173 197 0
175 198 0
175 198 0
175 198 0
175 198 0
173 197 0
174 197 0
172 196 0
175 198 0
175 197 0
174 197 0
174 198 0
171 195 0
169 194 0
175 198 0
173 197 0
173 197 0
173 196 0
173 197 0
173 196 0
175 198 0
175 198 0
173 197 0
173 197 0
174 197 0
173 197 0
173 197 0
175 198 0
175 198 0
174 198 0
172 197 0
175 198 0
175 198 0
173 197 0
174 197 0
174 197 0
173 197 0
174 198 0
173 197 0
174 197 0
175 198 0
174 198 0
174 197 0
173 197 0
173 197 0
175 198 0
174 197 0
174 198 0
172 197 0
174 197 0
174 197 0
174 197 0
174 197 0
175 198 0
173 197 0
174 198 0
174 197 0
175 198 0
175 198 0
174 197 0
175 198 0
174 197 0
174 198 0
173 197 0
175 198 0
175 198 0
174 198 0
174 197 0
174 198 0
173 197 0
176 199 0
175 198 0
173 197 0
175 198 0
173 197 0
174 197 0
173 196 0
175 198 0
173 197 0
176 199 0
174 197 0
173 197 0
173 197 0
174 197 0
175 198 0
175 198 0
176 198 0
173 197 0
174 198 0
175 198 0
175 198 0
175 198 0
174 198 0
176 199 0
174 197 0
175 198 0
174 197 0
174 197 0
175 198 0
175 198 0
174 197 0
174 198 0
173 197 0
174 198 0
174 198 0
173 197 0
174 197 0
173 197 0
175 198 0
174 198 0
173 197 0
175 198 0
173 197 0
175 198 0
174 197 0
174 197 0
175 198 0
175 198 0
174 197 0
173 197 0
174 198 0
173 197 0
173 197 0
173 197 0
175 198 0
173 197 0
175 198 0
174 198 0
175 198 0
174 197 0
175 198 0
173 197 0
175 198 0
175 198 0
173 197 0
174 198 0
174 197 0
175 198 25
175 198 36
175 198 0
177 200 44
174 197 36
177 199 51
179 201 67
180 202 80
183 205 102
184 205 108
182 204 99
182 204 102
188 208 133
190 210 144
195 213 155
194 213 163
194 213 165
197 216 171
199 217 182
200 219 188
197 217 188
204 222 209
202 220 201
200 219 194
201 219 194
200 219 198
201 221 207
202 221 207
201 221 212
203 222 215
201 220 207
201 220 204
202 222 214
198 218 198
196 216 193
198 218 198
195 216 188
199 218 199
194 214 191
193 214 189
195 215 194
196 217 196
191 213 182
194 215 193
196 217 193
194 215 189
193 214 175
193 214 181
192 213 179
194 215 184
191 213 177
194 214 181
195 215 184
193 214 182
195 216 196
194 215 188
197 217 196
195 216 189
193 214 188
197 217 196
198 219 203
198 218 204
196 217 189
195 215 188
196 216 191
201 220 206
198 218 194
200 219 207
200 219 198
202 220 198
200 220 207
195 215 181
195 215 173
201 220 203
200 219 193
200 219 193
194 214 171
196 215 173
198 217 184
191 211 159
190 211 155
187 208 144
191 211 151
189 210 147
191 211 149
183 205 111
189 209 133
187 208 130
186 207 120
183 205 111
182 204 95
176 199 72
180 202 80
180 202 84
178 200 72
176 199 36
174 197 25
176 198 44
176 199 25
174 197 0
174 197 36
174 197 0
173 197 0
174 198 0
173 196 0
175 198 0
174 197 0
172 196 0
173 197 0
173 197 0
172 196 0
174 198 0
173 197 0
174 197 0
173 196 0
173 196 0
175 198 0
174 197 0
174 197 0
175 198 0
173 197 0
174 197 0
174 197 0
175 197 0
173 196 0
173 196 0
176 199 0
173 196 0
175 198 0
175 198 0
173 197 0
171 195 0
175 198 0
173 197 0
173 197 0
173 197 0
175 198 0
172 196 0
171 195 0
174 198 0
173 197 0
175 198 0
173 196 0
174 198 0
173 197 0
173 196 0
174 197 0
175 198 0
174 198 0
175 198 0
173 197 0
172 196 0
173 196 0
173 197 0
174 197 0
173 197 0
174 198 0
174 197 0
172 196 0
175 197 0
174 198 0
172 196 0
174 197 0
174 197 0
173 197 0
173 197 0
173 196 0
176 199 0
174 197 0
174 197 0
173 196 0
176 198 0
175 198 0
175 198 0
174 197 0
173 197 0
175 198 0
173 196 0
174 197 0
171 195 0
174 198 0
173 197 0
175 198 0
174 197 0
171 195 0
174 197 0
174 198 0
173 196 0
177 199 0
175 198 0
173 197 0
174 198 0
175 198 0
173 196 0
174 197 0
173 197 0
174 198 0
174 198 0
174 197 0
173 197 0
174 197 0
173 197 0
175 198 0
173 196 0
174 198 0
176 199 0
174 197 0
173 197 0
173 197 0
173 197 0
174 198 0
174 198 0
175 198 0
176 198 0
174 197 0
174 197 0
173 197 0
174 197 0
175 198 0
173 196 0
174 197 0
173 197 0
175 198 0
174 198 0
174 197 0
174 197 0
174 197 0
173 196 0
172 196 0
175 198 0
173 197 0
172 196 0
173 197 0
174 197 0
175 198 0
176 198 0
177 199 0
175 198 0
174 197 0
172 196 0
176 198 0
173 197 0
176 199 0
175 198 0
174 197 0
171 195 0
173 197 0
171 195 0
174 198 0
171 195 0
173 196 0
173 197 0
173 197 0
172 196 0
175 198 0
173 197 0
174 198 0
174 197 0
174 197 0
173 196 0
174 198 0
174 198 0
174 197 0
174 196 0
172 196 0
173 197 0
173 197 0
172 196 0
174 198 0
174 197 0
174 197 0
174 198 0
174 198 0
173 197 0
174 198 0
174 197 0
174 197 0
173 197 0
175 198 0
173 196 0
175 197 0
172 196 0
172 197 0
172 197 0
173 197 0
175 198 0
175 198 0
175 198 0
174 198 0
175 198 0
172 197 0
175 198 0
174 198 0
175 198 0
174 197 0
174 197 0
173 197 0
174 197 0
175 198 0
175 198 0
173 197 0
175 198 0
174 198 0
172 196 0
172 196 0
174 198 0
174 197 0
173 196 0
174 197 0
176 198 0
174 197 0
172 196 0
174 198 0
174 198 0
175 198 0
174 197 0
175 198 0
173 197 0
174 198 0
176 199 0
174 198 0
174 198 0
174 197 0
175 198 0
173 197 0
175 198 0
174 198 0
175 198 0
175 198 0
174 197 0
174 198 0
174 197 0
174 198 0
174 197 0
175 198 0
173 197 0
174 198 0
174 198 0
174 197 0
174 198 0
172 196 0
174 197 0
175 198 0
178 200 0
175 198 0
174 197 0
175 198 0
174 198 0
174 198 0
175 198 0
174 197 0
175 198 0
175 198 0
174 197 0
174 197 0
173 197 0
175 198 0
175 198 0
175 198 0
174 198 0
173 197 0
175 198 0
173 197 0
173 197 0
174 197 0
175 198 0
174 197 0
172 196 0
175 198 0
173 197 0
173 197 0
174 198 0
173 197 0
174 198 0
173 197 0
175 198 0
174 198 0
174 198 0
175 198 0
174 198 0
174 197 0
175 198 0
176 198 0
174 198 0
172 196 0
175 198 0
174 198 0
174 198 0
174 198 0
172 196 0
175 198 0
174 198 0
175 198 0
174 197 0
175 198 0
175 198 0
176 198 0
175 198 0
176 199 25
175 198 0
175 198 25
174 198 0
173 197 25
176 198 36
175 198 44
177 199 44
182 204 95
179 202 80
182 203 99
183 204 102
184 206 114
189 209 128
190 210 144
191 211 147
190 211 151
193 213 159
197 216 177
197 216 177
199 217 182
203 221 201
202 220 198
201 220 204
204 222 212
201 220 204
200 219 199
203 222 214
195 215 184
206 224 221
202 221 207
202 221 207
200 220 209
196 216 189
197 217 198
196 217 198
195 215 189
196 216 193
194 214 186
198 218 198
193 215 191
196 217 194
192 213 171
193 214 186
192 214 186
188 210 157
189 210 161
188 210 161
192 213 175
191 213 177
191 213 177
192 213 179
193 214 186
192 213 182
193 214 188
193 215 188
191 213 173
191 212 169
195 216 193
187 209 155
192 213 175
194 215 186
192 214 182
195 215 196
194 215 193
199 219 198
198 217 194
195 216 184
197 217 193
198 218 196
199 219 198
202 220 209
198 217 188
199 218 196
199 218 193
198 217 188
201 220 199
197 216 181
200 219 191
197 216 179
197 216 177
193 213 163
191 211 155
187 208 137
194 213 159
187 208 137
188 209 133
189 209 135
186 207 128
184 206 114
188 209 130
184 205 114
182 204 105
183 205 108
178 200 57
177 200 76
177 200 62
177 200 57
174 198 36
174 198 25
173 197 0
173 197 0
174 198 0
175 198 0
176 199 0
174 197 0
175 198 0
173 197 0
173 197 0
174 198 0
173 197 0
173 196 0
174 198 0
174 197 0
174 198 0
174 197 0
173 196 0
173 197 0
173 196 0
175 198 0
173 197 0
175 198 0
174 197 0
173 197 0
175 198 0
173 197 0
175 198 0
174 197 0
174 198 0
174 198 0
174 197 0
175 198 0
175 198 0
173 197 0
173 197 0
174 197 0
172 196 0
174 197 0
173 197 0
175 198 0
172 196 0
174 197 0
173 197 0
173 196 0
174 198 0
173 196 0
172 196 0
173 196 0
174 197 0
172 196 0
174 197 0
173 196 0
172 196 0
174 197 0
172 196 0
174 197 0
172 196 0
174 197 0
173 196 0
174 197 0
173 196 0
173 197 0
174 198 0
173 196 0
173 196 0
171 195 0
173 197 0
173 196 0
174 197 0
176 198 0
173 197 0
173 197 0
173 196 0
174 197 0
172 196 0
174 197 0
173 197 0
173 197 0
174 197 0
173 197 0
174 197 0
173 197 0
172 196 0
174 197 0
174 197 0
175 198 0
173 196 0
173 197 0
173 196 0
174 198 0
173 197 0
174 198 0
175 198 0
174 198 0
173 197 0
173 197 0
173 197 0
174 197 0
173 196 0
173 196 0
174 197 0
174 197 0
172 196 0
173 197 0
175 198 0
175 198 0
174 198 0
174 198 0
175 197 0
173 196 0
175 198 0
175 198 0
172 196 0
171 195 0
174 197 0
174 197 0
175 198 0
175 198 0
175 198 0
173 197 0
173 197 0
173 197 0
174 197 0
174 197 0
174 198 0
174 197 0
174 197 0
175 198 0
173 196 0
174 198 0
173 196 0
175 198 0
174 198 0
173 197 0
175 198 0
173 197 0
174 197 0
174 197 0
174 197 0
175 198 0
174 197 0
174 198 0
173 197 0
173 197 0
174 197 0
174 197 0
174 198 0
174 198 0
172 196 0
173 196 0
174 197 0
172 196 0
173 197 0
175 198 0
174 197 0
173 197 0
173 197 0
174 197 0
175 198 0
174 198 0
173 197 0
173 197 0
173 197 0
174 197 0
173 197 0
173 197 0
175 198 0
175 198 0
174 198 0
176 199 0
175 198 0
172 196 0
173 197 0
174 197 0
174 197 0
174 197 0
174 197 0
173 197 0
175 198 0
174 198 0
174 197 0
173 197 0
173 196 0
174 197 0
175 198 0
173 197 0
175 198 0
176 199 0
173 197 0
174 198 0
174 197 0
175 198 0
173 197 0
176 199 0
174 197 0
173 197 0
173 197 0
175 198 0
174 198 0
174 197 0
175 198 0
174 197 0
175 198 0
176 199 0
175 198 0
174 197 0
174 197 0
175 198 0
173 197 0
173 196 0
174 198 0
175 198 0
173 196 0
174 197 0
175 198 0
174 198 0
174 197 0
174 198 0
174 197 0
173 197 0
174 197 0
175 198 0
174 197 0
173 197 0
175 198 0
175 198 0
174 198 0
175 198 0
174 197 0
173 197 0
176 198 0
172 196 0
174 198 0
173 197 0
175 198 0
175 198 0
174 197 0
174 198 0
175 198 0
175 198 0
175 198 0
176 199 0
174 198 0
174 198 0
174 197 0
174 198 0
175 198 0
174 198 0
175 198 0
174 198 0
174 197 0
174 198 0
174 197 0
173 197 0
175 198 0
176 198 0
175 198 0
175 198 0
175 198 0
173 197 0
175 198 0
174 198 0
174 198 0
173 197 0
174 197 0
173 197 0
176 199 0
172 196 0
174 198 0
176 199 0
174 197 0
174 198 0
174 198 0
175 198 0
174 198 0
174 198 0
173 197 0
175 198 0
174 197 0
175 198 0
176 198 0
173 197 0
173 197 0
174 197 0
174 198 0
173 197 0
174 197 0
173 197 0
176 199 0
173 197 0
173 197 0
174 197 0
174 197 0
174 197 0
175 198 0
173 197 0
172 196 0
174 198 0
174 197 0
175 198 0
174 197 0
176 199 36
174 198 0
175 198 25
173 197 0
175 198 36
177 200 57
181 202 80
179 202 84
180 203 92
185 206 114
186 207 122
184 205 114
187 208 133
191 211 153
193 212 157
195 214 175
191 211 153
196 215 173
196 215 173
195 215 177
198 218 189
201 218 199
199 218 189
201 220 203
204 222 211
202 220 203
204 223 214
201 220 206
199 219 199
199 219 196
199 219 201
199 218 199
197 217 194
194 215 194
193 215 191
192 212 165
195 215 177
193 214 181
195 216 188
191 212 173
191 212 167
195 216 194
193 214 173
190 211 163
191 213 173
194 214 184
191 213 169
191 212 173
187 209 153
190 211 167
193 214 181
190 211 171
192 213 175
189 211 165
193 214 175
191 212 177
192 212 167
194 214 182
192 213 173
190 211 163
192 213 182
191 212 177
196 216 188
194 214 189
196 216 179
190 212 165
194 215 181
195 215 184
201 220 207
198 217 194
197 217 188
194 215 184
198 217 186
200 218 191
198 217 186
197 217 191
197 216 182
198 217 189
196 216 179
197 217 184
196 215 181
196 215 173
193 213 163
192 212 161
193 213 159
195 214 163
189 209 137
187 208 133
190 211 151
184 206 120
183 205 108
187 207 128
184 205 114
181 203 99
181 203 92
178 201 72
175 198 44
177 199 57
175 198 36
174 198 36
173 197 0
173 197 0
173 197 0
174 198 0
175 198 0
172 196 0
174 198 0
173 197 0
173 197 0
176 199 0
174 197 0
173 197 0
173 197 0
174 197 0
172 196 0
173 197 0
171 195 0
172 196 0
173 197 0
175 197 0
172 196 0
173 196 0
174 196 0
173 196 0
173 197 0
171 195 0
174 198 0
174 197 0
174 198 0
174 197 0
172 196 0
174 197 0
174 197 0
174 197 0
174 197 0
174 198 0
174 197 0
173 196 0
173 197 0
174 197 0
174 197 0
173 197 0
173 197 0
170 194 0
175 198 0
173 197 0
173 197 0
174 197 0
172 196 0
174 197 0
175 198 0
174 197 0
173 197 0
173 196 0
174 197 0
175 198 0
173 197 0
172 196 0
173 197 0
174 197 0
176 198 0
175 197 0
173 196 0
174 197 0
172 196 0
174 197 0
175 198 0
174 198 0
176 198 0
173 197 0
174 198 0
173 197 0
174 197 0
173 197 0
173 196 0
174 198 0
172 196 0
175 198 0
174 197 0
174 197 0
174 197 0
174 197 0
173 197 0
174 198 0
174 197 0
176 198 0
175 197 0
174 197 0
173 197 0
174 197 0
174 196 0
176 198 0
173 196 0
175 198 0
172 196 0
176 199 0
172 196 0
175 198 0
177 199 0
173 197 0
175 198 0
172 196 0
172 196 0
173 196 0
174 197 0
174 197 0
174 197 0
173 197 0
173 197 0
172 196 0
174 197 0
175 198 0
170 194 0
174 197 0
174 197 0
172 196 0
172 196 0
175 198 0
175 198 0
173 197 0
174 197 0
174 197 0
173 197 0
173 196 0
172 196 0
175 198 0
172 196 0
173 197 0
174 197 0
175 198 0
171 195 0
174 197 0
175 198 0
174 197 0
173 197 0
175 198 0
172 196 0
174 197 0
173 197 0
173 197 0
173 197 0
173 197 0
172 196 0
173 197 0
173 196 0
175 198 0
174 197 0
176 199 0
175 198 0
173 197 0
174 197 0
174 197 0
174 197 0
173 197 0
174 198 0
173 196 0
174 197 0
174 198 0
175 198 0
173 197 0
173 197 0
174 197 0
171 196 0
174 198 0
174 197 0
173 197 0
176 198 0
174 198 0
174 198 0
174 197 0
176 198 0
175 197 0
176 199 0
175 198 0
175 198 0
173 197 0
173 196 0
176 199 0
176 199 0
175 198 0
174 198 0
173 197 0
174 197 0
174 197 0
173 197 0
174 197 0
174 197 0
174 198 0
175 198 0
173 197 0
174 197 0
173 196 0
173 197 0
175 197 0
173 197 0
175 198 0
174 197 0
176 198 0
175 197 0
174 198 0
173 197 0
175 198 0
175 198 0
174 197 0
175 198 0
173 197 0
174 197 0
173 197 0
174 197 0
175 198 0
176 199 0
176 198 0
174 198 0
176 198 0
175 198 0
172 197 0
173 197 0
176 199 0
174 198 0
175 198 0
175 198 0
173 197 0
175 198 0
174 198 0
174 197 0
174 198 0
174 198 0
173 197 0
174 198 0
173 197 0
174 198 0
175 198 0
175 198 0
174 197 0
174 198 0
175 198 0
174 197 0
175 198 0
174 198 0
174 198 0
174 197 0
174 197 0
174 198 0
174 198 0
174 197 0
175 198 0
175 198 0
174 197 0
173 197 0
171 195 0
173 197 0
175 198 0
175 198 0
173 197 0
175 198 0
174 198 0
176 199 0
175 198 0
174 198 0
175 198 0
174 197 0
173 197 0
173 197 0
173 197 0
173 197 0
174 198 0
175 198 0
173 197 0
174 197 0
174 197 0
173 197 0
173 197 0
174 197 0
174 197 0
173 197 0
175 198 0
173 197 0
174 197 0
174 198 0
175 198 0
174 197 0
175 198 0
174 197 0
175 198 0
175 198 0
175 198 0
174 198 0
173 197 0
173 197 0
174 197 0
173 197 0
174 198 0
175 198 0
172 196 0
175 198 0
174 198 0
174 198 0
173 196 0
172 196 0
174 197 0
174 197 25
174 198 36
174 198 0
174 198 25
175 198 36
180 202 80
175 199 57
186 207 117
185 206 120
186 207 122
184 206 120
187 208 130
189 209 142
188 209 144
189 209 147
197 216 181
196 215 171
191 212 161
198 217 181
204 222 206
204 222 209
200 219 193
204 222 209
201 220 199
203 221 204
204 223 217
200 220 204
199 219 203
197 217 188
197 217 198
194 215 184
193 214 177
195 215 179
194 215 186
195 216 189
193 213 175
191 212 171
191 213 182
189 211 169
190 212 171
190 212 175
188 210 161
192 213 177
192 212 171
190 211 157
190 211 161
192 213 175
193 213 179
193 214 171
188 209 159
189 210 151
188 210 153
189 211 163
189 211 165
191 212 167
189 211 161
190 211 161
192 213 173
189 211 163
189 211 173
188 210 159
190 212 163
191 211 165
189 211 163
190 211 173
192 213 173
191 213 179
195 216 189
196 215 189
196 217 193
191 212 171
197 217 188
196 216 184
197 217 186
197 217 191
195 215 177
199 218 193
199 218 193
198 217 184
197 217 184
196 215 173
190 211 149
197 216 177
192 212 165
194 213 161
190 210 142
191 211 149
188 209 151
187 208 133
189 209 135
184 205 117
185 205 114
184 205 111
184 206 111
182 204 99
181 203 84
179 202 76
179 201 62
175 199 44
173 196 25
177 199 25
171 195 25
174 197 25
174 198 0
174 198 0
172 196 0
171 195 0
173 197 0
174 197 0
173 197 0
173 197 0
176 199 0
174 198 0
173 196 0
176 199 0
171 194 0
175 198 0
173 197 0
175 198 0
174 198 0
172 196 0
174 197 0
173 197 0
172 196 0
172 196 0
173 197 0
172 196 0
173 196 0
171 196 0
172 195 0
175 198 0
175 198 0
172 196 0
173 196 0
174 197 0
174 197 0
176 198 0
175 198 0
174 197 0
172 197 0
176 199 0
173 196 0
173 197 0
173 197 0
174 197 0
173 196 0
175 198 0
174 197 0
175 198 0
174 197 0
175 198 0
173 197 0
175 198 0
173 196 0
174 197 0
173 196 0
173 196 0
175 198 0
174 197 0
175 198 0
174 197 0
175 198 0
173 197 0
173 196 0
172 196 0
174 198 0
174 197 0
175 198 0
173 197 0
172 196 0
175 198 0
173 197 0
174 197 0
174 197 0
174 198 0
174 197 0
173 196 0
173 197 0
173 197 0
174 197 0
174 198 0
174 198 0
173 197 0
173 196 0
173 197 0
174 197 0
171 195 0
174 197 0
175 198 0
173 197 0
174 198 0
174 198 0
174 198 0
175 198 0
172 196 0
174 198 0
173 197 0
175 198 0
173 197 0
174 198 0
173 197 0
173 197 0
173 197 0
174 198 0
174 197 0
174 197 0
173 197 0
173 196 0
173 197 0
174 198 0
174 198 0
173 197 0
174 197 0
173 197 0
173 196 0
173 196 0
174 198 0
173 197 0
173 197 0
173 196 0
174 198 0
174 197 0
175 198 0
174 198 0
175 198 0
174 198 0
175 198 0
174 197 0
173 196 0
176 199 0
175 198 0
173 197 0
174 198 0
174 197 0
172 196 0
174 198 0
174 198 0
173 197 0
172 196 0
171 195 0
175 198 0
173 197 0
173 197 0
174 197 0
173 197 0
174 198 0
174 197 0
173 197 0
174 197 0
174 197 0
173 197 0
173 197 0
172 195 0
174 197 0
174 197 0
173 197 0
174 198 0
173 197 0
173 197 0
175 198 0
173 197 0
175 198 0
173 196 0
174 197 0
174 198 0
174 198 0
173 196 0
173 197 0
175 198 0
174 198 0
175 198 0
172 196 0
171 195 0
173 197 0
172 196 0
174 198 0
175 198 0
173 197 0
174 197 0
173 197 0
174 198 0
173 197 0
175 198 0
173 196 0
174 197 0
174 197 0
175 198 0
175 198 0
175 198 0
175 198 0
175 198 0
173 197 0
174 198 0
175 198 0
175 198 0
174 197 0
175 198 0
175 197 0
174 197 0
174 197 0
175 198 0
175 198 0
174 197 0
174 197 0
173 197 0
174 197 0
175 198 0
175 198 0
174 198 0
173 196 0
173 196 0
174 197 0
175 198 0
174 198 0
172 196 0
174 197 0
173 197 0
172 196 0
174 198 0
175 198 0
173 196 0
174 197 0
174 198 0
173 197 0
173 197 0
174 197 0
173 197 0
175 198 0
173 197 0
175 198 0
175 198 0
173 197 0
175 198 0
174 198 0
175 198 0
174 197 0
173 197 0
174 198 0
173 197 0
176 199 0
175 198 0
174 198 0
174 198 0
174 197 0
175 198 0
173 197 0
174 198 0
173 196 0
173 197 0
175 198 0
174 198 0
175 198 0
174 198 0
174 198 0
175 198 0
175 198 0
173 197 0
172 196 0
174 198 0
174 198 0
174 197 0
175 198 0
173 197 0
174 197 0
175 198 0
175 198 0
174 197 0
173 197 0
174 198 0
175 198 0
172 196 0
176 199 0
174 198 0
171 195 0
174 198 0
174 198 0
174 198 0
174 198 0
174 197 0
174 198 0
174 198 0
174 198 0
173 196 0
175 198 0
175 198 0
176 198 0
172 197 0
173 197 0
174 197 0
174 197 0
175 198 0
173 197 0
174 198 0
175 198 0
174 197 0
174 197 0
177 199 0
173 197 0
173 197 0
174 197 0
176 199 0
175 198 25
176 199 25
175 198 36
175 199 51
179 201 80
179 202 76
181 203 88
184 205 108
186 207 122
189 210 140
189 210 142
190 211 147
192 212 157
195 215 171
197 216 179
199 218 184
201 220 196
199 218 186
202 221 203
200 219 196
200 219 199
205 223 215
202 221 203
199 218 189
200 219 201
201 220 201
201 220 211
193 214 181
194 215 182
195 216 188
194 214 186
194 214 177
190 211 161
193 214 182
192 213 181
187 209 153
188 209 156
189 210 167
189 210 163
189 211 169
187 209 157
189 210 155
185 207 142
188 209 140
187 208 142
190 212 171
188 209 149
189 210 161
191 212 167
191 211 167
186 209 155
187 208 137
190 210 157
190 211 165
188 210 159
188 210 151
185 208 149
188 210 167
189 210 149
190 211 163
193 213 171
188 209 159
187 209 155
193 214 181
190 212 175
191 212 163
191 211 165
196 216 186
197 216 189
195 215 184
192 212 167
197 217 191
199 218 193
197 216 182
196 216 182
201 219 196
198 218 193
197 217 184
196 216 184
197 216 177
194 214 173
196 215 175
193 212 163
193 213 167
192 212 155
190 210 149
190 210 144
190 210 144
188 208 133
184 206 120
187 207 122
181 203 102
185 206 114
179 201 76
180 202 88
177 200 51
178 200 76
178 200 44
176 199 25
174 197 36
176 199 25
173 196 0
173 197 0
175 198 0
175 198 0
172 196 0
174 198 0
173 197 0
172 195 0
171 195 0
174 197 0
173 197 0
173 197 0
173 197 0
175 197 0
173 197 0
171 195 0
174 197 0
172 195 0
174 197 0
174 198 0
173 197 0
172 196 0
172 195 0
170 194 0
175 198 0
171 195 0
174 197 0
173 196 0
172 196 0
174 197 0
173 197 0
173 197 0
173 197 0
174 198 0
174 197 0
173 197 0
173 197 0
175 198 0
172 195 0
174 198 0
172 195 0
173 197 0
172 195 0
174 197 0
175 198 0
173 197 0
173 197 0
173 197 0
172 195 0
173 197 0
174 197 0
172 196 0
175 198 0
172 195 0
174 198 0
175 198 0
176 199 0
172 196 0
172 196 0
175 198 0
174 197 0
174 198 0
174 197 0
175 198 0
174 197 0
173 196 0
174 197 0
172 196 0
172 196 0
173 197 0
175 198 0
174 197 0
174 197 0
175 198 0
174 198 0
173 197 0
175 197 0
172 196 0
174 197 0
172 197 0
174 197 0
174 197 0
174 197 0
171 196 0
174 198 0
173 196 0
174 197 0
173 197 0
171 195 0
173 197 0
173 197 0
175 198 0
173 197 0
175 198 0
174 197 0
173 196 0
175 197 0
171 195 0
174 198 0
172 195 0
175 198 0
174 198 0
172 196 0
174 198 0
173 197 0
171 195 0
175 198 0
172 196 0
174 198 0
173 197 0
172 196 0
173 197 0
174 198 0
173 196 0
173 197 0
173 197 0
175 197 0
174 198 0
174 197 0
174 197 0
173 197 0
173 196 0
174 197 0
174 197 0
172 196 0
175 198 0
176 199 0
175 198 0
174 197 0
174 198 0
175 198 0
174 197 0
175 198 0
173 196 0
172 196 0
174 198 0
173 196 0
174 197 0
174 197 0
173 197 0
173 197 0
175 198 0
173 197 0
173 197 0
173 197 0
174 197 0
172 195 0
176 199 0
172 197 0
175 198 0
173 197 0
171 195 0
173 197 0
173 197 0
175 198 0
173 197 0
174 197 0
172 196 0
173 197 0
176 199 0
176 199 0
174 197 0
172 196 0
174 197 0
174 197 0
172 196 0
173 197 0
174 197 0
174 198 0
173 197 0
175 198 0
174 198 0
174 197 0
173 196 0
173 196 0
173 197 0
173 196 0
174 198 0
175 198 0
174 197 0
174 197 0
176 198 0
176 198 0
171 195 0
174 197 0
175 198 0
174 198 0
176 199 0
173 197 0
174 197 0
175 198 0
174 198 0
174 198 0
174 197 0
174 198 0
174 197 0
174 198 0
172 196 0
173 197 0
173 197 0
173 197 0
175 198 0
176 198 0
172 197 0
175 198 0
174 197 0
175 198 0
175 198 0
174 198 0
174 198 0
174 197 0
174 198 0
174 198 0
174 198 0
173 197 0
174 198 0
174 197 0
175 198 0
174 197 0
173 197 0
173 197 0
173 197 0
175 198 0
174 197 0
174 197 0
174 197 0
174 198 0
172 197 0
175 198 0
173 197 0
173 197 0
175 198 0
175 198 0
176 198 0
174 198 0
174 197 0
172 196 0
173 197 0
173 197 0
174 198 0
175 198 0
174 198 0
173 197 0
174 197 0
175 198 0
174 197 0
175 198 0
174 198 0
172 196 0
176 199 0
175 198 0
175 198 0
175 198 0
174 198 0
174 198 0
174 198 0
175 198 0
174 198 0
175 198 0
174 197 0
175 198 0
174 198 0
173 197 0
174 197 0
174 198 0
173 197 0
176 199 0
175 198 0
172 197 0
174 198 0
175 198 0
174 198 0
174 197 0
172 196 0
173 197 0
175 198 0
174 198 0
174 198 0
175 198 0
175 198 0
173 197 0
175 197 0
174 198 0
175 198 0
174 198 0
173 197 0
172 197 0
175 198 0
173 197 0
174 198 0
173 197 0
173 197 0
174 198 0
174 197 0
174 197 0
175 198 25
174 197 0
173 197 0
173 197 0
174 198 36
177 199 44
176 199 57
179 201 67
176 200 67
184 205 108
187 208 130
182 203 92
187 208 130
189 209 137
192 211 149
191 211 151
195 215 173
192 212 161
195 214 169
194 214 165
198 217 189
199 218 189
197 216 182
203 221 206
201 220 199
198 217 189
201 220 204
203 221 209
200 219 201
196 215 184
193 214 177
192 212 173
198 218 199
194 214 182
191 213 184
196 216 182
189 211 171
190 212 169
190 211 159
189 211 163
189 210 154
190 212 167
187 209 149
191 212 165
192 213 165
188 209 144
186 208 157
184 207 137
188 209 140
191 212 157
187 209 142
189 210 153
188 209 151
185 207 133
188 210 151
184 205 149
188 209 149
185 208 159
187 208 142
186 207 149
188 209 151
185 208 144
188 210 153
193 213 171
188 210 163
189 211 165
188 210 165
189 210 153
191 212 169
187 208 151
189 210 155
192 213 169
189 211 155
192 213 171
192 213 181
192 213 177
198 217 189
199 218 198
197 216 181
200 219 201
201 220 203
199 218 184
198 217 186
195 214 171
195 215 173
195 214 173
191 211 149
195 214 165
197 216 177
195 214 161
188 208 137
193 213 159
193 212 157
190 210 149
187 207 133
187 207 125
187 207 130
184 205 108
180 202 88
179 201 76
179 202 80
177 200 67
177 199 51
174 198 36
174 198 0
174 197 0
176 198 0
173 197 0
176 198 25
173 196 0
173 197 0
173 197 0
170 194 0
173 196 0
174 197 0
174 197 0
173 197 0
172 196 0
172 196 0
172 196 0
173 197 0
174 197 0
174 197 0
174 197 0
173 197 0
175 198 0
172 195 0
172 196 0
173 196 0
174 197 0
174 197 0
171 195 0
173 195 0
172 196 0
172 195 0
174 197 0
174 197 0
173 196 0
172 196 0
175 197 0
172 196 0
173 196 0
175 198 0
171 195 0
173 196 0
174 197 0
177 199 0
173 196 0
172 196 0
173 197 0
175 198 0
173 197 0
173 196 0
173 196 0
175 198 0
173 197 0
175 198 0
172 195 0
174 198 0
171 195 0
174 198 0
173 197 0
174 197 0
174 197 0
174 197 0
172 196 0
173 196 0
173 197 0
172 196 0
174 197 0
174 198 0
172 194 0
171 195 0
172 196 0
174 197 0
172 196 0
174 197 0
173 197 0
174 198 0
174 197 0
172 195 0
174 197 0
171 195 0
172 196 0
174 197 0
174 198 0
172 196 0
173 197 0
174 198 0
175 198 0
176 198 0
174 198 0
173 197 0
175 198 0
174 197 0
171 195 0
174 197 0
172 196 0
173 197 0
174 198 0
173 197 0
174 198 0
173 197 0
170 195 0
174 197 0
174 198 0
174 198 0
172 196 0
174 197 0
174 198 0
171 195 0
174 198 0
175 198 0
175 198 0
175 198 0
172 196 0
174 198 0
173 197 0
174 198 0
176 199 0
174 197 0
173 196 0
173 196 0
173 197 0
175 198 0
174 197 0
173 197 0
173 197 0
173 197 0
172 196 0
174 197 0
175 197 0
172 196 0
173 197 0
174 198 0
173 197 0
175 198 0
170 194 0
174 198 0
174 198 0
175 197 0
174 197 0
174 197 0
174 197 0
175 198 0
174 197 0
175 198 0
173 196 0
173 197 0
173 196 0
175 198 0
173 197 0
176 198 0
175 197 0
174 197 0
173 197 0
175 197 0
173 197 0
173 196 0
174 198 0
174 197 0
174 198 0
174 197 0
172 197 0
173 197 0
176 198 0
173 196 0
173 197 0
175 198 0
174 197 0
176 198 0
173 197 0
172 196 0
175 198 0
173 197 0
175 198 0
174 197 0
173 197 0
175 198 0
173 197 0
174 197 0
174 198 0
173 197 0
175 198 0
173 196 0
175 198 0
173 197 0
175 198 0
173 197 0
172 196 0
174 197 0
171 196 0
173 197 0
173 197 0
175 198 0
173 197 0
173 197 0
173 197 0
174 198 0
173 197 0
174 198 0
173 197 0
175 198 0
172 196 0
174 198 0
173 197 0
175 198 0
174 197 0
173 196 0
176 199 0
173 197 0
174 197 0
174 197 0
173 196 0
174 197 0
175 198 0
174 198 0
174 197 0
173 197 0
175 198 0
174 197 0
174 197 0
173 197 0
173 197 0
174 198 0
175 198 0
174 197 0
175 198 0
174 197 0
175 198 0
174 197 0
173 197 0
172 197 0
174 198 0
175 198 0
175 198 0
175 198 0
175 198 0
175 198 0
173 197 0
174 197 0
176 199 0
173 197 0
174 197 0
175 198 0
175 198 0
174 197 0
175 198 0
175 198 0
174 198 0
175 198 0
176 199 0
176 199 0
174 198 0
177 199 0
175 198 0
174 198 0
174 198 0
173 197 0
174 198 0
172 197 0
174 198 0
175 198 0
175 198 0
174 198 0
175 198 0
174 197 0
173 197 0
175 198 0
174 198 0
174 198 0
173 197 0
174 197 0
172 196 0
173 197 0
173 197 0
175 198 0
173 197 0
173 197 0
175 198 0
175 198 0
174 198 0
176 199 0
174 198 0
176 199 0
174 198 0
174 197 0
174 198 0
172 196 0
174 197 0
174 198 0
174 198 0
175 198 0
175 198 0
176 199 0
173 196 0
173 197 0
175 198 0
174 198 0
173 197 0
174 197 0
176 199 25
176 199 25
176 199 25
175 198 25
176 199 25
176 198 62
181 202 80
182 204 105
182 204 102
184 206 114
188 209 133
187 208 133
193 212 153
192 212 153
192 212 155
192 212 159
196 215 165
201 220 194
200 219 191
200 218 189
196 216 186
200 219 194
203 221 204
202 221 206
195 215 179
200 219 196
200 219 198
199 219 199
197 217 191
192 213 171
196 216 188
196 216 186
191 212 161
193 213 175
187 209 149
191 212 163
187 209 157
189 210 153
187 209 144
188 210 157
192 213 173
186 208 142
191 211 161
188 210 159
189 210 147
191 211 153
188 209 157
187 208 135
186 208 142
189 210 151
191 211 165
187 208 128
183 205 128
187 208 133
184 207 140
186 208 144
186 208 140
186 208 149
185 207 142
190 210 147
187 209 149
185 207 137
187 209 151
189 210 157
188 209 144
183 206 140
189 210 157
192 213 167
191 212 161
191 212 169
190 211 165
193 214 175
189 211 161
197 217 198
192 213 171
195 215 181
197 217 182
195 215 179
194 215 175
199 217 181
197 216 179
198 217 186
194 213 171
196 216 177
195 215 171
196 216 177
194 213 163
192 212 159
194 213 161
187 208 135
189 210 142
187 208 130
186 207 125
187 208 130
185 206 111
183 205 108
181 203 99
182 204 95
179 201 92
183 204 99
177 200 67
178 200 72
175 198 36
173 197 36
177 200 51
174 197 25
169 193 0
174 197 0
173 197 0
172 196 0
173 197 0
171 195 0
174 197 0
173 197 0
173 196 0
174 197 0
173 196 0
174 197 0
173 197 0
173 197 0
173 197 0
172 196 0
173 197 0
173 197 0
173 196 0
173 196 0
173 197 0
172 196 0
172 195 0
174 197 0
174 197 0
174 198 0
174 197 0
172 196 0
173 196 0
173 196 0
172 196 0
175 198 0
174 197 0
174 197 0
172 196 0
173 196 0
174 197 0
171 195 0
173 197 0
172 196 0
172 197 0
174 198 0
175 198 0
172 195 0
174 198 0
175 197 0
175 198 0
174 197 0
171 194 0
174 197 0
172 196 0
174 197 0
175 198 0
175 197 0
173 196 0
176 198 0
173 196 0
175 198 0
174 197 0
173 197 0
175 198 0
174 198 0
174 197 0
174 198 0
172 196 0
172 196 0
173 197 0
174 197 0
173 197 0
172 196 0
174 197 0
172 196 0
176 199 0
172 195 0
173 196 0
173 197 0
174 197 0
174 197 0
174 197 0
176 198 0
173 197 0
173 197 0
175 198 0
176 198 0
175 198 0
176 199 0
174 196 0
175 198 0
174 198 0
173 197 0
173 196 0
172 196 0
173 196 0
174 198 0
174 198 0
174 197 0
174 197 0
174 197 0
174 197 0
175 198 0
174 197 0
174 198 0
173 197 0
175 198 0
174 197 0
173 197 0
174 197 0
174 197 0
173 197 0
173 196 0
172 196 0
174 198 0
174 197 0
174 197 0
175 198 0
174 198 0
174 198 0
172 196 0
174 197 0
175 198 0
173 196 0
174 198 0
174 198 0
175 198 0
171 196 0
175 198 0
174 197 0
173 197 0
170 195 0
172 196 0
172 195 0
174 197 0
173 196 0
174 197 0
174 198 0
174 198 0
173 197 0
174 197 0
176 199 0
174 197 0
172 196 0
175 198 0
173 197 0
174 197 0
175 198 0
173 197 0
171 195 0
174 197 0
174 198 0
174 197 0
172 196 0
173 197 0
173 197 0
172 196 0
173 196 0
171 195 0
173 197 0
173 196 0
173 196 0
173 197 0
175 198 0
174 197 0
173 197 0
173 196 0
174 197 0
175 198 0
173 197 0
174 197 0
176 199 0
173 197 0
174 197 0
174 197 0
174 197 0
173 197 0
174 197 0
174 197 0
174 197 0
173 196 0
175 198 0
173 197 0
173 197 0
175 198 0
172 196 0
175 198 0
175 198 0
174 197 0
174 197 0
174 197 0
175 198 0
175 198 0
174 197 0
174 198 0
174 198 0
174 197 0
174 198 0
174 197 0
175 198 0
173 197 0
174 198 0
174 197 0
174 198 0
174 197 0
174 198 0
174 198 0
177 199 0
175 198 0
175 198 0
173 197 0
174 198 0
174 197 0
175 198 0
174 198 0
175 198 0
173 196 0
173 197 0
174 198 0
175 198 0
175 198 0
174 198 0
174 198 0
174 198 0
176 198 0
173 197 0
175 198 0
172 196 0
176 199 0
174 198 0
175 198 0
175 198 0
173 197 0
174 197 0
175 198 0
175 198 0
175 198 0
174 198 0
174 198 0
173 197 0
175 198 0
176 198 0
174 198 0
175 198 0
174 198 0
173 197 0
173 196 0
176 198 0
174 198 0
173 197 0
173 197 0
174 197 0
173 196 0
174 197 0
174 198 0
174 198 0
174 197 0
174 197 0
176 198 0
174 198 0
174 198 0
175 198 0
174 198 0
175 198 0
174 198 0
174 198 0
173 197 0
173 197 0
173 197 0
174 198 0
175 198 0
174 198 0
175 198 0
173 197 0
173 197 0
175 198 0
174 198 0
175 198 0
173 197 0
174 197 0
173 197 0
175 198 0
173 196 0
174 198 0
173 197 0
173 197 0
174 198 0
176 199 0
173 196 0
174 198 0
174 196 0
174 198 0
173 197 0
174 197 0
172 197 0
174 198 25
175 198 0
174 197 0
173 197 44
172 197 0
174 198 25
176 199 51
178 201 80
181 203 92
185 206 120
185 206 111
185 206 120
191 211 142
187 208 135
189 209 137
194 213 161
195 214 167
195 214 169
199 217 182
200 218 188
200 219 189
203 222 207
202 220 203
200 219 193
202 221 203
198 218 194
196 216 186
200 219 199
194 214 182
196 216 186
195 216 186
193 214 181
192 213 171
193 213 173
187 210 163
193 213 177
188 209 155
186 208 149
187 209 149
180 203 111
188 210 155
182 205 136
192 213 177
185 207 142
183 205 117
188 209 142
188 209 155
187 208 147
187 208 142
188 210 151
185 207 130
185 206 130
183 205 131
185 207 135
186 207 128
184 206 135
189 210 151
187 208 137
184 206 137
187 208 147
189 210 151
186 207 128
185 207 128
189 210 147
184 206 144
188 209 147
187 208 140
185 207 133
188 209 153
185 207 144
187 209 151
189 210 159
188 210 165
189 210 157
192 212 163
186 208 142
192 213 171
192 213 167
195 216 184
191 213 171
199 218 191
200 219 203
199 218 191
196 215 182
196 215 175
197 217 182
195 215 173
195 215 171
194 214 165
195 214 171
194 214 169
189 209 140
187 207 133
191 211 151
192 212 144
189 209 133
184 206 114
181 203 102
185 204 114
180 202 76
182 203 95
179 201 76
179 201 76
179 201 72
175 198 36
175 198 51
175 198 25
176 199 36
175 198 0
175 197 25
175 197 0
173 197 0
174 197 0
173 197 0
173 196 0
173 197 0
174 198 0
172 196 0
175 198 0
174 197 0
172 196 0
174 197 0
174 197 0
174 197 0
172 196 0
173 196 0
175 198 0
174 197 0
171 194 0
172 196 0
173 196 0
173 197 0
174 197 0
172 196 0
173 197 0
172 196 0
175 198 0
174 197 0
173 197 0
172 195 0
175 198 0
174 197 0
173 196 0
173 196 0
172 196 0
174 198 0
174 197 0
175 198 0
175 198 0
175 198 0
174 197 0
175 198 0
172 196 0
173 196 0
173 197 0
173 197 0
174 197 0
174 198 0
172 196 0
174 197 0
172 195 0
173 196 0
174 197 0
174 197 0
173 196 0
172 196 0
175 198 0
174 197 0
173 196 0
175 198 0
172 196 0
174 197 0
173 197 0
172 196 0
172 197 0
173 197 0
173 196 0
174 197 0
173 196 0
173 197 0
174 198 0
172 196 0
173 196 0
174 197 0
173 196 0
174 197 0
175 198 0
173 197 0
172 196 0
176 198 0
172 196 0
174 198 0
174 197 0
172 196 0
175 198 0
173 197 0
174 197 0
172 195 0
174 197 0
173 197 0
175 198 0
175 198 0
173 197 0
175 198 0
174 197 0
172 196 0
174 198 0
172 196 0
174 197 0
172 196 0
173 196 0
174 197 0
174 198 0
175 198 0
174 197 0
172 196 0
174 198 0
173 197 0
173 197 0
175 198 0
172 197 0
174 198 0
175 198 0
174 197 0
174 198 0
174 197 0
173 197 0
172 196 0
173 197 0
173 196 0
173 197 0
172 196 0
174 197 0
173 196 0
174 198 0
174 198 0
175 198 0
175 198 0
175 198 0
173 197 0
174 197 0
173 197 0
173 197 0
174 197 0
175 198 0
175 198 0
174 197 0
173 197 0
175 198 0
174 197 0
172 195 0
174 197 0
175 198 0
173 196 0
175 198 0
175 198 0
175 198 0
174 197 0
174 197 0
177 199 0
172 196 0
174 197 0
174 197 0
173 196 0
174 197 0
174 198 0
174 198 0
175 198 0
174 198 0
173 196 0
171 195 0
174 198 0
174 197 0
176 199 0
175 198 0
174 198 0
175 198 0
173 197 0
173 197 0
175 198 0
173 197 0
174 197 0
175 198 0
173 197 0
173 197 0
174 198 0
174 198 0
174 197 0
174 197 0
173 197 0
172 196 0
173 197 0
175 198 0
174 197 0
172 196 0
173 197 0
173 197 0
174 198 0
174 198 0
173 196 0
174 198 0
173 196 0
175 198 0
175 198 0
174 197 0
174 198 0
172 197 0
175 198 0
172 196 0
174 198 0
175 198 0
174 197 0
175 198 0
173 196 0
175 198 0
174 198 0
174 198 0
175 198 0
174 198 0
175 198 0
176 198 0
174 197 0
174 197 0
174 197 0
173 197 0
175 198 0
174 197 0
175 198 0
174 197 0
174 198 0
174 197 0
175 198 0
175 198 0
175 198 0
175 198 0
176 198 0
173 197 0
174 198 0
175 198 0
174 198 0
174 198 0
175 198 0
175 198 0
173 197 0
175 198 0
175 198 0
173 197 0
175 198 0
174 198 0
173 197 0
173 197 0
173 196 0
174 197 0
175 198 0
174 198 0
175 198 0
174 198 0
174 197 0
173 197 0
172 196 0
173 197 0
174 198 0
175 198 0
174 197 0
172 197 0
173 197 0
174 198 0
174 198 0
175 198 0
175 198 0
173 197 0
173 197 0
172 196 0
174 197 0
172 197 0
173 197 0
172 196 0
174 198 0
174 198 0
174 198 0
173 197 0
175 198 0
174 197 0
173 197 0
174 197 0
173 197 0
175 198 0
174 198 0
174 197 0
173 197 0
173 197 0
174 198 0
173 197 0
175 198 0
175 198 0
173 197 0
175 198 0
175 198 0
175 197 0
174 198 0
174 197 0
173 196 0
174 197 0
173 197 0
174 198 25
177 200 44
178 201 67
181 203 88
179 202 84
185 207 120
182 204 105
187 208 122
192 212 151
186 207 130
196 215 167
196 215 173
197 216 177
197 216 182
197 216 173
198 217 188
197 216 189
199 218 193
200 218 184
201 220 198
201 220 203
199 219 198
193 214 179
199 219 196
193 214 181
190 211 163
196 215 173
190 211 165
190 210 157
190 211 157
191 212 165
189 210 165
190 211 159
185 207 140
188 210 153
180 202 120
187 208 144
187 209 157
184 206 128
180 202 126
186 207 135
184 206 122
183 206 139
186 208 144
185 208 153
183 205 128
188 209 153
186 208 144
185 207 151
182 203 114
184 206 120
185 207 137
185 207 142
188 209 147
182 205 120
184 206 133
187 208 144
188 209 140
189 209 158
182 205 120
187 209 147
183 205 122
187 208 135
184 206 133
185 206 133
187 208 135
184 206 128
187 208 140
182 204 122
186 208 144
187 209 163
188 209 147
191 212 165
192 213 169
190 211 159
195 215 177
192 212 165
197 216 182
197 217 184
198 217 193
197 217 184
195 214 171
199 218 184
195 215 179
196 215 173
198 217 182
194 213 163
192 212 155
189 209 149
187 208 135
183 204 99
187 208 135
191 210 140
181 203 92
183 204 108
186 207 122
181 203 92
180 202 95
179 202 84
178 201 62
177 200 62
177 200 62
176 199 36
174 198 0
176 198 36
172 195 0
175 197 0
175 198 0
173 197 0
173 197 0
171 195 0
175 198 0
173 196 0
174 197 0
175 198 0
173 197 0
175 198 0
173 197 0
172 196 0
173 196 0
174 197 0
173 196 0
172 196 0
173 197 0
175 198 0
172 195 0
174 197 0
175 198 0
174 197 0
173 197 0
172 196 0
171 194 0
173 196 0
173 197 0
176 198 0
172 195 0
175 198 0
173 197 0
175 198 0
174 197 0
174 197 0
173 197 0
173 196 0
176 199 0
173 197 0
172 196 0
173 197 0
172 196 0
171 194 0
173 197 0
175 198 0
174 198 0
173 197 0
172 196 0
175 198 0
174 197 0
174 198 0
174 198 0
172 196 0
174 197 0
173 196 0
172 195 0
173 196 0
175 198 0
174 196 0
172 194 0
175 198 0
173 197 0
175 198 0
173 197 0
174 197 0
174 197 0
175 198 0
171 195 0
172 196 0
173 197 0
173 197 0
172 195 0
174 197 0
172 196 0
174 197 0
174 198 0
173 196 0
172 196 0
172 195 0
174 197 0
176 198 0
175 198 0
176 199 0
171 195 0
172 195 0
173 196 0
173 196 0
172 196 0
174 197 0
173 196 0
174 197 0
176 198 0
172 196 0
171 196 0
173 196 0
173 196 0
175 198 0
174 197 0
175 198 0
174 198 0
174 197 0
172 196 0
174 198 0
174 198 0
174 198 0
174 197 0
175 197 0
175 198 0
172 195 0
175 198 0
173 197 0
174 197 0
175 198 0
173 197 0
171 195 0
174 198 0
173 196 0
172 196 0
172 197 0
172 196 0
171 195 0
174 197 0
173 196 0
174 196 0
172 196 0
172 195 0
174 198 0
174 197 0
175 198 0
174 197 0
174 197 0
173 197 0
174 197 0
171 195 0
175 198 0
172 196 0
172 196 0
174 197 0
175 198 0
173 196 0
176 198 0
172 196 0
173 197 0
174 197 0
173 196 0
175 198 0
174 198 0
173 197 0
175 198 0
175 198 0
173 196 0
173 197 0
173 197 0
175 198 0
172 195 0
175 198 0
173 197 0
172 196 0
174 198 0
174 198 0
174 197 0
173 197 0
174 197 0
173 197 0
173 197 0
174 198 0
173 197 0
174 198 0
173 197 0
174 197 0
174 197 0
173 197 0
170 195 0
173 197 0
174 198 0
174 197 0
176 198 0
174 197 0
176 199 0
174 197 0
173 197 0
176 199 0
174 198 0
174 197 0
172 196 0
174 197 0
174 197 0
174 198 0
174 198 0
175 198 0
175 198 0
175 198 0
175 198 0
176 198 0
174 197 0
175 197 0
172 196 0
174 198 0
174 197 0
174 197 0
175 198 0
174 198 0
175 197 0
174 197 0
173 196 0
172 196 0
175 198 0
175 198 0
173 197 0
175 198 0
174 197 0
173 197 0
173 197 0
172 196 0
175 198 0
175 198 0
172 196 0
175 198 0
175 198 0
173 197 0
175 198 0
175 198 0
175 198 0
174 198 0
174 198 0
175 198 0
175 198 0
176 199 0
174 198 0
175 198 0
175 198 0
174 198 0
171 195 0
174 198 0
174 198 0
173 197 0
174 197 0
174 197 0
173 197 0
173 197 0
173 197 0
175 198 0
175 198 0
174 197 0
172 196 0
174 198 0
174 198 0
174 197 0
174 197 0
175 198 0
174 198 0
174 198 0
175 198 0
174 198 0
174 197 0
174 197 0
171 196 0
174 198 0
174 198 0
174 197 0
173 197 0
174 198 0
174 198 0
175 198 0
174 197 0
174 197 0
174 198 0
175 197 0
174 197 0
173 197 0
174 198 0
173 197 0
173 196 0
175 198 0
175 198 0
173 197 0
173 197 0
174 198 0
174 198 0
174 198 0
173 196 0
174 197 0
173 197 0
175 198 0
175 198 0
177 199 0
174 197 0
174 198 0
172 196 0
174 197 0
174 198 0
175 198 25
174 197 0
175 198 36
174 197 25
175 199 57
180 202 84
181 203 88
179 201 72
181 203 102
188 209 133
184 205 120
194 213 157
192 212 155
197 216 175
191 211 151
197 216 177
197 215 177
197 216 181
198 217 184
201 219 197
197 217 182
198 217 188
200 219 198
200 219 194
200 219 198
200 219 199
196 216 181
193 214 173
191 211 163
192 213 174
189 211 161
191 212 169
186 208 140
192 213 167
188 209 156
185 207 140
187 208 142
186 208 142
188 209 144
182 204 114
181 204 120
182 205 122
183 205 135
187 208 133
183 205 130
186 207 137
182 204 125
187 208 142
183 205 137
187 209 157
179 201 102
186 208 140
185 206 130
181 203 114
185 206 125
183 204 120
184 206 135
178 201 102
183 205 114
186 207 135
183 204 114
184 207 142
180 203 125
185 206 144
182 204 122
183 205 117
186 207 140
181 205 125
182 204 125
185 207 137
186 208 137
185 207 135
189 209 144
189 210 151
189 210 159
190 211 161
191 212 169
192 212 157
187 209 149
191 211 159
195 215 181
200 219 199
195 214 171
195 215 179
201 219 194
198 216 179
194 213 167
196 215 179
196 215 175
193 213 161
192 212 159
189 209 135
190 210 151
188 208 140
188 208 128
183 205 111
185 206 122
186 207 128
186 207 122
183 204 102
179 201 76
178 200 72
177 200 62
178 200 72
174 197 44
175 198 36
173 197 25
173 196 36
173 196 0
174 197 0
175 198 0
173 196 0
173 196 0
173 197 0
175 198 0
173 197 0
174 197 0
173 197 0
173 197 0
175 198 0
174 197 0
174 197 0
176 199 0
173 197 0
172 196 0
173 196 0
173 197 0
174 197 0
175 198 0
173 197 0
173 197 0
175 198 0
175 198 0
172 196 0
173 196 0
172 196 0
173 196 0
176 198 0
175 198 0
174 197 0
176 198 0
175 197 0
174 198 0
174 197 0
173 197 0
174 197 0
175 198 0
173 197 0
173 197 0
173 197 0
172 196 0
171 195 0
173 197 0
173 197 0
172 196 0
173 196 0
173 196 0
174 197 0
174 198 0
175 198 0
173 197 0
175 198 0
173 196 0
171 195 0
171 195 0
173 196 0
172 197 0
175 198 0
173 196 0
175 198 0
172 196 0
174 197 0
173 197 0
174 198 0
176 199 0
173 196 0
173 197 0
173 196 0
172 196 0
172 196 0
171 194 0
174 197 0
173 196 0
175 198 0
174 197 0
174 197 0
174 197 0
172 196 0
175 198 0
172 196 0
174 197 0
175 197 0
171 194 0
174 197 0
175 198 0
174 197 0
173 197 0
173 197 0
173 197 0
174 197 0
175 198 0
174 198 0
173 196 0
173 197 0
175 198 0
174 197 0
174 197 0
175 198 0
170 194 0
173 197 0
172 196 0
175 198 0
174 198 0
175 197 0
174 196 0
174 197 0
174 197 0
171 195 0
172 196 0
172 196 0
174 197 0
173 197 0
172 196 0
174 197 0
175 198 0
172 196 0
173 196 0
174 197 0
172 195 0
174 198 0
174 197 0
173 196 0
177 199 0
171 195 0
174 197 0
174 197 0
175 198 0
174 197 0
177 199 0
176 199 0
175 198 0
174 197 0
174 197 0
172 196 0
174 197 0
173 197 0
173 196 0
174 197 0
175 198 0
175 198 0
175 198 0
174 198 0
175 198 0
174 197 0
173 197 0
172 196 0
176 199 0
174 198 0
174 197 0
175 198 0
174 197 0
173 196 0
174 198 0
174 197 0
174 197 0
173 197 0
173 197 0
174 197 0
175 197 0
174 197 0
172 196 0
175 198 0
173 196 0
174 197 0
174 198 0
174 198 0
174 197 0
174 198 0
171 196 0
175 197 0
173 197 0
174 198 0
174 198 0
175 198 0
174 197 0
173 197 0
174 198 0
174 198 0
174 197 0
174 198 0
174 197 0
174 197 0
174 196 0
173 196 0
174 198 0
172 196 0
174 198 0
175 198 0
174 197 0
173 196 0
175 197 0
173 197 0
173 196 0
174 197 0
175 198 0
173 197 0
175 198 0
173 196 0
174 197 0
173 197 0
175 198 0
174 198 0
173 197 0
174 197 0
174 198 0
173 196 0
174 197 0
174 197 0
176 198 0
174 198 0
173 196 0
175 198 0
175 198 0
174 197 0
174 198 0
176 199 0
173 197 0
174 198 0
174 198 0
173 196 0
175 198 0
174 197 0
172 197 0
175 198 0
175 198 0
173 196 0
175 198 0
175 198 0
175 198 0
176 198 0
175 198 0
177 199 0
175 198 0
173 197 0
173 197 0
174 197 0
175 198 0
173 197 0
173 197 0
173 197 0
176 198 0
173 197 0
175 198 0
175 198 0
175 197 0
174 198 0
174 197 0
172 196 0
174 198 0
174 198 0
174 198 0
173 197 0
174 198 0
174 198 0
175 198 0
174 197 0
173 197 0
173 197 0
174 198 0
174 197 0
176 198 0
173 197 0
171 196 0
173 197 0
174 198 0
174 197 0
174 198 0
173 196 0
172 196 0
176 199 0
174 197 0
174 197 0
172 196 0
173 197 0
174 197 0
173 196 0
173 197 0
173 197 0
174 197 0
175 198 0
172 196 0
175 198 0
173 197 0
174 197 0
174 198 0
174 197 0
174 197 0
174 198 0
175 198 0
176 199 25
175 198 25
174 198 0
178 200 57
175 198 36
176 199 57
183 204 88
182 203 92
184 206 111
185 206 122
187 208 128
187 208 128
192 212 149
190 211 151
191 211 149
198 216 173
197 216 181
199 217 184
197 216 179
199 218 186
199 218 186
194 214 173
199 217 188
201 220 201
201 220 206
196 215 180
196 216 188
193 214 175
191 212 168
192 212 161
193 213 179
188 209 155
187 208 140
186 208 140
186 208 142
183 205 133
183 205 125
189 210 147
184 205 120
182 205 130
185 207 140
185 207 133
181 204 114
180 203 122
187 208 137
184 206 122
187 208 142
181 205 125
184 206 130
183 204 111
184 206 117
182 205 117
182 204 121
182 204 130
182 204 117
182 204 114
184 206 125
181 202 111
182 205 125
181 203 108
180 203 102
187 208 135
181 203 108
180 203 111
183 204 108
179 202 114
185 206 117
182 205 117
187 208 140
188 209 142
185 207 140
183 205 128
187 208 142
192 212 169
185 207 144
185 207 133
185 207 140
189 210 157
190 211 153
192 213 169
189 210 157
193 214 173
194 214 171
194 214 169
195 215 177
197 216 173
198 216 179
194 214 171
194 214 167
195 215 169
194 214 171
191 211 151
191 211 157
192 211 149
191 211 149
184 205 117
182 204 108
184 205 125
186 207 125
185 206 111
185 206 117
183 204 105
181 203 92
179 202 84
179 201 72
175 197 57
174 197 25
172 196 0
175 198 0
173 197 0
174 197 0
173 197 0
173 197 0
172 196 0
174 197 0
174 197 0
174 196 0
173 197 0
174 198 0
174 197 0
174 197 0
171 195 0
174 198 0
174 198 0
173 196 0
174 197 0
174 197 0
172 196 0
171 195 0
173 196 0
174 197 0
173 197 0
174 198 0
174 197 0
174 198 0
172 196 0
172 196 0
174 197 0
173 197 0
174 197 0
172 196 0
174 197 0
172 195 0
174 198 0
172 195 0
175 198 0
174 197 0
170 195 0
174 197 0
172 195 0
173 197 0
173 197 0
173 196 0
175 198 0
172 196 0
175 197 0
172 196 0
172 196 0
174 197 0
174 197 0
173 197 0
171 195 0
174 197 0
174 197 0
172 195 0
173 197 0
174 197 0
172 196 0
175 198 0
173 196 0
174 197 0
173 197 0
175 198 0
175 198 0
175 198 0
174 198 0
174 197 0
175 198 0
171 196 0
173 197 0
173 196 0
174 197 0
172 195 0
173 196 0
174 198 0
171 195 0
171 195 0
172 196 0
171 194 0
172 195 0
173 197 0
174 197 0
174 197 0
175 198 0
173 197 0
172 196 0
174 197 0
174 197 0
175 198 0
174 197 0
173 197 0
171 195 0
173 197 0
174 197 0
174 197 0
173 197 0
173 196 0
175 198 0
175 198 0
173 196 0
174 198 0
174 197 0
173 197 0
175 197 0
173 197 0
174 197 0
176 198 0
173 197 0
173 197 0
172 196 0
173 197 0
173 197 0
173 197 0
175 198 0
175 197 0
173 196 0
173 197 0
174 197 0
174 197 0
173 196 0
171 195 0
174 198 0
172 196 0
173 197 0
174 197 0
174 197 0
174 198 0
175 198 0
174 197 0
173 197 0
172 196 0
175 198 0
174 197 0
176 198 0
175 198 0
173 197 0
171 196 0
174 197 0
174 197 0
175 198 0
174 196 0
175 198 0
173 197 0
174 197 0
174 198 0
173 197 0
175 198 0
175 198 0
174 198 0
174 198 0
173 196 0
173 197 0
173 197 0
175 198 0
174 197 0
174 197 0
173 197 0
172 196 0
175 198 0
174 197 0
176 198 0
171 195 0
174 198 0
174 198 0
175 198 0
174 198 0
172 196 0
173 197 0
174 197 0
174 197 0
173 196 0
175 198 0
175 198 0
172 196 0
174 198 0
174 197 0
175 198 0
175 198 0
174 197 0
174 196 0
174 197 0
175 198 0
174 197 0
175 198 0
174 198 0
175 198 0
174 198 0
173 197 0
174 197 0
173 197 0
174 198 0
174 198 0
172 197 0
174 198 0
173 197 0
173 197 0
174 197 0
174 197 0
174 197 0
173 197 0
173 196 0
176 199 0
174 197 0
176 198 0
173 197 0
173 197 0
174 197 0
173 196 0
175 198 0
173 197 0
173 197 0
174 197 0
175 198 0
175 198 0
175 198 0
175 198 0
175 198 0
174 197 0
175 198 0
174 198 0
174 197 0
174 197 0
173 197 0
174 198 0
173 197 0
173 197 0
173 196 0
175 198 0
174 197 0
174 198 0
175 198 0
173 197 0
174 197 0
176 199 0
175 198 0
172 196 0
173 197 0
174 197 0
175 198 0
173 197 0
174 198 0
172 197 0
174 197 0
174 198 0
173 197 0
175 198 0
172 196 0
175 198 0
175 198 0
175 198 0
174 198 0
173 197 0
174 198 0
174 198 0
174 198 0
172 196 0
174 197 0
173 197 0
175 198 0
174 197 0
174 197 0
173 197 0
175 198 0
176 199 0
173 197 0
176 199 0
173 197 0
174 198 0
174 197 0
174 197 0
175 198 0
174 197 0
173 197 0
174 198 0
175 198 0
175 198 0
173 197 0
173 197 0
172 197 0
175 198 0
173 197 0
175 198 0
175 198 0
174 197 0
174 197 0
175 198 0
174 197 0
173 197 0
174 198 0
174 197 0
174 198 0
175 198 25
174 198 0
175 199 57
176 199 57
182 203 88
179 202 88
185 206 105
185 206 120
188 208 130
188 208 125
187 208 122
190 210 147
189 209 140
192 212 149
195 215 167
197 216 173
200 219 191
198 217 186
198 217 182
197 216 179
196 216 182
198 217 189
198 217 188
196 216 184
196 216 188
196 216 188
190 211 161
192 212 165
188 210 155
188 209 151
185 207 142
185 208 142
189 210 158
185 206 122
183 205 130
189 210 153
185 206 130
183 205 117
181 203 120
184 206 124
184 206 117
183 204 105
182 204 122
182 203 114
184 206 133
179 202 105
182 204 120
180 203 108
178 200 105
183 205 120
177 200 111
182 204 114
176 199 84
177 200 92
181 204 120
182 204 108
174 198 88
179 202 114
181 204 105
183 204 122
181 204 114
181 204 120
185 206 117
182 204 111
183 205 114
184 206 133
182 204 117
182 204 122
188 208 135
184 206 130
189 209 142
183 205 117
184 206 135
184 206 142
186 208 144
185 207 135
188 209 149
190 210 151
190 210 147
191 212 163
196 216 186
194 214 175
193 213 161
193 213 169
195 215 173
195 214 171
194 214 169
193 212 161
195 214 171
190 210 149
193 213 161
189 209 142
189 210 144
188 208 144
188 209 137
185 206 128
184 205 117
185 206 117
185 206 120
183 204 102
183 204 102
179 201 88
178 200 76
178 200 84
176 199 57
177 200 51
173 197 0
174 197 25
174 196 25
174 197 0
172 195 0
171 195 0
173 197 0
173 196 0
172 196 0
173 197 0
173 197 0
173 197 0
175 198 0
173 197 0
173 197 0
173 197 0
172 196 0
174 198 0
173 197 0
175 198 0
173 196 0
174 197 0
172 196 0
174 197 0
174 198 0
172 196 0
174 197 0
173 196 0
172 196 0
174 197 0
174 197 0
170 193 0
171 195 0
174 197 0
170 194 0
169 193 0
174 197 0
173 197 0
174 197 0
173 197 0
173 197 0
171 195 0
175 197 0
174 198 0
172 196 0
172 196 0
175 198 0
173 197 0
174 198 0
172 196 0
175 198 0
175 198 0
173 197 0
174 197 0
172 196 0
173 196 0
172 196 0
176 198 0
174 197 0
174 198 0
172 195 0
173 197 0
170 194 0
173 197 0
173 196 0
174 197 0
172 196 0
174 197 0
174 198 0
173 197 0
173 196 0
174 197 0
171 195 0
172 196 0
174 197 0
175 198 0
173 197 0
173 197 0
174 198 0
173 196 0
172 196 0
173 196 0
172 197 0
175 198 0
173 197 0
175 198 0
171 195 0
173 196 0
175 198 0
173 197 0
172 196 0
175 198 0
173 196 0
171 196 0
173 196 0
174 197 0
174 197 0
174 197 0
175 198 0
174 197 0
174 197 0
172 196 0
172 196 0
174 198 0
174 197 0
171 195 0
171 195 0
174 197 0
174 198 0
173 197 0
174 197 0
173 197 0
171 196 0
173 197 0
173 196 0
175 198 0
173 196 0
173 196 0
174 198 0
174 197 0
173 196 0
174 197 0
175 198 0
173 197 0
173 197 0
175 198 0
175 198 0
174 197 0
171 196 0
172 196 0
174 197 0
173 196 0
171 195 0
173 197 0
173 197 0
174 197 0
174 197 0
174 197 0
174 197 0
174 196 0
173 197 0
175 198 0
173 196 0
174 197 0
174 197 0
173 197 0
174 197 0
172 196 0
173 197 0
173 196 0
173 197 0
175 198 0
173 197 0
173 197 0
172 196 0
175 198 0
174 197 0
173 197 0
172 196 0
174 198 0
174 197 0
173 197 0
172 196 0
174 198 0
174 197 0
174 197 0
175 198 0
173 197 0
172 196 0
172 196 0
174 197 0
175 198 0
173 197 0
174 197 0
172 197 0
174 198 0
171 195 0
176 198 0
173 197 0
173 197 0
173 197 0
174 197 0
176 198 0
175 198 0
173 197 0
176 199 0
175 198 0
174 197 0
174 197 0
174 198 0
174 197 0
174 198 0
173 197 0
173 197 0
174 197 0
175 198 0
174 198 0
175 198 0
173 196 0
172 196 0
175 198 0
175 198 0
174 197 0
173 197 0
174 197 0
175 198 0
174 198 0
173 197 0
175 198 0
176 199 0
173 197 0
174 197 0
175 198 0
175 198 0
174 197 0
175 198 0
173 197 0
175 198 0
174 197 0
175 197 0
176 198 0
173 197 0
176 199 0
175 198 0
173 197 0
176 198 0
174 197 0
175 198 0
174 197 0
173 197 0
174 198 0
174 198 0
174 197 0
175 198 0
173 197 0
174 197 0
175 198 0
176 198 0
174 197 0
175 198 0
174 198 0
173 196 0
173 197 0
173 197 0
174 198 0
172 196 0
172 196 0
172 197 0
176 199 0
173 197 0
173 197 0
175 198 0
174 197 0
174 198 0
175 198 0
174 197 0
174 197 0
173 197 0
172 195 0
174 198 0
173 197 0
172 196 0
173 197 0
171 196 0
175 198 0
174 197 0
174 197 0
174 198 0
175 198 0
175 198 0
174 197 0
174 197 0
174 198 0
174 197 0
174 198 0
172 196 0
174 197 0
174 198 0
173 197 0
174 198 0
174 197 0
175 198 0
172 196 0
174 197 0
174 197 0
174 198 0
174 198 0
176 199 0
174 197 0
174 197 0
175 198 0
174 198 0
175 198 25
174 198 25
175 198 36
176 199 51
176 199 44
177 199 57
182 204 88
185 207 122
181 203 102
185 206 117
188 209 133
189 209 140
190 210 144
193 213 157
191 211 144
195 214 165
196 215 173
197 216 175
197 215 177
196 215 179
197 216 177
195 215 181
199 218 186
195 214 175
195 215 175
192 213 169
191 212 175
189 209 157
188 209 147
185 207 144
186 207 147
189 210 149
186 208 137
185 206 136
186 207 142
188 209 147
182 203 117
189 210 153
181 203 114
180 203 124
183 206 133
179 203 117
180 203 114
178 201 102
184 206 140
185 207 140
181 204 120
182 202 115
180 202 114
179 203 111
178 202 108
180 203 108
180 202 114
179 202 105
178 201 80
181 204 114
179 202 105
178 201 88
179 203 125
177 200 88
178 200 105
178 201 99
181 203 108
182 204 117
183 204 111
182 204 108
183 205 117
185 207 137
183 205 128
183 205 120
181 204 122
181 204 117
185 206 120
183 206 130
184 206 117
186 208 142
180 203 120
183 206 135
187 209 149
189 210 149
188 210 157
190 211 159
187 209 144
193 213 167
194 214 169
194 214 175
197 216 175
195 215 171
192 212 171
193 214 171
194 213 163
191 211 157
194 214 163
192 212 147
191 211 149
193 213 155
185 207 122
188 209 142
191 210 142
186 207 120
186 207 125
182 204 105
179 202 76
182 203 88
180 202 72
178 201 80
174 197 44
176 198 44
176 199 51
173 197 0
172 196 0
175 198 0
173 197 0
172 196 0
172 196 0
173 197 0
173 197 0
174 197 0
174 198 0
172 195 0
173 197 0
172 196 0
173 197 0
172 195 0
172 196 0
173 197 0
172 196 0
173 196 0
174 198 0
173 197 0
175 198 0
172 196 0
173 196 0
173 197 0
175 198 0
172 196 0
173 196 0
173 197 0
175 198 0
173 197 0
174 198 0
173 196 0
175 198 0
172 195 0
173 197 0
173 197 0
174 197 0
172 196 0
173 196 0
172 196 0
176 199 0
172 196 0
173 196 0
173 197 0
173 197 0
175 198 0
175 198 0
175 198 0
173 197 0
173 197 0
173 196 0
174 197 0
172 196 0
174 198 0
175 197 0
175 198 0
172 196 0
173 197 0
173 196 0
172 196 0
173 196 0
174 198 0
174 197 0
173 196 0
175 198 0
174 198 0
174 197 0
174 197 0
173 195 0
172 196 0
175 198 0
172 196 0
173 196 0
172 195 0
174 197 0
175 197 0
172 196 0
174 197 0
172 195 0
172 196 0
174 197 0
175 198 0
173 196 0
173 197 0
174 198 0
173 197 0
175 198 0
172 196 0
173 197 0
173 197 0
173 197 0
173 197 0
173 196 0
173 196 0
173 195 0
173 197 0
173 197 0
174 197 0
175 198 0
172 196 0
173 197 0
175 197 0
173 196 0
174 197 0
173 197 0
176 198 0
173 196 0
173 197 0
171 196 0
173 197 0
173 197 0
172 195 0
175 198 0
173 197 0
171 194 0
172 196 0
173 196 0
174 197 0
172 196 0
173 196 0
174 197 0
174 197 0
172 196 0
174 197 0
174 198 0
174 197 0
173 196 0
175 198 0
174 197 0
173 197 0
173 197 0
173 197 0
175 198 0
174 197 0
173 197 0
175 198 0
172 196 0
172 196 0
173 196 0
172 196 0
174 197 0
173 197 0
174 198 0
172 196 0
175 197 0
174 198 0
175 197 0
174 198 0
175 198 0
175 198 0
172 195 0
173 197 0
174 198 0
173 196 0
174 197 0
174 197 0
174 197 0
174 198 0
174 197 0
173 196 0
172 196 0
174 198 0
173 197 0
173 197 0
173 196 0
173 197 0
174 197 0
174 198 0
174 197 0
174 197 0
174 197 0
172 196 0
175 198 0
173 196 0
172 196 0
176 198 0
173 196 0
173 197 0
175 198 0
174 198 0
173 197 0
172 196 0
174 198 0
174 197 0
172 195 0
173 196 0
172 196 0
174 197 0
173 197 0
175 198 0
175 198 0
173 196 0
173 197 0
175 198 0
173 197 0
173 197 0
173 197 0
174 197 0
174 198 0
175 198 0
172 196 0
175 198 0
174 198 0
175 198 0
172 196 0
175 198 0
175 198 0
174 198 0
176 198 0
172 196 0
174 197 0
174 197 0
174 197 0
175 198 0
174 197 0
176 198 0
173 197 0
174 197 0
172 196 0
174 198 0
173 197 0
174 197 0
174 197 0
174 198 0
174 197 0
172 196 0
174 198 0
175 198 0
175 198 0
175 198 0
176 198 0
175 198 0
175 198 0
175 198 0
175 198 0
174 197 0
174 197 0
174 198 0
172 196 0
175 198 0
173 197 0
174 198 0
174 198 0
175 198 0
174 197 0
172 197 0
174 198 0
174 198 0
176 198 0
175 198 0
175 198 0
175 198 0
173 197 0
175 198 0
174 198 0
175 198 0
174 197 0
175 198 0
174 197 0
173 197 0
171 195 0
174 197 0
175 198 0
173 196 0
175 198 0
174 198 0
174 198 0
175 198 0
173 197 0
174 197 0
175 198 0
175 198 0
176 199 0
174 198 0
174 198 0
176 199 0
174 197 0
175 198 0
174 197 0
171 195 0
174 197 0
173 197 0
174 197 0
173 196 0
173 197 0
175 198 0
172 196 0
174 198 0
174 197 0
175 198 25
174 197 0
173 196 25
175 198 36
177 199 25
176 199 44
176 199 62
180 202 88
181 203 88
187 207 133
185 207 120
188 208 130
184 206 114
191 211 149
188 208 135
197 216 177
194 214 167
195 214 167
196 215 175
194 214 167
200 218 188
196 215 175
198 217 191
199 219 199
193 213 173
196 216 188
190 210 162
188 210 162
188 210 163
185 207 147
189 209 157
186 208 144
186 208 137
183 205 133
185 206 144
184 206 135
182 204 114
184 205 114
180 202 99
181 203 120
181 203 125
180 202 99
182 204 122
181 203 114
179 202 117
179 201 99
177 201 114
178 201 105
178 201 108
179 202 108
180 203 114
178 201 95
178 203 117
177 201 84
177 201 99
176 199 72
179 201 102
178 201 102
178 201 99
178 201 76
176 200 99
178 201 99
179 203 108
177 200 105
179 202 95
177 201 108
178 200 95
177 201 105
181 204 114
179 201 95
179 202 108
183 205 125
182 204 114
184 206 125
179 202 105
179 202 102
183 205 120
181 203 108
186 207 142
186 208 142
184 205 128
193 213 159
188 209 135
187 209 142
188 209 144
191 212 165
195 215 177
196 215 173
195 214 175
189 210 151
193 212 155
193 213 169
192 212 157
189 209 137
191 211 149
191 211 151
192 211 153
189 209 135
188 208 133
184 205 117
182 204 111
182 203 99
180 202 84
185 206 114
180 202 95
182 204 102
179 201 72
176 199 62
176 199 44
176 198 44
176 199 44
175 198 36
173 196 0
174 197 25
172 196 0
170 194 0
172 196 0
174 197 0
174 198 0
174 197 0
174 197 0
172 195 0
172 196 0
174 198 0
172 196 0
173 196 0
172 196 0
173 197 0
175 198 0
174 197 0
172 195 0
174 197 0
173 197 0
170 194 0
172 196 0
174 198 0
173 196 0
174 197 0
173 197 0
172 196 0
172 195 0
171 195 0
172 196 0
175 198 0
172 196 0
174 198 0
171 195 0
172 195 0
172 195 0
175 198 0
172 195 0
175 198 0
172 196 0
172 196 0
174 197 0
173 197 0
171 196 0
170 193 0
173 196 0
173 196 0
172 195 0
175 198 0
172 196 0
174 198 0
175 198 0
173 196 0
170 194 0
174 197 0
174 198 0
172 194 0
173 197 0
172 196 0
175 197 0
172 196 0
172 196 0
173 197 0
174 197 0
172 196 0
172 196 0
173 196 0
173 196 0
175 197 0
175 198 0
173 197 0
175 198 0
172 196 0
173 197 0
171 194 0
172 196 0
174 198 0
175 197 0
173 197 0
171 195 0
172 196 0
173 197 0
172 196 0
172 196 0
174 198 0
173 196 0
175 198 0
173 196 0
174 198 0
173 196 0
172 196 0
175 198 0
174 197 0
173 196 0
173 196 0
176 199 0
173 196 0
174 197 0
173 197 0
172 195 0
172 196 0
172 196 0
174 198 0
173 197 0
173 197 0
175 198 0
174 198 0
174 197 0
173 197 0
175 198 0
174 197 0
175 198 0
173 197 0
173 196 0
174 198 0
174 196 0
173 197 0
175 197 0
174 197 0
175 198 0
175 198 0
173 196 0
172 196 0
171 194 0
176 198 0
173 197 0
172 196 0
173 196 0
174 197 0
172 196 0
175 198 0
173 197 0
174 197 0
173 197 0
174 198 0
173 197 0
172 196 0
173 197 0
172 196 0
172 196 0
174 197 0
172 196 0
173 197 0
175 198 0
174 197 0
173 196 0
173 197 0
173 197 0
174 197 0
173 197 0
172 196 0
174 197 0
174 197 0
175 198 0
175 197 0
175 198 0
174 198 0
174 197 0
173 196 0
174 197 0
174 197 0
173 197 0
174 197 0
174 197 0
175 198 0
174 198 0
174 198 0
171 195 0
173 197 0
176 199 0
173 197 0
173 197 0
172 195 0
173 197 0
174 198 0
174 197 0
175 198 0
171 195 0
176 199 0
174 197 0
174 198 0
172 196 0
175 198 0
171 195 0
176 199 0
172 196 0
173 196 0
173 196 0
175 198 0
173 196 0
172 197 0
175 197 0
174 197 0
174 198 0
173 197 0
173 197 0
175 198 0
174 198 0
174 197 0
173 197 0
175 198 0
174 198 0
173 196 0
173 197 0
172 196 0
173 197 0
173 197 0
173 196 0
175 198 0
175 198 0
176 198 0
171 195 0
175 197 0
173 197 0
174 197 0
172 196 0
175 198 0
176 199 0
173 196 0
174 197 0
173 197 0
173 197 0
174 197 0
174 197 0
174 198 0
173 197 0
173 197 0
176 199 0
174 198 0
176 198 0
174 197 0
173 196 0
175 198 0
172 197 0
175 198 0
175 198 0
174 197 0
175 198 0
173 197 0
172 197 0
173 197 0
173 196 0
175 198 0
175 198 0
174 197 0
173 197 0
173 196 0
173 197 0
174 198 0
174 197 0
173 197 0
173 196 0
174 198 0
175 198 0
174 197 0
174 198 0
173 197 0
175 198 0
174 197 0
174 197 0
174 197 0
175 198 0
175 198 0
173 196 0
173 197 0
174 198 0
176 199 0
173 197 0
175 198 0
173 197 0
176 198 0
174 197 0
174 197 0
173 197 0
174 198 0
174 197 0
173 197 0
171 195 0
174 197 0
174 197 0
172 196 0
175 198 0
173 197 0
176 199 0
174 197 0
175 198 0
173 197 0
175 198 25
175 199 44
176 198 36
174 197 0
175 199 36
177 200 57
177 200 72
181 203 88
183 204 95
180 202 95
184 205 114
190 210 142
191 211 147
193 213 157
192 211 144
192 212 159
192 212 155
197 216 179
194 213 161
196 216 177
201 219 194
198 217 184
198 217 184
197 216 184
193 214 175
194 214 175
188 209 155
189 210 161
189 209 154
189 210 157
187 208 140
188 209 135
183 206 128
182 205 114
183 204 125
188 209 149
180 202 95
183 205 133
178 201 105
180 203 111
180 203 108
178 201 102
176 199 102
180 202 122
180 203 114
180 203 111
180 202 108
179 202 102
176 199 80
179 202 111
174 199 102
175 198 76
177 200 88
174 198 67
175 199 76
176 199 92
178 201 84
176 199 95
175 199 92
176 200 105
177 201 102
177 201 105
176 200 105
176 201 105
175 198 92
178 200 88
178 202 108
179 202 88
177 200 99
179 203 111
179 202 99
180 203 102
178 201 111
179 202 108
180 203 108
177 200 80
184 206 117
181 204 111
184 206 128
184 206 120
184 206 111
180 202 114
185 206 130
188 209 137
190 210 153
191 212 157
194 214 171
193 213 167
194 213 165
193 213 161
191 211 159
192 212 161
191 211 153
190 210 144
187 208 142
194 213 157
189 209 155
191 211 144
185 206 122
187 208 135
184 205 114
186 207 120
182 204 95
180 202 92
181 202 88
183 204 111
185 205 95
177 199 57
179 201 67
173 196 51
172 196 25
171 195 0
174 197 25
174 198 25
173 197 0
174 198 25
174 197 0
173 197 0
173 197 0
173 196 0
174 198 0
174 197 0
173 196 0
174 197 0
173 197 0
170 195 0
173 196 0
173 197 0
174 197 0
172 196 0
172 195 0
173 196 0
170 194 0
173 197 0
173 197 0
173 196 0
173 196 0
173 196 0
176 198 0
173 196 0
175 198 0
172 196 0
172 196 0
172 196 0
175 198 0
171 194 0
172 196 0
173 197 0
175 198 0
172 196 0
174 197 0
172 196 0
171 195 0
170 194 0
174 197 0
175 198 0
174 197 0
174 197 0
171 195 0
174 197 0
173 197 0
172 196 0
170 193 0
174 197 0
173 197 0
171 195 0
173 197 0
174 198 0
173 197 0
173 197 0
173 197 0
174 198 0
174 197 0
174 197 0
174 197 0
172 196 0
172 196 0
173 196 0
173 196 0
173 196 0
174 197 0
173 197 0
174 197 0
173 196 0
175 198 0
174 198 0
174 197 0
174 197 0
173 197 0
174 197 0
172 195 0
172 196 0
172 195 0
172 195 0
173 196 0
172 196 0
175 198 0
174 197 0
174 198 0
173 196 0
175 198 0
176 198 0
173 196 0
173 196 0
175 198 0
175 198 0
173 197 0
173 196 0
172 196 0
172 196 0
174 196 0
172 195 0
172 196 0
175 198 0
173 196 0
174 197 0
174 198 0
175 198 0
174 198 0
172 196 0
172 195 0
173 197 0
173 197 0
173 196 0
175 198 0
173 197 0
175 198 0
173 196 0
174 197 0
172 195 0
174 197 0
173 196 0
174 197 0
173 197 0
175 198 0
175 198 0
174 197 0
174 198 0
174 198 0
175 198 0
174 197 0
174 197 0
173 197 0
172 196 0
174 198 0
175 198 0
173 197 0
173 197 0
173 195 0
174 198 0
174 197 0
174 197 0
173 197 0
173 197 0
174 198 0
174 198 0
174 198 0
173 197 0
174 196 0
174 197 0
174 198 0
174 198 0
172 196 0
173 197 0
174 197 0
175 198 0
173 197 0
171 195 0
174 197 0
174 197 0
173 196 0
172 196 0
173 197 0
174 197 0
174 198 0
175 198 0
175 197 0
173 197 0
173 197 0
174 197 0
172 196 0
172 196 0
172 196 0
172 196 0
175 198 0
174 197 0
176 199 0
173 197 0
174 198 0
176 199 0
173 196 0
174 198 0
174 198 0
175 198 0
172 197 0
174 197 0
173 197 0
174 197 0
174 198 0
174 198 0
174 197 0
173 197 0
174 197 0
173 196 0
174 198 0
172 196 0
175 198 0
177 199 0
174 197 0
175 198 0
171 196 0
173 197 0
173 197 0
175 198 0
174 198 0
173 197 0
174 198 0
176 199 0
174 197 0
174 197 0
175 198 0
174 197 0
173 197 0
174 197 0
175 198 0
172 196 0
173 197 0
174 197 0
173 197 0
175 198 0
173 196 0
173 197 0
173 197 0
175 198 0
173 197 0
174 197 0
174 198 0
174 198 0
174 198 0
174 198 0
173 197 0
173 197 0
174 198 0
175 197 0
174 198 0
175 198 0
175 198 0
174 198 0
175 198 0
175 198 0
173 197 0
175 198 0
175 198 0
174 197 0
174 198 0
173 196 0
174 198 0
175 198 0
173 197 0
175 198 0
174 197 0
173 197 0
173 197 0
172 196 0
174 198 0
174 198 0
175 198 0
174 197 0
173 197 0
172 196 0
174 198 0
175 198 0
174 197 0
173 197 0
173 197 0
175 198 0
174 197 0
174 198 0
173 197 0
172 197 0
176 198 0
175 198 0
173 197 0
173 197 0
173 197 0
174 198 0
174 198 0
174 197 0
175 198 0
172 196 0
173 196 0
173 197 0
174 197 0
173 197 0
174 197 0
174 198 0
174 198 0
176 199 0
174 197 0
175 198 25
173 197 0
174 198 25
175 199 36
173 197 25
175 199 44
176 200 67
179 201 88
182 204 102
184 206 125
181 203 95
189 210 137
189 209 135
189 209 135
191 211 149
195 214 163
194 214 165
195 214 165
199 217 182
197 216 183
200 219 196
198 217 184
194 214 175
196 215 177
196 216 182
192 212 169
193 213 165
188 209 148
188 210 153
187 208 147
187 208 147
185 207 135
184 206 128
184 206 122
182 205 128
182 204 115
184 206 114
178 201 117
180 203 117
178 201 92
177 200 95
176 199 108
182 203 105
175 198 88
176 200 95
177 200 99
177 201 111
176 199 76
177 200 99
177 200 92
178 201 92
176 200 95
176 199 102
173 198 72
177 201 102
176 199 92
175 199 76
174 198 84
173 198 76
175 199 80
175 199 92
177 201 111
174 198 84
175 199 84
177 200 88
177 201 84
175 199 76
177 201 88
180 203 108
177 200 99
178 201 92
178 202 105
178 201 92
179 201 99
180 203 111
180 203 99
180 202 99
182 204 102
181 203 105
180 203 102
185 206 114
182 204 120
185 207 140
186 207 140
187 209 144
187 208 149
190 210 153
188 209 153
190 210 149
190 211 149
192 212 155
194 213 169
196 215 167
190 211 153
191 211 153
190 210 147
193 213 159
185 206 120
188 209 144
187 208 133
188 209 144
185 206 130
182 204 108
185 205 111
182 203 102
182 203 92
182 204 105
177 200 80
181 203 80
174 197 0
176 199 51
174 198 25
175 198 25
175 197 0
176 199 25
173 196 0
172 196 0
173 197 0
170 195 0
174 197 0
175 198 0
173 197 0
172 195 0
174 197 0
173 196 0
174 197 0
174 197 0
174 197 0
173 196 0
172 195 0
175 198 0
172 196 0
173 196 0
170 195 0
173 197 0
174 196 0
173 196 0
172 196 0
174 197 0
172 196 0
173 196 0
174 197 0
173 197 0
173 196 0
174 197 0
172 196 0
172 196 0
174 197 0
171 195 0
172 196 0
173 196 0
173 197 0
172 195 0
173 196 0
173 197 0
173 197 0
172 196 0
173 196 0
175 198 0
175 198 0
173 197 0
169 193 0
173 196 0
175 198 0
174 197 0
172 196 0
171 194 0
174 197 0
172 196 0
174 197 0
173 197 0
172 196 0
174 198 0
174 197 0
172 197 0
174 197 0
173 196 0
172 195 0
173 197 0
174 197 0
173 195 0
174 197 0
171 194 0
173 197 0
174 197 0
174 197 0
174 197 0
175 198 0
171 195 0
175 198 0
171 194 0
173 197 0
174 197 0
177 199 0
174 197 0
174 197 0
174 197 0
174 198 0
170 195 0
172 196 0
173 196 0
171 195 0
173 196 0
172 196 0
173 197 0
174 198 0
175 198 0
172 195 0
173 197 0
172 195 0
174 198 0
173 197 0
174 197 0
174 197 0
172 195 0
175 198 0
173 197 0
170 194 0
173 196 0
171 195 0
173 197 0
174 197 0
174 197 0
174 197 0
171 195 0
173 197 0
173 196 0
172 196 0
172 196 0
174 197 0
171 195 0
173 196 0
173 196 0
174 197 0
173 197 0
173 197 0
174 197 0
175 198 0
172 196 0
173 196 0
173 196 0
174 197 0
175 198 0
173 195 0
174 197 0
173 196 0
173 196 0
175 198 0
176 199 0
173 197 0
174 197 0
175 198 0
175 198 0
175 198 0
173 197 0
173 197 0
171 195 0
174 198 0
173 196 0
173 195 0
174 197 0
174 197 0
173 197 0
175 198 0
174 197 0
175 198 0
174 196 0
175 198 0
174 197 0
175 198 0
173 197 0
175 198 0
175 198 0
174 197 0
174 197 0
176 199 0
175 198 0
172 195 0
175 198 0
174 198 0
172 196 0
174 197 0
174 198 0
174 198 0
173 196 0
172 196 0
174 197 0
174 197 0
175 198 0
173 197 0
173 197 0
174 197 0
174 198 0
173 197 0
172 197 0
173 196 0
173 197 0
173 197 0
174 197 0
173 196 0
173 196 0
173 197 0
175 198 0
174 197 0
172 196 0
174 197 0
173 197 0
173 196 0
174 198 0
173 197 0
176 198 0
174 198 0
173 197 0
173 197 0
175 198 0
176 199 0
172 196 0
174 197 0
175 198 0
174 197 0
173 197 0
173 196 0
173 197 0
173 197 0
173 196 0
174 198 0
174 198 0
173 197 0
174 197 0
175 198 0
174 198 0
172 196 0
173 197 0
174 197 0
174 198 0
176 199 0
175 198 0
174 198 0
174 198 0
175 198 0
174 198 0
175 198 0
173 197 0
173 197 0
175 198 0
176 199 0
174 198 0
173 197 0
175 198 0
174 198 0
174 198 0
173 197 0
174 198 0
174 198 0
174 198 0
174 198 0
173 197 0
174 197 0
173 196 0
176 199 0
174 198 0
174 197 0
175 198 0
173 196 0
173 197 0
175 198 0
173 197 0
174 198 0
174 197 0
176 199 0
173 197 0
173 197 0
174 198 0
173 197 0
175 198 0
174 198 0
176 198 0
175 198 0
175 198 0
175 198 0
174 198 0
175 198 0
174 198 0
175 198 0
175 198 0
174 197 0
174 197 0
172 197 0
174 198 0
174 197 0
174 197 0
175 197 0
174 198 0
175 198 0
174 197 0
174 198 0
172 197 0
174 198 0
174 198 0
174 197 0
175 198 0
174 198 0
173 197 0
176 199 25
174 197 36
175 198 44
179 201 72
181 203 99
185 206 108
184 205 105
188 208 133
188 208 130
185 206 114
190 211 147
190 210 144
196 216 177
196 215 177
192 212 161
194 214 165
197 216 177
198 217 186
197 216 186
196 215 173
195 215 169
191 211 165
192 212 165
191 212 167
186 208 147
189 210 149
186 207 142
188 210 149
186 207 133
181 203 111
184 206 133
184 205 131
181 204 108
183 205 117
176 199 80
180 203 95
180 202 99
177 200 108
176 200 88
179 201 102
177 201 99
174 198 82
175 198 88
173 197 90
175 198 57
176 199 72
176 201 99
175 199 105
174 198 80
177 200 76
178 201 76
174 198 72
174 198 80
176 199 94
173 197 84
174 198 57
174 197 44
175 199 76
176 199 57
176 200 88
177 201 102
174 198 84
174 198 88
176 200 84
175 199 80
179 201 88
177 200 92
176 199 76
178 201 95
177 200 72
180 203 105
179 202 102
179 202 92
178 201 95
177 200 88
179 202 99
182 204 114
183 204 117
183 205 120
182 205 114
182 204 130
182 204 122
186 207 135
187 209 140
187 208 147
186 207 147
187 208 137
195 215 175
190 210 142
192 212 157
194 214 169
192 211 157
193 213 159
189 210 147
189 209 142
186 207 122
189 209 140
184 206 125
188 209 133
187 207 137
187 208 128
183 205 102
184 205 105
183 204 108
182 203 92
181 202 88
178 200 57
174 198 25
174 198 44
172 195 25
172 197 25
175 198 36
173 196 36
175 198 0
172 196 0
166 190 0
173 196 0
174 197 0
171 195 0
173 196 0
173 196 0
171 196 0
175 198 0
174 197 0
174 197 0
174 198 0
172 196 0
175 197 0
172 195 0
172 196 0
173 196 0
174 197 0
174 197 0
175 198 0
172 196 0
172 196 0
173 196 0
172 196 0
172 196 0
172 195 0
171 196 0
173 196 0
174 198 0
172 196 0
174 197 0
172 195 0
172 195 0
169 193 0
174 197 0
171 196 0
174 197 0
174 196 0
174 197 0
172 196 0
172 196 0
173 196 0
171 195 0
174 197 0
172 196 0
171 195 0
173 197 0
173 197 0
175 198 0
174 198 0
174 197 0
173 196 0
173 196 0
172 196 0
174 197 0
174 198 0
174 198 0
172 195 0
174 198 0
174 197 0
173 196 0
174 197 0
173 197 0
173 196 0
171 195 0
174 197 0
175 197 0
173 196 0
173 197 0
175 197 0
174 197 0
174 198 0
173 197 0
172 196 0
174 198 0
173 197 0
173 196 0
172 196 0
172 195 0
173 197 0
172 196 0
173 197 0
173 197 0
171 195 0
173 196 0
174 197 0
171 194 0
172 195 0
174 197 0
171 194 0
175 198 0
175 198 0
174 197 0
173 197 0
171 195 0
173 197 0
175 198 0
172 197 0
173 197 0
174 198 0
174 197 0
174 197 0
173 197 0
174 197 0
175 198 0
174 198 0
173 195 0
173 197 0
174 197 0
173 196 0
173 196 0
172 197 0
172 197 0
172 196 0
175 198 0
173 197 0
173 197 0
173 197 0
174 197 0
172 197 0
174 198 0
173 197 0
173 197 0
177 199 0
173 196 0
172 195 0
174 198 0
175 198 0
173 196 0
173 196 0
174 198 0
174 198 0
175 197 0
175 198 0
173 197 0
173 197 0
174 198 0
175 198 0
174 197 0
173 197 0
173 197 0
173 196 0
171 196 0
174 197 0
174 197 0
174 198 0
172 196 0
174 198 0
174 197 0
174 198 0
173 197 0
173 196 0
173 197 0
173 197 0
172 195 0
175 198 0
174 197 0
174 197 0
174 197 0
174 197 0
172 195 0
174 197 0
173 196 0
175 198 0
171 195 0
174 197 0
174 198 0
175 198 0
173 196 0
174 198 0
173 197 0
174 198 0
175 198 0
172 196 0
174 197 0
175 198 0
174 198 0
174 198 0
174 197 0
173 197 0
174 197 0
172 196 0
175 198 0
175 198 0
175 198 0
174 197 0
174 197 0
173 196 0
176 199 0
175 198 0
172 197 0
174 198 0
174 198 0
173 197 0
174 197 0
173 197 0
175 198 0
173 197 0
173 197 0
174 197 0
175 198 0
174 197 0
175 198 0
174 197 0
172 197 0
175 198 0
174 198 0
174 197 0
173 197 0
173 197 0
174 198 0
175 198 0
175 198 0
175 198 0
174 198 0
176 198 0
175 198 0
174 198 0
175 198 0
174 197 0
175 198 0
174 197 0
174 198 0
175 198 0
173 197 0
174 197 0
175 198 0
176 199 0
173 197 0
174 198 0
175 198 0
175 198 0
175 198 0
174 198 0
173 197 0
174 197 0
176 198 0
176 199 0
174 197 0
173 197 0
175 198 0
174 197 0
174 197 0
175 198 0
173 197 0
175 198 0
175 198 0
175 198 0
174 198 0
174 198 0
173 196 0
175 198 0
174 198 0
174 198 0
173 197 0
174 198 0
174 198 0
173 196 0
174 198 0
173 197 0
174 197 0
174 198 0
174 198 0
174 198 0
174 197 0
174 198 0
174 197 0
175 198 0
174 197 0
174 198 0
175 198 0
173 197 0
172 196 0
173 197 0
174 197 0
174 198 0
174 197 0
175 198 0
175 198 0
175 198 0
174 198 0
174 198 0
175 198 0
173 197 25
175 198 36
173 197 0
175 198 25
175 199 36
179 201 67
178 201 67
179 201 76
184 205 108
183 204 99
183 205 105
181 203 92
186 207 130
191 211 147
188 208 135
190 210 140
189 209 140
191 211 151
197 216 181
199 217 181
194 213 163
196 215 179
199 217 184
197 217 188
194 213 171
190 211 161
188 209 149
187 208 148
186 207 144
184 206 140
183 204 114
182 205 114
181 203 117
184 206 117
182 204 122
180 203 111
179 201 103
177 200 67
177 200 84
177 200 102
176 200 108
176 200 95
173 197 67
174 198 95
177 200 94
175 199 88
175 198 67
175 198 62
174 198 95
173 196 88
172 196 70
173 197 72
175 199 88
176 200 88
173 197 84
175 199 102
173 197 80
175 199 70
174 197 44
177 199 76
175 199 92
175 199 76
176 200 92
175 199 72
174 199 80
177 200 62
174 199 67
173 198 62
178 201 84
174 198 88
175 200 84
177 200 76
177 201 88
174 197 84
178 200 80
178 201 102
182 204 117
179 202 95
179 202 99
177 200 88
180 203 105
179 202 105
180 202 99
181 204 108
187 208 140
184 206 128
185 206 133
187 208 147
191 212 159
189 210 155
189 210 153
193 213 161
196 215 177
187 208 142
191 212 153
188 209 140
188 209 137
187 207 133
188 209 140
186 207 122
188 209 135
184 205 117
184 205 114
183 204 114
181 203 102
182 204 99
176 199 67
180 202 80
180 202 92
177 199 72
179 201 67
175 198 36
175 198 25
173 197 0
174 197 0
172 195 0
173 197 0
173 196 0
171 194 0
174 198 0
174 197 0
175 198 0
174 197 0
174 197 0
174 197 0
175 197 0
174 197 0
173 196 0
171 195 0
175 198 0
173 197 0
172 196 0
173 197 0
174 197 0
174 197 0
174 197 0
175 198 0
172 196 0
172 195 0
172 196 0
173 197 0
172 196 0
174 197 0
174 197 0
172 196 0
173 197 0
173 196 0
172 196 0
172 196 0
174 198 0
171 195 0
173 197 0
173 196 0
171 195 0
171 195 0
174 197 0
172 196 0
171 195 0
174 198 0
174 197 0
172 196 0
174 197 0
174 197 0
173 197 0
172 195 0
171 195 0
175 198 0
174 197 0
172 195 0
171 195 0
173 196 0
174 197 0
171 195 0
172 196 0
171 195 0
172 196 0
174 198 0
173 197 0
171 195 0
173 197 0
173 196 0
174 197 0
175 198 0
172 196 0
173 196 0
173 196 0
173 196 0
173 196 0
173 197 0
173 197 0
172 196 0
176 198 0
172 196 0
172 196 0
172 195 0
173 197 0
172 196 0
171 195 0
175 198 0
174 197 0
174 197 0
171 195 0
173 197 0
173 197 0
173 196 0
173 197 0
171 195 0
172 196 0
173 197 0
173 197 0
173 197 0
172 196 0
176 199 0
175 198 0
174 198 0
176 199 0
175 198 0
174 197 0
174 198 0
174 197 0
173 197 0
173 197 0
173 196 0
175 198 0
172 195 0
175 198 0
174 197 0
174 197 0
172 197 0
172 195 0
174 198 0
175 198 0
173 196 0
174 197 0
172 196 0
172 195 0
174 198 0
174 198 0
173 196 0
174 197 0
173 197 0
174 197 0
175 198 0
173 197 0
174 197 0
172 196 0
174 197 0
174 197 0
172 195 0
173 197 0
174 198 0
174 197 0
173 196 0
174 197 0
174 197 0
175 198 0
174 197 0
172 195 0
173 197 0
176 199 0
174 198 0
174 197 0
175 198 0
173 197 0
173 197 0
173 197 0
171 194 0
172 196 0
176 198 0
174 198 0
173 197 0
174 197 0
174 197 0
173 197 0
175 198 0
173 197 0
173 197 0
174 198 0
173 197 0
175 198 0
173 196 0
174 197 0
173 197 0
174 197 0
177 199 0
173 197 0
174 198 0
174 197 0
174 198 0
173 197 0
171 195 0
174 197 0
174 197 0
174 198 0
174 198 0
173 197 0
174 197 0
174 198 0
175 198 0
174 197 0
174 196 0
174 198 0
175 198 0
174 197 0
173 197 0
175 198 0
174 198 0
174 197 0
173 197 0
174 198 0
176 199 0
172 196 0
176 199 0
173 196 0
174 198 0
173 197 0
173 196 0
174 197 0
172 196 0
174 197 0
174 197 0
172 197 0
174 197 0
173 197 0
172 195 0
174 198 0
173 197 0
173 197 0
172 196 0
173 197 0
172 196 0
174 197 0
174 197 0
176 198 0
172 197 0
175 198 0
174 197 0
174 197 0
174 197 0
175 198 0
173 197 0
174 198 0
173 197 0
172 197 0
175 198 0
175 198 0
174 197 0
175 197 0
174 198 0
174 198 0
174 197 0
175 198 0
175 198 0
175 198 0
174 198 0
174 197 0
175 198 0
174 198 0
173 197 0
176 199 0
176 198 0
175 198 0
175 197 0
173 197 0
175 198 0
174 198 0
173 197 0
173 197 0
174 198 0
174 198 0
171 195 0
172 196 0
174 197 0
175 198 0
175 198 0
174 198 0
173 197 0
172 196 0
172 196 0
175 198 0
174 197 0
174 198 0
173 197 0
175 198 0
173 197 0
172 196 0
174 198 0
173 197 0
174 198 0
173 196 0
174 197 0
173 197 0
173 197 0
174 198 0
173 197 0
174 198 0
174 197 0
174 197 0
174 198 0
175 198 0
174 198 25
175 198 0
176 199 36
176 199 44
174 197 25
177 200 57
179 201 84
177 199 72
183 204 105
183 205 111
185 207 122
187 207 122
188 209 137
189 210 140
190 211 147
190 211 147
196 215 171
191 212 161
199 217 181
197 216 182
195 214 177
195 214 174
195 214 165
196 215 181
192 212 163
188 210 151
191 211 157
186 207 141
183 205 128
183 205 114
180 203 102
184 206 117
183 205 130
181 203 111
180 203 105
183 205 122
177 200 108
175 199 92
174 198 92
178 200 99
177 200 102
178 201 105
174 198 72
173 196 86
174 198 88
177 200 84
171 196 74
171 195 86
173 198 94
172 197 72
171 195 88
176 200 88
174 198 72
172 196 67
176 200 76
172 196 57
172 197 88
173 197 67
173 196 54
173 198 95
175 199 90
174 198 80
176 200 88
175 198 76
174 198 62
174 197 76
173 197 62
175 199 76
174 199 76
175 199 84
175 199 99
174 198 76
177 200 95
175 199 67
176 200 84
179 201 92
179 202 88
176 199 72
179 203 108
180 202 99
181 203 108
183 204 108
181 203 105
179 202 92
181 202 99
182 204 102
186 207 128
181 203 105
189 210 151
188 208 140
194 214 167
188 209 147
189 209 135
192 212 155
191 211 163
187 208 135
191 211 155
184 206 117
187 208 128
185 206 122
185 206 117
187 208 122
183 204 114
179 202 80
182 204 95
182 204 105
181 203 102
179 202 76
180 202 84
175 198 57
178 200 62
172 195 0
176 199 51
175 198 25
174 197 36
175 198 25
172 196 0
174 197 0
174 197 0
174 197 0
173 195 0
174 198 0
172 195 0
173 197 0
173 196 0
172 195 0
173 197 0
174 197 0
171 195 0
173 197 0
172 195 0
172 196 0
172 196 0
174 198 0
175 198 0
173 197 0
171 194 0
172 195 0
172 195 0
173 197 0
173 196 0
173 196 0
174 197 0
172 196 0
175 197 0
174 197 0
172 195 0
173 196 0
172 196 0
172 196 0
173 197 0
174 197 0
171 195 0
171 195 0
172 195 0
171 194 0
174 197 0
173 196 0
173 197 0
172 196 0
174 197 0
172 196 0
171 195 0
172 195 0
175 198 0
172 195 0
172 195 0
172 196 0
173 196 0
173 197 0
172 195 0
172 196 0
174 197 0
173 196 0
173 196 0
173 197 0
172 196 0
171 195 0
174 197 0
175 198 0
172 196 0
172 196 0
172 196 0
175 198 0
172 196 0
173 197 0
173 197 0
173 196 0
175 198 0
172 195 0
172 195 0
173 196 0
173 196 0
174 198 0
172 195 0
173 197 0
173 197 0
172 196 0
173 197 0
172 195 0
174 197 0
170 194 0
172 196 0
173 196 0
174 198 0
172 196 0
174 197 0
174 198 0
176 198 0
173 196 0
172 196 0
172 196 0
173 197 0
175 197 0
172 196 0
172 195 0
172 196 0
172 195 0
173 197 0
170 194 0
172 195 0
171 195 0
171 195 0
175 197 0
174 197 0
172 196 0
172 196 0
173 196 0
172 196 0
171 195 0
174 197 0
175 198 0
174 197 0
172 196 0
174 197 0
172 196 0
173 197 0
174 197 0
172 196 0
172 196 0
174 197 0
173 196 0
173 197 0
175 198 0
172 196 0
173 197 0
175 197 0
174 197 0
173 197 0
175 198 0
173 196 0
173 197 0
174 197 0
176 199 0
175 198 0
173 197 0
172 195 0
174 198 0
174 197 0
173 196 0
174 198 0
171 196 0
174 197 0
174 198 0
174 197 0
174 198 0
174 197 0
173 197 0
175 197 0
174 198 0
175 197 0
174 197 0
172 196 0
175 198 0
173 196 0
173 197 0
173 197 0
174 197 0
172 196 0
174 197 0
174 197 0
173 197 0
175 198 0
175 198 0
174 197 0
173 197 0
174 198 0
173 196 0
173 197 0
174 197 0
174 197 0
172 196 0
174 198 0
171 195 0
174 197 0
172 196 0
172 196 0
173 197 0
173 197 0
172 196 0
174 197 0
174 198 0
175 198 0
174 197 0
176 198 0
174 197 0
174 197 0
174 198 0
174 198 0
174 197 0
175 198 0
174 197 0
174 197 0
176 199 0
174 197 0
173 197 0
175 198 0
175 198 0
175 198 0
173 197 0
173 197 0
171 195 0
175 198 0
174 198 0
174 198 0
174 198 0
173 197 0
173 197 0
175 198 0
173 196 0
173 197 0
175 198 0
175 198 0
174 197 0
175 198 0
173 197 0
173 197 0
175 198 0
175 198 0
174 197 0
174 197 0
173 197 0
174 198 0
174 198 0
176 198 0
174 197 0
174 197 0
174 198 0
174 198 0
174 197 0
174 197 0
173 197 0
175 198 0
174 198 0
175 198 0
174 198 0
174 197 0
174 198 0
175 198 0
174 198 0
173 197 0
174 197 0
176 198 0
172 196 0
174 197 0
174 198 0
175 198 0
173 197 0
174 197 0
174 198 0
174 198 0
174 197 0
172 197 0
174 198 0
173 197 0
175 198 0
175 198 0
175 198 0
175 198 0
175 198 0
175 198 0
173 197 0
175 198 0
175 198 0
174 198 0
173 197 0
174 197 0
175 198 0
173 197 0
173 196 0
174 197 0
175 198 0
174 197 0
173 197 0
174 197 0
172 196 0
175 198 0
172 196 0
174 197 0
173 197 0
173 196 0
175 198 25
174 198 25
174 198 36
174 198 25
179 201 76
181 203 92
180 202 92
184 205 108
179 202 84
186 207 122
186 207 120
191 210 142
188 208 133
188 208 142
190 209 137
195 214 169
194 213 165
188 209 149
197 216 177
196 215 177
193 213 159
192 212 174
193 213 171
190 210 157
190 210 159
186 207 137
183 205 117
183 205 114
184 205 117
181 203 102
183 205 133
179 202 95
178 201 117
179 201 92
177 200 95
180 202 102
176 199 95
179 201 84
173 197 72
172 196 67
172 197 86
174 198 90
172 197 80
172 197 51
172 195 57
171 194 76
169 194 62
174 198 72
172 195 54
173 197 72
175 198 86
173 197 78
173 198 97
171 195 72
174 197 62
176 199 74
175 199 95
176 200 80
175 199 76
173 197 67
175 199 76
173 197 67
175 199 72
177 201 84
175 198 67
174 198 72
172 195 51
175 198 62
175 198 76
172 196 36
175 198 62
175 199 72
176 200 80
173 197 67
176 200 72
176 200 84
177 200 84
177 200 84
178 201 95
180 203 111
182 204 114
183 205 105
185 207 135
180 202 88
182 204 111
181 204 120
183 205 114
182 204 117
189 210 144
187 208 137
193 213 159
191 211 151
188 209 137
188 209 140
193 212 153
192 212 161
186 208 130
190 210 144
186 207 133
185 206 125
184 205 125
184 205 108
181 203 105
182 204 105
176 199 67
181 203 84
179 201 80
177 200 67
176 199 44
173 197 44
176 199 62
175 198 44
173 197 25
172 195 0
173 197 0
173 196 0
169 193 0
171 195 0
175 197 0
173 197 0
173 197 0
172 195 0
173 197 0
171 194 0
173 196 0
171 195 0
171 194 0
173 197 0
174 198 0
174 197 0
174 197 0
173 196 0
171 194 0
173 196 0
174 197 0
173 196 0
171 194 0
174 197 0
174 196 0
174 197 0
174 197 0
172 196 0
175 198 0
172 196 0
172 195 0
174 197 0
172 196 0
173 197 0
172 196 0
173 197 0
172 196 0
172 196 0
172 196 0
171 195 0
173 196 0
171 195 0
171 194 0
174 197 0
174 197 0
171 195 0
173 197 0
172 196 0
171 195 0
173 196 0
172 196 0
173 197 0
174 197 0
175 198 0
173 197 0
173 197 0
169 193 0
172 196 0
175 198 0
173 196 0
170 194 0
173 197 0
172 195 0
171 194 0
174 197 0
175 198 0
172 196 0
173 197 0
168 192 0
170 195 0
173 197 0
173 196 0
173 197 0
172 196 0
172 195 0
173 196 0
173 196 0
171 195 0
173 196 0
173 196 0
175 198 0
172 196 0
172 196 0
172 196 0
174 197 0
173 197 0
172 195 0
170 194 0
174 197 0
175 197 0
175 197 0
173 197 0
173 197 0
174 197 0
173 197 0
172 196 0
174 198 0
174 196 0
173 197 0
171 195 0
172 195 0
174 196 0
173 197 0
175 198 0
174 197 0
175 198 0
173 197 0
171 194 0
172 196 0
175 198 0
173 197 0
171 195 0
175 198 0
174 198 0
172 196 0
174 197 0
174 197 0
172 195 0
174 198 0
172 195 0
173 196 0
170 194 0
172 195 0
174 197 0
175 197 0
175 198 0
172 196 0
173 196 0
171 195 0
172 196 0
173 197 0
170 194 0
173 197 0
174 197 0
172 195 0
173 196 0
175 198 0
173 196 0
175 198 0
175 197 0
172 196 0
174 198 0
173 196 0
172 196 0
176 198 0
173 196 0
172 196 0
176 199 0
175 198 0
173 197 0
175 198 0
173 197 0
172 196 0
174 197 0
173 196 0
174 197 0
174 198 0
173 196 0
175 198 0
175 198 0
174 197 0
174 197 0
170 194 0
172 196 0
171 195 0
173 197 0
172 196 0
174 197 0
175 198 0
174 198 0
173 197 0
175 198 0
174 197 0
173 197 0
173 197 0
173 196 0
172 196 0
173 197 0
173 195 0
174 197 0
173 196 0
175 198 0
175 197 0
173 197 0
173 197 0
174 197 0
174 197 0
177 199 0
173 197 0
173 197 0
175 198 0
174 197 0
174 197 0
175 197 0
174 197 0
175 198 0
172 196 0
175 198 0
171 196 0
173 197 0
174 197 0
173 196 0
174 198 0
175 198 0
173 197 0
174 197 0
175 198 0
173 197 0
176 198 0
174 198 0
173 197 0
171 195 0
175 198 0
173 197 0
173 197 0
172 196 0
173 197 0
173 197 0
174 197 0
175 198 0
175 198 0
173 197 0
172 197 0
174 198 0
174 198 0
175 198 0
173 197 0
175 198 0
175 198 0
175 198 0
174 197 0
175 198 0
173 197 0
173 197 0
174 198 0
173 197 0
174 198 0
175 198 0
171 195 0
174 197 0
175 198 0
175 198 0
175 198 0
175 198 0
176 198 0
176 199 0
174 198 0
173 197 0
174 197 0
174 198 0
174 198 0
175 198 0
174 197 0
174 198 0
173 196 0
173 197 0
173 197 0
174 198 0
175 198 0
172 196 0
175 197 0
172 196 0
174 197 0
174 198 0
175 198 0
175 198 0
174 197 0
173 197 0
173 197 0
175 198 0
175 198 0
174 198 0
175 198 0
175 198 0
173 197 0
173 197 0
175 197 0
172 197 0
174 198 0
175 198 0
174 197 0
173 197 0
174 198 0
176 199 0
173 197 0
176 198 25
175 198 0
176 199 25
176 199 0
174 197 51
180 202 72
181 203 92
179 202 84
181 203 88
183 205 105
190 210 135
192 211 151
189 209 130
194 213 153
185 206 128
192 212 153
188 208 128
193 213 163
189 209 140
193 213 162
193 213 166
190 210 159
191 211 151
186 208 137
191 212 163
188 209 147
187 209 153
187 208 142
183 204 114
186 207 130
180 202 99
183 204 105
174 197 78
178 201 88
177 200 99
179 200 80
176 198 78
176 199 97
172 196 47
174 198 88
173 197 72
175 199 84
175 199 76
172 196 80
174 198 67
172 196 72
175 199 62
173 196 72
171 195 78
174 198 72
175 198 88
172 195 97
174 198 76
173 198 72
174 198 65
175 198 36
172 196 65
175 199 88
175 199 86
174 198 67
176 200 88
174 197 80
173 197 72
176 200 67
177 199 62
174 198 84
174 198 76
174 198 67
176 200 84
176 200 80
174 198 36
176 201 102
174 197 84
172 197 76
174 198 76
175 199 84
177 201 99
176 200 88
178 201 88
179 202 88
179 202 105
178 201 95
180 203 111
179 202 92
180 202 105
181 203 108
185 207 135
184 206 135
185 207 133
188 209 140
183 205 128
190 211 159
186 207 130
191 212 153
192 212 155
190 211 151
189 209 144
186 207 122
186 207 130
184 205 111
185 206 130
188 209 133
185 206 114
180 203 99
185 206 108
178 201 80
182 203 95
180 202 84
177 199 57
176 199 67
174 197 44
173 196 25
174 197 44
175 198 36
173 197 25
173 196 0
174 197 0
174 197 25
172 196 0
175 198 0
172 196 0
175 198 0
173 197 0
174 197 0
170 193 0
174 197 0
173 197 0
174 197 0
173 196 0
175 198 0
172 195 0
172 195 0
172 196 0
174 197 0
172 196 0
172 196 0
174 197 0
172 196 0
174 197 0
172 195 0
174 197 0
172 195 0
171 195 0
174 198 0
172 195 0
171 195 0
174 198 0
170 194 0
172 196 0
173 196 0
172 195 0
171 194 0
171 195 0
171 195 0
171 195 0
172 196 0
173 196 0
173 197 0
173 196 0
171 195 0
171 194 0
173 196 0
174 197 0
174 197 0
174 197 0
173 197 0
173 197 0
174 198 0
172 196 0
173 196 0
174 197 0
175 198 0
172 196 0
174 197 0
173 196 0
173 197 0
173 196 0
172 195 0
172 196 0
173 197 0
173 196 0
173 196 0
175 198 0
174 198 0
174 197 0
173 197 0
172 196 0
172 195 0
173 196 0
174 197 0
170 194 0
173 196 0
172 195 0
175 198 0
172 195 0
173 197 0
174 197 0
173 197 0
174 197 0
174 197 0
172 196 0
174 197 0
171 195 0
172 195 0
171 195 0
175 198 0
174 197 0
173 197 0
174 197 0
174 198 0
174 197 0
174 198 0
173 196 0
174 198 0
172 196 0
172 196 0
174 197 0
173 197 0
173 197 0
173 196 0
172 196 0
173 196 0
173 197 0
172 197 0
172 196 0
174 198 0
172 196 0
170 194 0
173 196 0
175 198 0
174 197 0
173 196 0
170 194 0
173 196 0
175 198 0
174 197 0
173 196 0
171 195 0
174 198 0
173 197 0
172 195 0
173 197 0
174 197 0
173 196 0
173 196 0
173 197 0
172 196 0
174 197 0
172 195 0
171 195 0
174 197 0
173 197 0
173 197 0
174 197 0
174 197 0
174 197 0
175 197 0
174 197 0
173 196 0
171 195 0
174 198 0
172 196 0
174 197 0
174 197 0
174 197 0
174 197 0
172 196 0
173 196 0
175 198 0
175 197 0
173 196 0
173 197 0
171 194 0
173 197 0
174 197 0
173 197 0
174 197 0
174 197 0
173 196 0
175 198 0
173 196 0
172 196 0
173 197 0
174 197 0
171 195 0
175 198 0
174 197 0
174 197 0
174 197 0
175 198 0
173 197 0
175 197 0
173 197 0
174 198 0
173 196 0
173 197 0
174 197 0
173 197 0
175 197 0
175 198 0
175 198 0
172 196 0
173 196 0
174 197 0
174 198 0
174 197 0
174 198 0
173 197 0
174 198 0
176 198 0
174 196 0
174 197 0
174 198 0
174 197 0
175 198 0
174 197 0
175 198 0
173 197 0
175 198 0
173 196 0
174 198 0
175 197 0
173 197 0
175 198 0
170 193 0
174 198 0
173 196 0
174 198 0
175 198 0
175 198 0
173 197 0
176 199 0
175 198 0
173 196 0
173 197 0
174 197 0
174 197 0
173 196 0
172 196 0
174 198 0
172 196 0
173 197 0
172 197 0
175 198 0
174 197 0
174 197 0
175 198 0
175 198 0
174 198 0
175 198 0
175 198 0
174 197 0
173 197 0
174 198 0
175 198 0
173 197 0
175 198 0
173 197 0
174 197 0
175 198 0
175 198 0
175 198 0
175 198 0
174 198 0
176 199 0
174 198 0
175 198 0
173 197 0
174 198 0
171 195 0
173 196 0
174 198 0
174 197 0
173 197 0
174 197 0
175 197 0
173 197 0
174 198 0
172 196 0
176 199 0
172 196 0
174 198 0
172 196 0
173 197 0
173 197 0
173 197 0
176 199 0
175 198 0
174 197 0
175 198 0
175 198 0
172 196 0
174 197 0
174 198 0
175 198 0
175 198 0
173 197 0
173 197 0
174 198 0
174 197 0
174 197 0
175 198 25
176 199 44
173 197 25
175 198 51
177 200 51
180 201 67
182 203 95
180 203 92
184 205 111
185 207 122
186 207 128
188 208 122
192 212 151
190 210 140
192 212 157
192 212 153
187 208 128
195 215 177
196 216 175
196 215 173
192 212 157
192 212 165
189 210 149
185 207 135
185 207 151
187 208 142
178 201 105
180 202 95
182 204 114
180 202 108
179 201 86
174 197 72
172 196 67
177 200 95
174 198 90
174 198 72
174 197 72
173 197 88
174 198 90
172 196 62
173 196 44
172 197 67
174 198 84
171 195 67
174 198 84
171 195 57
173 198 67
171 194 74
172 196 72
173 197 94
175 199 76
172 195 70
171 195 78
174 197 74
172 197 88
173 197 67
174 198 74
174 198 67
174 199 100
173 196 60
172 196 72
177 201 111
178 201 95
173 197 80
175 199 67
175 199 84
177 200 72
176 200 76
175 199 72
174 198 62
175 198 76
178 201 88
173 197 72
175 199 99
175 199 92
176 200 72
175 198 62
174 198 67
176 200 99
177 201 88
176 200 76
178 201 84
175 198 80
183 205 120
183 205 111
185 206 128
179 202 102
183 205 111
184 206 125
192 212 159
184 206 122
190 210 140
188 208 147
184 205 122
187 208 130
190 210 140
189 209 140
189 209 137
186 207 122
183 204 108
184 205 108
189 209 133
183 204 111
184 205 111
177 200 84
179 201 95
179 201 84
175 198 57
176 199 62
174 197 36
175 199 57
174 197 44
174 197 0
174 197 25
173 196 25
171 195 0
172 197 0
175 198 0
174 197 0
173 197 0
174 198 0
173 196 0
173 196 0
175 198 0
173 196 0
173 196 0
174 197 0
174 197 0
173 197 0
174 197 0
173 197 0
170 194 31
173 196 0
170 193 25
169 193 25
169 192 31
172 195 36
171 195 0
174 197 0
172 195 0
172 196 18
170 194 18
172 196 0
172 195 0
175 197 0
173 197 0
173 196 0
173 195 0
174 196 0
172 196 0
171 194 0
172 195 0
174 197 0
175 198 0
172 195 0
174 197 0
173 197 0
172 196 0
172 196 0
176 199 0
170 194 0
174 198 0
171 195 0
172 196 0
173 196 0
174 198 0
171 194 0
171 196 0
175 197 0
174 198 0
175 198 0
174 197 0
172 195 0
174 197 0
172 195 0
169 192 0
173 196 0
173 196 0
171 195 0
171 195 0
173 196 0
173 196 0
174 197 0
172 196 0
173 196 0
173 196 0
171 195 0
172 195 0
173 197 0
173 196 0
173 196 0
173 196 0
174 196 0
173 197 0
173 196 0
174 197 0
172 195 0
173 197 0
171 195 0
173 197 0
173 196 0
172 196 0
172 196 0
173 197 0
171 195 0
173 197 0
173 196 0
172 195 0
172 196 0
172 196 0
172 195 0
172 196 0
173 196 0
172 196 0
174 197 0
173 197 0
174 197 0
174 197 0
172 195 0
173 196 0
174 197 0
173 197 0
174 198 0
172 196 0
173 196 0
172 195 0
173 196 0
176 198 0
175 198 0
174 198 0
175 198 0
173 195 0
174 196 0
175 198 0
170 195 0
174 197 0
174 198 0
175 198 0
173 197 0
173 197 0
173 197 0
170 193 0
174 197 0
175 198 0
174 197 0
172 196 0
172 196 0
173 197 0
173 197 0
174 197 0
174 198 0
169 194 0
173 197 0
172 196 0
173 196 0
172 196 0
175 198 0
173 197 0
174 198 0
174 198 0
175 198 0
175 198 0
174 197 0
173 197 0
175 198 0
175 198 0
175 198 0
174 196 0
175 198 0
172 196 0
174 197 0
174 197 0
175 198 0
173 196 0
173 196 0
174 198 0
173 197 0
174 197 0
173 196 0
175 198 0
174 198 0
173 197 0
174 197 0
173 197 0
173 196 0
173 197 0
174 197 0
173 196 0
172 196 0
172 196 0
174 198 0
175 198 0
174 197 0
175 198 0
173 197 0
174 197 0
174 197 0
173 197 0
171 195 0
175 198 0
173 196 0
172 197 0
172 196 0
174 197 0
171 195 0
175 198 0
173 197 0
175 198 0
174 197 0
174 197 0
175 198 0
174 197 0
174 197 0
174 197 0
173 196 0
174 197 0
175 198 0
174 198 0
174 197 0
173 197 0
174 197 0
174 197 0
174 197 0
173 197 0
172 196 0
174 198 0
174 198 0
175 198 0
176 198 0
174 197 0
174 198 0
176 199 0
175 198 0
173 196 0
174 198 0
174 197 0
175 198 0
175 198 0
176 198 0
175 198 0
175 198 0
175 198 0
174 198 0
174 198 0
174 198 0
174 197 0
174 197 0
173 196 0
173 197 0
174 198 0
173 197 0
173 197 0
174 197 0
174 198 0
174 197 0
172 196 0
173 197 0
175 198 0
174 197 0
173 197 0
174 197 0
173 197 0
175 198 0
174 197 0
174 197 0
175 198 0
174 198 0
174 198 0
175 198 0
174 198 0
176 198 0
172 197 0
175 198 0
174 198 0
175 198 0
173 197 0
174 198 0
172 196 0
173 197 0
174 198 0
173 197 0
175 198 0
173 197 0
174 198 0
176 198 0
174 198 0
174 197 0
174 197 0
174 198 0
173 197 0
174 198 0
175 198 0
173 197 0
174 197 0
174 197 0
173 196 0
172 196 0
174 197 0
174 198 0
175 198 44
176 199 36
173 197 0
178 200 57
178 200 67
180 202 76
179 201 80
183 205 105
186 206 114
183 205 108
190 210 133
186 207 120
181 203 102
188 209 135
188 208 133
188 209 137
188 209 137
191 211 151
190 210 157
193 212 153
195 214 173
193 213 173
195 215 171
188 209 142
184 205 122
186 208 133
183 204 111
183 205 117
179 202 92
180 202 95
178 201 105
176 199 110
178 201 99
178 201 110
176 200 84
177 200 76
173 198 94
171 194 60
170 194 65
174 197 57
172 195 60
171 196 76
173 197 62
174 198 62
173 196 67
176 199 62
173 197 72
170 194 74
176 199 76
174 198 82
173 197 80
172 196 51
175 198 80
175 198 80
173 197 76
176 199 76
172 197 84
173 197 78
174 197 67
175 200 95
175 199 76
174 198 72
179 202 88
177 200 76
176 200 97
176 200 84
175 200 95
173 197 57
177 200 76
178 201 95
175 199 80
175 199 76
176 200 80
176 200 84
174 197 76
175 198 67
178 201 80
178 202 102
178 201 80
177 201 99
177 200 80
176 199 62
180 203 99
178 202 95
177 200 84
178 202 99
177 200 84
179 201 92
184 205 120
183 205 108
184 206 122
190 211 153
187 208 142
187 209 142
189 210 137
187 208 130
187 208 135
186 207 125
183 205 117
187 208 133
186 206 125
182 203 111
184 205 111
184 205 111
182 204 99
184 206 114
181 203 88
176 198 76
179 201 76
176 199 67
173 197 25
176 199 62
175 198 44
173 197 25
174 197 0
173 197 0
173 196 0
173 197 0
172 195 0
173 197 0
173 197 0
171 195 0
174 197 0
170 194 0
171 194 0
172 196 18
173 196 25
166 190 47
168 192 44
170 193 36
164 188 60
168 191 44
160 184 60
165 189 60
158 182 74
161 185 70
166 189 60
161 184 67
161 185 70
156 180 78
159 183 70
166 189 57
166 189 54
168 191 40
168 192 44
166 190 40
169 193 44
173 196 0
174 198 0
173 197 18
175 198 0
175 198 0
173 197 0
173 197 0
174 197 0
175 198 0
173 197 0
174 197 0
173 197 0
173 197 0
172 196 0
175 198 0
174 197 0
173 197 0
175 198 0
174 197 0
173 196 0
174 197 0
172 196 0
175 197 0
171 195 0
174 197 0
174 197 0
171 195 0
176 198 0
171 195 0
174 198 0
174 198 0
172 196 0
174 196 0
173 197 0
173 197 0
174 198 0
173 196 0
173 197 0
171 194 0
169 193 0
173 196 0
172 196 0
173 196 0
172 196 0
172 196 0
174 197 0
172 196 0
174 197 0
172 196 0
170 194 0
173 196 0
173 196 0
173 196 0
172 195 0
172 195 0
173 197 0
175 198 0
171 194 0
174 197 0
174 197 0
173 197 0
171 194 0
175 197 0
174 197 0
175 198 0
173 197 0
174 197 0
173 197 0
172 196 0
172 196 0
174 198 0
172 196 0
173 196 0
172 196 0
174 197 0
175 198 0
173 197 0
173 197 0
168 192 0
171 193 0
173 196 0
172 196 0
172 195 0
173 196 0
173 197 0
174 197 0
173 197 0
174 197 0
173 197 0
175 198 0
174 198 0
173 196 0
174 197 0
174 197 0
174 197 0
175 198 0
173 196 0
171 194 0
172 196 0
172 196 0
173 196 0
173 196 0
172 196 0
171 195 0
171 194 0
174 197 0
171 194 0
172 195 0
173 196 0
175 197 0
173 197 0
174 197 0
175 198 0
173 197 0
174 198 0
174 198 0
174 198 0
173 197 0
174 197 0
173 197 0
174 197 0
170 194 0
174 197 0
174 197 0
175 198 0
173 197 0
174 197 0
172 196 0
174 197 0
175 198 0
170 194 0
173 197 0
175 198 0
174 197 0
173 196 0
171 195 0
172 195 0
175 198 0
175 198 0
174 197 0
174 197 0
173 196 0
174 198 0
175 198 0
175 198 0
175 198 0
173 197 0
174 198 0
175 198 0
174 198 0
173 197 0
175 198 0
175 198 0
173 196 0
175 198 0
175 198 0
174 198 0
175 198 0
171 195 0
174 198 0
175 198 0
172 196 0
176 199 0
173 197 0
174 197 0
173 196 0
174 197 0
174 198 0
175 198 0
175 198 0
175 198 0
174 197 0
175 198 0
174 198 0
174 197 0
174 197 0
172 196 0
173 197 0
174 197 0
174 198 0
173 197 0
175 198 0
172 196 0
174 198 0
174 197 0
174 197 0
173 197 0
175 198 0
174 198 0
175 198 0
174 198 0
173 197 0
175 198 0
175 198 0
175 198 0
173 197 0
174 198 0
175 198 0
172 196 0
175 198 0
173 197 0
174 198 0
174 197 0
172 196 0
173 197 0
172 196 0
174 198 0
172 196 0
174 198 0
174 198 0
174 197 0
172 196 0
173 197 0
174 198 0
175 198 0
173 197 0
174 197 0
175 198 0
177 199 0
172 196 0
172 196 0
174 198 0
173 197 0
176 198 0
174 197 0
174 198 0
175 198 0
174 197 0
172 196 0
173 196 0
176 198 0
174 197 0
174 197 0
174 197 0
174 198 0
174 198 0
173 196 0
174 197 0
172 197 0
171 195 0
173 197 0
174 198 0
175 198 0
174 197 0
174 197 0
173 197 0
174 198 0
174 198 0
173 197 0
173 197 0
174 198 0
174 197 0
175 198 0
173 197 0
176 199 51
175 198 25
177 200 51
176 200 62
182 203 80
184 205 105
182 204 102
181 203 99
183 204 95
181 203 95
186 207 122
190 210 140
188 208 133
192 211 151
195 214 169
188 209 137
195 214 171
191 211 157
196 215 173
191 211 155
195 214 163
186 207 140
188 209 147
182 204 108
185 206 126
181 202 114
182 204 99
178 200 95
177 200 67
179 202 92
177 200 88
174 197 72
177 199 72
176 199 72
171 196 72
173 197 57
174 198 74
171 195 57
175 199 76
172 195 84
174 198 80
174 199 102
173 197 70
173 196 76
173 198 82
174 198 80
171 194 79
174 197 76
174 198 86
175 199 88
178 201 84
171 195 62
175 199 88
173 196 65
173 197 80
174 198 90
176 199 62
175 199 67
176 199 82
176 199 76
177 201 99
172 196 88
173 197 67
177 201 88
175 199 84
174 198 80
176 200 105
174 197 72
176 200 72
175 199 95
175 198 72
179 202 102
175 198 62
176 199 80
175 199 84
175 198 62
178 201 80
177 200 80
178 201 76
176 199 72
174 198 92
178 201 76
178 201 80
176 200 88
181 202 95
177 201 92
183 205 117
183 205 128
183 205 111
187 208 130
188 208 133
188 208 140
193 212 159
189 210 140
184 206 117
183 204 120
190 210 142
190 210 142
184 206 120
184 205 111
184 205 108
186 207 125
181 203 102
180 202 102
185 206 122
178 200 80
179 201 84
183 204 95
175 198 51
174 198 44
174 198 51
174 197 44
175 198 25
175 198 36
174 198 25
173 196 0
174 197 0
174 198 0
172 195 0
171 195 0
169 193 36
167 190 44
169 193 47
164 188 60
164 188 62
152 177 92
158 182 84
150 175 92
155 179 90
144 169 100
144 169 105
138 164 111
135 160 121
127 152 129
129 155 129
121 147 135
117 143 142
130 156 125
124 150 133
136 160 118
138 163 114
144 170 105
149 174 95
148 174 94
146 171 99
152 176 90
162 185 65
165 189 57
165 190 54
166 189 54
172 196 25
171 195 31
173 197 0
172 195 0
174 197 0
174 197 0
172 195 0
172 195 0
172 196 0
172 195 0
170 194 0
173 196 0
171 195 0
173 197 0
173 196 0
173 197 0
175 198 0
173 196 0
172 196 0
173 196 0
171 196 0
174 196 0
173 196 0
172 194 0
175 197 0
173 196 0
174 197 0
175 198 0
172 196 0
172 196 0
174 197 0
173 197 0
175 198 0
170 194 0
174 197 0
173 196 0
172 197 0
172 196 0
171 195 0
173 196 0
172 195 0
173 196 0
171 194 0
173 197 0
172 196 0
174 198 0
172 195 0
173 196 0
175 198 0
174 198 0
172 195 0
172 196 0
175 198 0
174 198 0
172 196 0
172 195 0
173 197 0
174 198 0
175 198 0
172 196 0
172 196 0
172 195 0
172 196 0
172 195 0
174 197 0
174 197 0
172 196 0
174 197 0
174 197 0
172 196 0
174 197 0
175 198 0
173 197 0
173 197 0
173 197 0
172 196 0
176 198 0
174 197 0
175 198 0
173 196 0
176 198 0
174 197 0
172 196 0
175 197 0
172 195 0
171 195 0
173 197 0
173 197 0
173 197 0
173 196 0
174 196 0
171 195 0
173 196 0
171 195 0
174 198 0
172 196 0
173 197 0
173 196 0
175 198 0
173 197 0
171 195 0
174 197 0
172 194 0
174 198 0
172 196 0
174 197 0
174 197 0
174 197 0
174 197 0
173 197 0
176 199 0
175 198 0
173 196 0
174 196 0
175 198 0
175 198 0
171 195 0
175 198 0
171 195 0
174 198 0
172 195 0
174 197 0
173 196 0
174 197 0
175 198 0
171 195 0
174 198 0
173 196 0
173 195 0
175 198 0
174 197 0
175 197 0
172 196 0
174 197 0
172 196 0
172 195 0
173 197 0
172 195 0
172 195 0
174 197 0
174 197 0
175 198 0
173 197 0
174 198 0
174 197 0
174 197 0
172 196 0
174 197 0
173 197 0
174 197 0
174 197 0
174 198 0
172 197 0
175 198 0
175 198 0
177 199 0
175 198 0
174 198 0
175 198 0
172 195 0
172 196 0
174 198 0
175 198 0
173 197 0
174 197 0
176 198 0
174 197 0
174 197 0
173 197 0
172 196 0
172 196 0
175 198 0
173 195 0
174 197 0
175 198 0
174 198 0
174 198 0
173 197 0
175 198 0
176 198 0
174 198 0
174 197 0
173 197 0
174 198 0
174 197 0
176 199 0
174 198 0
175 198 0
176 199 0
175 198 0
174 197 0
175 198 0
173 197 0
174 197 0
176 198 0
174 198 0
173 197 0
175 198 0
173 197 0
174 197 0
173 197 0
174 197 0
173 197 0
173 197 0
172 197 0
174 197 0
174 198 0
175 198 0
174 198 0
175 197 0
172 196 0
175 198 0
175 198 0
173 197 0
173 197 0
174 197 0
172 196 0
176 199 0
173 197 0
174 197 0
173 197 0
175 198 0
173 197 0
173 196 0
174 197 0
174 197 0
174 197 0
174 198 0
176 198 0
173 197 0
173 197 0
174 198 0
174 197 0
174 197 0
172 196 0
174 197 0
175 198 0
175 198 0
173 197 0
174 198 0
174 197 0
173 196 0
172 196 0
174 198 0
172 196 0
173 197 0
176 198 0
174 197 0
173 197 0
174 198 25
176 199 36
175 198 36
175 199 51
176 199 62
176 199 57
183 204 105
183 204 95
180 202 88
185 207 120
183 205 108
186 207 122
189 209 135
193 213 159
191 211 149
187 208 128
188 208 135
193 212 159
191 211 149
189 210 152
191 211 156
191 212 159
186 208 137
182 204 131
184 206 122
180 202 117
180 202 108
182 204 111
179 201 114
178 201 92
178 201 95
175 198 74
174 198 90
172 196 62
174 197 86
173 197 88
175 198 72
172 195 74
171 195 62
173 197 78
174 198 76
173 197 65
173 197 70
168 191 60
173 197 72
175 199 84
171 196 84
175 199 94
172 196 80
175 198 76
173 197 90
175 197 57
174 198 82
174 197 76
172 195 70
173 197 72
175 199 80
176 200 102
175 199 84
176 200 95
174 198 84
174 198 80
172 196 67
173 197 82
176 200 80
173 198 78
175 200 80
177 200 80
177 200 80
176 200 67
175 199 88
175 199 84
172 196 51
174 198 88
175 198 84
176 200 88
173 197 72
176 200 80
176 200 72
174 198 76
176 199 84
177 201 88
177 200 80
175 199 44
178 201 76
179 202 95
177 200 72
178 200 92
180 201 92
182 205 111
180 203 114
186 208 130
190 210 142
183 205 117
186 207 125
185 206 128
184 205 114
185 206 128
189 209 140
186 207 130
188 208 130
185 206 114
185 205 117
179 201 95
181 203 95
180 202 105
180 202 88
182 204 105
178 200 67
177 199 72
173 197 51
175 198 51
173 197 25
174 198 25
174 197 25
173 197 25
171 194 18
173 196 25
172 196 25
169 192 44
165 188 62
159 183 74
158 182 80
143 168 107
123 150 131
126 152 133
108 135 149
102 130 154
91 121 164
81 114 170
69 104 176
62 99 179
61 99 181
62 99 179
62 99 179
62 99 181
62 99 178
62 99 180
62 99 181
62 99 181
62 99 180
64 101 179
66 102 179
81 114 169
87 118 165
105 133 152
110 137 144
124 150 134
142 167 110
149 174 99
142 167 108
152 176 86
162 187 62
165 189 51
168 191 40
170 194 18
169 193 18
175 198 0
172 196 0
173 196 0
173 196 0
174 197 0
172 196 0
170 194 0
175 198 0
173 197 0
174 197 0
175 198 0
171 195 0
175 198 0
173 196 0
174 197 0
171 194 0
173 196 0
173 196 0
171 194 0
171 195 0
172 196 0
173 196 0
169 193 0
174 196 0
174 197 0
172 195 0
172 196 0
173 197 0
172 195 0
167 192 0
173 197 0
174 197 0
174 198 0
174 197 0
173 196 0
170 194 0
175 198 0
172 195 0
174 197 0
172 196 0
173 196 0
172 196 0
172 196 0
173 197 0
174 197 0
173 197 0
171 195 0
172 196 0
171 194 0
173 196 0
172 196 0
174 198 0
173 197 0
175 197 0
173 197 0
172 195 0
172 196 0
170 194 0
173 196 0
172 196 0
175 198 0
173 196 0
172 195 0
176 199 0
173 197 0
172 196 0
174 197 0
171 195 0
174 197 0
174 197 0
173 196 0
173 197 0
172 196 0
173 197 0
172 196 0
174 198 0
175 198 0
172 196 0
172 196 0
173 196 0
171 195 0
173 197 0
175 198 0
172 196 0
174 198 0
175 197 0
174 198 0
171 195 0
175 198 0
174 198 0
174 197 0
173 197 0
175 198 0
174 198 0
173 196 0
173 196 0
173 196 0
174 196 0
170 195 0
174 197 0
175 197 0
169 193 0
173 196 0
176 199 0
175 198 0
173 196 0
174 197 0
175 197 0
173 197 0
174 198 0
175 198 0
173 196 0
174 197 0
174 196 0
174 197 0
174 197 0
172 195 0
174 198 0
175 198 0
174 198 0
172 196 0
176 199 0
174 196 0
172 196 0
174 197 0
174 198 0
174 198 0
173 196 0
172 195 0
174 197 0
173 196 0
174 197 0
173 197 0
174 198 0
173 197 0
172 196 0
174 198 0
175 198 0
174 197 0
174 198 0
173 196 0
173 195 0
174 198 0
174 197 0
175 198 0
174 197 0
174 197 0
174 197 0
171 195 0
174 197 0
175 198 0
173 196 0
173 197 0
174 197 0
175 198 0
174 197 0
175 198 0
173 197 0
174 198 0
174 197 0
172 196 0
171 195 0
175 198 0
174 197 0
174 198 0
174 196 0
175 198 0
173 197 0
174 198 0
175 198 0
175 198 0
174 197 0
174 197 0
173 196 0
175 198 0
175 198 0
173 197 0
172 196 0
172 196 0
175 198 0
175 198 0
175 198 0
175 198 0
174 198 0
174 198 0
174 197 0
173 197 0
174 198 0
173 197 0
176 198 0
174 198 0
174 198 0
175 198 0
174 197 0
174 197 0
175 198 0
174 198 0
174 198 0
173 197 0
173 197 0
174 197 0
175 198 0
174 197 0
173 196 0
175 198 0
173 197 0
176 199 0
174 198 0
175 198 0
175 198 0
173 197 0
172 196 0
174 197 0
174 197 0
174 198 0
176 198 0
174 197 0
174 198 0
173 197 0
173 197 0
174 197 0
175 198 0
173 196 0
173 197 0
174 198 0
175 198 0
173 197 0
174 197 0
174 198 0
173 197 0
174 198 0
172 196 0
173 196 0
173 197 0
173 196 0
174 198 0
175 198 0
176 199 0
174 197 0
174 197 0
173 197 0
172 195 0
174 198 0
174 198 0
175 198 25
177 200 51
175 198 0
177 200 57
180 203 92
178 200 80
179 201 76
182 204 99
181 203 99
183 204 111
189 209 135
186 207 128
187 208 137
190 210 142
185 206 122
192 212 153
188 209 142
186 206 128
191 211 157
191 211 155
190 210 151
188 208 143
186 207 135
185 207 128
178 202 105
177 200 95
175 197 72
177 200 84
178 201 88
178 201 84
175 198 74
171 195 57
176 200 67
174 197 51
172 196 67
176 200 95
175 199 70
172 196 82
173 197 92
172 196 62
170 194 47
175 199 76
170 194 51
179 202 92
172 196 62
169 194 80
174 197 67
174 198 72
172 196 70
171 195 57
174 198 114
172 196 62
173 196 65
174 198 86
175 200 88
177 200 84
172 196 70
173 197 72
173 197 70
176 199 57
173 197 70
177 200 76
177 200 76
179 202 99
178 201 99
176 199 84
174 198 84
178 200 72
176 199 57
176 199 67
178 200 76
175 198 76
176 199 84
176 199 88
176 200 80
176 199 72
173 197 62
176 199 88
175 198 80
177 200 80
175 199 72
176 200 88
175 198 80
173 196 76
180 202 95
176 200 76
180 202 92
178 200 102
178 201 84
185 206 122
179 201 99
187 208 125
183 204 117
186 207 135
186 206 125
187 208 130
184 206 114
184 205 120
186 207 125
185 206 108
185 206 125
182 204 114
180 202 88
182 203 105
181 203 105
180 202 92
180 202 76
177 200 72
179 201 80
175 198 25
176 198 44
174 198 25
172 196 36
172 196 25
165 188 44
169 193 44
163 187 62
159 183 76
149 173 95
136 162 117
115 142 144
101 130 157
84 115 167
66 102 177
62 99 181
62 99 181
62 99 177
62 99 181
62 99 181
62 99 181
62 99 181
62 99 180
62 99 181
62 99 181
62 99 178
62 99 180
62 99 181
62 99 181
62 99 181
61 99 179
62 99 181
61 99 181
62 99 181
62 99 180
61 99 181
62 99 180
62 99 179
64 100 178
75 108 171
100 129 154
130 155 125
138 163 117
150 174 97
151 176 92
163 187 54
165 189 54
168 191 54
171 195 18
172 195 0
174 198 0
172 196 0
174 197 0
173 196 0
173 195 0
172 196 0
172 196 0
175 198 0
173 197 0
174 197 0
170 194 0
173 196 0
172 196 0
173 197 0
172 196 0
171 195 0
174 197 0
173 196 0
172 195 0
174 197 0
170 193 0
173 196 0
171 195 0
173 197 0
173 196 0
173 197 0
173 196 0
171 195 0
174 197 0
173 196 0
172 196 0
171 195 0
172 196 0
170 194 0
174 196 0
174 197 0
173 196 0
172 196 0
174 197 0
172 195 0
174 196 0
172 195 0
173 196 0
173 197 0
175 198 0
171 196 0
174 197 0
174 198 0
173 196 0
173 197 0
173 197 0
174 198 0
174 197 0
173 196 0
174 196 0
174 196 0
171 195 0
173 196 0
172 195 0
171 194 0
174 198 0
174 198 0
172 195 0
171 194 0
172 196 0
175 198 0
172 194 0
173 197 0
173 196 0
173 197 0
173 197 0
175 197 0
174 197 0
174 198 0
172 196 0
172 195 0
174 197 0
175 198 0
175 198 0
174 198 0
174 197 0
174 197 0
173 195 0
173 196 0
174 198 0
173 197 0
173 196 0
174 198 0
175 198 0
173 196 0
174 197 0
174 198 0
175 198 0
171 195 0
173 196 0
174 197 0
171 196 0
174 197 0
173 197 0
172 196 0
174 197 0
172 195 0
173 197 0
172 195 0
173 197 0
174 197 0
173 197 0
171 194 0
173 196 0
173 197 0
175 198 0
174 197 0
174 197 0
173 197 0
176 199 0
174 197 0
175 198 0
174 198 0
173 197 0
174 197 0
173 197 0
171 195 0
173 197 0
172 196 0
172 196 0
175 198 0
173 196 0
176 199 0
173 197 0
171 195 0
176 198 0
174 197 0
173 197 0
174 197 0
173 197 0
174 197 0
174 197 0
174 197 0
175 198 0
174 197 0
175 198 0
174 197 0
174 197 0
176 199 0
174 197 0
174 198 0
173 196 0
172 196 0
174 196 0
175 198 0
175 198 0
174 197 0
175 197 0
174 198 0
172 196 0
173 197 0
175 198 0
173 197 0
173 197 0
174 198 0
173 197 0
174 197 0
173 197 0
175 198 0
176 199 0
173 196 0
174 198 0
174 197 0
175 198 0
175 197 0
174 197 0
173 197 0
174 198 0
175 198 0
174 198 0
173 196 0
174 198 0
174 197 0
174 198 0
173 197 0
175 198 0
174 197 0
173 197 0
174 197 0
175 198 0
175 198 0
173 197 0
175 198 0
174 198 0
172 196 0
174 197 0
175 198 0
173 197 0
174 197 0
173 197 0
175 198 0
174 197 0
172 196 0
173 197 0
174 198 0
174 198 0
175 198 0
175 198 0
173 197 0
173 197 0
175 198 0
175 198 0
172 197 0
173 197 0
172 196 0
174 197 0
174 198 0
175 198 0
173 197 0
174 197 0
174 197 0
173 197 0
172 197 0
174 197 0
175 198 0
174 197 0
175 198 0
173 197 0
175 198 0
174 198 0
173 197 0
175 198 0
174 197 0
173 196 0
174 198 0
175 197 0
172 196 0
171 194 0
174 197 0
174 197 0
176 198 0
173 196 0
175 198 0
175 198 0
173 197 0
173 197 36
176 199 25
175 199 44
177 199 51
181 203 84
180 203 88
179 201 76
184 205 102
185 206 114
188 208 125
179 201 95
188 208 137
185 206 117
182 204 95
188 209 135
189 210 144
185 206 130
191 211 142
190 210 145
193 213 159
186 207 135
186 207 140
185 207 125
185 206 130
179 202 92
179 202 102
179 201 80
177 200 95
176 199 84
177 200 67
172 195 67
174 198 74
177 200 80
176 200 80
175 199 87
174 198 86
175 199 80
174 198 74
174 197 86
173 197 78
170 194 70
171 194 70
169 192 62
171 194 74
171 194 78
175 198 70
173 197 92
172 195 74
171 195 72
172 196 82
170 194 76
175 199 86
170 194 81
173 196 76
173 197 74
176 199 88
174 198 82
174 198 44
169 193 62
175 198 80
174 198 47
175 199 102
173 197 78
173 197 72
174 198 80
176 199 88
176 199 80
175 200 88
175 199 80
177 201 102
174 198 80
175 199 76
176 200 80
177 201 80
178 201 108
173 196 67
180 203 99
174 198 76
178 201 84
175 199 84
176 199 88
177 201 99
176 199 80
174 198 76
177 200 92
176 199 76
177 200 84
176 200 76
180 203 108
184 205 114
182 204 105
182 204 122
185 206 122
182 204 117
184 205 125
184 205 122
183 205 114
185 206 122
180 202 99
182 204 95
183 204 111
181 203 99
183 205 108
180 202 84
180 202 88
180 202 84
180 202 84
178 200 62
178 200 80
176 198 57
175 197 60
173 196 44
169 192 47
165 189 51
161 184 78
156 180 82
150 173 90
126 152 133
108 136 148
84 115 168
64 100 178
62 99 180
62 99 179
62 99 181
62 99 181
62 99 181
62 99 181
61 99 181
62 99 181
62 99 180
62 99 181
61 99 181
62 99 181
61 99 181
62 99 181
62 99 181
62 99 181
61 99 181
61 99 181
62 99 181
62 99 180
62 99 181
62 99 181
62 99 181
62 99 181
62 99 180
61 99 181
62 99 181
61 99 180
62 99 181
62 99 181
61 99 181
62 99 181
84 116 165
104 132 153
121 148 131
144 168 102
159 182 72
161 185 70
167 191 47
171 194 18
172 196 0
171 194 18
172 196 0
173 197 0
173 196 0
172 196 0
171 195 0
172 195 0
172 197 0
173 196 0
172 196 0
174 197 0
169 193 0
171 194 0
169 193 0
173 196 0
172 195 0
172 196 0
171 195 0
174 198 0
173 196 0
173 196 0
171 194 0
171 193 0
172 195 0
175 198 0
176 199 0
172 195 0
174 197 0
175 198 0
172 196 0
173 196 0
175 198 0
173 196 0
173 197 0
173 196 0
172 196 0
173 197 0
174 197 0
171 195 0
173 196 0
173 196 0
171 195 0
173 197 0
173 196 0
174 198 0
174 197 0
174 197 0
173 196 0
174 197 0
173 197 0
173 196 0
172 196 0
173 196 0
173 196 0
174 197 0
175 198 0
173 196 0
172 195 0
174 197 0
173 196 0
171 195 0
174 198 0
171 195 0
174 198 0
174 197 0
175 198 0
174 197 0
173 197 0
172 195 0
173 196 0
172 196 0
173 197 0
173 195 0
172 196 0
171 195 0
170 193 0
173 197 0
171 196 0
173 196 0
171 195 0
172 195 0
175 198 0
174 197 0
175 198 0
172 196 0
172 196 0
174 197 0
173 197 0
174 198 0
170 193 0
175 198 0
174 197 0
171 195 0
174 197 0
173 196 0
173 197 0
175 198 0
174 197 0
174 197 0
174 198 0
173 197 0
173 197 0
173 196 0
174 198 0
172 195 0
174 197 0
175 198 0
173 197 0
174 197 0
175 197 0
174 197 0
174 197 0
173 197 0
173 196 0
175 198 0
173 196 0
173 196 0
171 195 0
175 198 0
175 198 0
175 198 0
174 197 0
172 196 0
174 197 0
175 198 0
175 198 0
172 196 0
174 197 0
170 194 0
174 198 0
174 197 0
175 198 0
173 197 0
174 198 0
172 195 0
174 197 0
173 196 0
175 198 0
173 197 0
175 198 0
174 197 0
172 196 0
174 197 0
173 197 0
174 198 0
174 198 0
173 197 0
174 197 0
175 198 0
175 198 0
175 198 0
173 197 0
174 198 0
174 197 0
175 198 0
172 196 0
174 197 0
173 197 0
173 196 0
175 198 0
174 197 0
173 196 0
173 196 0
175 198 0
175 198 0
174 197 0
174 197 0
173 197 0
172 196 0
173 196 0
175 198 0
174 197 0
175 198 0
173 196 0
175 198 0
174 197 0
175 198 0
173 197 0
173 197 0
173 197 0
174 198 0
174 198 0
174 197 0
174 197 0
174 198 0
175 198 0
173 196 0
177 199 0
174 198 0
173 197 0
175 198 0
175 198 0
175 198 0
176 199 0
174 197 0
173 196 0
174 198 0
173 197 0
174 197 0
175 198 0
175 198 0
176 198 0
171 195 0
173 196 0
174 197 0
176 198 0
174 197 0
173 197 0
177 199 0
174 197 0
172 196 0
173 197 0
173 197 0
173 196 0
175 198 0
174 198 0
173 197 0
175 198 0
174 197 0
175 198 0
174 197 0
174 198 0
172 196 0
174 198 0
173 197 0
175 198 0
173 196 0
173 196 0
174 198 0
174 197 0
173 197 0
175 198 0
175 198 0
175 198 0
173 197 0
175 198 0
174 197 0
174 197 0
174 198 0
175 199 44
173 197 0
177 199 57
178 200 88
176 199 62
177 200 67
177 200 62
182 204 99
186 206 114
182 203 99
185 206 114
184 205 125
185 206 117
188 208 135
187 208 139
192 211 151
190 210 137
190 210 137
188 209 130
187 208 135
190 211 147
184 206 111
180 202 110
180 203 99
178 201 72
177 200 102
177 200 84
178 200 76
177 200 80
177 199 67
175 198 84
175 198 82
175 199 80
172 195 54
173 198 78
172 196 67
173 197 70
176 200 88
175 199 98
168 192 80
169 192 54
174 198 80
172 196 76
174 198 82
172 196 72
174 197 80
176 199 90
173 197 88
176 200 80
173 196 90
171 195 72
174 198 84
173 196 86
173 197 54
173 198 92
173 198 86
175 199 76
171 194 78
174 198 67
173 196 72
176 200 88
176 199 86
174 198 88
176 200 80
175 199 82
176 200 92
175 198 67
173 196 36
177 199 84
175 200 95
176 199 76
173 197 76
178 201 92
176 199 62
175 198 57
175 198 84
175 199 80
175 198 62
176 200 95
178 201 67
172 196 67
174 199 80
174 197 67
175 198 67
175 199 72
176 200 80
179 202 103
178 200 88
178 201 92
183 205 129
180 202 102
182 203 120
181 204 113
184 205 114
186 206 125
184 205 120
181 203 102
184 205 114
183 204 114
184 205 122
182 204 102
178 201 84
184 205 111
183 204 99
180 203 92
178 201 72
176 199 67
174 197 51
173 196 51
170 193 47
172 195 51
158 182 84
144 169 102
135 160 121
107 135 150
79 112 171
62 99 180
62 99 181
62 99 180
61 99 181
61 99 179
62 99 178
62 99 179
62 99 181
62 99 180
62 99 181
61 99 181
62 99 181
62 99 181
62 99 181
61 98 181
62 99 181
62 99 181
62 99 181
61 99 181
62 99 181
62 99 181
62 99 181
62 99 180
61 98 180
61 99 181
61 99 181
61 98 181
62 99 181
61 99 180
61 99 181
61 99 181
62 99 181
62 99 180
61 99 180
62 99 181
62 99 180
62 99 180
62 99 179
63 100 180
81 113 166
104 133 151
138 163 115
154 177 86
159 184 72
165 189 57
167 190 54
171 195 25
174 197 0
174 198 0
172 196 0
173 196 0
173 197 0
174 197 0
172 195 0
171 195 0
171 195 0
172 196 0
174 197 0
173 197 0
173 197 0
172 196 0
171 195 0
172 196 0
173 196 0
171 195 0
173 196 0
173 196 0
171 194 0
175 198 0
172 196 0
174 197 0
173 197 0
170 194 0
173 197 0
170 194 0
172 196 0
173 196 0
173 196 0
174 198 0
172 195 0
174 197 0
173 197 0
172 196 0
172 196 0
169 192 0
172 196 0
173 197 0
174 196 0
173 195 0
174 197 0
174 198 0
174 197 0
175 198 0
174 197 0
171 195 0
173 196 0
172 195 0
172 196 0
174 197 0
172 195 0
174 197 0
174 198 0
173 197 0
173 196 0
172 196 0
172 195 0
173 197 0
174 197 0
172 196 0
172 195 0
172 196 0
172 195 0
172 195 0
174 198 0
173 197 0
172 195 0
173 196 0
173 197 0
175 198 0
175 198 0
174 197 0
173 197 0
172 195 0
172 196 0
173 196 0
173 196 0
170 194 0
174 197 0
174 197 0
173 196 0
174 197 0
174 197 0
172 196 0
171 195 0
174 197 0
172 195 0
175 198 0
172 196 0
171 195 0
172 196 0
173 196 0
173 197 0
174 197 0
173 196 0
173 197 0
172 196 0
171 195 0
174 197 0
173 197 0
172 195 0
174 197 0
172 196 0
173 196 0
173 196 0
175 198 0
174 197 0
174 196 0
175 198 0
173 196 0
174 198 0
173 197 0
173 197 0
173 197 0
174 197 0
174 198 0
173 197 0
173 197 0
174 198 0
174 198 0
172 196 0
174 198 0
174 197 0
174 197 0
173 196 0
173 197 0
174 197 0
175 198 0
176 198 0
174 197 0
173 196 0
175 198 0
175 198 0
174 198 0
175 198 0
174 198 0
174 198 0
174 197 0
174 198 0
175 198 0
175 198 0
175 197 0
173 197 0
175 198 0
173 197 0
173 197 0
175 198 0
172 196 0
173 196 0
175 198 0
174 197 0
174 198 0
174 197 0
176 198 0
174 197 0
174 198 0
174 197 0
174 197 0
173 197 0
175 198 0
172 195 0
173 196 0
172 196 0
173 197 0
172 196 0
172 196 0
174 198 0
175 198 0
173 197 0
175 198 0
173 197 0
176 198 0
173 197 0
173 197 0
173 197 0
175 198 0
172 197 0
173 197 0
174 197 0
173 197 0
173 197 0
174 197 0
173 197 0
173 196 0
174 197 0
174 197 0
172 196 0
175 198 0
173 197 0
174 198 0
174 198 0
174 198 0
175 198 0
173 197 0
173 197 0
175 198 0
173 197 0
175 198 0
175 198 0
174 197 0
175 198 0
175 198 0
174 197 0
175 198 0
175 198 0
173 197 0
175 198 0
174 197 0
174 198 0
174 197 0
174 197 0
171 195 0
173 196 0
171 195 0
172 196 0
175 198 0
174 198 0
173 197 0
174 197 0
172 196 0
172 196 0
172 196 0
173 197 0
176 198 0
175 198 0
174 197 0
175 198 0
173 197 0
173 197 0
175 198 0
173 197 0
175 198 0
172 196 0
173 197 25
175 198 0
177 199 25
176 199 36
176 199 44
175 198 36
179 201 67
179 202 80
180 202 80
182 204 92
182 204 99
185 206 120
186 207 117
188 209 137
185 206 125
188 208 125
191 211 154
185 206 121
193 213 155
190 210 144
185 206 120
188 209 142
185 206 120
181 202 105
182 204 113
178 200 95
178 200 102
179 202 95
178 201 80
179 202 84
174 198 57
174 198 70
176 199 67
175 198 62
174 197 60
174 197 62
175 199 57
176 200 80
174 198 80
177 199 72
169 193 70
169 193 78
168 192 86
171 195 62
172 196 88
174 198 90
170 194 67
173 196 78
172 196 80
173 196 74
175 198 57
172 195 57
173 196 78
174 197 76
174 198 82
172 196 67
172 195 65
170 194 44
173 196 72
174 198 97
176 200 84
174 198 92
176 200 92
172 196 74
177 201 102
178 202 102
174 198 67
175 199 92
177 201 95
174 197 67
179 202 88
175 199 76
177 201 92
178 202 102
177 200 95
176 199 76
177 200 92
177 200 80
176 200 76
179 201 94
176 200 76
175 198 78
176 199 82
177 200 84
174 198 57
177 201 92
176 200 88
175 198 72
177 200 78
180 202 103
179 201 84
180 202 103
180 202 99
182 204 113
183 205 105
180 201 108
184 205 111
183 204 108
180 202 102
181 203 92
182 203 102
179 201 95
178 200 95
182 204 95
178 200 84
177 199 67
178 200 67
182 204 95
178 200 82
169 191 72
164 188 62
154 178 95
134 160 113
115 142 141
89 120 165
64 101 178
62 99 180
62 99 180
61 99 180
62 99 181
62 99 180
61 99 181
61 98 179
63 100 181
61 98 181
61 99 181
61 99 181
62 99 181
61 99 181
62 99 181
61 98 181
62 99 181
62 99 180
62 99 181
61 98 181
61 98 181
61 99 181
61 99 181
61 99 181
62 99 181
61 98 180
61 98 181
61 99 181
62 99 180
61 99 181
61 98 181
62 99 181
62 99 181
62 99 181
61 98 179
62 99 181
62 99 181
61 99 181
62 99 179
62 99 180
62 99 180
62 99 178
62 99 179
62 99 180
62 99 180
90 120 159
122 148 135
150 174 90
147 173 97
161 184 67
170 194 25
172 196 0
172 196 0
172 197 0
172 196 0
172 196 0
174 198 0
172 196 0
171 195 0
173 196 0
173 197 0
172 195 0
173 197 0
173 196 0
173 196 0
174 197 0
172 196 0
174 197 0
172 195 0
173 196 0
172 195 0
171 195 0
173 196 0
172 196 0
174 197 0
170 194 0
172 196 0
172 195 0
174 197 0
170 194 0
170 194 0
173 196 0
172 196 0
170 194 0
172 194 0
174 197 0
174 197 0
173 197 0
173 196 0
172 195 0
171 194 0
171 195 0
173 196 0
174 196 0
172 197 0
175 198 0
173 196 0
173 197 0
175 197 0
174 196 0
174 198 0
174 197 0
174 198 0
172 196 0
172 196 0
175 198 0
172 195 0
172 196 0
174 197 0
173 197 0
171 195 0
172 196 0
174 198 0
172 196 0
173 197 0
173 197 0
173 196 0
173 196 0
170 193 0
171 195 0
173 197 0
173 197 0
173 196 0
172 196 0
174 197 0
176 199 0
174 198 0
174 197 0
173 196 0
173 197 0
174 197 0
173 196 0
173 196 0
173 197 0
174 197 0
173 197 0
173 196 0
170 194 0
173 197 0
174 197 0
173 197 0
174 197 0
174 198 0
173 197 0
173 197 0
174 197 0
173 196 0
173 196 0
173 197 0
174 198 0
172 195 0
174 198 0
171 195 0
173 196 0
171 195 0
172 195 0
173 197 0
173 196 0
172 196 0
176 199 0
173 197 0
173 196 0
173 197 0
173 196 0
175 198 0
174 197 0
174 197 0
176 199 0
175 198 0
174 197 0
174 197 0
174 197 0
173 196 0
176 198 0
174 197 0
174 196 0
174 198 0
175 198 0
170 194 0
175 198 0
171 195 0
173 197 0
172 195 0
174 198 0
176 199 0
175 198 0
174 197 0
174 197 0
173 196 0
174 196 0
174 197 0
174 197 0
175 198 0
173 196 0
173 196 0
174 197 0
172 196 0
172 196 0
175 198 0
175 198 0
170 194 0
173 197 0
173 196 0
174 197 0
174 197 0
175 198 0
174 198 0
175 198 0
173 196 0
174 198 0
175 198 0
173 196 0
175 198 0
173 196 0
174 198 0
175 198 0
176 198 0
173 197 0
175 198 0
176 198 0
173 197 0
173 197 0
175 198 0
172 196 0
175 198 0
174 198 0
173 196 0
175 198 0
173 197 0
173 197 0
175 198 0
176 198 0
174 198 0
174 198 0
176 198 0
173 197 0
173 196 0
174 198 0
173 197 0
173 197 0
174 198 0
175 198 0
174 198 0
173 197 0
174 197 0
174 197 0
174 198 0
173 197 0
175 198 0
176 198 0
174 197 0
173 197 0
174 197 0
175 198 0
172 196 0
173 197 0
174 197 0
175 198 0
173 197 0
175 198 0
176 199 0
176 198 0
175 198 0
174 198 0
174 197 0
175 198 0
173 197 0
172 196 0
173 197 0
175 198 0
173 197 0
176 199 0
174 197 0
174 198 0
173 197 0
173 197 0
176 199 0
173 196 0
174 198 0
172 196 0
174 198 0
174 198 0
174 197 0
173 197 0
174 198 0
173 196 0
174 197 0
175 198 25
174 197 0
175 198 36
178 200 62
179 201 72
176 199 62
177 200 57
184 205 105
184 205 108
179 200 88
183 204 110
189 209 133
181 203 102
185 206 117
187 207 125
186 207 137
187 209 142
190 210 142
187 208 133
187 208 137
182 204 114
187 208 135
184 205 108
179 201 88
180 202 76
178 202 88
175 198 74
175 199 76
178 201 95
176 199 95
175 199 72
176 199 90
176 198 80
174 197 74
173 197 62
173 197 92
172 196 65
170 194 81
171 195 80
173 197 72
172 196 51
175 198 76
172 196 84
170 194 108
172 195 78
172 195 72
165 190 82
173 197 84
170 194 74
172 196 78
172 195 60
175 198 82
173 197 76
175 198 78
174 198 74
171 195 76
174 197 74
175 198 88
177 200 88
174 197 72
173 198 74
174 198 67
176 199 95
176 200 88
176 199 80
177 200 90
175 199 84
175 198 70
175 199 67
175 199 84
176 200 99
175 199 72
176 199 95
176 200 80
177 200 88
175 199 86
173 196 40
176 200 84
176 199 80
176 199 67
177 199 86
174 197 80
178 201 99
175 198 72
175 199 67
176 199 80
174 197 76
177 199 76
181 203 95
180 202 97
182 204 113
178 200 97
179 201 103
183 204 120
183 205 108
176 199 72
181 203 92
182 203 105
181 203 102
179 201 76
179 200 76
177 199 76
180 202 92
179 201 84
178 200 88
169 192 84
167 190 60
157 182 76
140 164 114
115 141 142
75 109 172
63 100 181
62 99 179
62 99 180
61 99 180
62 99 180
62 99 178
62 99 180
61 98 181
62 99 181
62 99 181
62 99 181
62 99 181
62 99 181
61 98 181
62 99 181
62 99 181
62 99 181
62 99 181
61 99 181
62 99 181
61 98 181
61 99 181
61 99 181
61 98 181
61 99 181
61 99 181
61 99 181
62 99 181
61 99 181
61 99 181
61 98 181
62 99 181
61 98 180
61 99 181
62 99 181
62 99 181
61 99 181
62 99 181
61 98 181
62 99 181
61 99 181
62 99 180
62 99 180
62 99 180
62 99 179
61 98 178
62 99 179
61 98 176
62 99 179
68 103 177
107 135 143
142 166 108
155 179 80
163 187 62
165 189 47
172 195 31
172 196 0
172 196 0
174 198 0
172 196 0
170 195 0
169 193 0
174 197 0
175 198 0
173 197 0
174 198 0
171 195 0
172 196 0
173 196 0
170 193 0
172 195 0
174 198 0
173 196 0
173 196 0
172 195 0
176 199 0
174 197 0
172 195 0
174 197 0
175 198 0
174 197 0
172 194 0
173 196 0
176 199 0
171 195 0
174 197 0
173 196 0
174 197 0
170 194 0
173 196 0
173 197 0
174 197 0
170 194 0
173 196 0
173 196 0
170 194 0
174 197 0
173 197 0
172 196 0
172 196 0
173 196 0
173 197 0
173 197 0
172 196 0
174 198 0
172 195 0
172 195 0
174 197 0
173 196 0
175 198 0
172 196 0
173 197 0
174 197 0
173 196 0
172 196 0
174 197 0
173 196 0
173 195 0
175 198 0
172 195 0
172 196 0
173 197 0
173 197 0
170 193 0
174 198 0
174 197 0
171 195 0
173 197 0
173 196 0
174 197 0
172 196 0
175 198 0
176 199 0
172 196 0
172 195 0
174 197 0
175 198 0
173 196 0
175 198 0
174 198 0
174 197 0
175 198 0
175 198 0
172 196 0
172 195 0
172 196 0
173 197 0
173 196 0
173 196 0
173 196 0
174 197 0
175 198 0
173 197 0
174 198 0
173 196 0
171 196 0
173 196 0
174 197 0
172 196 0
173 196 0
172 196 0
172 196 0
173 196 0
173 197 0
175 197 0
174 197 0
174 197 0
175 198 0
173 196 0
173 196 0
173 197 0
173 196 0
174 197 0
172 196 0
174 197 0
171 195 0
174 197 0
173 197 0
173 196 0
173 197 0
173 197 0
175 198 0
176 198 0
174 198 0
174 197 0
176 198 0
176 199 0
174 198 0
175 198 0
175 198 0
174 197 0
175 198 0
173 196 0
173 196 0
175 198 0
173 197 0
174 198 0
172 196 0
173 196 0
174 197 0
174 197 0
174 197 0
175 198 0
173 197 0
173 197 0
173 196 0
174 197 0
175 198 0
175 198 0
175 198 0
175 198 0
173 196 0
173 196 0
174 198 0
174 197 0
173 197 0
174 198 0
173 196 0
174 197 0
173 197 0
173 197 0
173 197 0
173 196 0
174 197 0
173 197 0
172 197 0
175 198 0
175 198 0
173 197 0
175 198 0
175 198 0
171 195 0
174 197 0
173 197 0
173 197 0
174 197 0
173 197 0
175 198 0
174 197 0
177 199 0
175 198 0
175 198 0
173 197 0
172 197 0
172 197 0
173 197 0
172 197 0
174 197 0
173 197 0
175 198 0
173 196 0
175 198 0
174 197 0
173 197 0
171 195 0
174 198 0
173 197 0
173 196 0
174 198 0
172 196 0
172 196 0
173 197 0
174 198 0
173 197 0
171 195 0
172 196 0
173 197 0
173 196 0
175 197 0
173 197 0
175 198 0
174 197 0
173 196 0
175 198 0
172 197 0
175 198 0
174 198 0
173 197 0
173 197 0
172 196 0
174 198 0
174 198 0
174 197 0
174 197 0
174 197 0
174 198 0
175 198 0
174 198 25
175 198 0
175 198 36
178 201 57
177 199 44
179 201 67
175 198 51
175 199 36
179 201 84
180 202 92
182 204 99
184 205 105
188 208 130
184 206 117
184 206 114
188 209 137
183 205 111
189 209 137
183 205 117
190 210 147
187 208 135
185 206 125
182 204 108
186 207 122
183 204 105
179 202 88
177 200 76
179 202 97
175 198 76
177 200 86
175 198 72
174 197 82
178 201 84
170 195 76
176 199 84
175 199 67
173 197 86
171 195 65
172 197 76
173 197 92
175 198 99
174 197 65
174 197 86
172 196 80
172 196 80
171 194 102
168 191 82
170 194 67
174 198 78
172 196 80
173 196 76
175 199 100
170 194 65
175 197 95
174 197 89
175 198 76
169 193 72
174 197 86
171 195 82
174 197 100
175 200 95
171 194 62
177 200 76
176 200 78
174 198 67
178 201 107
176 201 92
178 201 88
178 202 105
177 200 99
174 198 80
176 199 76
177 201 88
174 198 67
176 199 92
177 200 97
176 200 88
176 199 76
175 199 67
176 199 84
174 198 62
176 199 82
177 200 94
174 197 72
173 197 60
177 200 90
173 196 40
175 198 100
174 197 84
176 199 92
178 200 92
177 199 82
183 205 111
178 201 108
178 200 100
182 204 102
185 206 117
185 206 128
183 204 108
183 204 111
179 201 82
183 204 114
177 200 76
180 203 102
180 202 88
176 198 97
168 190 84
159 183 90
140 164 105
109 137 151
70 105 177
62 99 178
62 99 177
61 99 179
62 99 181
61 98 180
62 99 180
62 99 181
61 98 179
62 99 181
62 99 181
62 99 181
62 99 180
62 99 181
61 99 181
62 99 181
61 99 181
61 99 181
61 99 181
62 99 181
62 99 181
62 99 181
61 99 181
62 99 181
61 98 181
62 99 181
61 99 181
61 99 181
61 99 181
61 99 181
61 98 181
61 99 181
62 99 181
61 99 181
62 99 181
62 99 181
62 99 181
62 99 181
61 98 181
61 98 180
62 99 181
62 99 181
62 99 180
62 99 181
62 99 179
62 99 180
62 99 181
62 99 178
62 99 179
61 99 180
62 99 180
61 99 181
62 99 177
61 98 179
72 106 174
114 140 142
142 167 105
148 171 92
162 186 70
167 191 40
173 196 0
174 197 0
173 197 0
175 198 0
171 195 0
173 196 0
172 195 0
173 196 0
174 197 0
171 194 0
172 195 0
173 196 0
172 195 0
172 195 0
172 196 0
171 195 0
172 196 0
173 197 0
173 196 0
171 196 0
173 197 0
171 194 0
175 198 0
172 195 0
173 197 0
176 198 0
173 197 0
173 196 0
173 197 0
175 198 0
171 195 0
173 197 0
172 195 0
173 196 0
173 197 0
172 195 0
172 196 0
174 197 0
174 197 0
173 196 0
173 196 0
173 196 0
173 196 0
173 196 0
173 197 0
173 196 0
174 197 0
176 199 0
171 195 0
173 197 0
173 196 0
174 197 0
173 197 0
171 194 0
173 197 0
174 197 0
172 196 0
174 196 0
172 196 0
172 196 0
173 197 0
171 195 0
172 196 0
173 197 0
173 195 0
173 196 0
171 195 0
173 197 0
173 196 0
171 195 0
172 196 0
174 197 0
174 197 0
173 197 0
174 197 0
172 196 0
174 197 0
174 197 0
172 196 0
172 196 0
173 197 0
173 197 0
172 196 0
175 198 0
174 197 0
174 197 0
174 197 0
173 196 0
173 197 0
175 197 0
170 194 0
175 198 0
173 197 0
174 197 0
174 197 0
173 196 0
175 198 0
171 195 0
175 198 0
172 195 0
172 195 0
174 197 0
173 196 0
172 196 0
174 198 0
175 198 0
174 197 0
176 199 0
173 197 0
172 196 0
173 196 0
174 197 0
172 195 0
174 198 0
175 198 0
173 197 0
174 197 0
172 196 0
172 196 0
175 198 0
173 197 0
173 196 0
173 196 0
175 198 0
173 197 0
176 198 0
173 197 0
174 198 0
176 198 0
174 197 0
173 196 0
173 197 0
172 196 0
175 198 0
174 197 0
173 196 0
174 197 0
174 197 0
175 198 0
173 196 0
174 197 0
174 197 0
172 196 0
174 197 0
173 196 0
174 197 0
175 198 0
172 196 0
171 196 0
173 197 0
172 196 0
173 196 0
175 198 0
173 197 0
174 197 0
174 198 0
175 198 0
174 197 0
173 197 0
172 196 0
173 196 0
175 198 0
173 196 0
172 196 0
172 195 0
173 196 0
175 198 0
173 197 0
175 198 0
175 198 0
173 197 0
176 199 0
174 197 0
175 198 0
174 197 0
174 198 0
175 198 0
173 197 0
173 197 0
173 197 0
175 198 0
174 197 0
174 197 0
173 197 0
175 198 0
174 197 0
174 198 0
174 197 0
175 198 0
174 198 0
175 198 0
174 198 0
174 197 0
174 198 0
174 197 0
174 198 0
174 197 0
175 198 0
175 198 0
172 196 0
176 199 0
173 197 0
173 197 0
175 198 0
174 197 0
174 197 0
173 196 0
175 198 0
174 198 0
174 198 0
173 197 0
172 196 0
175 198 0
173 197 0
176 199 0
174 197 0
173 197 0
175 198 0
174 198 0
174 197 0
175 198 0
175 198 0
173 197 0
173 197 0
173 197 0
176 198 0
174 197 0
173 196 0
175 198 0
173 196 0
175 198 0
174 198 0
175 198 0
175 198 0
176 198 36
178 201 76
177 200 57
182 204 92
179 201 72
179 201 80
180 202 76
183 204 105
182 204 102
186 207 120
181 203 95
184 206 117
185 206 122
182 204 105
186 207 129
190 210 137
188 208 133
181 203 95
187 208 130
182 204 102
180 202 92
178 201 92
175 199 67
178 201 92
176 200 84
175 199 67
175 198 70
175 199 80
177 200 82
176 199 72
177 200 99
175 199 72
177 199 76
177 200 84
177 200 78
177 200 94
176 199 95
171 195 82
172 196 76
169 193 83
175 198 78
176 200 88
171 195 84
175 198 100
171 195 54
173 197 80
169 193 90
174 197 90
173 197 97
172 196 94
174 197 84
174 198 74
174 197 82
177 200 102
174 197 78
176 199 92
175 199 86
176 200 100
178 201 95
174 197 102
175 199 94
173 197 90
175 198 84
176 200 94
177 201 97
180 203 111
177 200 80
178 201 95
176 200 92
178 201 99
175 199 92
176 200 80
180 202 92
176 199 82
175 198 99
178 201 88
176 199 103
178 201 95
178 201 100
173 196 67
177 200 67
175 198 80
175 198 62
174 197 65
176 199 72
176 199 92
177 200 76
177 200 82
181 203 111
181 203 107
183 204 117
182 204 105
182 204 95
184 205 111
181 203 103
176 199 84
177 200 65
185 206 108
183 204 105
179 201 107
168 192 74
156 180 86
151 175 108
119 146 139
68 103 173
62 99 178
61 99 178
62 99 177
62 99 179
62 99 180
62 99 179
62 99 181
61 98 180
62 99 180
61 99 181
61 99 181
62 99 181
61 99 179
62 99 180
62 99 181
61 99 181
62 99 181
62 99 181
62 99 181
61 99 181
61 99 181
62 99 181
61 99 181
61 99 181
62 99 181
62 99 181
61 99 181
62 99 181
61 98 181
62 99 181
61 99 181
62 99 181
61 99 181
61 99 180
61 98 181
61 99 181
61 98 181
60 98 181
61 99 181
61 99 181
62 99 181
61 99 181
61 99 181
61 99 181
61 99 181
62 99 180
62 99 179
62 99 180
61 99 181
62 99 179
61 98 179
62 99 179
61 99 180
62 99 179
62 99 179
61 99 178
62 99 177
72 106 173
113 140 143
140 166 104
154 179 78
168 192 36
171 195 31
173 195 0
171 195 0
175 198 0
172 196 0
169 193 0
172 195 0
172 196 0
172 195 0
174 197 0
174 197 0
171 195 0
174 197 0
175 198 0
173 196 0
171 194 0
174 197 0
174 198 0
172 195 0
172 195 0
172 197 0
171 194 0
173 196 0
173 197 0
173 196 0
172 196 0
173 197 0
173 197 0
174 197 0
172 195 0
174 197 0
173 196 0
172 196 0
174 196 0
171 195 0
171 195 0
172 196 0
174 198 0
173 196 0
173 196 0
170 193 0
175 197 0
173 197 0
172 196 0
173 196 0
170 195 0
171 195 0
173 197 0
175 198 0
174 197 0
175 198 0
173 196 0
174 197 0
172 195 0
174 197 0
171 195 0
172 196 0
172 195 0
171 195 0
170 194 0
173 196 0
173 196 0
174 197 0
175 198 0
172 196 0
175 198 0
175 198 0
172 197 0
173 196 0
173 196 0
175 198 0
173 196 0
175 198 0
174 198 0
175 198 0
173 196 0
173 196 0
171 195 0
172 196 0
172 197 0
173 196 0
172 196 0
175 198 0
175 198 0
171 196 0
170 194 0
173 197 0
172 195 0
174 197 0
172 196 0
173 196 0
172 196 0
174 197 0
172 196 0
176 198 0
175 198 0
174 198 0
174 197 0
172 196 0
173 197 0
174 198 0
172 196 0
175 198 0
173 197 0
173 196 0
175 198 0
174 197 0
174 198 0
172 195 0
175 198 0
174 197 0
174 197 0
173 196 0
175 198 0
174 197 0
174 197 0
174 197 0
172 196 0
170 194 0
174 197 0
173 196 0
170 194 0
173 196 0
173 197 0
174 197 0
175 198 0
172 196 0
175 198 0
173 197 0
174 197 0
175 198 0
173 197 0
173 197 0
175 197 0
173 196 0
174 198 0
173 196 0
175 198 0
173 197 0
173 197 0
175 198 0
173 197 0
174 198 0
175 198 0
174 198 0
171 195 0
174 197 0
174 197 0
174 197 0
173 196 0
174 198 0
173 197 0
173 197 0
171 195 0
172 196 0
173 197 0
175 198 0
175 198 0
174 197 0
174 197 0
172 196 0
174 197 0
173 197 0
175 198 0
175 198 0
174 197 0
172 196 0
173 197 0
174 198 0
174 198 0
173 197 0
175 198 0
173 197 0
176 199 0
172 196 0
174 197 0
174 198 0
173 197 0
174 197 0
174 197 0
173 197 0
173 197 0
172 195 0
174 197 0
174 197 0
174 197 0
174 197 0
174 197 0
174 197 0
172 197 0
173 197 0
175 198 0
174 197 0
175 198 0
174 197 0
173 197 0
173 197 0
172 197 0
174 198 0
175 198 0
173 197 0
173 197 0
172 196 0
174 198 0
173 197 0
174 198 0
171 194 0
174 197 0
173 197 0
175 198 0
175 198 0
172 196 0
173 197 0
172 196 0
172 196 0
172 196 0
174 197 0
175 198 0
173 196 0
174 197 0
174 197 0
172 196 0
174 197 0
174 198 0
175 198 0
173 197 0
174 197 0
173 197 0
174 197 0
174 198 0
175 198 25
178 200 36
176 199 36
175 198 51
174 197 36
177 200 67
175 199 57
180 202 88
181 203 92
180 202 80
180 201 80
182 204 99
185 206 114
187 208 125
186 207 122
182 204 99
185 206 120
182 204 105
185 206 120
185 206 128
183 204 114
181 203 105
183 205 111
182 204 102
177 199 84
178 201 92
177 199 78
175 199 72
179 202 88
171 195 54
176 199 82
175 198 67
175 198 113
174 197 57
175 198 91
175 199 62
172 196 80
174 198 82
173 196 79
172 195 54
175 198 62
171 195 90
178 201 97
170 194 86
175 198 80
176 200 76
175 198 76
173 197 76
172 196 75
170 194 82
175 198 82
173 196 83
171 195 95
176 199 110
176 200 95
177 199 92
177 199 88
172 196 90
175 199 88
175 199 80
178 201 95
176 200 80
173 196 86
176 199 88
176 200 92
176 200 84
178 200 99
177 200 88
176 199 94
173 197 80
178 201 86
176 199 86
175 198 95
175 199 76
178 201 99
174 198 102
176 199 74
179 202 99
176 199 80
175 198 86
174 197 65
170 194 82
173 196 86
174 196 78
176 199 86
179 201 72
176 199 82
172 194 54
173 196 60
173 196 78
174 197 90
174 197 78
177 199 105
178 200 102
175 198 78
183 204 120
177 200 88
183 205 102
183 204 105
180 202 88
178 201 84
177 198 110
170 193 82
156 180 86
130 156 126
89 119 164
62 99 177
62 99 179
62 99 179
62 99 181
62 99 180
63 100 181
61 98 180
62 99 181
61 99 179
61 99 180
62 99 180
62 99 181
61 99 179
61 99 181
61 99 181
61 99 181
62 99 181
62 99 181
62 99 181
61 99 181
62 99 181
61 99 181
62 99 181
61 99 181
62 99 181
61 98 181
61 99 181
61 99 181
62 99 181
62 99 181
61 99 181
61 99 181
61 99 181
61 99 181
61 99 181
61 99 181
61 99 181
61 99 181
62 99 181
61 98 181
62 99 181
62 99 181
62 99 181
62 99 181
61 98 180
62 99 180
61 98 180
62 99 181
61 99 181
61 98 180
62 99 181
62 99 180
62 99 180
61 99 180
61 98 177
62 99 179
62 99 180
63 99 178
62 99 179
62 99 176
62 99 180
76 110 165
123 149 133
156 180 82
155 180 76
167 191 51
171 194 25
172 196 0
174 197 0
174 197 0
174 198 0
173 196 0
173 197 0
173 197 0
174 197 0
170 195 0
171 195 0
173 197 0
172 196 0
173 196 0
172 196 0
174 197 0
173 196 0
174 197 0
171 195 0
173 196 0
174 197 0
173 197 0
172 195 0
172 196 0
172 195 0
171 195 0
174 198 0
173 196 0
174 197 0
174 198 0
172 196 0
174 197 0
174 197 0
172 196 0
172 196 0
173 196 0
173 196 0
174 197 0
173 197 0
174 197 0
173 197 0
172 196 0
172 196 0
168 192 0
171 195 0
174 197 0
173 196 0
174 197 0
173 196 0
175 198 0
172 196 0
173 197 0
172 196 0
174 197 0
172 195 0
173 196 0
174 197 0
175 197 0
173 197 0
171 195 0
171 194 0
173 197 0
173 197 0
173 197 0
174 198 0
174 197 0
172 195 0
174 197 0
171 195 0
170 194 0
173 197 0
173 197 0
174 197 0
173 196 0
173 197 0
174 197 0
173 196 0
172 196 0
173 197 0
172 195 0
175 198 0
173 197 0
171 194 0
173 196 0
173 196 0
175 198 0
175 198 0
172 196 0
174 196 0
173 196 0
173 196 0
175 198 0
172 196 0
174 197 0
174 197 0
172 196 0
173 196 0
172 195 0
171 195 0
174 198 0
174 197 0
173 196 0
172 196 0
175 198 0
174 196 0
175 198 0
174 197 0
175 198 0
174 198 0
172 195 0
173 197 0
173 197 0
174 198 0
174 198 0
173 197 0
172 196 0
174 197 0
175 198 0
174 196 0
171 195 0
173 197 0
175 198 0
174 197 0
173 196 0
172 195 0
171 195 0
175 198 0
175 198 0
174 197 0
172 196 0
176 198 0
174 198 0
175 198 0
172 196 0
174 197 0
173 196 0
173 197 0
175 198 0
174 197 0
173 196 0
173 197 0
171 196 0
174 198 0
174 197 0
174 198 0
175 198 0
174 198 0
174 196 0
175 198 0
172 196 0
175 198 0
174 197 0
175 198 0
175 198 0
173 196 0
173 196 0
174 197 0
175 198 0
174 196 0
173 197 0
173 197 0
175 198 0
173 197 0
173 196 0
175 198 0
173 197 0
174 197 0
176 199 0
174 198 0
175 198 0
177 199 0
172 196 0
174 197 0
174 197 0
174 197 0
175 198 0
174 198 0
173 196 0
174 197 0
175 198 0
174 197 0
174 198 0
174 198 0
174 198 0
175 198 0
173 196 0
174 197 0
175 198 0
174 197 0
175 198 0
175 198 0
174 198 0
175 198 0
174 197 0
173 197 0
173 197 0
176 199 0
174 197 0
174 198 0
173 197 0
174 197 0
173 197 0
175 198 0
174 198 0
173 197 0
171 196 0
175 197 0
173 197 0
173 197 0
174 197 0
174 197 0
175 198 0
174 197 0
175 198 0
174 197 0
174 197 0
174 198 0
173 197 0
171 196 0
173 197 0
176 198 0
174 196 0
174 198 0
173 197 0
173 197 0
172 196 0
173 197 0
175 198 0
175 198 25
173 197 25
175 199 36
175 198 36
177 200 62
176 199 51
175 199 51
184 205 102
180 202 84
179 201 88
185 205 105
183 204 102
184 206 111
180 203 95
185 206 120
187 207 122
185 206 120
186 207 129
186 208 130
181 203 88
182 203 95
181 203 99
181 203 100
177 200 88
174 198 72
178 201 80
174 197 51
178 201 92
178 201 80
179 202 100
178 201 92
175 199 72
171 194 67
176 199 80
174 197 82
175 197 80
175 199 74
177 200 80
179 201 117
171 194 80
174 197 76
174 198 84
172 196 88
172 196 62
174 197 65
172 195 91
176 199 97
172 195 94
174 198 92
176 200 72
173 196 95
173 197 97
172 196 72
174 198 88
174 197 70
174 198 84
175 199 80
175 198 82
172 196 80
174 198 90
176 200 97
175 199 88
176 200 92
176 200 102
176 199 74
175 198 74
176 199 99
178 201 80
178 202 95
177 200 94
177 200 67
176 200 100
175 198 78
174 197 82
176 199 67
173 197 70
174 198 84
173 196 80
175 199 99
174 197 72
174 197 88
176 199 95
175 198 84
175 198 90
177 199 84
176 199 57
175 199 84
174 197 72
174 197 76
176 199 88
172 195 57
178 201 97
176 199 72
180 202 108
176 199 82
182 204 99
175 198 84
182 203 113
179 201 82
176 198 103
170 193 99
160 182 120
132 158 121
91 121 162
62 99 179
62 99 176
62 99 181
62 99 179
62 99 180
62 99 180
62 99 179
62 99 179
62 99 181
62 99 180
62 99 181
62 99 179
62 99 179
61 98 181
62 99 181
62 99 181
62 99 181
62 99 181
61 99 181
62 99 181
61 99 181
62 99 181
61 99 181
62 99 181
61 98 180
61 99 181
61 98 181
61 99 181
61 99 181
62 99 181
61 99 181
61 98 181
61 99 181
61 99 181
61 99 181
62 99 181
61 99 181
62 99 181
61 99 181
62 99 181
62 99 181
62 99 181
62 99 180
61 99 181
62 99 181
62 99 181
62 99 181
61 98 180
62 99 181
62 99 181
62 99 179
61 98 179
62 99 180
62 99 181
61 99 179
62 99 178
62 99 181
62 99 179
62 99 181
62 99 179
62 99 179
62 99 179
62 98 176
63 99 178
62 99 175
88 119 165
133 159 120
152 176 88
166 190 51
168 192 40
172 196 0
173 196 0
171 195 0
174 198 0
172 196 0
172 195 0
172 195 0
173 196 0
173 197 0
169 192 0
175 198 0
172 195 0
171 196 0
173 196 0
173 196 0
169 193 0
172 195 0
171 194 0
172 196 0
173 196 0
172 196 0
170 194 0
173 196 0
174 197 0
172 195 0
173 197 0
173 196 0
172 195 0
175 198 0
171 194 0
171 195 0
172 196 0
173 197 0
171 195 0
172 196 0
172 196 0
170 194 0
176 198 0
175 198 0
171 194 0
172 196 0
173 196 0
174 197 0
171 196 0
172 196 0
173 196 0
170 193 0
170 194 0
171 195 0
174 197 0
170 194 0
173 197 0
172 195 0
170 194 0
172 195 0
173 196 0
172 195 0
173 196 0
174 197 0
175 198 0
174 197 0
173 197 0
171 194 0
174 197 0
171 195 0
171 195 0
173 196 0
175 198 0
171 195 0
172 196 0
173 196 0
172 195 0
172 195 0
172 195 0
173 196 0
173 196 0
174 197 0
174 197 0
168 191 0
172 195 0
173 197 0
173 197 0
172 196 0
173 197 0
175 198 0
173 196 0
174 198 0
174 197 0
173 197 0
175 198 0
172 195 0
173 197 0
176 198 0
172 196 0
173 196 0
173 197 0
176 198 0
173 197 0
174 197 0
173 195 0
173 197 0
176 198 0
172 196 0
174 197 0
173 197 0
174 197 0
172 196 0
172 196 0
175 198 0
174 197 0
173 197 0
172 196 0
174 197 0
174 198 0
173 197 0
174 197 0
174 197 0
173 196 0
174 197 0
172 196 0
174 197 0
172 196 0
170 194 0
173 197 0
173 196 0
174 197 0
174 198 0
172 195 0
172 196 0
173 197 0
174 197 0
173 196 0
173 197 0
174 197 0
173 197 0
173 197 0
174 197 0
174 197 0
172 195 0
175 198 0
175 198 0
173 197 0
174 197 0
171 195 0
172 197 0
172 196 0
174 198 0
175 198 0
175 198 0
174 197 0
174 197 0
175 198 0
174 197 0
175 198 0
173 197 0
176 199 0
175 197 0
174 198 0
172 196 0
175 198 0
174 197 0
175 198 0
175 198 0
173 197 0
174 198 0
173 197 0
175 198 0
173 196 0
174 198 0
174 197 0
174 198 0
174 197 0
172 196 0
173 197 0
176 199 0
174 197 0
173 197 0
175 198 0
172 197 0
173 197 0
173 196 0
174 197 0
174 197 0
173 197 0
174 197 0
174 198 0
174 197 0
173 197 0
172 197 0
174 198 0
174 198 0
174 197 0
173 197 0
175 198 0
173 197 0
172 196 0
173 197 0
175 198 0
173 197 0
173 197 0
174 198 0
174 197 0
174 197 0
173 197 0
175 198 0
173 197 0
173 197 0
172 197 0
173 197 0
174 197 0
174 197 0
172 197 0
174 197 0
174 198 0
175 198 0
172 196 0
173 196 0
174 197 0
175 198 0
174 197 0
173 197 0
171 195 0
172 197 0
173 196 0
175 198 0
173 197 0
175 198 25
173 197 25
174 197 0
174 197 25
174 197 44
178 200 51
178 201 80
179 201 80
177 200 67
180 202 80
179 201 76
185 207 122
180 202 84
179 202 95
183 205 108
181 203 102
183 205 105
184 205 117
181 203 108
184 206 117
181 203 102
180 202 88
178 201 80
180 202 88
177 200 80
178 200 88
177 200 76
179 201 80
177 200 62
175 198 78
175 199 65
174 197 74
175 197 110
176 199 88
177 200 84
176 199 86
177 200 76
174 198 74
176 198 78
174 198 65
174 198 80
174 197 90
172 196 82
174 197 76
172 195 57
172 195 78
173 196 95
175 198 44
178 201 95
173 196 86
172 195 78
175 199 94
175 200 88
176 199 92
177 199 62
175 199 82
175 198 80
175 198 99
178 201 94
177 200 92
175 199 102
174 197 80
178 201 84
172 196 88
177 200 102
177 201 99
178 200 76
176 199 80
177 199 70
174 197 82
176 199 99
174 198 72
177 200 100
173 197 70
175 199 90
174 198 88
177 199 86
174 196 99
173 197 54
175 198 82
171 195 86
172 196 88
175 198 72
171 194 65
170 193 57
176 198 84
174 197 86
173 196 67
171 194 67
172 195 60
174 197 67
175 198 70
177 199 88
179 201 102
178 201 102
177 200 74
181 202 102
179 201 100
177 199 100
163 186 95
157 180 100
112 140 148
68 103 176
61 98 177
61 98 176
62 99 180
62 99 181
62 99 178
63 99 178
62 99 178
61 98 178
62 99 180
62 99 181
62 99 180
61 99 181
62 99 181
61 99 181
62 99 181
62 99 181
61 99 181
62 99 180
61 98 181
61 99 179
62 99 180
61 98 181
61 98 181
62 99 180
62 99 181
61 98 181
62 99 181
61 99 180
62 99 181
62 99 181
61 99 180
62 99 181
61 99 181
61 99 181
62 99 181
61 99 181
62 99 181
61 98 181
61 99 181
61 99 181
62 99 181
62 99 181
62 99 180
62 99 181
62 99 180
62 99 181
62 99 181
62 99 181
61 99 181
61 98 180
62 99 181
62 99 180
62 99 181
61 99 179
62 99 178
62 99 180
62 99 180
62 99 181
63 100 178
62 99 179
62 99 180
62 99 176
62 98 177
62 99 176
62 99 176
62 99 178
62 99 175
74 108 169
122 148 134
149 174 94
161 185 60
168 191 32
171 195 0
170 194 0
171 195 0
174 198 0
171 194 0
173 197 0
171 194 0
172 196 0
173 196 0
173 196 0
172 195 0
174 197 0
172 195 0
170 194 0
172 196 0
172 195 0
173 197 0
171 194 0
172 196 0
170 194 0
173 197 0
172 196 0
172 196 0
173 196 0
171 194 0
173 196 0
174 197 0
170 194 0
174 197 0
174 197 0
172 196 0
173 195 0
171 195 0
173 196 0
175 198 0
173 196 0
171 196 0
172 196 0
174 197 0
172 196 0
174 197 0
172 195 0
170 194 0
172 195 0
173 196 0
175 198 0
173 197 0
173 196 0
175 198 0
176 198 0
173 196 0
172 196 0
173 196 0
175 198 0
172 196 0
174 197 0
173 197 0
174 198 0
173 196 0
175 198 0
172 197 0
175 198 0
168 192 0
172 196 0
171 194 0
174 197 0
173 196 0
173 197 0
173 197 0
173 195 0
173 196 0
174 197 0
173 196 0
174 197 0
171 195 0
173 197 0
172 195 0
173 197 0
173 197 0
174 197 0
172 196 0
173 197 0
176 198 0
173 196 0
174 197 0
174 198 0
174 197 0
174 197 0
174 197 0
172 196 0
174 197 0
174 197 0
170 194 0
172 196 0
170 194 0
175 198 0
174 198 0
172 196 0
173 197 0
172 196 0
174 198 0
174 198 0
172 195 0
171 195 0
174 197 0
174 197 0
175 197 0
174 197 0
174 198 0
173 197 0
173 197 0
173 197 0
174 197 0
174 198 0
171 194 0
173 197 0
173 197 0
174 198 0
173 197 0
174 197 0
174 197 0
171 194 0
175 198 0
175 198 0
172 196 0
173 197 0
174 197 0
172 196 0
175 198 0
173 196 0
174 198 0
172 196 0
172 196 0
175 198 0
175 198 0
174 198 0
172 196 0
172 195 0
172 196 0
174 197 0
173 197 0
173 196 0
173 196 0
175 198 0
174 197 0
173 197 0
175 198 0
175 198 0
173 197 0
172 196 0
174 198 0
175 198 0
174 197 0
175 198 0
175 198 0
175 198 0
172 196 0
173 196 0
175 198 0
173 197 0
174 197 0
174 197 0
173 197 0
173 197 0
172 197 0
172 196 0
175 198 0
174 197 0
174 197 0
174 197 0
174 197 0
176 199 0
173 197 0
174 198 0
174 197 0
174 198 0
174 197 0
174 198 0
174 197 0
174 197 0
173 197 0
174 198 0
175 198 0
176 199 0
174 197 0
174 198 0
173 197 0
174 198 0
174 198 0
176 198 0
175 198 0
174 197 0
174 197 0
174 197 0
173 196 0
174 198 0
174 197 0
176 198 0
173 196 0
175 198 0
172 197 0
174 197 0
175 198 0
174 197 0
174 198 0
174 198 0
174 197 0
174 198 0
173 197 0
174 197 0
175 198 0
173 197 0
175 198 0
174 198 0
173 197 0
174 198 0
176 199 0
174 198 0
173 196 0
173 197 0
176 199 0
173 197 0
173 196 0
172 196 0
172 195 0
174 197 0
174 197 0
174 198 36
174 198 44
177 200 62
176 199 57
176 199 44
178 201 80
174 197 57
178 201 76
181 203 92
181 203 99
178 200 92
183 205 108
181 203 92
184 205 117
187 208 128
182 204 115
182 204 99
181 203 95
181 203 102
182 204 102
180 202 88
178 201 84
179 202 95
178 200 78
177 200 76
175 199 57
175 198 57
176 199 97
177 200 72
178 201 72
177 200 90
177 200 95
176 199 88
177 201 92
175 198 76
175 199 78
175 199 99
178 202 92
174 198 86
173 197 65
175 199 100
177 201 92
176 199 97
176 200 94
173 197 76
173 196 86
173 197 92
171 195 97
175 199 78
175 199 107
174 197 97
175 198 76
177 200 118
175 198 100
173 197 88
174 198 95
176 199 97
171 195 92
172 196 80
176 199 92
173 197 82
176 200 76
177 200 107
174 198 80
177 201 95
174 198 82
176 200 107
177 201 102
178 201 88
173 196 94
176 199 76
176 200 100
175 199 82
172 196 72
177 200 84
175 199 92
174 197 62
172 196 97
173 196 94
174 197 95
171 194 100
177 199 80
172 195 76
176 199 99
173 195 76
172 194 92
171 194 62
172 195 62
173 197 70
174 197 70
173 196 70
175 198 65
179 201 92
177 199 92
175 197 86
170 193 95
160 183 102
144 168 122
87 118 160
62 99 176
62 99 179
62 99 178
62 99 179
62 99 175
62 99 177
62 99 178
62 99 180
62 99 180
61 98 180
62 99 180
61 98 179
62 99 181
62 99 181
62 99 180
62 99 181
61 99 181
62 99 181
61 99 180
62 99 181
62 99 179
62 99 181
61 98 181
61 99 181
61 99 180
62 99 181
61 99 181
61 99 181
62 99 181
62 99 181
61 99 180
62 99 181
61 98 181
62 99 180
62 99 181
61 99 181
61 99 181
61 98 181
61 99 181
62 99 180
61 98 181
61 99 181
61 98 181
61 98 181
62 99 181
62 99 181
62 99 179
62 99 181
61 99 181
61 99 180
61 99 181
62 99 181
62 99 180
61 99 181
62 99 181
61 99 180
61 99 180
62 99 180
62 99 180
62 99 181
62 99 178
61 98 177
62 98 177
62 99 179
61 98 177
62 98 176
61 98 177
62 99 177
62 98 176
62 99 173
61 98 176
99 128 155
143 168 107
155 179 84
163 186 54
174 197 18
174 198 0
174 196 0
170 193 0
172 196 0
171 195 0
173 196 0
172 195 0
175 198 0
173 196 0
173 197 0
169 193 0
171 195 0
173 196 0
171 195 0
172 196 0
172 196 0
174 197 0
173 195 0
173 196 0
174 197 0
174 196 0
172 195 0
172 196 0
174 198 0
170 194 0
175 198 0
172 196 0
174 198 0
174 197 0
174 197 0
173 196 0
174 197 0
172 196 0
173 196 0
173 196 0
173 196 0
174 197 0
168 192 0
174 198 0
172 196 0
173 197 0
170 194 0
174 197 0
173 196 0
171 195 0
174 198 0
171 195 0
171 195 0
174 197 0
173 196 0
173 197 0
173 196 0
174 197 0
173 197 0
174 197 0
173 197 0
172 195 0
174 198 0
174 197 0
174 198 0
172 196 0
174 197 0
174 197 0
174 197 0
172 196 0
172 195 0
173 197 0
173 196 0
173 196 0
173 195 0
174 197 0
173 197 0
171 194 0
172 196 0
173 197 0
174 198 0
171 195 0
173 197 0
172 195 0
173 197 0
173 196 0
174 198 0
174 197 0
173 196 0
173 197 0
174 196 0
174 198 0
172 196 0
172 196 0
173 197 0
171 195 0
173 197 0
174 197 0
171 195 0
175 198 0
173 197 0
171 195 0
176 199 0
174 197 0
174 197 0
174 197 0
172 196 0
173 197 0
174 197 0
171 194 0
175 198 0
175 198 0
173 197 0
175 198 0
173 197 0
172 196 0
174 197 0
173 196 0
172 195 0
173 196 0
173 197 0
175 197 0
174 197 0
174 197 0
175 198 0
174 197 0
174 197 0
174 197 0
172 195 0
175 198 0
173 196 0
174 197 0
174 197 0
174 197 0
173 197 0
175 198 0
174 198 0
175 198 0
174 198 0
171 195 0
172 196 0
172 195 0
173 196 0
173 197 0
174 197 0
174 197 0
171 195 0
175 198 0
175 198 0
173 197 0
175 198 0
174 198 0
175 198 0
174 197 0
172 196 0
175 198 0
174 197 0
175 198 0
176 198 0
173 197 0
172 196 0
173 197 0
175 197 0
174 197 0
174 198 0
174 198 0
174 198 0
172 196 0
173 197 0
173 197 0
176 198 0
173 196 0
173 197 0
174 197 0
174 198 0
173 197 0
174 197 0
173 197 0
174 198 0
173 197 0
173 197 0
173 197 0
175 198 0
173 197 0
174 198 0
173 197 0
174 198 0
173 196 0
175 198 0
172 196 0
172 196 0
174 197 0
176 199 0
174 197 0
175 198 0
172 195 0
174 198 0
175 198 0
174 198 0
176 198 0
174 198 0
176 198 0
174 198 0
174 198 0
174 198 0
176 198 0
174 197 0
174 197 0
174 198 0
174 198 0
175 198 0
174 197 0
173 196 0
172 196 0
173 197 0
172 196 0
176 199 0
174 198 0
176 198 0
175 198 0
173 197 0
173 197 0
175 198 0
172 196 0
174 197 0
172 196 0
175 198 0
173 196 0
173 197 25
173 197 0
173 197 0
176 199 44
175 198 25
176 199 57
177 199 51
176 199 62
180 202 76
176 199 62
180 202 84
180 202 92
178 201 76
182 204 95
182 204 105
179 201 76
180 202 84
182 204 99
181 203 95
183 205 114
176 199 70
180 202 97
177 200 72
181 203 99
179 201 95
178 201 99
178 201 72
179 201 84
176 199 84
177 199 57
178 201 84
176 199 72
176 200 84
171 195 54
171 195 72
180 202 92
177 200 90
176 198 74
173 196 67
177 199 86
174 197 84
175 198 94
175 198 51
175 199 92
177 201 92
171 194 99
178 202 100
173 197 74
175 198 72
177 200 80
173 196 60
172 195 60
170 194 74
178 201 100
174 198 90
177 200 92
174 197 88
174 197 88
174 198 76
173 196 62
178 201 110
177 201 111
178 201 111
172 197 84
178 201 95
175 198 84
178 201 99
175 199 92
176 199 108
176 200 84
176 199 95
176 198 94
176 198 92
175 199 82
175 198 99
176 199 86
170 193 88
176 199 99
171 195 80
173 197 105
174 197 57
172 195 78
171 194 67
169 192 78
171 194 86
174 197 78
175 198 84
165 189 71
171 194 73
172 195 88
172 195 95
175 198 76
174 196 60
173 196 78
175 198 80
173 196 88
171 194 84
156 180 114
125 152 124
78 111 167
62 99 174
62 99 175
62 99 179
62 99 180
63 100 180
63 100 181
63 100 180
62 99 178
62 99 179
61 98 179
62 99 181
62 99 179
62 99 181
62 99 179
62 99 178
62 99 181
62 99 180
62 99 180
61 99 180
62 99 180
62 99 181
61 98 181
62 99 180
62 99 181
62 99 181
62 99 181
62 99 181
61 99 181
61 99 181
62 99 181
61 99 181
62 99 181
62 99 181
61 99 181
62 99 181
61 99 181
61 99 181
61 99 181
62 99 181
62 99 180
62 99 180
61 99 180
62 99 181
61 98 180
61 99 180
61 98 180
61 98 179
62 99 179
61 98 180
61 99 181
62 99 181
61 98 180
62 99 181
61 98 179
61 98 180
62 99 180
62 99 180
61 98 179
62 99 180
62 99 180
62 99 180
62 99 179
62 99 181
62 99 179
61 99 180
62 99 179
62 99 179
62 99 179
61 98 176
62 99 178
61 98 171
62 99 175
63 100 179
79 111 169
131 155 124
154 179 80
165 188 54
172 196 18
171 195 0
171 195 0
171 193 0
173 197 0
170 195 0
174 197 0
173 197 0
172 195 0
173 196 0
173 197 0
173 197 0
173 197 0
173 197 0
171 196 0
172 196 0
171 194 0
174 196 0
174 197 0
171 196 0
174 198 0
171 194 0
174 197 0
171 195 0
174 197 0
173 196 0
174 197 0
172 195 0
173 196 0
172 196 0
174 198 0
171 195 0
172 196 0
169 192 0
173 197 0
174 197 0
171 195 0
175 198 0
174 197 0
172 196 0
171 195 0
173 197 0
173 197 0
171 195 0
173 196 0
170 194 0
175 198 0
173 197 0
173 196 0
172 196 0
173 197 0
173 197 0
175 198 0
172 195 0
173 197 0
172 195 0
174 198 0
172 196 0
171 195 0
173 196 0
174 197 0
171 195 0
174 197 0
173 196 0
172 196 0
173 195 0
174 198 0
175 198 0
172 196 0
170 193 0
172 196 0
171 195 0
174 197 0
171 195 0
171 195 0
174 197 0
172 196 0
175 198 0
174 198 0
172 196 0
172 195 0
172 195 0
172 196 0
172 196 0
173 197 0
172 196 0
174 197 0
175 198 0
172 196 0
172 195 0
173 196 0
174 197 0
172 195 0
172 195 0
173 197 0
174 197 0
174 196 0
173 195 0
176 198 0
171 195 0
173 196 0
172 196 0
172 196 0
173 196 0
173 197 0
172 196 0
172 196 0
175 198 0
172 196 0
174 198 0
173 196 0
172 195 0
173 196 0
173 197 0
173 197 0
173 196 0
173 196 0
175 197 0
172 196 0
174 198 0
173 197 0
173 196 0
174 198 0
174 197 0
172 196 0
175 198 0
172 196 0
172 196 0
172 196 0
175 198 0
172 196 0
173 196 0
175 198 0
172 196 0
174 197 0
175 198 0
175 198 0
174 197 0
174 198 0
173 197 0
175 198 0
173 197 0
175 198 0
174 198 0
175 198 0
175 198 0
174 197 0
174 197 0
175 198 0
174 197 0
175 198 0
173 196 0
174 197 0
174 197 0
175 198 0
173 196 0
172 196 0
173 196 0
174 197 0
175 197 0
174 197 0
176 198 0
175 198 0
173 197 0
174 198 0
174 198 0
173 197 0
172 196 0
173 197 0
175 198 0
176 198 0
173 197 0
174 197 0
175 198 0
175 198 0
172 196 0
176 198 0
174 197 0
174 198 0
173 197 0
174 198 0
175 198 0
174 198 0
172 196 0
173 197 0
175 198 0
171 195 0
177 199 0
173 196 0
173 197 0
174 197 0
175 198 0
175 198 0
174 197 0
173 197 0
174 197 0
175 198 0
172 196 0
173 197 0
173 197 0
175 198 0
173 197 0
173 197 0
172 196 0
175 198 0
171 196 0
173 197 0
175 198 0
173 197 0
174 198 0
174 198 0
174 197 0
172 196 0
173 196 0
175 198 0
174 198 0
173 197 0
172 196 0
175 198 0
174 197 0
173 196 0
173 197 0
175 198 0
174 198 0
175 198 0
174 197 0
175 198 0
176 198 44
171 195 25
179 201 62
177 200 57
175 198 51
177 200 57
177 200 62
177 199 57
181 203 92
180 203 95
178 201 76
181 203 92
178 200 67
183 204 99
179 201 80
182 205 111
181 203 95
177 200 67
180 203 92
177 200 76
174 197 51
178 201 80
176 199 76
179 201 80
180 202 84
176 198 78
177 200 70
177 200 72
175 198 90
176 199 84
173 197 57
177 200 84
177 200 102
175 198 72
177 200 100
175 198 111
175 199 86
175 199 84
174 197 82
177 200 90
174 197 72
171 195 86
172 196 54
177 199 94
175 200 92
175 198 92
175 198 78
175 199 110
171 195 88
175 199 95
174 197 94
176 200 103
178 200 95
177 200 92
176 199 80
173 197 94
177 200 80
178 201 105
178 201 108
177 200 102
172 196 72
175 198 76
179 202 92
177 201 102
177 201 111
173 197 94
174 197 84
176 199 94
174 198 80
174 197 94
175 198 99
171 195 86
173 196 84
173 196 95
179 201 70
169 192 80
173 196 72
169 193 92
171 195 62
171 194 92
168 192 84
176 199 84
170 192 78
172 195 54
169 192 84
169 193 74
174 197 78
175 197 67
168 192 60
170 193 74
175 197 80
161 184 105
152 175 126
115 142 150
74 108 171
62 98 175
61 98 175
61 99 177
63 99 179
62 99 177
62 99 181
62 99 180
62 99 181
63 100 180
62 99 179
61 99 179
62 99 180
62 99 180
62 99 178
61 99 181
61 99 180
62 99 181
61 99 181
62 99 179
62 99 180
61 99 181
61 99 181
62 99 180
61 98 181
61 98 180
61 99 181
62 99 181
62 99 181
61 99 181
61 99 180
62 99 181
62 99 181
61 98 181
61 99 181
62 99 180
61 98 181
61 99 181
62 99 181
62 99 181
61 98 181
62 99 180
62 99 181
62 99 181
61 99 181
61 99 181
61 99 181
62 99 180
61 99 181
61 99 181
61 99 181
61 98 179
62 99 180
62 99 180
61 99 181
61 98 180
62 99 181
62 99 180
62 99 180
62 99 181
62 99 179
62 99 177
62 99 180
61 98 177
62 99 179
62 99 178
62 99 180
61 98 179
62 99 177
61 98 175
62 99 181
62 99 178
62 99 175
62 99 177
61 98 174
62 99 173
69 104 173
125 151 125
151 175 86
167 190 47
171 194 19
175 198 0
171 195 0
171 195 0
173 197 0
169 193 0
173 196 0
174 197 0
173 196 0
176 198 0
171 194 0
174 197 0
175 198 0
171 195 0
173 195 0
170 193 0
171 195 0
173 197 0
173 197 0
173 196 0
172 196 0
171 195 0
173 196 0
171 195 0
174 197 0
172 196 0
174 197 0
171 194 0
170 194 0
174 197 0
172 195 0
172 195 0
174 197 0
172 196 0
173 196 0
172 195 0
174 197 0
174 198 0
176 198 0
173 196 0
169 192 0
173 196 0
171 195 0
172 195 0
175 198 0
173 196 0
171 195 0
171 194 0
172 196 0
175 197 0
172 196 0
174 197 0
173 197 0
173 197 0
174 197 0
173 197 0
173 196 0
172 196 0
174 198 0
171 195 0
172 195 0
172 196 0
176 198 0
173 196 0
174 197 0
171 195 0
170 194 0
173 197 0
171 194 0
172 195 0
173 197 0
172 196 0
173 197 0
173 197 0
172 196 0
173 197 0
170 194 0
173 196 0
173 196 0
174 197 0
171 195 0
174 198 0
175 198 0
172 196 0
172 196 0
174 197 0
172 196 0
174 197 0
173 197 0
173 196 0
172 195 0
174 197 0
173 196 0
173 196 0
175 198 0
175 198 0
172 196 0
174 197 0
174 197 0
172 196 0
173 197 0
173 197 0
173 197 0
173 197 0
174 197 0
173 196 0
173 196 0
174 197 0
170 194 0
175 198 0
176 199 0
175 198 0
174 197 0
175 198 0
173 196 0
173 197 0
174 198 0
175 198 0
173 197 0
175 198 0
173 196 0
175 198 0
175 198 0
174 197 0
174 197 0
172 195 0
174 197 0
174 197 0
173 197 0
174 197 0
173 196 0
172 196 0
173 196 0
174 197 0
172 195 0
174 198 0
173 197 0
173 197 0
174 197 0
175 198 0
173 197 0
174 197 0
176 198 0
174 197 0
175 198 0
174 198 0
174 197 0
173 197 0
173 197 0
174 198 0
172 196 0
172 195 0
173 196 0
173 197 0
173 197 0
174 197 0
173 197 0
172 196 0
173 197 0
174 197 0
174 197 0
174 197 0
173 197 0
176 199 0
173 197 0
174 197 0
174 198 0
175 198 0
175 198 0
175 198 0
175 198 0
175 198 0
175 198 0
173 197 0
174 197 0
173 196 0
173 197 0
173 197 0
176 198 0
173 197 0
173 197 0
174 197 0
174 197 0
175 198 0
174 197 0
175 198 0
173 197 0
174 197 0
173 197 0
174 198 0
174 197 0
175 197 0
173 197 0
174 197 0
175 198 0
173 197 0
176 199 0
175 198 0
175 198 0
173 197 0
176 198 0
173 197 0
172 196 0
174 197 0
173 197 0
174 197 0
173 197 0
175 198 0
174 197 0
174 198 0
174 198 0
175 198 0
174 197 0
175 198 0
174 197 0
171 195 0
173 196 0
172 196 0
173 197 0
175 198 0
173 196 0
172 195 0
173 197 0
173 197 0
174 197 0
174 198 0
174 198 25
175 199 44
176 198 57
177 200 62
175 198 44
177 200 67
180 202 94
177 199 67
180 202 92
176 199 57
177 199 82
180 202 88
181 202 92
181 203 99
183 204 102
182 204 105
180 202 92
175 198 76
178 201 72
175 198 67
178 201 76
176 198 44
177 200 67
176 199 82
175 198 65
176 198 80
176 199 76
176 199 62
175 198 72
175 197 78
175 198 67
176 198 90
174 197 84
175 198 74
175 198 102
179 201 97
175 199 92
176 199 74
172 195 88
177 201 80
173 196 90
174 198 111
175 199 86
172 196 78
175 198 76
176 200 88
171 194 90
170 195 78
170 194 102
176 200 94
175 199 80
173 197 86
177 200 88
174 198 82
174 197 76
175 199 82
177 200 97
175 198 80
174 198 80
177 201 99
177 200 90
172 196 82
176 200 108
179 202 100
178 201 84
177 200 97
174 197 84
173 197 70
174 197 78
175 198 76
174 196 86
170 193 74
173 196 94
169 192 80
167 191 82
166 190 95
172 195 72
166 190 72
169 192 65
165 188 92
171 194 76
167 191 74
168 192 73
166 190 89
168 191 94
174 197 74
169 192 76
172 195 74
170 194 65
168 191 82
165 188 86
144 168 124
111 137 139
67 102 172
62 99 176
62 99 176
62 99 173
61 98 174
61 98 178
62 99 175
62 99 178
62 99 178
62 99 179
61 99 180
62 99 177
62 99 180
62 99 181
63 100 181
62 99 179
62 99 181
62 99 181
62 99 181
61 98 180
62 99 180
62 99 179
62 99 179
61 99 181
61 98 181
61 99 181
61 98 181
61 98 181
61 99 181
62 99 181
62 99 180
62 99 181
62 99 181
62 99 180
61 99 181
62 99 181
62 99 181
61 98 180
61 99 181
61 99 181
61 99 181
61 99 180
61 99 181
62 99 181
62 99 180
61 99 181
61 98 181
61 99 181
61 98 179
61 98 180
61 98 180
61 98 180
62 99 181
62 99 180
62 98 178
61 98 180
62 99 181
62 99 179
61 98 177
62 98 177
61 98 179
61 98 178
62 98 177
62 99 178
62 99 179
62 99 179
61 98 174
62 99 176
63 99 179
62 99 179
62 98 177
62 99 179
62 98 174
62 98 173
62 99 175
62 99 177
63 99 177
62 98 173
62 99 174
104 132 148
148 173 94
160 183 67
169 193 31
173 196 0
172 195 0
170 194 0
172 196 0
171 194 0
173 196 0
170 194 0
173 197 0
171 194 0
171 195 0
175 198 0
172 195 0
172 196 0
175 197 0
172 195 0
173 197 0
170 193 0
172 195 0
173 196 0
171 194 0
172 195 0
173 197 0
171 194 0
170 194 0
174 197 0
172 196 0
172 196 0
171 194 0
173 196 0
172 196 0
172 196 0
172 195 0
172 196 0
172 196 0
169 192 0
173 197 0
172 195 0
172 196 0
172 195 0
173 196 0
173 196 0
174 197 0
174 197 0
171 195 0
174 197 0
174 196 0
174 197 0
171 195 0
172 195 0
174 197 0
171 195 0
174 197 0
175 198 0
172 195 0
175 197 0
173 196 0
173 196 0
174 197 0
173 196 0
172 195 0
173 196 0
172 195 0
174 197 0
173 196 0
173 196 0
174 197 0
175 198 0
172 196 0
173 197 0
174 197 0
173 195 0
175 198 0
171 194 0
174 197 0
172 195 0
172 196 0
173 197 0
174 197 0
173 197 0
174 196 0
173 196 0
172 195 0
172 195 0
172 197 0
171 195 0
172 196 0
173 197 0
172 196 0
174 198 0
173 196 0
175 198 0
172 196 0
173 196 0
174 197 0
173 197 0
174 197 0
174 197 0
171 195 0
174 197 0
172 196 0
174 197 0
175 197 0
171 195 0
170 193 0
174 197 0
176 199 0
172 196 0
172 196 0
172 195 0
172 195 0
172 195 0
174 197 0
175 198 0
173 197 0
175 198 0
175 198 0
173 197 0
173 197 0
174 196 0
175 198 0
174 198 0
172 196 0
173 197 0
174 197 0
174 197 0
173 196 0
174 197 0
171 195 0
174 197 0
174 197 0
174 198 0
174 198 0
172 197 0
173 197 0
176 199 0
174 198 0
173 197 0
172 196 0
173 197 0
172 196 0
175 198 0
173 197 0
175 198 0
171 195 0
174 197 0
175 198 0
174 197 0
175 198 0
174 197 0
174 197 0
173 196 0
173 197 0
172 196 0
172 196 0
174 197 0
175 198 0
173 197 0
173 197 0
173 197 0
174 197 0
174 197 0
175 198 0
174 198 0
174 197 0
174 197 0
173 197 0
175 198 0
175 198 0
175 198 0
175 198 0
175 198 0
175 198 0
172 196 0
174 197 0
173 197 0
175 198 0
173 197 0
174 198 0
175 198 0
176 199 0
174 197 0
175 198 0
174 198 0
173 196 0
174 198 0
173 197 0
173 197 0
174 197 0
176 198 0
174 197 0
172 196 0
176 198 0
175 198 0
176 199 0
173 197 0
172 196 0
174 198 0
171 195 0
171 195 0
176 198 0
175 198 0
174 197 0
172 196 0
174 197 0
173 197 0
173 196 0
174 197 0
174 198 0
172 196 0
172 195 0
174 198 0
175 198 0
173 197 0
173 197 0
175 198 0
175 198 0
173 197 0
174 197 0
174 197 0
175 198 0
175 198 0
173 197 0
174 197 0
175 197 36
172 196 0
174 198 36
178 200 57
176 199 57
176 199 51
178 201 76
178 201 76
180 202 92
176 199 62
180 202 84
175 198 67
181 202 80
176 199 57
179 201 80
177 200 72
180 202 99
182 203 95
181 204 105
177 199 74
179 201 92
180 202 94
180 203 105
177 199 76
177 200 92
181 203 92
175 198 76
177 200 67
179 201 90
176 199 76
175 199 72
179 202 90
177 200 76
175 197 80
179 201 111
177 200 86
176 199 76
175 198 88
171 194 76
174 197 82
173 196 78
174 198 86
171 195 90
177 200 94
176 199 97
167 190 84
175 198 100
176 200 103
174 197 99
174 198 113
174 196 70
173 197 70
173 196 84
177 200 88
178 201 107
176 199 88
173 196 84
173 196 57
177 201 110
175 199 92
177 200 84
178 200 67
174 198 90
177 200 100
174 197 74
177 200 97
179 201 94
173 196 100
174 197 82
172 196 72
171 194 94
172 195 62
174 197 103
170 193 92
171 193 76
169 191 82
166 189 105
173 196 82
164 187 60
172 195 70
170 193 67
169 192 84
174 197 74
167 190 76
169 191 86
170 193 65
165 188 66
168 191 82
172 195 60
167 190 94
158 181 84
144 168 108
113 140 146
62 99 178
62 99 179
63 100 177
62 99 177
62 99 176
62 99 177
62 99 179
62 99 177
62 99 180
62 99 180
62 99 179
61 99 181
62 99 178
62 99 178
62 99 179
61 99 179
62 99 178
62 99 180
62 99 179
62 99 180
62 99 178
62 99 179
61 99 180
62 99 180
62 99 181
61 99 181
61 99 179
62 99 181
62 99 181
61 99 181
61 98 180
62 99 181
62 99 181
61 98 179
61 98 180
61 99 181
62 99 180
61 99 181
62 99 180
62 99 181
61 99 181
62 99 180
62 99 180
61 98 179
62 99 181
62 99 181
61 99 181
62 99 180
62 99 181
61 98 179
61 99 179
61 98 181
61 98 180
62 99 180
62 99 180
61 98 179
60 98 180
62 99 180
62 98 177
62 99 180
62 99 180
61 98 178
62 99 180
62 98 176
62 99 179
61 98 178
61 98 178
62 99 179
62 99 180
62 99 178
61 98 177
62 99 177
61 98 178
62 98 174
62 98 176
62 98 173
62 99 179
62 99 176
62 99 173
62 98 174
62 99 175
103 131 139
141 166 102
163 187 51
171 194 31
170 194 0
177 199 0
173 196 0
171 195 0
170 194 0
169 193 0
168 192 0
174 197 0
170 194 0
169 193 0
174 197 0
171 195 0
170 194 0
173 197 0
172 195 0
170 193 0
172 196 0
171 195 0
169 192 0
173 197 0
172 195 0
172 196 0
173 196 0
172 196 0
170 194 0
173 196 0
170 194 0
174 197 0
173 197 0
174 197 0
172 196 0
173 197 0
173 196 0
176 198 0
171 195 0
170 193 0
172 195 0
173 196 0
173 196 0
174 197 0
170 194 0
174 197 0
172 196 0
173 197 0
172 195 0
172 196 0
174 197 0
172 195 0
172 195 0
174 198 0
173 196 0
173 196 0
172 196 0
172 196 0
172 196 0
173 196 0
175 198 0
174 197 0
172 196 0
173 196 0
172 195 0
174 197 0
173 197 0
172 196 0
176 199 0
173 197 0
174 198 0
172 196 0
173 196 0
173 197 0
170 193 0
171 195 0
172 196 0
173 196 0
174 198 0
174 197 0
176 199 0
174 197 0
174 197 0
175 198 0
171 195 0
173 196 0
174 198 0
172 195 0
174 197 0
173 196 0
173 196 0
174 198 0
171 195 0
174 197 0
171 195 0
174 197 0
174 197 0
174 198 0
173 196 0
173 196 0
174 196 0
174 196 0
174 197 0
173 196 0
173 196 0
171 195 0
174 197 0
173 197 0
174 197 0
173 196 0
173 196 0
174 198 0
174 197 0
170 194 0
170 194 0
175 198 0
172 196 0
174 197 0
175 198 0
173 196 0
175 198 0
174 197 0
175 198 0
174 198 0
175 198 0
173 196 0
173 197 0
172 196 0
174 198 0
173 197 0
175 198 0
173 196 0
173 196 0
174 198 0
173 196 0
174 197 0
175 198 0
175 198 0
172 196 0
175 198 0
174 198 0
172 195 0
172 196 0
174 197 0
176 198 0
172 196 0
174 197 0
175 198 0
172 196 0
172 196 0
175 198 0
174 197 0
172 196 0
175 197 0
173 196 0
176 199 0
176 198 0
175 198 0
174 198 0
172 195 0
174 197 0
173 197 0
173 197 0
173 197 0
173 197 0
175 198 0
174 197 0
174 197 0
173 197 0
172 196 0
173 197 0
175 198 0
174 197 0
175 198 0
173 197 0
176 198 0
173 196 0
172 197 0
172 197 0
174 197 0
174 197 0
173 197 0
175 198 0
173 197 0
173 196 0
174 197 0
174 197 0
174 198 0
175 198 0
174 197 0
174 196 0
175 198 0
174 197 0
172 196 0
175 198 0
174 198 0
175 198 0
173 197 0
176 199 0
175 198 0
176 198 0
175 198 0
172 195 0
173 197 0
174 197 0
174 197 0
172 195 0
172 196 0
174 197 0
174 197 0
172 196 0
174 197 0
173 196 0
174 197 0
175 198 0
174 197 0
174 197 0
173 197 0
173 197 0
175 198 0
173 196 0
172 196 0
175 198 0
175 198 0
174 197 0
175 198 0
174 198 0
173 197 0
177 199 51
175 198 51
177 200 62
176 199 36
178 201 76
176 199 57
175 197 36
180 202 76
178 201 72
181 203 95
178 201 76
178 201 92
179 201 76
181 203 102
181 202 84
178 201 80
179 201 67
176 198 57
180 202 84
175 199 70
180 203 105
181 203 95
174 198 76
177 200 90
176 199 78
178 201 76
176 199 80
173 197 74
178 201 88
180 202 95
177 200 86
176 199 76
176 199 99
176 200 62
176 199 82
175 198 88
175 198 97
177 200 113
176 200 86
174 197 78
180 203 120
175 198 90
177 201 115
173 196 60
170 194 84
180 202 108
175 199 88
174 197 74
174 198 103
176 200 102
175 198 84
175 199 105
176 200 90
176 199 97
176 199 80
174 197 80
176 199 89
177 200 102
176 199 94
176 200 95
179 202 103
178 200 105
176 200 103
173 196 92
173 197 82
171 194 72
175 198 105
173 196 88
175 199 82
170 194 80
170 193 99
172 195 80
170 192 88
165 189 74
168 192 76
167 190 76
169 192 67
166 190 84
167 191 57
168 190 72
168 191 74
169 192 70
164 188 84
170 193 72
170 193 70
168 191 57
168 192 65
156 180 84
141 165 110
96 125 158
62 99 177
62 99 175
62 99 175
63 99 178
62 99 177
61 98 176
62 99 177
62 99 180
62 99 176
63 100 180
62 99 178
61 98 177
61 98 176
62 99 179
62 99 180
62 99 179
62 99 177
62 99 175
62 99 180
62 99 179
62 99 180
61 99 179
62 99 180
62 99 180
62 99 179
62 99 180
62 99 181
61 98 179
62 99 178
61 99 181
62 99 181
62 99 179
61 98 181
62 99 181
62 99 181
61 99 181
61 99 181
61 98 180
62 99 180
62 99 181
62 99 181
62 99 179
62 99 181
62 99 180
62 99 180
62 99 181
62 99 181
61 98 181
61 99 181
62 99 180
61 98 180
61 98 181
62 99 180
61 98 179
61 99 181
61 98 179
61 98 179
61 99 181
62 99 181
61 98 178
62 99 180
61 98 179
61 98 178
61 98 179
61 99 181
61 98 177
62 99 180
61 98 179
61 98 176
61 98 178
62 99 179
61 98 176
61 98 174
62 99 178
62 99 180
63 99 177
61 97 172
62 98 173
62 99 174
61 98 173
62 99 173
61 97 166
62 98 168
91 121 155
148 172 94
159 183 65
166 189 37
172 196 0
172 195 0
168 193 0
171 194 0
173 197 0
172 196 0
175 198 0
172 195 0
172 196 0
174 197 0
171 195 0
175 198 0
172 195 0
174 197 0
171 194 0
171 195 0
174 197 0
172 195 0
172 196 0
171 195 0
169 193 0
174 197 0
170 194 0
170 194 0
171 194 0
172 195 0
171 194 0
171 194 0
172 195 0
170 193 0
173 196 0
173 196 0
171 195 0
172 196 0
171 195 0
172 196 0
176 198 0
174 197 0
172 195 0
174 197 0
171 195 0
173 197 0
173 196 0
172 196 0
171 195 0
173 197 0
172 195 0
174 197 0
171 195 0
173 196 0
174 197 0
171 195 0
170 194 0
174 198 0
174 196 0
172 195 0
174 198 0
174 196 0
174 197 0
171 194 0
173 196 0
171 195 0
172 196 0
172 196 0
173 197 0
173 197 0
172 195 0
173 196 0
173 197 0
173 196 0
171 194 0
173 196 0
172 196 0
175 197 0
173 197 0
175 198 0
172 196 0
172 195 0
172 196 0
171 195 0
175 197 0
172 195 0
173 196 0
174 197 0
174 198 0
174 197 0
173 196 0
173 197 0
175 198 0
173 196 0
171 194 0
173 196 0
170 195 0
176 199 0
174 198 0
173 196 0
173 196 0
175 198 0
171 195 0
172 196 0
172 196 0
174 197 0
174 197 0
172 195 0
173 197 0
173 197 0
173 197 0
173 197 0
171 195 0
174 198 0
173 196 0
173 197 0
173 195 0
172 196 0
172 196 0
172 195 0
173 196 0
173 196 0
174 198 0
174 198 0
173 197 0
173 196 0
175 198 0
174 197 0
174 197 0
172 196 0
175 198 0
173 197 0
174 197 0
174 197 0
172 195 0
175 198 0
175 198 0
173 197 0
172 195 0
173 196 0
173 197 0
174 197 0
174 196 0
173 197 0
174 197 0
175 198 0
170 194 0
171 195 0
174 197 0
174 197 0
173 196 0
174 198 0
175 198 0
173 197 0
174 197 0
172 197 0
174 197 0
174 197 0
175 197 0
175 198 0
173 197 0
175 198 0
174 197 0
176 199 0
173 197 0
174 198 0
175 198 0
175 198 0
176 199 0
175 198 0
175 198 0
171 195 0
175 198 0
174 198 0
172 196 0
172 197 0
176 198 0
174 198 0
172 196 0
173 197 0
174 197 0
173 197 0
173 197 0
172 196 0
175 198 0
173 197 0
175 198 0
173 196 0
175 198 0
173 197 0
171 195 0
174 198 0
174 197 0
172 197 0
174 197 0
174 198 0
172 196 0
172 196 0
175 198 0
175 198 0
172 196 0
173 197 0
174 198 0
174 197 0
174 197 0
172 196 0
171 195 0
174 197 0
175 198 0
174 197 0
174 198 0
175 198 0
174 198 0
173 196 0
174 197 0
175 198 0
172 196 0
173 197 0
173 197 0
173 197 0
174 198 0
172 196 0
173 197 0
174 198 0
174 198 25
176 199 0
173 197 0
176 199 44
176 199 36
173 196 51
178 201 62
178 201 62
175 198 57
178 200 67
177 200 62
179 201 72
178 200 67
178 200 76
175 198 57
178 201 84
177 199 57
176 200 72
179 201 76
178 200 74
180 202 76
174 198 51
176 199 67
178 200 95
176 199 76
177 200 78
180 202 84
174 198 76
178 201 84
177 199 94
178 200 82
177 200 88
182 205 120
175 198 95
178 201 99
178 201 110
176 199 110
178 201 107
177 200 95
180 203 117
176 199 88
174 197 78
175 199 97
173 196 95
173 195 82
173 197 94
180 202 108
175 198 92
178 200 110
176 199 97
175 199 84
176 199 105
177 200 99
174 197 97
176 199 84
176 200 102
176 200 86
181 203 105
178 201 86
176 199 92
174 198 80
175 197 82
175 197 78
176 198 97
176 199 100
176 199 92
173 197 95
174 196 95
175 198 92
178 201 110
177 200 90
167 190 67
171 193 90
169 192 84
173 197 95
169 192 74
171 195 88
166 190 86
168 192 67
167 190 70
169 192 62
167 190 72
168 191 84
168 192 64
170 193 71
171 195 57
169 193 72
167 190 65
166 189 74
160 183 82
141 165 99
78 110 166
62 99 177
62 99 175
62 99 177
62 99 179
62 99 173
62 99 175
63 99 178
62 99 178
62 99 180
62 99 178
62 99 176
62 99 178
62 99 179
62 99 180
62 99 181
62 99 178
62 99 179
62 99 179
62 99 180
62 99 179
62 99 181
62 99 180
61 98 179
61 99 181
62 99 180
62 99 181
62 99 180
61 98 180
62 99 179
62 99 180
61 98 180
62 99 181
62 99 181
61 99 181
61 98 180
61 98 179
61 98 178
61 99 181
61 98 178
61 99 180
62 99 181
62 99 180
61 99 179
61 99 180
61 98 180
61 99 181
61 99 181
61 99 178
62 99 180
62 99 179
61 98 179
62 99 180
61 99 181
61 98 179
62 99 179
61 98 179
62 99 181
62 99 181
61 98 181
61 98 178
62 98 176
61 98 180
61 98 180
61 98 177
62 99 178
62 99 180
62 99 178
62 99 179
62 99 179
61 98 180
62 99 179
62 98 174
61 98 176
61 98 174
62 99 178
62 98 172
62 99 175
62 99 180
62 98 172
62 98 174
62 99 176
62 99 175
62 99 176
62 98 172
62 99 173
93 123 154
137 162 102
161 185 54
168 192 31
170 193 0
175 198 0
170 194 0
171 194 0
171 195 0
174 196 0
172 195 0
171 194 0
171 194 0
173 197 0
174 198 0
171 195 0
171 195 0
172 194 0
173 197 0
174 197 0
169 193 0
172 195 0
172 195 0
174 198 0
173 197 0
173 196 0
174 196 0
172 195 0
173 196 0
171 195 0
175 198 0
173 197 0
172 195 0
172 194 0
169 193 0
173 196 0
172 195 0
172 195 0
174 196 0
173 196 0
172 196 0
172 195 0
172 195 0
171 195 0
170 194 0
171 195 0
172 195 0
173 196 0
173 196 0
172 195 0
173 196 0
173 195 0
174 197 0
172 195 0
173 197 0
169 193 0
171 195 0
173 196 0
169 194 0
171 195 0
172 196 0
174 197 0
173 196 0
174 197 0
172 196 0
171 195 0
174 198 0
171 195 0
173 196 0
172 196 0
172 195 0
173 197 0
171 195 0
173 196 0
172 196 0
173 197 0
171 193 0
174 197 0
173 197 0
170 194 0
173 196 0
173 196 0
172 196 0
170 193 0
173 196 0
173 196 0
170 194 0
173 196 0
173 197 0
174 198 0
175 198 0
173 197 0
172 196 0
173 196 0
173 197 0
173 197 0
175 198 0
173 196 0
172 195 0
173 197 0
174 197 0
176 198 0
174 197 0
173 197 0
174 197 0
172 197 0
175 197 0
173 196 0
172 195 0
174 197 0
173 197 0
173 196 0
173 196 0
172 195 0
173 197 0
174 196 0
172 195 0
174 197 0
174 196 0
174 198 0
174 197 0
174 196 0
174 197 0
174 198 0
175 197 0
174 196 0
173 196 0
174 197 0
174 197 0
173 197 0
174 197 0
171 195 0
171 195 0
173 197 0
174 197 0
175 198 0
174 197 0
173 197 0
174 197 0
175 198 0
175 198 0
174 198 0
173 196 0
172 196 0
173 196 0
174 198 0
174 197 0
175 198 0
174 198 0
175 198 0
174 198 0
174 197 0
173 197 0
173 197 0
174 198 0
171 195 0
174 197 0
176 198 0
174 198 0
174 198 0
174 197 0
173 197 0
173 197 0
174 197 0
174 197 0
174 197 0
174 198 0
174 198 0
173 197 0
174 197 0
174 198 0
174 197 0
171 195 0
172 195 0
175 198 0
175 198 0
174 197 0
172 196 0
174 198 0
174 197 0
173 197 0
174 197 0
176 198 0
175 198 0
175 198 0
174 198 0
176 198 0
172 196 0
173 197 0
175 198 0
175 198 0
174 198 0
175 198 0
174 198 0
174 197 0
173 197 0
173 197 0
171 195 0
174 198 0
172 196 0
174 197 0
174 198 0
172 197 0
175 198 0
172 196 0
173 197 0
173 196 0
171 195 0
172 196 0
174 197 0
176 198 0
172 196 0
172 196 0
173 197 0
171 195 0
174 197 0
173 197 0
172 196 0
174 197 0
171 196 0
171 196 0
173 197 0
175 198 25
173 197 0
174 197 0
175 198 25
174 198 25
173 197 0
176 199 36
176 199 44
176 199 51
175 198 47
177 200 62
175 199 57
176 199 62
176 198 72
176 198 67
177 200 72
175 199 44
179 201 80
179 201 88
180 202 88
180 202 88
177 200 67
179 201 88
177 200 67
180 202 99
176 199 57
177 199 84
179 200 88
175 199 62
177 200 88
176 199 92
178 200 72
178 201 88
179 201 92
174 197 82
178 200 100
174 198 86
178 201 99
179 202 105
178 201 95
179 202 99
176 199 90
177 200 88
174 198 100
180 203 111
174 196 84
175 199 80
173 196 84
171 194 76
177 200 94
178 201 95
176 199 90
175 199 88
177 200 86
178 201 100
176 199 95
178 202 117
175 199 92
174 197 86
178 201 105
177 200 88
177 200 95
175 199 84
173 197 92
176 199 84
173 196 90
174 197 103
173 196 90
174 197 86
175 198 100
172 194 90
167 190 67
170 194 72
168 191 80
170 192 88
173 196 92
165 189 86
166 189 84
167 190 88
170 193 54
171 193 78
162 185 78
167 191 76
165 189 95
170 193 54
165 189 60
168 191 52
169 193 76
169 192 67
161 183 95
146 171 103
91 121 157
62 99 175
62 99 178
62 99 171
63 100 180
62 99 176
61 98 176
61 99 177
62 99 177
62 99 176
61 98 176
62 99 175
61 99 179
62 99 178
62 99 178
63 100 181
63 100 179
62 99 177
62 99 178
62 99 179
62 99 179
62 99 180
62 99 180
62 99 181
61 99 177
62 99 180
62 99 179
61 99 180
61 99 179
62 99 180
62 99 181
61 99 180
61 99 181
62 99 181
62 99 181
62 99 181
62 99 180
62 99 181
61 99 181
62 99 180
61 99 181
61 99 180
61 98 178
62 99 180
61 98 180
62 99 181
61 98 178
62 99 180
62 99 181
62 99 181
61 98 180
61 99 181
62 99 180
61 98 179
62 99 181
61 98 180
61 98 180
61 99 180
62 99 180
62 98 177
61 98 177
62 99 181
61 99 180
61 99 181
62 99 181
62 99 179
61 98 179
61 98 180
61 98 178
61 98 178
62 99 179
62 99 179
61 98 176
63 99 179
62 98 175
63 99 179
62 99 176
62 98 173
62 98 176
62 99 176
62 98 173
62 99 175
62 98 173
62 99 175
62 98 170
62 98 172
61 98 172
62 99 174
96 124 149
149 172 97
156 180 74
171 194 25
172 195 0
171 195 0
171 195 0
171 195 0
170 194 0
172 196 0
174 197 0
170 195 0
170 193 0
172 195 0
171 194 0
171 195 0
169 193 0
174 198 0
170 193 0
169 193 0
173 197 0
172 194 0
171 195 0
171 195 0
172 196 0
172 195 0
171 195 0
173 197 0
173 196 0
173 196 0
171 194 0
172 196 0
174 197 0
174 197 0
172 195 0
171 194 0
173 196 0
175 197 0
173 196 0
172 196 0
172 195 0
171 195 0
174 197 0
173 197 0
172 195 0
174 196 0
172 196 0
172 196 0
171 195 0
173 197 0
171 195 0
173 197 0
173 196 0
174 197 0
174 197 0
172 195 0
172 196 0
172 196 0
171 194 0
173 197 0
172 196 0
171 195 0
172 195 0
174 198 0
174 198 0
173 196 0
171 195 0
173 197 0
173 196 0
174 197 0
173 196 0
173 196 0
172 195 0
172 195 0
173 196 0
173 197 0
172 196 0
174 197 0
174 197 0
172 196 0
172 195 0
174 198 0
174 197 0
173 197 0
173 197 0
175 198 0
171 194 0
174 197 0
172 195 0
175 197 0
174 197 0
175 198 0
174 196 0
172 195 0
171 195 0
174 197 0
173 196 0
173 197 0
173 197 0
173 197 0
174 197 0
169 192 0
175 198 0
174 198 0
171 195 0
173 197 0
173 196 0
173 197 0
172 195 0
173 197 0
175 198 0
173 195 0
172 196 0
177 199 0
173 196 0
175 198 0
172 195 0
174 197 0
174 197 0
175 198 0
172 196 0
173 197 0
172 196 0
174 197 0
172 196 0
171 194 0
173 197 0
174 198 0
172 195 0
172 196 0
174 196 0
175 198 0
173 197 0
172 195 0
175 198 0
174 198 0
174 197 0
173 197 0
173 197 0
173 196 0
173 196 0
173 196 0
173 196 0
173 197 0
173 197 0
176 199 0
173 197 0
174 197 0
173 197 0
173 196 0
174 197 0
171 195 0
172 195 0
174 197 0
174 197 0
175 198 0
173 197 0
174 198 0
174 197 0
173 197 0
174 198 0
175 198 0
172 196 0
173 197 0
174 197 0
175 198 0
176 198 0
175 198 0
174 198 0
174 197 0
172 197 0
172 197 0
173 197 0
175 198 0
175 198 0
173 197 0
172 197 0
175 198 0
173 197 0
173 196 0
174 198 0
173 197 0
172 195 0
174 198 0
175 198 0
173 196 0
174 197 0
174 198 0
175 197 0
174 197 0
174 198 0
176 199 0
175 198 0
172 196 0
173 197 0
174 198 0
172 195 0
174 197 0
176 198 0
173 196 0
172 196 0
172 196 0
175 198 0
173 197 0
174 197 0
174 197 0
174 197 0
174 197 0
175 197 0
174 197 0
176 198 0
173 197 0
174 197 0
172 196 0
172 196 0
171 195 0
174 197 0
174 197 0
174 198 0
173 197 0
173 197 0
173 196 0
175 198 0
171 195 0
174 198 25
175 198 25
175 198 25
175 198 0
176 199 44
175 198 25
175 198 51
176 199 36
176 199 62
177 200 67
178 201 67
175 198 51
178 200 57
176 199 67
177 200 76
176 199 80
176 199 62
177 199 72
177 200 67
180 202 88
176 199 72
175 199 67
179 201 80
179 201 80
180 202 92
176 199 72
178 200 88
178 201 94
174 197 80
181 203 95
177 200 88
177 200 94
177 200 99
174 196 72
178 201 97
180 202 108
174 196 67
179 202 95
179 201 97
178 200 103
175 198 80
174 197 76
180 203 124
175 199 67
178 201 110
175 199 92
175 199 86
178 201 102
178 202 95
178 201 107
178 200 94
178 201 115
174 198 100
176 199 94
178 201 99
175 198 80
178 202 111
173 197 80
179 202 110
177 200 78
172 195 92
175 198 95
173 196 111
175 199 99
173 196 84
177 200 95
174 196 80
173 196 97
171 194 88
162 186 72
174 198 74
166 189 94
170 193 90
165 189 86
171 195 95
166 189 84
168 191 97
172 195 88
166 190 76
169 193 70
172 195 70
169 193 70
170 194 76
159 183 94
164 187 76
158 181 81
152 176 100
101 131 153
63 99 176
62 99 173
62 99 176
62 99 176
62 99 178
62 99 175
62 99 178
62 99 175
62 98 173
62 99 174
62 99 177
62 99 173
62 99 179
62 99 179
62 99 176
61 99 180
63 100 179
62 99 181
62 99 177
61 98 176
62 99 177
62 99 178
61 99 177
62 99 180
62 99 179
61 99 181
61 99 181
62 99 179
62 99 180
61 99 179
62 99 178
61 99 181
62 99 181
61 99 179
62 98 178
63 100 181
62 99 181
62 99 179
62 99 180
61 98 181
62 99 181
61 98 178
61 99 179
61 98 181
61 98 180
61 99 180
61 98 180
62 99 179
61 98 180
61 98 180
61 98 179
61 99 180
62 99 181
62 99 181
61 99 181
61 98 178
61 98 180
62 99 178
62 99 181
61 98 178
61 98 179
62 99 180
61 98 177
62 99 180
62 99 179
61 98 178
62 99 178
61 98 177
62 99 178
62 98 177
62 99 179
61 98 177
61 98 179
61 98 176
62 99 179
62 99 178
61 98 178
62 99 176
62 98 174
62 98 176
62 98 175
62 98 173
62 98 173
62 98 173
62 99 172
61 98 175
61 98 173
62 98 172
62 98 167
93 123 155
143 167 94
164 188 57
172 196 18
172 196 0
170 194 0
170 193 0
172 196 0
168 192 0
170 193 0
172 195 0
173 196 0
168 191 0
171 194 0
168 192 0
171 195 0
168 191 0
170 194 0
172 196 0
173 197 0
170 194 0
173 196 0
169 193 0
173 196 0
173 196 0
173 196 0
170 194 0
170 194 0
170 194 0
174 197 0
173 195 0
174 197 0
172 196 0
174 197 0
172 196 0
171 195 0
174 197 0
173 196 0
171 194 0
173 197 0
173 197 0
174 197 0
173 196 0
171 195 0
174 197 0
173 196 0
170 194 0
172 195 0
171 194 0
175 197 0
170 193 0
173 196 0
172 195 0
172 195 0
172 196 0
170 193 0
172 196 0
173 196 0
175 197 0
173 196 0
172 196 0
172 195 0
172 195 0
172 195 0
173 196 0
174 197 0
172 195 0
172 196 0
171 194 0
173 197 0
172 196 0
174 197 0
172 195 0
173 196 0
172 195 0
174 198 0
174 197 0
173 197 0
172 195 0
173 197 0
172 196 0
173 197 0
173 196 0
171 195 0
172 196 0
172 196 0
174 198 0
173 196 0
172 196 0
176 198 0
172 195 0
172 195 0
173 197 0
174 197 0
172 195 0
173 197 0
174 198 0
172 195 0
174 197 0
174 197 0
174 197 0
172 195 0
172 196 0
176 199 0
171 195 0
173 196 0
173 197 0
174 197 0
175 198 0
173 197 0
174 198 0
175 198 0
173 197 0
174 197 0
173 197 0
175 198 0
175 198 0
173 196 0
172 196 0
173 197 0
174 197 0
173 197 0
173 197 0
172 197 0
175 198 0
173 196 0
176 198 0
171 195 0
173 197 0
174 197 0
173 196 0
173 197 0
174 197 0
175 198 0
175 198 0
174 198 0
171 193 0
173 196 0
172 196 0
173 197 0
175 198 0
173 196 0
175 198 0
174 197 0
173 197 0
174 197 0
171 195 0
175 198 0
173 197 0
173 197 0
175 198 0
173 196 0
175 197 0
174 198 0
174 197 0
172 196 0
172 196 0
175 198 0
174 198 0
173 197 0
175 198 0
175 198 0
174 197 0
175 198 0
174 198 0
176 199 0
174 197 0
175 198 0
174 197 0
174 198 0
174 198 0
173 196 0
174 197 0
174 197 0
175 198 0
175 197 0
173 197 0
173 196 0
173 197 0
174 197 0
173 197 0
173 197 0
173 197 0
172 196 0
173 197 0
175 198 0
173 196 0
173 197 0
174 197 0
172 196 0
173 197 0
175 198 0
173 197 0
174 197 0
175 198 0
172 196 0
172 196 0
173 196 0
174 198 0
172 196 0
175 198 0
173 197 0
175 198 0
174 197 0
176 198 0
173 197 0
173 197 0
173 196 0
174 197 0
174 197 0
173 196 0
173 197 0
172 196 0
172 195 0
173 196 0
175 198 0
173 197 0
171 195 0
172 196 0
173 197 0
174 197 0
173 197 0
172 196 0
174 197 0
175 198 36
174 197 31
173 197 36
175 198 36
177 200 44
174 197 51
178 200 62
179 201 62
176 199 36
179 202 76
176 199 36
177 200 67
176 199 57
177 199 80
178 202 92
180 202 84
176 199 51
177 200 76
177 200 72
173 197 36
177 200 62
181 203 95
180 202 80
181 203 100
179 201 92
177 200 72
182 204 105
176 198 95
177 200 84
176 199 84
177 200 95
179 201 103
179 201 92
180 202 92
180 202 108
174 197 74
179 202 105
176 199 67
176 200 90
175 198 72
173 196 108
173 197 80
177 200 78
175 199 86
176 199 99
173 197 92
175 198 84
179 202 92
173 196 70
177 200 99
175 198 86
176 200 100
179 202 99
177 200 108
176 198 84
176 199 95
174 198 74
176 199 88
176 200 99
173 196 76
174 197 88
172 195 90
171 195 94
174 197 94
172 195 86
173 196 99
173 196 57
173 196 99
165 189 84
165 189 80
170 193 74
172 195 82
170 192 60
171 194 62
172 195 88
168 190 47
171 195 67
171 194 80
171 195 67
164 188 74
167 191 86
170 193 62
167 190 97
163 186 110
146 171 99
107 134 140
61 98 173
61 98 171
62 99 173
62 99 177
62 99 179
62 99 175
62 99 176
62 99 176
62 99 178
62 99 174
61 98 175
62 99 177
61 98 178
62 99 180
62 99 172
61 99 180
62 99 179
62 99 179
62 99 179
61 98 179
62 99 178
62 99 180
61 98 177
62 99 175
62 99 178
62 99 179
62 99 179
62 99 179
62 99 179
62 99 179
61 99 179
62 99 180
62 99 179
61 99 181
62 99 178
62 99 179
61 99 181
62 99 179
61 98 180
62 99 180
62 99 181
62 99 179
62 99 180
61 98 179
62 99 181
61 98 179
62 99 179
62 99 178
61 99 180
62 99 180
61 98 178
62 99 181
61 99 180
62 99 180
61 98 178
62 99 178
61 99 180
62 99 181
62 98 178
62 99 180
62 99 180
62 99 180
62 99 181
62 99 179
62 99 180
62 99 178
61 98 177
62 98 178
62 99 178
61 98 177
62 99 177
61 98 178
62 99 178
62 99 178
62 98 177
62 98 176
61 98 177
62 98 176
61 98 180
61 98 176
62 99 175
62 99 178
62 98 174
62 98 170
62 98 171
61 98 171
62 98 173
62 99 176
61 98 171
62 98 172
62 99 170
101 129 142
145 169 96
166 189 51
167 191 25
167 190 0
172 195 0
173 196 0
170 194 0
170 193 0
172 196 0
175 198 0
173 196 0
171 195 0
171 194 0
171 195 0
171 195 0
170 194 0
174 198 0
171 195 0
170 195 0
174 196 0
171 194 0
174 197 0
170 194 0
172 195 0
170 194 0
173 197 0
171 194 0
174 197 0
173 196 0
169 193 0
173 197 0
173 196 0
169 192 0
172 195 0
173 197 0
172 196 0
173 196 0
172 196 0
174 196 0
170 194 0
171 195 0
172 196 0
172 196 0
172 196 0
172 196 0
174 197 0
174 197 0
173 196 0
173 196 0
175 198 0
174 197 0
173 197 0
173 197 0
173 197 0
174 197 0
175 198 0
173 197 0
173 196 0
172 195 0
172 196 0
174 197 0
172 195 0
172 196 0
170 194 0
173 197 0
173 195 0
172 195 0
171 194 0
172 195 0
172 197 0
172 196 0
173 197 0
174 196 0
170 194 0
172 195 0
172 196 0
172 195 0
172 195 0
173 197 0
173 195 0
171 195 0
173 197 0
170 193 0
172 195 0
174 197 0
171 194 0
173 197 0
173 197 0
173 197 0
172 197 0
174 197 0
172 196 0
173 197 0
172 196 0
175 197 0
173 197 0
175 198 0
173 196 0
173 196 0
175 198 0
171 194 0
173 197 0
172 196 0
175 197 0
173 196 0
175 198 0
173 197 0
172 195 0
174 197 0
173 196 0
174 198 0
171 195 0
173 197 0
172 196 0
173 196 0
175 198 0
175 198 0
173 197 0
172 196 0
176 198 0
173 196 0
174 198 0
174 197 0
174 197 0
173 197 0
173 197 0
174 197 0
174 198 0
172 195 0
172 196 0
176 198 0
175 198 0
175 197 0
171 196 0
175 198 0
174 196 0
173 196 0
176 198 0
174 197 0
172 196 0
174 197 0
173 196 0
172 196 0
174 197 0
172 196 0
174 197 0
172 195 0
174 197 0
174 197 0
174 197 0
173 197 0
172 196 0
175 198 0
173 196 0
175 198 0
174 198 0
175 198 0
173 197 0
175 198 0
173 197 0
175 198 0
176 198 0
174 198 0
174 197 0
174 198 0
171 195 0
174 198 0
172 197 0
174 198 0
173 197 0
175 198 0
174 197 0
175 198 0
173 197 0
173 197 0
174 197 0
173 197 0
171 195 0
174 198 0
172 196 0
174 197 0
173 197 0
173 197 0
174 197 0
175 198 0
172 197 0
174 197 0
172 196 0
172 196 0
175 198 0
171 195 0
175 198 0
173 197 0
173 197 0
173 196 0
172 196 0
174 197 0
173 196 0
172 196 0
175 198 0
174 198 0
171 195 0
171 195 0
173 196 0
172 196 0
174 198 0
175 198 0
173 197 0
173 196 0
174 197 0
169 194 0
173 197 0
173 196 0
171 195 0
174 197 0
174 198 0
172 195 0
174 197 0
174 197 0
175 198 0
173 197 0
173 197 25
173 197 0
175 198 36
173 197 25
175 198 51
177 199 44
175 198 25
176 199 36
176 199 36
175 198 44
173 196 0
176 199 67
177 200 67
175 199 57
176 199 51
176 199 74
177 200 76
176 199 57
178 200 88
179 201 84
177 200 67
180 202 88
178 201 80
178 201 80
176 199 76
178 200 80
180 202 107
181 203 84
178 201 105
178 201 80
178 201 97
176 198 92
179 201 86
181 203 88
176 198 84
177 200 103
181 204 115
172 195 70
176 200 100
179 202 105
176 199 86
177 200 86
177 200 67
177 200 92
178 201 102
177 200 84
177 201 108
175 198 94
178 201 100
175 199 62
178 200 102
177 199 95
173 197 80
177 200 84
176 200 95
177 200 105
178 201 88
177 201 107
173 196 95
175 198 103
174 198 94
176 199 92
175 198 105
169 193 72
173 196 100
169 192 88
170 194 86
170 193 76
169 192 80
172 196 99
164 188 54
168 191 80
171 194 78
167 190 72
169 192 78
173 196 62
170 193 57
168 191 82
170 193 72
167 190 66
167 190 67
170 192 62
167 190 70
164 188 74
147 172 113
119 144 139
63 99 168
62 99 175
62 99 174
62 99 174
62 99 168
62 99 177
62 99 176
62 98 172
62 99 174
62 99 176
62 99 175
61 98 175
62 99 176
62 99 177
61 98 176
62 99 175
62 99 176
62 99 178
62 99 180
61 99 180
63 100 181
62 99 178
61 99 180
62 99 179
62 99 181
61 98 177
62 99 180
62 99 179
62 99 180
62 99 179
61 99 181
62 99 180
61 99 180
61 99 181
62 99 180
62 99 179
62 99 180
62 99 181
63 100 180
62 99 180
62 98 177
62 99 181
61 98 178
61 99 181
62 99 180
62 99 181
62 99 179
61 98 178
61 99 180
61 99 180
62 99 181
62 99 178
62 99 180
61 99 181
61 99 181
62 99 181
61 99 180
62 99 181
61 98 179
62 99 179
61 98 178
62 98 178
62 99 178
62 99 180
62 98 179
62 99 180
62 99 179
62 98 178
62 99 179
62 98 174
61 98 177
62 99 178
61 98 177
61 98 176
62 98 176
62 99 179
61 98 176
61 98 174
62 98 176
62 98 174
61 98 172
61 98 174
61 98 176
62 98 176
62 98 173
62 98 176
62 99 179
62 98 170
63 99 176
62 98 167
62 98 172
62 99 173
62 99 169
120 146 133
154 178 82
162 185 57
175 198 0
170 194 0
172 195 0
170 194 0
173 196 0
172 194 0
167 191 0
172 195 0
170 194 0
170 194 0
170 194 0
170 193 0
172 195 0
174 197 0
171 195 0
170 193 0
173 197 0
173 197 0
171 195 0
172 195 0
170 194 0
174 197 0
173 196 0
169 193 0
172 195 0
171 194 0
171 193 0
172 195 0
169 192 0
172 195 0
172 196 0
171 195 0
173 196 0
170 194 0
167 190 0
172 196 0
170 194 0
174 197 0
175 196 0
171 194 0
171 194 0
173 196 0
174 197 0
171 194 0
171 195 0
170 194 0
171 195 0
171 194 0
172 195 0
173 196 0
171 193 0
173 196 0
173 196 0
170 194 0
172 196 0
175 197 0
173 197 0
173 196 0
169 193 0
173 196 0
170 194 0
174 197 0
176 198 0
171 195 0
173 196 0
173 196 0
174 197 0
172 196 0
169 193 0
172 195 0
173 196 0
172 195 0
172 194 0
176 199 0
174 197 0
172 196 0
172 196 0
172 195 0
174 198 0
173 197 0
172 196 0
175 197 0
171 193 0
175 198 0
170 193 0
173 197 0
174 197 0
173 196 0
172 196 0
174 197 0
174 197 0
174 197 0
174 197 0
171 194 0
173 197 0
171 195 0
174 197 0
173 197 0
173 197 0
174 197 0
174 197 0
174 197 0
174 197 0
174 197 0
174 197 0
174 197 0
173 197 0
173 197 0
174 197 0
173 197 0
173 197 0
174 198 0
173 197 0
173 197 0
175 198 0
173 196 0
172 196 0
170 193 0
170 194 0
175 198 0
175 198 0
175 197 0
173 197 0
172 196 0
173 196 0
173 197 0
174 197 0
173 196 0
173 197 0
174 197 0
174 197 0
174 197 0
172 195 0
173 197 0
174 197 0
175 198 0
172 194 0
172 196 0
173 196 0
174 197 0
175 198 0
174 197 0
173 196 0
173 197 0
174 197 0
175 198 0
175 198 0
171 195 0
173 196 0
174 197 0
174 198 0
171 196 0
172 196 0
176 199 0
174 198 0
174 198 0
175 198 0
175 198 0
174 197 0
173 197 0
173 197 0
175 198 0
172 197 0
173 197 0
175 197 0
174 197 0
173 197 0
175 198 0
175 198 0
173 196 0
176 199 0
174 197 0
172 196 0
174 197 0
172 196 0
174 197 0
176 199 0
174 197 0
174 198 0
175 198 0
175 198 0
173 197 0
173 197 0
174 197 0
173 197 0
174 197 0
174 197 0
173 196 0
174 198 0
174 197 0
169 193 0
175 198 0
173 196 0
173 196 0
174 197 0
175 198 0
174 198 0
174 197 0
175 198 0
173 197 0
173 196 0
174 197 0
172 196 0
174 198 0
174 197 0
174 197 0
173 197 0
174 196 0
172 196 0
172 196 0
171 195 0
174 198 0
174 198 0
175 198 0
172 196 0
173 197 0
172 196 0
175 198 0
173 197 0
176 199 0
176 198 25
173 197 36
174 198 25
173 197 25
174 198 36
176 199 25
176 199 51
173 197 25
175 197 44
177 199 62
175 198 57
178 201 72
178 201 62
177 199 62
174 197 36
179 201 80
174 197 62
177 200 57
182 204 102
174 198 57
178 201 88
178 200 76
179 201 92
177 200 80
177 199 100
177 200 84
179 201 90
180 203 95
176 199 80
177 200 88
179 202 102
179 201 90
178 200 90
178 200 84
175 198 107
178 200 110
176 199 90
175 198 76
178 201 92
180 202 102
177 200 99
172 195 88
178 201 95
173 196 94
177 200 97
174 197 84
177 201 100
175 199 99
179 202 103
175 198 76
176 199 107
176 200 103
180 203 122
175 198 94
179 202 105
175 199 99
178 201 99
174 197 90
176 199 80
175 199 86
175 199 80
175 198 82
169 193 100
172 194 74
170 193 92
172 195 78
166 190 92
166 189 61
166 190 82
169 193 78
169 193 74
169 192 84
172 195 80
170 192 60
168 191 82
170 193 78
169 192 67
168 191 65
164 187 78
167 190 74
166 189 82
150 174 102
121 147 135
62 99 170
62 98 171
62 99 171
62 98 173
62 98 172
62 99 171
61 98 167
62 99 176
63 99 174
62 99 172
62 99 174
62 99 180
62 99 176
62 99 175
61 98 172
62 99 176
62 99 177
62 99 180
62 99 177
61 98 176
62 99 177
62 99 178
62 99 179
61 98 178
62 99 180
62 99 180
61 99 179
62 99 178
62 99 180
62 99 179
61 98 179
62 99 178
62 99 181
62 99 181
61 98 176
61 98 178
62 99 180
61 99 180
62 99 180
62 99 181
62 99 180
61 98 176
62 99 179
62 99 181
62 99 179
61 98 181
62 99 181
62 99 180
61 99 180
62 99 181
61 98 177
62 99 180
61 98 178
62 99 179
61 98 179
62 98 176
61 98 179
62 99 180
61 98 176
62 98 176
61 98 177
61 98 178
61 98 176
61 98 179
61 98 178
62 99 178
62 99 178
61 98 179
61 98 176
62 99 176
62 99 180
61 98 176
62 98 174
62 98 175
62 98 177
61 98 178
62 98 175
62 98 176
61 97 174
62 99 181
62 98 176
62 98 175
61 98 176
62 99 175
61 98 174
62 99 176
62 98 173
62 98 170
61 97 170
62 99 172
62 99 176
62 98 175
62 98 169
62 98 167
65 101 172
126 151 121
151 175 80
169 193 36
174 197 0
172 195 0
168 192 0
171 193 0
172 195 0
172 195 0
171 194 0
173 196 0
169 194 0
171 194 0
173 196 0
173 196 0
172 196 0
171 194 0
172 195 0
172 195 0
172 195 0
170 193 0
170 194 0
172 196 0
172 196 0
171 195 0
172 195 0
170 193 0
174 197 0
172 195 0
171 194 0
170 194 0
173 196 0
173 196 0
171 193 0
173 196 0
171 194 0
175 198 0
171 195 0
172 195 0
172 195 0
168 192 0
170 193 0
174 198 0
174 196 0
171 195 0
173 197 0
170 193 0
172 195 0
171 195 0
169 192 0
173 196 0
173 196 0
172 196 0
171 195 0
173 196 0
175 198 0
172 196 0
173 196 0
174 197 0
172 195 0
172 195 0
174 197 0
173 197 0
174 197 0
172 196 0
173 196 0
173 197 0
173 197 0
171 194 0
173 197 0
173 197 0
173 196 0
173 196 0
172 195 0
173 197 0
174 197 0
172 195 0
175 198 0
172 196 0
171 195 0
172 195 0
172 196 0
172 195 0
171 195 0
172 196 0
172 195 0
173 197 0
174 197 0
173 197 0
173 196 0
172 195 0
174 197 0
176 198 0
174 197 0
174 197 0
173 197 0
172 195 0
172 196 0
175 197 0
173 197 0
174 198 0
172 196 0
174 197 0
171 194 0
174 197 0
176 198 0
171 195 0
174 197 0
172 195 0
172 196 0
174 198 0
174 197 0
175 198 0
174 198 0
175 198 0
172 195 0
173 196 0
172 195 0
174 197 0
173 197 0
173 196 0
175 198 0
174 197 0
172 196 0
173 197 0
175 198 0
172 195 0
173 197 0
173 196 0
173 197 0
173 197 0
172 196 0
173 197 0
174 197 0
173 197 0
175 198 0
174 198 0
174 198 0
174 198 0
174 198 0
173 197 0
174 197 0
171 195 0
174 197 0
172 196 0
172 196 0
174 197 0
172 195 0
172 196 0
172 196 0
173 196 0
173 197 0
176 198 0
174 198 0
175 198 0
174 198 0
173 197 0
174 197 0
174 197 0
174 197 0
174 197 0
175 198 0
173 197 0
173 197 0
175 198 0
174 198 0
174 198 0
172 196 0
173 197 0
174 197 0
174 197 0
173 197 0
175 198 0
172 196 0
175 198 0
174 197 0
172 197 0
174 197 0
174 197 0
173 196 0
172 196 0
174 198 0
173 197 0
172 195 0
173 197 0
174 198 0
174 198 0
174 198 0
173 196 0
173 197 0
173 197 0
175 198 0
174 197 0
174 198 0
175 198 0
174 197 0
173 197 0
173 197 0
174 197 0
174 197 0
174 198 0
173 196 0
173 196 0
173 197 0
174 197 0
173 197 0
175 197 0
173 196 0
173 196 0
173 197 0
175 197 0
173 197 0
174 198 0
173 197 0
174 197 0
173 196 0
173 197 0
174 196 0
173 197 0
172 195 0
174 198 0
174 198 25
174 198 0
174 197 44
174 197 25
175 198 44
174 197 0
175 198 25
172 196 36
176 198 44
176 198 57
179 201 72
176 200 57
174 197 44
178 200 72
173 196 44
178 200 76
177 200 67
178 201 67
179 201 80
176 199 84
180 202 92
180 202 102
175 198 72
181 203 111
176 199 82
179 201 84
180 202 99
177 200 86
179 202 103
181 203 99
183 205 108
178 200 82
175 199 92
177 199 94
178 201 105
179 202 95
176 199 78
177 200 95
179 201 90
174 197 92
176 200 94
177 200 97
177 200 88
174 197 94
172 196 70
180 203 111
177 200 88
178 201 100
176 200 95
180 203 117
178 201 102
183 205 114
176 199 94
177 200 95
179 201 111
174 197 86
175 198 76
175 199 105
178 201 108
173 197 97
171 195 94
173 196 88
171 194 95
172 196 86
173 196 74
170 193 84
172 195 94
174 197 80
167 191 86
168 191 84
168 191 74
170 193 65
166 189 92
172 195 78
170 192 86
169 191 76
173 195 78
171 195 80
164 188 70
165 189 78
170 193 100
154 176 87
130 155 135
70 104 164
63 99 169
62 99 175
62 98 166
61 98 172
62 99 171
62 99 174
62 99 174
63 99 175
62 99 178
62 99 175
63 100 179
62 99 176
61 99 178
62 99 177
62 99 174
62 99 175
62 99 181
62 99 178
62 99 179
61 98 172
62 99 177
61 98 178
62 99 179
62 99 177
62 99 178
62 99 177
62 99 177
62 99 178
62 99 179
62 99 180
62 99 180
61 98 178
62 99 180
62 99 179
62 99 179
61 98 179
62 99 180
62 99 180
62 99 180
61 99 181
62 99 181
62 99 180
61 99 180
62 99 179
61 98 179
62 99 180
61 99 180
61 97 176
62 99 178
63 99 179
62 99 177
62 99 180
62 98 176
61 99 181
61 98 179
62 99 180
62 99 180
61 98 177
62 99 180
62 98 178
61 98 178
61 98 177
62 99 178
61 98 177
61 98 177
62 99 180
62 99 177
62 98 178
62 98 176
62 99 180
62 98 176
62 99 176
62 98 177
61 98 178
62 99 179
62 98 176
61 98 176
62 98 176
62 98 174
63 99 177
62 99 177
62 98 175
62 98 173
62 99 175
61 98 176
61 97 170
61 97 167
62 98 173
62 98 173
61 96 164
62 98 171
62 98 171
62 99 171
62 98 171
62 99 173
74 106 158
133 158 115
158 182 62
169 193 36
168 191 0
170 194 0
170 194 0
170 194 0
173 197 0
172 194 0
172 195 0
171 194 0
170 193 0
169 193 0
170 194 0
172 195 0
172 196 0
171 195 0
172 196 0
172 195 0
173 197 0
167 191 0
169 193 0
173 197 0
174 196 0
171 193 0
172 195 0
172 196 0
172 195 0
174 197 0
173 196 0
170 194 0
171 195 0
174 197 0
172 196 0
173 196 0
168 192 0
173 196 0
173 197 0
170 194 0
172 195 0
172 196 0
170 194 0
171 195 0
175 198 0
171 195 0
172 196 0
169 193 0
172 195 0
171 195 0
174 198 0
171 194 0
171 194 0
174 197 0
173 197 0
172 194 0
171 195 0
173 196 0
173 196 0
174 197 0
171 194 0
170 193 0
171 194 0
174 197 0
172 195 0
173 196 0
173 197 0
170 193 0
174 197 0
170 193 0
173 196 0
174 196 0
174 196 0
173 196 0
171 194 0
172 195 0
173 196 0
173 196 0
173 197 0
173 196 0
171 194 0
170 193 0
173 197 0
171 194 0
171 194 0
173 196 0
173 196 0
173 197 0
174 197 0
173 197 0
174 197 0
174 198 0
173 197 0
172 196 0
173 197 0
172 196 0
172 196 0
173 196 0
173 196 0
173 197 0
174 197 0
173 196 0
174 197 0
172 195 0
172 196 0
171 195 0
173 195 0
172 196 0
173 196 0
174 197 0
174 197 0
174 197 0
175 198 0
173 197 0
172 196 0
175 198 0
174 197 0
172 195 0
174 197 0
174 197 0
173 195 0
173 197 0
173 196 0
175 198 0
172 196 0
173 196 0
173 197 0
171 195 0
174 197 0
173 197 0
175 198 0
175 198 0
171 195 0
174 198 0
174 197 0
174 197 0
175 198 0
175 198 0
174 197 0
174 196 0
172 195 0
173 197 0
173 196 0
173 196 0
174 197 0
173 197 0
172 196 0
174 197 0
173 196 0
171 195 0
172 196 0
173 197 0
173 197 0
176 199 0
173 196 0
174 198 0
173 197 0
174 197 0
176 199 0
176 199 0
173 197 0
174 197 0
175 198 0
172 196 0
173 197 0
174 198 0
175 198 0
176 198 0
174 197 0
175 197 0
173 197 0
174 197 0
174 198 0
173 197 0
173 196 0
174 197 0
174 197 0
174 198 0
174 198 0
172 197 0
173 197 0
172 197 0
170 194 0
174 196 0
173 197 0
174 198 0
173 196 0
174 197 0
174 198 0
174 197 0
174 197 0
175 198 0
174 196 0
175 198 0
175 198 0
173 197 0
173 197 0
174 198 0
174 197 0
175 198 0
175 198 0
174 197 0
173 197 0
174 197 0
174 197 0
173 197 0
173 197 0
172 196 0
173 196 0
173 197 0
175 197 0
172 196 0
172 196 0
173 196 0
173 197 0
173 196 0
174 197 0
173 197 0
172 196 0
173 196 0
172 195 0
173 197 0
175 198 0
174 197 0
172 196 25
173 196 25
175 198 44
174 197 0
176 199 44
174 197 25
176 199 44
174 198 36
174 197 57
179 201 76
175 199 57
175 198 36
176 199 67
175 198 70
178 200 67
175 198 47
177 200 90
177 199 80
176 199 62
176 199 72
176 199 67
179 201 84
177 201 92
181 203 97
180 202 95
177 200 72
180 202 99
180 202 99
175 198 86
178 201 90
181 203 117
180 202 102
176 199 97
179 202 103
176 199 82
173 196 92
177 200 76
176 198 76
177 200 95
177 200 113
180 202 95
181 203 122
176 199 80
175 198 95
173 195 80
173 197 82
175 199 84
178 200 95
178 201 95
179 201 92
176 198 92
179 201 94
178 201 84
175 198 92
177 199 99
175 198 92
173 196 74
175 198 86
174 197 90
172 196 88
174 197 80
163 185 60
171 195 94
173 196 84
169 192 78
167 191 84
166 190 74
162 186 84
168 191 86
168 191 78
171 195 80
170 192 67
168 191 82
169 192 84
171 194 94
168 191 82
170 194 80
155 179 89
151 174 103
86 117 159
62 99 170
62 99 175
61 98 169
61 98 165
63 99 176
62 99 177
62 99 172
62 99 176
62 99 172
62 99 173
62 99 175
62 99 174
63 100 177
62 99 178
63 100 179
62 99 179
62 99 176
62 99 177
62 99 177
62 99 177
62 99 177
62 99 178
61 98 176
62 99 176
62 99 178
63 100 179
63 100 179
62 99 179
62 99 180
62 99 180
61 99 178
62 99 180
62 99 177
62 99 180
62 99 179
62 99 180
62 99 179
62 99 178
62 99 178
62 99 178
62 99 177
62 99 178
62 99 181
62 99 180
62 99 181
62 99 181
62 99 181
62 99 180
62 99 180
62 99 180
61 98 177
61 98 179
61 98 176
62 99 179
62 98 178
61 98 179
61 98 176
62 99 179
62 98 176
62 99 179
61 98 178
62 99 179
62 99 178
62 99 178
61 99 180
62 99 178
61 98 177
62 99 180
61 98 175
62 99 178
62 98 177
61 98 178
61 98 178
61 98 175
62 98 177
62 99 178
61 98 178
62 99 179
61 98 175
62 99 178
61 98 174
62 99 176
61 97 170
61 98 176
61 97 174
62 99 176
62 98 176
62 99 175
62 98 173
62 98 173
62 98 172
62 98 173
62 98 170
62 97 170
62 98 170
61 97 165
61 97 162
89 119 149
152 176 90
162 186 60
170 193 18
168 192 0
173 197 0
173 196 0
170 194 0
167 190 0
171 194 0
172 195 0
173 196 0
172 195 0
172 196 0
168 191 0
170 194 0
170 193 0
169 193 0
171 195 0
172 196 0
171 195 0
171 194 0
176 198 0
169 193 0
171 195 0
170 194 0
171 194 0
169 193 0
170 193 0
171 195 0
169 193 0
173 197 0
174 196 0
172 196 0
171 195 0
174 197 0
171 195 0
173 197 0
167 191 0
173 196 0
170 194 0
170 193 0
173 196 0
170 194 0
169 193 0
171 195 0
174 197 0
170 194 0
172 195 0
171 195 0
173 197 0
173 195 0
174 197 0
171 194 0
172 195 0
170 194 0
174 196 0
173 196 0
172 196 0
171 194 0
171 194 0
172 195 0
174 197 0
174 197 0
174 197 0
173 196 0
174 197 0
173 196 0
173 196 0
172 196 0
172 196 0
174 198 0
175 198 0
172 195 0
172 195 0
172 196 0
173 196 0
176 199 0
170 194 0
174 197 0
174 196 0
172 196 0
172 196 0
172 196 0
174 197 0
170 194 0
173 197 0
171 194 0
171 194 0
172 196 0
172 195 0
173 196 0
170 194 0
171 194 0
174 196 0
174 198 0
174 197 0
174 197 0
172 195 0
173 196 0
169 193 0
175 197 0
175 197 0
172 196 0
173 196 0
174 197 0
173 196 0
174 198 0
175 198 0
171 195 0
174 197 0
173 197 0
171 195 0
173 196 0
175 198 0
171 194 0
173 197 0
172 196 0
174 198 0
173 196 0
173 196 0
174 197 0
173 197 0
174 197 0
174 197 0
173 197 0
172 195 0
173 196 0
174 198 0
172 195 0
174 198 0
174 197 0
174 197 0
175 197 0
172 195 0
175 197 0
174 197 0
175 198 0
173 197 0
174 197 0
174 198 0
174 197 0
173 196 0
174 197 0
174 197 0
173 197 0
174 197 0
175 198 0
174 197 0
174 197 0
174 198 0
173 196 0
173 197 0
175 198 0
173 196 0
171 196 0
174 197 0
174 198 0
174 197 0
174 197 0
174 197 0
172 196 0
173 196 0
175 198 0
173 197 0
174 197 0
173 197 0
173 197 0
174 198 0
171 196 0
173 196 0
174 198 0
174 198 0
175 198 0
172 196 0
174 198 0
173 197 0
174 198 0
174 197 0
172 197 0
175 198 0
174 198 0
173 197 0
173 197 0
174 197 0
176 198 0
172 196 0
172 196 0
173 197 0
171 195 0
173 197 0
172 196 0
174 198 0
174 198 0
171 195 0
175 198 0
176 199 0
174 197 0
173 196 0
175 198 0
175 198 0
175 198 0
173 196 0
172 196 0
174 198 0
171 195 0
175 198 0
173 197 0
174 198 0
173 197 0
173 197 0
173 197 0
172 195 0
175 198 0
174 198 0
174 197 0
173 197 0
173 196 0
174 198 0
173 196 0
175 198 0
172 196 0
174 197 0
174 198 25
175 198 0
176 199 25
174 198 25
175 198 36
175 198 36
174 198 25
172 195 0
174 197 36
175 198 36
176 199 57
173 196 44
176 199 57
178 200 67
175 198 57
178 199 72
175 198 62
179 201 76
176 199 88
176 199 57
177 200 67
173 196 57
177 199 62
180 202 95
182 204 105
180 201 103
176 199 57
178 201 86
178 201 90
179 201 67
177 199 86
181 203 95
179 201 103
180 202 97
181 203 92
179 201 103
180 203 113
176 200 76
176 199 103
180 203 108
176 199 105
177 200 84
178 201 103
177 199 94
177 200 80
178 201 92
176 198 90
180 203 102
181 203 102
176 199 95
177 200 99
177 200 84
180 202 105
176 199 84
177 200 90
180 202 100
173 197 90
173 195 102
172 195 70
176 199 90
171 193 88
173 196 88
166 190 98
171 194 67
165 189 76
170 193 67
171 194 78
157 180 76
168 190 78
163 186 86
167 190 74
167 191 88
162 185 74
169 191 72
166 189 65
165 188 60
165 189 92
148 171 110
102 131 144
62 98 167
62 99 171
62 99 170
63 99 174
61 98 169
61 98 168
63 100 178
62 99 173
62 99 174
62 99 177
62 99 177
63 100 181
62 99 172
62 98 174
62 98 174
62 99 177
62 99 173
62 99 177
62 99 179
63 99 176
62 99 180
62 99 175
62 99 178
62 99 174
62 99 177
62 99 180
62 99 180
61 98 175
62 99 176
62 99 174
62 99 180
62 99 181
61 99 178
62 99 181
62 99 180
62 99 180
62 99 178
62 99 179
62 99 179
61 98 177
61 98 178
62 99 179
62 99 180
62 99 180
62 99 179
61 99 178
61 99 180
62 99 179
62 99 181
61 99 180
61 98 177
61 98 177
62 99 175
61 98 179
61 98 176
62 99 179
62 99 181
62 99 178
61 98 178
62 99 177
62 99 178
62 99 179
62 99 180
62 99 181
61 98 177
62 99 180
62 98 176
62 98 178
62 98 176
62 98 178
61 98 177
62 99 178
62 99 181
61 97 175
62 98 177
62 98 177
61 98 177
62 98 175
62 98 177
62 99 176
61 98 177
61 98 175
61 96 168
61 97 172
61 98 175
61 97 171
62 98 176
62 98 173
61 97 170
62 98 171
61 97 172
62 97 171
62 98 170
62 98 171
62 98 174
62 98 172
62 98 169
63 99 175
63 98 165
116 143 137
148 172 84
169 193 31
172 196 0
172 195 0
172 196 0
170 193 0
168 192 0
170 194 0
171 195 0
168 191 0
168 191 0
172 196 0
171 194 0
171 195 0
172 196 0
170 193 0
173 197 0
174 197 0
174 198 0
175 197 0
172 195 0
173 196 0
169 193 0
172 196 0
171 194 0
171 194 0
168 192 0
168 192 0
173 196 0
171 195 0
173 196 0
169 193 0
168 193 0
169 193 0
175 197 0
172 195 0
172 195 0
170 194 0
172 195 0
172 196 0
173 197 0
170 193 0
171 195 0
172 196 0
172 196 0
171 193 0
170 193 0
174 197 0
173 197 0
172 196 0
174 197 0
172 195 0
173 196 0
171 194 0
172 195 0
171 194 0
170 194 0
172 196 0
173 196 0
173 197 0
172 196 0
174 197 0
172 195 0
175 198 0
172 195 0
172 195 0
173 196 0
172 195 0
172 196 0
173 196 0
174 196 0
170 193 0
173 197 0
172 195 0
171 195 0
173 196 0
173 196 0
171 195 0
173 196 0
172 195 0
173 196 0
174 197 0
174 198 0
171 194 0
176 198 0
174 197 0
173 196 0
173 197 0
171 194 0
173 196 0
173 196 0
172 195 0
172 195 0
174 197 0
173 196 0
172 196 0
172 195 0
171 195 0
174 197 0
173 197 0
173 196 0
173 196 0
172 196 0
171 194 0
173 196 0
171 195 0
173 196 0
175 198 0
173 196 0
173 196 0
176 198 0
175 197 0
175 197 0
173 196 0
174 197 0
173 197 0
174 197 0
174 197 0
173 196 0
175 198 0
173 197 0
173 196 0
174 197 0
174 197 0
175 198 0
173 197 0
174 197 0
172 195 0
174 198 0
174 197 0
175 197 0
174 197 0
173 196 0
174 198 0
172 196 0
173 197 0
174 197 0
174 197 0
174 197 0
174 197 0
172 196 0
175 198 0
174 197 0
174 197 0
174 197 0
173 197 0
174 198 0
172 196 0
174 197 0
174 198 0
175 198 0
173 197 0
174 198 0
174 198 0
174 198 0
175 198 0
173 197 0
174 197 0
175 198 0
174 197 0
174 197 0
173 197 0
175 198 0
174 197 0
173 197 0
173 196 0
175 198 0
174 198 0
174 198 0
174 197 0
173 197 0
174 197 0
175 198 0
173 197 0
173 197 0
171 195 0
175 198 0
174 197 0
173 197 0
174 197 0
173 197 0
173 197 0
174 198 0
173 197 0
172 196 0
172 196 0
173 197 0
175 198 0
176 198 0
174 197 0
173 197 0
173 196 0
171 195 0
174 198 0
173 196 0
172 196 0
172 195 0
174 198 0
172 196 0
173 196 0
173 196 0
175 198 0
175 198 0
175 198 0
175 198 0
172 196 0
174 197 0
173 196 0
173 196 0
176 199 0
173 196 0
175 198 0
173 197 0
174 197 0
173 197 0
174 198 0
172 196 0
174 198 0
175 198 0
174 197 0
172 196 0
171 195 0
174 198 0
176 198 36
173 196 25
176 198 25
173 197 25
173 196 0
172 196 44
174 197 62
176 199 44
176 199 51
174 198 51
178 200 57
178 200 72
178 201 80
177 200 62
175 198 51
175 198 44
179 202 95
175 198 51
180 202 84
178 201 72
178 200 67
178 201 84
178 200 84
178 201 80
178 200 76
177 199 74
179 201 86
181 203 111
178 200 95
180 202 84
178 201 108
178 201 97
177 201 84
181 204 108
178 200 108
175 198 74
179 202 102
178 200 117
176 199 100
176 199 90
175 198 97
181 203 108
174 197 84
175 198 88
179 201 95
178 201 88
174 197 62
173 196 80
174 197 62
174 197 86
182 204 122
174 197 62
174 198 95
176 199 84
174 198 92
175 198 92
169 193 82
171 195 88
173 196 72
168 192 78
168 191 95
170 194 88
170 193 62
169 192 88
169 192 62
171 193 70
169 192 80
173 196 72
169 193 78
170 194 67
171 194 97
171 194 78
166 189 73
168 191 72
156 179 92
112 139 135
64 100 170
61 98 167
62 98 170
61 97 166
61 98 169
62 99 174
62 99 178
62 99 172
63 99 177
61 98 172
63 99 174
62 99 176
62 99 174
62 99 177
62 99 176
62 99 177
62 99 177
62 99 176
62 99 176
62 99 175
62 99 179
62 99 178
62 99 176
62 99 176
62 99 178
62 98 174
62 99 177
63 100 180
61 98 176
62 99 176
62 99 178
62 99 177
62 99 177
62 99 177
62 99 179
62 99 179
61 98 176
62 99 179
62 99 176
61 98 177
62 99 179
61 98 180
62 99 178
61 99 179
62 98 176
62 99 179
61 99 179
62 99 180
63 99 180
61 98 178
61 98 178
61 98 177
62 99 181
61 98 180
62 99 179
62 98 176
62 99 177
62 99 177
62 99 179
61 98 178
61 98 176
62 98 176
62 98 179
62 99 176
62 99 179
61 99 180
61 98 179
62 99 179
61 98 177
62 98 176
61 98 173
61 98 178
62 98 175
62 98 176
61 98 177
62 99 180
62 99 178
62 99 179
62 98 176
62 98 177
61 98 175
62 98 176
62 98 171
62 98 177
62 98 174
62 98 174
62 98 176
62 98 175
61 97 173
62 98 171
61 97 172
61 97 173
61 97 168
62 99 175
62 98 172
62 99 173
62 98 171
61 96 166
61 97 166
62 98 169
64 100 168
114 140 126
160 184 60
167 191 36
170 194 18
175 198 0
172 195 0
174 196 0
174 196 0
171 194 0
172 196 0
170 194 0
172 196 0
172 195 0
173 195 0
170 194 0
172 195 0
173 196 0
172 195 0
174 197 0
170 193 0
173 196 0
172 195 0
172 195 0
170 194 0
170 194 0
173 197 0
171 195 0
172 195 0
172 195 0
172 195 0
171 193 0
171 195 0
173 196 0
169 193 0
173 196 0
171 194 0
172 196 0
166 190 0
171 194 0
173 196 0
172 196 0
173 196 0
173 196 0
170 193 0
171 195 0
173 197 0
168 192 0
170 194 0
172 196 0
172 196 0
170 194 0
170 192 0
172 196 0
169 192 0
172 195 0
172 195 0
170 193 0
176 198 0
172 194 0
176 198 0
170 193 0
175 198 0
174 197 0
174 197 0
173 197 0
172 195 0
173 197 0
175 198 0
173 196 0
173 197 0
175 198 0
173 196 0
172 195 0
175 197 0
174 197 0
170 193 0
172 196 0
173 195 0
170 194 0
173 197 0
173 197 0
172 195 0
172 196 0
173 197 0
174 197 0
170 193 0
172 195 0
173 196 0
173 197 0
173 196 0
173 196 0
174 197 0
173 195 0
174 197 0
173 197 0
174 198 0
173 195 0
174 197 0
172 195 0
171 195 0
172 195 0
173 196 0
173 197 0
175 197 0
174 197 0
172 196 0
173 196 0
174 197 0
172 196 0
174 198 0
174 197 0
175 197 0
174 197 0
174 197 0
175 198 0
173 196 0
173 196 0
175 198 0
174 197 0
171 195 0
173 197 0
172 195 0
173 197 0
174 197 0
175 198 0
174 197 0
175 198 0
172 196 0
175 198 0
172 196 0
173 196 0
174 197 0
174 197 0
174 197 0
172 194 0
174 197 0
172 196 0
175 198 0
172 195 0
172 196 0
174 197 0
174 197 0
173 196 0
175 198 0
173 196 0
177 199 0
173 196 0
173 196 0
172 196 0
172 195 0
171 195 0
173 197 0
174 198 0
174 197 0
174 197 0
176 199 0
176 199 0
176 198 0
172 196 0
175 197 0
175 198 0
173 197 0
175 197 0
176 198 0
174 198 0
174 198 0
172 196 0
174 197 0
171 195 0
174 198 0
174 198 0
174 198 0
175 198 0
173 197 0
174 197 0
172 196 0
173 197 0
173 197 0
174 197 0
172 196 0
175 198 0
172 196 0
173 197 0
174 198 0
172 196 0
174 197 0
173 197 0
173 197 0
175 198 0
173 197 0
174 198 0
174 198 0
175 198 0
174 197 0
174 197 0
173 197 0
172 195 0
174 197 0
174 198 0
174 198 0
175 198 0
175 198 0
174 197 0
173 197 0
173 197 0
172 196 0
172 196 0
174 197 0
173 196 0
171 195 0
170 194 0
171 195 0
173 196 0
174 197 0
173 197 0
172 196 0
172 196 0
175 198 0
174 198 0
172 196 0
173 197 0
171 195 0
173 197 0
174 198 25
170 195 25
173 196 25
174 198 0
175 199 51
172 196 18
174 198 36
176 199 57
177 199 62
174 198 36
179 201 67
176 198 67
178 200 72
178 200 67
175 197 67
181 203 92
178 200 72
180 202 88
175 198 67
176 200 72
180 202 76
181 203 102
177 199 84
179 201 88
179 201 84
182 204 111
181 203 99
180 202 88
179 201 108
175 198 74
181 203 110
178 201 80
179 201 100
174 197 94
177 199 88
178 201 92
179 201 105
176 200 84
178 200 88
178 201 97
177 201 95
175 199 92
176 199 84
181 203 102
177 200 92
178 201 128
176 198 94
177 200 92
177 200 108
176 199 76
177 199 99
174 197 92
176 198 78
173 196 92
175 198 107
175 198 88
168 191 90
169 193 90
169 191 84
171 194 76
163 187 72
170 194 84
168 191 94
170 193 40
168 191 82
171 194 84
158 182 87
160 184 86
168 192 91
171 194 62
171 194 80
164 187 67
163 187 85
163 186 94
132 157 122
82 113 159
62 98 165
62 99 173
62 98 168
61 97 163
62 99 171
62 98 168
62 99 171
61 98 173
62 98 171
62 99 176
63 99 174
63 100 179
61 98 175
62 99 175
62 99 175
63 99 178
61 98 173
62 99 177
61 98 175
62 99 174
62 98 175
63 99 175
61 98 172
62 98 174
62 99 175
62 99 177
62 99 177
61 98 179
62 99 179
62 99 179
62 99 179
62 99 180
62 99 179
62 99 180
62 99 178
62 99 180
61 98 177
62 99 179
62 99 180
62 99 178
62 99 181
61 98 177
62 99 181
61 99 179
62 99 178
62 99 178
61 98 178
61 98 177
61 98 175
62 99 178
62 99 179
62 99 180
62 99 176
61 98 177
62 99 178
62 99 180
62 99 180
62 99 178
62 99 178
62 99 179
62 99 178
62 98 179
62 99 180
62 98 178
61 98 176
61 97 175
61 97 174
61 98 178
62 98 177
61 97 174
63 99 178
61 97 174
62 98 177
61 97 175
62 99 177
61 98 174
61 98 175
62 98 175
61 97 174
61 97 174
62 99 178
61 97 173
62 98 177
62 98 173
62 98 174
61 97 171
61 97 173
62 98 173
62 98 172
62 98 174
61 96 167
62 97 172
61 97 169
60 96 167
62 98 174
62 98 172
62 97 169
62 98 172
62 97 166
61 96 163
61 97 165
79 111 159
140 165 99
161 185 64
170 194 36
167 191 0
169 192 0
170 194 0
171 195 0
172 194 0
171 195 0
172 196 0
171 194 0
174 197 0
172 196 0
169 193 0
169 193 0
173 197 0
172 195 0
171 195 0
169 192 0
167 191 0
170 193 0
169 193 0
171 195 0
171 194 0
172 195 0
172 195 0
172 195 0
171 194 0
169 193 0
172 195 0
172 194 0
172 194 0
175 197 0
170 193 0
172 195 0
171 195 0
171 195 0
168 192 0
171 194 0
173 196 0
172 195 0
172 195 0
172 195 0
170 193 0
171 194 0
171 194 0
171 195 0
173 196 0
172 195 0
171 194 0
172 195 0
170 194 0
173 196 0
172 196 0
171 194 0
171 194 0
174 197 0
170 194 0
173 196 0
171 194 0
171 194 0
171 195 0
171 195 0
172 195 0
172 196 0
174 197 0
173 196 0
171 195 0
173 197 0
172 195 0
173 196 0
171 195 0
172 195 0
173 196 0
173 196 0
172 196 0
173 197 0
174 197 0
175 198 0
171 194 0
173 196 0
173 196 0
173 197 0
173 197 0
175 198 0
169 192 0
174 197 0
173 196 0
173 195 0
170 194 0
172 196 0
171 195 0
173 196 0
173 196 0
175 197 0
173 197 0
175 197 0
172 196 0
173 197 0
173 196 0
174 196 0
172 195 0
175 198 0
174 197 0
173 197 0
173 196 0
173 195 0
172 196 0
171 194 0
175 198 0
172 196 0
173 196 0
171 194 0
175 198 0
175 198 0
173 196 0
174 197 0
171 195 0
173 197 0
175 198 0
175 197 0
174 197 0
171 196 0
173 197 0
173 197 0
173 197 0
174 197 0
173 195 0
173 197 0
173 197 0
174 197 0
174 198 0
175 198 0
172 195 0
175 198 0
174 198 0
174 197 0
174 198 0
174 197 0
170 194 0
172 196 0
175 198 0
173 197 0
174 197 0
172 196 0
174 197 0
173 197 0
173 197 0
174 197 0
173 197 0
174 197 0
174 198 0
173 197 0
174 197 0
174 197 0
174 197 0
173 197 0
175 198 0
175 198 0
175 198 0
173 197 0
175 198 0
173 196 0
176 199 0
173 196 0
175 198 0
173 197 0
175 198 0
174 197 0
173 196 0
174 198 0
175 198 0
176 198 0
174 197 0
175 198 0
175 198 0
175 198 0
173 197 0
175 198 0
174 198 0
174 197 0
172 196 0
172 196 0
174 198 0
174 198 0
173 197 0
172 196 0
176 199 0
175 198 0
174 197 0
174 198 0
176 198 0
175 198 0
176 199 0
174 198 0
176 199 0
173 196 0
174 197 0
172 196 0
175 198 0
172 196 0
172 196 0
174 197 0
171 196 0
173 196 0
174 198 0
172 196 0
174 197 0
175 198 0
173 196 0
174 198 0
173 197 0
172 196 0
171 195 0
174 197 0
173 196 0
173 197 0
174 197 0
172 196 0
176 199 0
174 197 25
174 198 25
174 197 0
174 197 0
174 197 0
174 197 0
174 198 36
174 198 25
171 195 0
173 197 36
175 198 51
173 197 25
176 199 51
175 198 62
179 201 84
177 200 80
178 201 72
174 197 36
181 202 80
176 199 88
178 200 80
176 199 67
176 199 80
178 201 80
178 200 67
180 202 80
176 199 80
177 199 80
179 201 88
176 198 76
178 200 72
178 200 95
176 198 84
174 197 76
178 201 84
178 200 108
180 201 103
176 199 82
177 199 80
179 201 84
176 199 92
176 199 95
178 201 99
176 199 99
178 200 105
177 200 92
178 200 97
178 200 88
177 200 95
174 197 90
176 198 88
176 199 67
173 196 82
175 198 84
175 198 86
178 200 78
172 195 99
174 196 60
173 196 90
171 194 74
170 194 57
169 191 72
168 192 72
167 190 97
166 189 80
167 190 86
171 194 94
169 192 80
169 192 76
166 190 88
167 190 98
166 189 57
168 192 80
169 190 63
158 183 113
139 164 107
107 134 145
62 98 168
62 98 166
63 99 170
62 98 173
62 99 171
62 99 171
61 98 166
62 98 168
62 99 176
62 98 168
63 99 175
62 99 173
62 99 174
62 99 169
62 99 172
62 99 176
62 98 174
62 99 176
62 99 176
62 99 177
62 99 175
62 99 176
62 99 176
63 99 178
62 99 177
62 99 174
62 99 176
62 99 175
63 99 177
62 99 179
62 99 177
61 98 176
62 99 178
62 98 174
62 99 181
62 99 177
61 98 176
62 99 178
62 99 177
62 99 177
62 99 179
62 99 176
62 99 180
62 99 180
62 99 179
62 99 178
62 99 180
61 98 176
62 99 180
62 99 178
62 99 178
62 99 179
62 99 177
62 99 179
62 99 179
62 98 176
61 98 178
61 98 178
62 98 177
62 99 178
62 98 177
61 98 178
61 98 176
62 98 176
61 98 178
62 98 174
62 98 177
61 98 177
61 97 172
62 98 177
62 98 177
62 98 175
61 97 174
62 98 173
61 97 173
62 98 175
62 99 176
62 98 176
61 98 176
61 97 173
62 98 176
62 98 175
61 98 175
62 98 177
61 98 176
61 97 174
61 97 172
61 97 172
62 99 176
62 98 174
62 98 174
62 99 177
62 98 171
62 98 175
61 97 169
62 97 169
62 97 170
62 97 170
62 97 169
62 98 171
62 97 161
61 96 163
61 97 159
112 139 138
155 178 76
167 190 51
171 194 0
169 194 0
172 195 0
171 194 0
173 195 0
172 196 0
171 195 0
170 194 0
171 193 0
171 195 0
173 197 0
171 194 0
173 197 0
170 192 0
171 194 0
168 192 0
171 194 0
172 196 0
174 197 0
171 194 0
170 194 0
172 195 0
170 193 0
172 195 0
170 193 0
169 191 0
170 193 0
171 194 0
174 196 0
171 195 0
171 195 0
171 195 0
171 194 0
171 195 0
173 196 0
173 196 0
171 194 0
170 194 0
173 197 0
171 193 0
175 197 0
171 194 0
169 193 0
172 194 0
174 196 0
174 197 0
171 194 0
171 195 0
172 195 0
171 195 0
173 196 0
170 193 0
171 194 0
172 196 0
171 194 0
174 196 0
173 195 0
175 198 0
172 196 0
172 195 0
173 196 0
170 194 0
173 197 0
172 196 0
173 196 0
173 196 0
170 193 0
172 195 0
171 193 0
172 196 0
174 196 0
172 195 0
170 194 0
174 197 0
172 197 0
174 197 0
171 194 0
174 197 0
171 195 0
172 196 0
174 197 0
174 197 0
173 196 0
173 196 0
172 195 0
172 196 0
173 196 0
172 196 0
171 194 0
173 196 0
173 196 0
173 196 0
172 195 0
172 195 0
174 197 0
173 196 0
171 195 0
174 197 0
175 198 0
173 196 0
174 197 0
171 194 0
172 196 0
172 195 0
172 196 0
173 196 0
170 194 0
170 193 0
174 198 0
173 197 0
173 196 0
173 196 0
174 198 0
174 197 0
175 198 0
172 196 0
172 196 0
173 197 0
173 197 0
172 195 0
172 196 0
172 196 0
171 195 0
174 197 0
173 196 0
172 195 0
171 195 0
173 196 0
174 198 0
171 195 0
173 197 0
175 197 0
175 198 0
173 196 0
173 197 0
173 197 0
172 196 0
174 197 0
172 195 0
173 195 0
174 198 0
174 197 0
174 197 0
172 196 0
174 197 0
174 197 0
173 197 0
172 196 0
174 197 0
173 197 0
175 198 0
175 197 0
174 198 0
174 197 0
175 198 0
174 197 0
174 197 0
173 197 0
173 197 0
173 197 0
174 198 0
175 198 0
174 198 0
174 198 0
172 196 0
174 198 0
174 197 0
173 197 0
174 197 0
174 197 0
174 197 0
173 197 0
175 198 0
174 198 0
173 196 0
175 198 0
174 197 0
174 198 0
174 197 0
174 197 0
174 197 0
173 197 0
171 195 0
174 197 0
172 196 0
174 198 0
177 199 0
172 196 0
173 197 0
173 197 0
174 197 0
172 196 0
175 197 0
171 196 0
172 195 0
175 198 0
175 198 0
173 197 0
173 197 0
173 197 0
173 196 0
173 196 0
172 195 0
174 197 0
174 198 0
173 197 0
175 198 0
173 197 0
173 196 0
171 195 0
174 197 0
171 196 0
171 195 0
175 198 0
174 198 0
172 196 0
174 197 0
173 196 25
175 198 0
173 196 0
174 197 25
172 196 25
174 197 36
174 198 0
174 197 36
176 198 44
176 199 57
173 196 57
176 199 67
180 202 67
174 197 25
177 199 70
176 199 67
175 199 76
176 199 67
177 200 72
178 200 72
175 198 76
176 200 76
177 200 80
176 199 92
180 201 88
181 203 99
177 200 72
178 200 76
174 197 80
181 203 102
180 202 92
179 202 95
176 199 67
177 199 90
176 199 92
175 198 84
177 201 80
177 199 88
179 202 95
178 201 92
179 200 74
178 201 111
177 200 84
176 199 82
180 202 114
176 200 84
177 200 94
175 198 92
181 203 99
177 199 86
175 197 88
174 198 90
178 201 105
179 201 99
171 195 86
167 190 70
176 199 80
169 193 67
171 194 97
167 190 102
171 194 86
170 193 78
167 190 78
170 193 92
167 190 76
166 189 60
171 194 70
164 187 71
172 194 67
165 189 88
172 194 90
171 193 83
156 180 102
165 188 95
150 174 105
130 155 123
69 104 171
62 99 172
62 98 168
62 98 169
62 99 168
61 98 170
61 98 168
62 99 170
62 99 170
63 99 175
62 98 172
62 99 174
62 99 176
62 99 173
62 99 171
62 99 175
62 99 172
62 99 173
62 99 172
62 99 174
63 99 176
62 99 174
62 99 178
62 99 176
62 99 174
62 99 178
62 99 176
62 99 178
62 99 177
63 100 179
63 100 179
62 99 181
62 99 176
62 99 178
62 99 176
62 99 180
62 99 181
62 99 179
63 99 177
62 99 179
61 98 174
62 98 175
61 98 178
62 99 180
62 99 177
61 98 177
62 99 179
62 99 178
62 98 174
62 99 178
62 99 179
62 99 176
62 98 178
62 99 177
62 99 178
62 99 178
62 98 176
62 98 175
62 99 179
61 98 174
62 99 176
62 99 177
62 99 180
61 98 177
62 99 177
62 98 175
62 98 177
62 99 178
62 98 176
62 99 179
61 98 179
62 99 178
61 98 179
62 98 178
61 97 174
62 98 174
62 98 178
61 98 178
62 98 175
62 98 177
62 98 176
62 98 175
62 99 178
61 97 174
62 98 173
61 98 175
62 98 174
62 98 174
62 98 174
61 97 169
61 97 169
61 96 169
62 97 168
62 97 170
61 97 170
62 97 168
62 98 170
62 98 171
62 98 172
63 98 167
63 98 170
61 97 166
62 97 162
63 98 169
67 101 165
124 150 122
156 178 76
166 189 28
171 194 0
168 192 0
172 195 0
173 196 0
170 194 0
170 194 0
172 196 0
172 196 0
172 196 0
170 194 0
171 194 0
169 192 0
171 195 0
170 194 0
170 193 0
171 195 0
169 192 0
174 196 0
172 195 0
172 196 0
172 196 0
171 194 0
169 192 0
173 196 0
173 196 0
169 192 0
173 196 0
170 193 0
171 195 0
172 196 0
172 196 0
172 195 0
172 195 0
171 193 0
170 193 0
173 196 0
174 197 0
172 195 0
169 193 0
170 194 0
174 197 0
172 195 0
172 196 0
174 198 0
173 197 0
173 195 0
169 193 0
169 193 0
174 197 0
171 194 0
171 194 0
173 196 0
173 195 0
171 195 0
174 198 0
171 194 0
172 195 0
172 195 0
171 195 0
172 196 0
173 196 0
171 195 0
173 196 0
170 193 0
170 193 0
171 195 0
171 194 0
173 196 0
171 195 0
174 197 0
172 196 0
174 197 0
172 195 0
172 195 0
172 194 0
174 196 0
173 197 0
172 195 0
174 198 0
172 196 0
171 194 0
172 195 0
174 197 0
173 197 0
173 197 0
174 197 0
174 197 0
173 197 0
173 196 0
172 195 0
173 197 0
173 196 0
171 194 0
174 198 0
173 196 0
173 196 0
172 195 0
173 197 0
174 197 0
172 196 0
173 197 0
174 196 0
173 196 0
174 197 0
174 197 0
172 196 0
173 196 0
171 195 0
174 198 0
171 195 0
171 195 0
173 196 0
174 197 0
173 196 0
173 196 0
173 197 0
174 197 0
173 196 0
173 195 0
174 197 0
172 195 0
174 197 0
173 196 0
173 197 0
172 196 0
175 198 0
175 197 0
173 196 0
173 197 0
172 195 0
172 196 0
174 197 0
172 196 0
175 197 0
174 197 0
174 198 0
174 198 0
173 197 0
174 197 0
174 198 0
175 198 0
173 196 0
174 197 0
174 197 0
172 196 0
175 198 0
175 198 0
173 196 0
175 198 0
174 198 0
173 196 0
173 197 0
174 198 0
172 196 0
171 196 0
175 198 0
174 198 0
175 198 0
172 195 0
174 198 0
172 196 0
172 196 0
173 197 0
173 197 0
174 197 0
174 197 0
175 198 0
174 197 0
173 196 0
174 198 0
174 197 0
173 197 0
174 198 0
174 198 0
175 198 0
175 198 0
175 198 0
173 197 0
174 197 0
173 197 0
172 196 0
172 195 0
172 196 0
175 198 0
174 197 0
174 197 0
173 197 0
174 197 0
172 196 0
174 197 0
173 197 0
175 198 0
173 197 0
174 197 0
172 196 0
174 198 0
172 196 0
173 197 0
173 196 0
174 197 0
173 197 0
173 197 0
173 196 0
173 196 0
171 194 0
175 198 0
174 196 0
171 196 0
170 195 0
173 197 0
174 197 0
174 197 0
173 197 0
173 196 0
172 196 0
175 198 0
174 198 25
172 196 0
174 198 0
173 197 0
175 198 0
174 197 0
172 196 0
176 199 25
173 197 36
175 198 44
174 198 36
173 196 51
177 200 72
172 196 36
177 200 57
177 199 72
177 199 62
176 199 67
178 200 62
175 198 72
176 199 57
179 202 88
181 203 88
177 199 67
174 197 51
183 204 95
181 203 99
179 202 88
175 198 67
177 200 76
178 200 80
178 200 84
180 202 99
177 201 105
175 197 76
179 202 84
174 196 88
175 198 80
172 195 80
175 199 99
177 200 84
179 201 105
176 199 92
176 200 84
177 200 72
174 196 51
179 200 88
176 199 88
174 197 84
176 199 76
173 197 76
179 201 92
178 200 94
176 198 90
176 198 82
175 197 84
169 192 80
171 194 84
169 193 76
170 192 90
169 191 88
173 196 62
170 193 72
161 184 62
169 193 65
167 190 67
168 191 72
165 189 65
169 192 88
168 190 60
160 182 82
166 189 54
163 185 84
162 185 88
137 161 114
91 121 162
62 98 166
62 98 160
62 98 169
62 99 168
62 99 172
62 99 175
62 99 171
62 99 170
62 99 173
62 99 174
62 99 168
62 99 175
62 99 173
61 98 165
62 99 170
62 99 175
62 99 173
62 99 173
62 99 171
63 100 179
61 98 175
62 99 173
63 100 175
61 98 173
62 99 172
62 99 174
62 99 180
62 99 172
62 99 180
62 99 179
62 99 175
61 98 175
62 99 178
62 99 178
62 99 176
62 99 178
61 98 174
62 99 178
62 99 180
62 99 177
62 99 178
62 99 179
62 99 176
62 99 179
62 99 180
62 99 177
62 99 180
62 99 179
61 99 178
61 98 178
62 99 176
62 99 179
62 98 176
61 98 178
62 99 177
61 98 175
62 99 176
62 99 179
62 99 178
61 98 176
62 99 178
62 99 177
61 97 174
62 99 181
62 98 176
61 98 177
63 99 178
62 98 175
62 99 176
62 98 175
61 98 175
62 98 175
62 98 175
61 98 174
61 97 173
61 98 175
61 98 176
62 98 177
62 98 173
61 97 171
61 98 176
62 98 174
62 98 174
61 96 168
61 96 169
61 97 173
61 98 176
61 98 175
61 96 170
62 98 176
61 97 170
61 97 170
62 98 172
62 97 169
61 96 168
61 96 164
62 98 173
61 96 165
61 97 169
61 97 164
62 98 167
62 97 165
62 98 170
62 97 165
62 97 163
91 119 142
150 175 84
164 187 41
169 192 18
167 190 0
171 194 0
171 195 0
169 193 0
172 195 0
171 195 0
173 196 0
171 196 0
172 195 0
171 195 0
171 195 0
171 194 0
169 192 0
171 194 0
172 196 0
172 195 0
169 193 0
170 194 0
167 191 0
172 196 0
172 195 0
172 194 0
170 194 0
173 197 0
169 193 0
173 196 0
172 195 0
173 196 0
173 196 0
170 194 0
170 192 0
170 193 0
172 196 0
172 196 0
173 196 0
170 194 0
173 197 0
172 196 0
174 196 0
172 196 0
173 197 0
174 197 0
170 193 0
173 196 0
174 196 0
173 196 0
173 197 0
167 190 0
171 194 0
171 195 0
174 197 0
173 196 0
172 196 0
171 194 0
171 194 0
172 195 0
173 196 0
174 197 0
173 196 0
171 195 0
172 195 0
172 196 0
172 196 0
172 195 0
171 194 0
171 195 0
172 196 0
174 197 0
169 192 0
172 196 0
171 195 0
173 197 0
173 196 0
174 197 0
173 196 0
174 197 0
172 195 0
174 197 0
171 194 0
172 196 0
173 197 0
174 197 0
173 196 0
175 198 0
172 196 0
172 195 0
173 197 0
171 194 0
172 195 0
173 197 0
172 195 0
171 195 0
173 195 0
173 197 0
171 195 0
173 197 0
175 198 0
173 196 0
172 196 0
175 198 0
171 193 0
171 194 0
173 197 0
173 197 0
173 197 0
175 198 0
172 195 0
174 198 0
171 195 0
172 195 0
173 197 0
171 194 0
174 198 0
174 197 0
171 194 0
174 197 0
174 197 0
175 198 0
173 195 0
177 199 0
174 197 0
173 197 0
173 196 0
174 197 0
173 197 0
173 197 0
173 196 0
173 196 0
174 197 0
175 198 0
175 198 0
174 197 0
173 197 0
172 196 0
173 197 0
173 196 0
174 197 0
175 197 0
173 197 0
172 196 0
173 196 0
174 197 0
174 198 0
173 197 0
174 198 0
175 198 0
173 197 0
173 196 0
174 197 0
176 199 0
174 198 0
175 198 0
174 197 0
174 198 0
174 197 0
176 199 0
172 196 0
171 196 0
173 197 0
172 196 0
174 197 0
174 197 0
174 197 0
173 196 0
175 198 0
174 197 0
175 198 0
173 196 0
175 197 0
173 197 0
175 198 0
175 198 0
174 197 0
173 196 0
173 197 0
173 197 0
173 197 0
173 196 0
173 196 0
172 197 0
172 196 0
173 197 0
174 197 0
173 196 0
173 197 0
173 196 0
176 199 0
173 196 0
177 199 0
173 196 0
171 195 0
176 199 0
175 198 0
172 196 0
173 197 0
174 198 0
171 195 0
173 196 0
176 198 0
173 197 0
173 197 0
174 198 0
173 197 0
175 198 0
173 197 0
174 198 0
174 197 0
174 197 0
172 196 0
170 194 0
174 197 0
174 198 0
172 197 0
173 197 0
173 197 0
172 196 0
175 198 25
175 198 36
174 197 36
170 194 0
171 195 0
175 198 0
174 198 25
174 198 36
173 196 25
177 200 62
176 199 51
176 198 51
176 199 57
175 198 62
176 199 76
176 199 67
173 197 62
175 198 36
174 197 76
179 201 92
172 196 76
177 201 84
175 199 51
177 199 76
177 199 88
176 199 57
173 196 57
178 201 76
178 201 72
178 200 72
177 200 80
178 200 92
178 200 76
175 197 62
176 199 80
178 201 92
176 198 62
177 200 88
179 201 88
175 198 72
176 198 67
177 200 80
175 197 88
176 199 99
175 198 90
175 197 72
177 199 92
173 196 72
175 199 92
174 198 67
175 198 94
174 197 78
174 197 76
173 195 57
173 196 90
169 192 94
169 193 95
169 193 82
167 190 72
171 193 92
167 191 62
158 182 97
169 192 80
161 184 80
168 191 87
170 193 80
166 189 74
170 193 67
169 191 72
160 182 67
165 189 88
161 183 99
149 173 102
127 151 131
61 97 159
61 97 161
62 98 164
62 98 171
62 98 165
62 98 166
62 99 167
62 98 171
62 99 167
63 99 173
62 99 167
62 99 173
62 99 175
62 98 173
62 99 175
62 99 177
62 99 174
62 99 177
62 98 167
61 99 178
62 99 174
62 99 171
63 100 178
61 98 176
62 99 176
63 99 174
62 99 177
62 99 176
62 99 179
61 98 178
62 99 178
61 98 175
61 98 174
62 98 173
62 99 175
62 99 174
62 99 178
61 98 178
62 99 174
62 99 179
62 99 179
62 99 178
61 98 175
61 98 177
61 98 175
62 99 177
62 99 178
61 98 177
62 98 175
62 99 177
62 99 179
62 99 181
62 98 179
61 98 176
62 99 177
62 99 178
61 98 175
61 98 175
62 99 179
62 99 179
62 99 178
62 99 178
62 99 178
62 99 179
62 98 176
62 99 177
62 99 176
61 98 175
61 97 173
62 98 175
61 97 172
61 98 174
62 98 177
62 98 176
61 97 169
61 97 174
62 98 177
62 98 177
62 98 174
62 98 172
62 98 176
61 97 170
61 97 173
61 98 178
61 97 173
62 98 175
62 99 177
61 97 170
61 97 172
61 97 172
62 98 176
62 98 169
62 97 172
61 97 171
62 97 172
62 98 174
61 96 161
62 98 173
61 97 168
62 98 172
60 95 162
61 95 162
62 97 169
63 99 176
62 98 169
62 98 167
60 96 160
121 146 119
159 183 74
170 193 25
170 194 0
173 195 0
172 195 0
171 195 0
173 197 0
171 194 0
169 192 0
171 195 0
173 196 0
172 195 0
169 193 0
172 194 0
168 190 0
169 193 0
169 192 0
170 194 0
170 193 0
168 192 0
170 194 0
168 192 0
171 196 0
171 194 0
171 193 0
171 195 0
172 195 0
172 195 0
169 193 0
170 193 0
171 195 0
172 195 0
169 193 0
171 195 0
170 193 0
171 195 0
171 195 0
173 196 0
173 196 0
173 196 0
170 193 0
171 192 0
172 195 0
175 197 0
170 193 0
173 196 0
173 196 0
170 194 0
173 196 0
170 193 0
172 195 0
173 196 0
173 197 0
169 193 0
171 195 0
174 197 0
169 192 0
173 196 0
171 194 0
174 197 0
172 196 0
169 193 0
170 194 0
170 194 0
173 197 0
171 194 0
172 195 0
172 196 0
173 197 0
173 197 0
171 194 0
170 193 0
171 194 0
173 196 0
171 194 0
173 196 0
172 196 0
172 196 0
174 197 0
172 196 0
170 194 0
173 196 0
174 197 0
170 193 0
172 195 0
172 194 0
172 195 0
173 196 0
173 196 0
171 194 0
172 196 0
173 197 0
172 195 0
172 195 0
173 197 0
170 194 0
173 196 0
172 195 0
172 195 0
172 195 0
174 196 0
175 198 0
169 193 0
171 195 0
172 196 0
174 197 0
172 196 0
172 195 0
174 196 0
171 195 0
174 197 0
173 197 0
173 197 0
173 196 0
170 194 0
171 195 0
172 196 0
173 197 0
173 196 0
173 196 0
174 197 0
172 195 0
173 197 0
172 196 0
174 197 0
173 197 0
174 198 0
174 197 0
172 196 0
174 196 0
172 195 0
173 197 0
171 195 0
173 197 0
174 197 0
171 194 0
172 196 0
173 195 0
172 195 0
174 197 0
172 196 0
172 196 0
174 197 0
173 196 0
174 197 0
173 197 0
172 196 0
175 198 0
174 198 0
174 197 0
174 198 0
173 197 0
175 198 0
175 198 0
172 196 0
172 195 0
174 198 0
174 197 0
174 197 0
173 197 0
173 196 0
173 197 0
174 197 0
174 197 0
175 198 0
171 195 0
173 197 0
173 197 0
177 199 0
172 196 0
173 196 0
173 196 0
173 197 0
174 198 0
172 196 0
173 196 0
173 196 0
173 197 0
172 196 0
174 197 0
172 196 0
172 197 0
175 198 0
174 197 0
171 195 0
174 198 0
174 197 0
172 195 0
173 196 0
172 195 0
171 195 0
174 197 0
172 196 0
172 195 0
169 193 0
171 195 0
174 197 0
173 196 0
174 197 0
174 197 0
172 195 0
175 197 0
174 198 0
171 194 0
172 196 0
172 196 0
172 196 0
172 196 0
172 196 0
173 196 0
172 195 0
173 196 0
172 196 0
171 194 0
172 196 0
171 195 0
174 197 0
171 195 25
172 195 0
172 195 0
171 196 0
172 196 0
171 195 25
176 199 25
173 196 0
172 196 25
174 197 57
175 198 36
176 199 51
174 197 36
176 199 51
171 194 36
174 198 57
172 196 62
174 198 57
174 197 62
174 197 57
178 201 84
175 198 51
177 200 62
176 198 76
177 200 72
176 199 51
176 199 67
179 201 72
176 198 72
177 200 92
180 201 84
176 198 62
175 199 84
178 201 84
176 199 72
171 195 62
177 200 72
176 198 80
178 200 80
178 200 84
178 201 102
176 199 88
178 200 105
176 199 72
175 198 92
177 199 80
175 197 76
176 199 84
175 198 80
179 201 108
173 195 72
177 199 76
174 197 62
176 199 97
176 199 92
171 194 82
173 195 62
168 191 72
172 194 84
168 191 86
169 191 60
168 191 62
168 191 86
168 190 65
166 189 82
169 191 82
168 191 74
164 186 70
161 185 78
171 193 76
165 189 76
163 186 90
154 177 88
142 166 105
87 117 152
61 97 163
62 98 161
63 100 172
62 98 162
63 100 172
62 98 172
61 98 165
62 99 169
62 98 170
62 99 170
63 99 175
62 99 172
62 99 175
62 98 168
63 99 178
62 99 176
62 99 173
62 99 175
62 99 176
62 99 173
62 99 173
63 99 176
62 98 169
61 98 176
62 99 172
62 99 175
62 99 174
62 99 178
62 99 173
62 99 174
62 99 176
62 99 175
62 99 178
62 99 181
62 99 174
61 98 174
61 98 174
62 99 179
62 99 176
62 99 178
62 99 176
62 99 173
61 98 168
63 100 178
62 99 178
61 98 177
61 98 179
62 99 178
62 99 176
63 100 179
61 98 174
62 99 180
62 99 175
62 98 173
61 98 174
62 98 174
62 99 177
62 99 177
62 98 177
61 98 173
62 99 179
62 99 177
62 99 178
61 97 175
61 98 179
62 98 175
62 98 173
61 98 174
62 98 173
63 99 177
61 97 174
61 98 176
61 97 172
62 98 175
62 98 175
61 98 178
62 99 177
61 97 173
61 97 169
62 98 174
62 98 174
61 97 172
61 97 174
61 98 174
62 97 171
61 97 172
61 98 173
61 97 171
61 97 173
61 97 170
61 97 172
62 97 169
62 98 173
61 96 166
61 97 174
62 97 171
61 96 170
61 96 164
61 95 159
61 97 169
62 97 166
62 97 168
62 97 165
62 98 165
61 98 171
61 97 163
61 97 159
80 112 145
136 160 105
162 186 47
168 192 0
171 194 0
172 195 0
170 193 0
174 197 0
168 191 0
171 194 0
171 193 0
169 192 0
168 192 0
169 193 0
172 194 0
171 194 0
167 190 0
170 194 0
171 194 0
173 197 0
168 190 0
173 196 0
167 191 0
173 196 0
169 191 0
172 196 0
172 195 0
171 195 0
171 194 0
173 196 0
175 198 0
173 196 0
170 194 0
173 196 0
170 193 0
173 196 0
170 193 0
171 194 0
170 193 0
173 196 0
171 195 0
171 195 0
170 194 0
174 197 16
172 194 11
170 193 0
170 193 11
172 195 0
171 194 11
174 197 0
174 196 16
174 197 0
171 194 16
172 194 16
173 196 0
171 194 11
173 196 0
169 194 0
171 195 0
175 198 0
171 195 0
173 196 0
171 195 0
174 197 0
171 194 0
172 196 0
172 196 0
173 196 0
170 193 0
174 197 0
168 192 0
171 195 0
170 193 0
172 196 0
172 195 0
173 196 0
174 196 0
171 195 0
173 196 0
172 195 0
174 196 0
170 194 0
171 195 0
170 194 0
173 196 0
171 195 0
173 196 0
172 196 0
175 197 0
175 197 0
175 198 0
172 194 0
173 197 0
173 197 0
172 196 0
172 196 0
171 195 0
172 195 0
174 196 0
172 195 0
171 195 0
173 196 0
173 195 0
173 196 0
173 196 0
174 198 0
173 196 0
172 195 0
174 197 0
173 196 0
173 196 0
175 198 0
172 195 0
170 194 0
173 196 0
174 197 0
174 198 0
172 197 0
170 193 0
173 197 0
172 196 0
173 196 0
173 197 0
172 195 0
172 195 0
171 195 0
175 198 0
175 198 0
172 196 0
175 198 0
174 197 0
173 196 0
170 195 0
172 196 0
173 197 0
171 194 0
175 198 0
174 197 0
174 196 0
173 197 0
172 195 0
172 196 0
174 197 0
171 195 0
172 196 0
174 197 0
175 198 0
174 198 0
174 198 0
174 197 0
174 198 0
173 196 0
173 197 0
172 196 0
174 197 0
174 198 0
173 197 0
173 197 0
174 198 0
172 195 0
173 197 0
173 197 0
174 198 0
174 197 0
174 198 0
172 195 0
175 198 0
175 198 0
174 197 0
173 197 0
174 197 0
172 196 0
174 197 0
175 198 0
174 198 0
173 197 0
175 198 0
174 198 0
172 196 0
172 196 0
176 198 0
174 197 0
172 195 0
174 197 0
173 197 0
173 197 0
174 197 0
174 197 0
173 196 0
172 196 0
172 196 0
175 198 0
174 197 0
175 198 0
174 198 0
174 198 0
173 197 0
174 197 0
173 197 0
172 196 0
174 197 0
172 196 0
174 198 0
174 197 0
173 197 0
173 197 0
174 197 0
174 198 0
175 198 0
172 195 0
173 196 0
173 197 0
173 197 0
172 195 0
175 198 0
174 197 0
173 197 0
172 196 0
173 197 0
172 196 25
173 197 0
174 198 25
174 197 25
172 197 36
174 197 36
174 197 44
174 197 51
173 196 36
174 197 0
176 199 57
175 198 44
176 199 51
174 197 51
178 201 80
176 199 36
173 197 62
175 198 51
178 200 67
177 199 80
180 202 84
176 199 76
176 199 67
178 200 80
175 198 84
177 200 80
177 200 80
172 195 44
178 201 95
176 199 76
176 199 80
177 200 67
178 200 92
177 200 76
176 198 76
174 197 67
176 198 67
176 199 95
176 199 76
176 199 84
178 200 88
177 200 76
180 202 88
176 199 84
174 196 88
176 199 76
177 199 80
176 199 84
175 198 76
174 197 72
176 199 72
177 199 80
174 197 88
171 194 76
176 198 88
174 197 86
164 187 70
170 192 88
175 198 67
167 189 65
166 189 95
168 190 74
163 186 67
167 190 72
167 191 90
165 188 74
168 190 74
165 188 62
167 190 80
165 187 67
167 189 80
155 179 103
115 142 135
63 99 164
62 98 165
61 98 164
62 99 171
62 99 170
62 99 172
63 99 170
62 99 167
62 98 168
62 99 174
62 99 169
62 99 173
62 98 169
63 100 175
62 99 169
62 99 177
62 99 173
62 99 175
62 99 172
62 99 169
62 99 177
62 99 175
63 99 178
61 98 172
63 99 175
62 99 177
62 99 174
62 98 171
62 99 174
62 99 177
62 99 175
62 99 178
62 99 176
62 99 176
62 99 177
62 99 176
62 99 180
62 99 174
62 99 177
62 99 180
62 99 175
62 99 179
62 98 174
62 99 176
62 99 174
62 99 176
62 98 176
62 99 174
62 99 176
61 98 178
61 98 177
62 98 176
62 99 175
62 99 176
62 99 177
62 98 176
62 99 178
62 98 177
62 99 180
62 99 173
62 98 178
62 98 176
62 98 174
61 98 176
62 99 177
62 99 177
62 99 174
61 97 172
61 98 176
62 99 176
61 97 173
62 99 178
62 99 178
62 98 174
62 99 177
61 97 172
62 99 177
61 98 176
61 97 174
61 97 173
61 98 174
61 97 175
61 97 171
62 97 171
61 96 168
61 97 171
61 97 174
62 98 174
62 98 172
61 97 172
62 98 173
61 97 171
62 97 167
60 95 164
61 96 163
62 97 168
61 97 171
61 97 170
62 96 161
61 96 164
61 96 165
60 95 161
61 96 167
61 97 167
61 97 165
61 97 166
61 96 163
61 96 160
61 96 162
111 137 129
148 172 72
168 192 25
171 195 0
167 190 0
172 195 0
169 191 0
168 192 0
166 189 0
171 194 0
170 194 0
172 196 0
172 195 0
169 193 0
171 194 0
170 194 0
172 196 0
171 194 0
172 196 0
171 194 0
175 198 0
172 195 0
170 193 0
168 192 0
172 195 0
170 193 0
169 192 0
172 195 0
171 194 0
169 192 0
173 196 0
170 194 0
171 194 0
173 194 11
171 194 11
173 195 11
173 195 19
173 196 16
167 190 11
170 194 0
174 196 11
172 195 0
170 193 16
171 194 11
171 195 11
172 195 11
171 194 16
171 195 0
170 193 11
170 193 11
170 193 0
172 195 0
177 197 25
171 194 11
170 194 11
173 196 16
173 195 0
170 192 16
177 199 11
175 197 0
173 196 0
170 194 0
175 198 0
172 196 0
173 196 0
174 197 0
176 198 0
174 198 0
172 196 0
172 196 0
173 197 0
173 197 0
172 195 0
172 196 0
173 196 0
171 194 0
174 197 0
170 193 0
173 196 0
172 196 0
173 196 0
173 196 0
174 197 0
174 197 0
173 196 0
171 195 0
172 195 0
172 195 0
170 194 0
174 197 0
171 194 0
173 197 0
173 196 0
172 196 0
174 197 0
172 196 0
171 195 0
173 197 0
172 196 0
174 197 0
172 196 0
174 197 0
171 195 0
173 196 0
171 194 0
174 198 0
172 196 0
173 197 0
172 197 0
172 195 0
173 197 0
172 195 0
173 196 0
173 196 0
173 197 0
175 198 0
171 195 0
173 197 0
174 197 0
173 197 0
174 197 0
172 196 0
174 198 0
173 196 0
170 194 0
174 198 0
174 197 0
175 198 0
172 195 0
175 198 0
175 198 0
172 196 0
174 198 0
174 196 0
173 196 0
172 195 0
174 197 0
174 197 0
176 198 0
173 196 0
172 196 0
173 196 0
172 196 0
175 198 0
172 196 0
172 196 0
173 196 0
172 197 0
175 198 0
174 197 0
172 196 0
173 197 0
175 198 0
174 198 0
176 199 0
174 197 0
174 198 0
174 198 0
172 196 0
173 196 0
171 195 0
173 197 0
173 197 0
174 197 0
174 198 0
172 196 0
174 197 0
171 195 0
173 197 0
172 197 0
174 198 0
172 196 0
173 197 0
174 197 0
171 195 0
175 198 0
174 197 0
173 197 0
175 198 0
174 198 0
173 197 0
172 196 0
173 197 0
174 197 0
175 198 0
175 198 0
173 196 0
173 196 0
174 197 0
174 197 0
173 196 0
174 197 0
174 198 0
173 197 0
173 197 0
175 198 0
174 197 0
173 197 0
175 198 0
174 198 0
174 197 0
174 197 0
172 196 0
174 198 0
173 197 0
173 196 0
168 193 0
173 196 0
174 197 0
174 197 0
170 193 0
175 198 0
174 197 0
172 195 0
173 197 0
174 198 0
170 194 0
174 197 44
173 197 25
173 196 0
173 197 0
173 197 0
172 196 0
172 196 25
173 196 0
173 196 44
172 196 25
174 197 25
175 199 51
173 195 36
175 198 36
175 198 44
174 197 51
174 197 51
177 199 51
177 199 57
176 198 76
176 199 62
177 200 62
175 198 57
174 197 51
178 200 84
176 199 72
177 199 84
177 200 72
178 200 76
180 202 88
175 198 62
175 198 72
179 201 95
178 201 84
174 197 76
175 198 72
175 198 67
176 199 76
177 200 80
176 199 72
177 200 99
175 198 80
176 199 67
179 201 72
175 199 72
175 198 67
178 201 102
172 195 67
176 198 76
175 198 86
177 199 84
173 196 51
171 195 90
174 196 72
170 193 78
169 192 95
172 194 90
167 190 80
168 190 62
172 194 72
167 190 62
167 190 70
167 190 105
162 185 72
167 190 67
164 188 97
163 186 74
171 195 80
167 190 89
163 186 73
166 189 70
161 183 72
145 168 100
75 107 149
62 98 163
61 97 161
61 98 167
63 99 169
62 99 167
61 98 166
62 99 174
63 99 174
62 99 172
62 98 167
62 98 170
62 99 170
62 98 172
62 99 171
62 98 174
63 99 173
62 99 174
62 98 169
62 99 174
62 99 172
62 99 175
61 98 175
61 98 175
62 98 171
63 100 177
61 98 173
62 99 176
62 98 172
62 99 172
62 99 177
62 99 174
62 99 177
62 99 175
63 99 174
63 99 175
62 99 174
62 99 177
62 99 176
62 99 175
62 99 179
61 98 176
62 99 179
62 98 176
63 99 177
62 99 174
62 98 174
62 99 177
62 98 172
61 98 177
62 99 175
61 98 174
62 99 178
62 98 173
61 98 176
62 99 177
61 98 176
62 99 175
62 99 177
62 99 174
62 99 174
61 97 170
61 98 176
61 98 176
61 98 175
62 98 175
61 98 177
61 98 174
61 98 176
62 98 178
61 97 173
61 97 172
62 98 174
62 98 174
62 98 174
62 98 173
61 97 174
62 98 174
61 97 173
61 98 175
62 98 176
62 98 177
60 96 169
62 98 176
62 97 173
62 98 176
61 97 172
62 97 171
61 96 167
60 97 172
61 96 170
61 96 166
62 98 174
61 95 166
62 98 175
61 96 168
61 96 170
61 95 164
60 96 164
61 97 169
62 97 171
61 96 166
61 95 163
62 97 173
61 96 164
60 94 156
61 97 168
61 97 165
61 96 162
62 98 169
73 105 155
147 171 87
158 182 47
168 191 18
171 194 0
168 191 0
171 194 0
171 194 0
170 194 0
166 189 0
172 195 0
169 192 0
171 195 0
167 190 0
171 194 0
169 192 0
172 196 0
170 193 0
171 195 0
172 196 0
170 193 0
168 191 0
165 188 0
172 196 0
171 194 0
171 194 11
171 194 0
172 195 0
173 196 11
171 194 11
172 194 19
169 191 0
171 194 16
173 196 16
168 191 11
172 194 19
171 195 11
169 189 25
171 193 22
171 192 19
173 194 28
172 192 25
173 196 11
172 194 22
174 196 16
168 190 16
172 194 19
173 195 19
172 193 25
173 195 11
172 193 28
175 196 28
173 194 22
172 195 0
170 193 16
171 194 16
172 195 11
173 195 22
172 194 16
175 197 19
175 197 0
173 196 16
170 193 16
171 194 0
171 193 11
173 197 0
173 195 0
173 195 0
172 195 0
173 196 0
173 196 0
170 193 0
174 197 0
173 196 0
170 194 0
169 192 0
171 195 0
171 195 0
167 191 0
172 196 0
171 194 0
172 195 0
173 197 0
172 195 0
173 195 0
172 196 0
172 195 0
174 197 0
174 197 0
174 197 0
169 193 0
171 194 0
169 193 0
175 198 0
173 197 0
174 197 0
175 198 0
169 194 0
174 197 0
175 198 0
175 198 0
171 195 0
174 197 0
173 195 0
173 197 0
172 196 0
173 196 0
174 196 0
175 198 0
175 198 0
175 197 0
172 196 0
174 197 0
174 197 0
171 195 0
171 195 0
171 195 0
172 196 0
172 196 0
173 196 0
171 195 0
173 196 0
172 195 0
173 197 0
172 196 0
174 197 0
172 195 0
172 195 0
173 196 0
173 196 0
173 196 0
170 194 0
173 196 0
175 198 0
173 197 0
173 196 0
173 197 0
174 197 0
174 197 0
173 197 0
172 195 0
175 198 0
171 194 0
173 197 0
173 196 0
173 197 0
175 198 0
175 198 0
173 197 0
172 196 0
173 196 0
174 198 0
174 197 0
174 198 0
174 196 0
173 197 0
174 198 0
172 196 0
172 196 0
171 196 0
172 196 0
174 198 0
173 197 0
173 197 0
173 196 0
175 198 0
173 196 0
173 197 0
173 197 0
173 197 0
175 198 0
174 197 0
175 198 0
173 196 0
173 197 0
173 196 0
171 195 0
175 197 0
173 196 0
173 197 0
174 197 0
173 197 0
173 196 0
173 197 0
172 195 0
173 197 0
173 197 0
171 195 0
174 197 0
173 196 0
173 197 0
172 196 0
171 194 0
173 196 0
175 198 0
173 197 0
173 197 0
173 196 0
177 199 0
174 198 0
173 196 0
174 197 0
173 196 0
175 198 0
174 198 0
174 197 0
173 196 0
174 197 0
173 196 0
173 196 0
172 196 0
172 196 0
173 196 0
173 196 0
173 196 0
173 196 25
173 196 0
173 197 0
174 198 0
173 197 25
174 197 36
173 197 0
173 197 0
174 197 36
173 196 0
171 195 36
174 197 0
173 197 51
175 198 36
175 198 25
172 195 25
176 199 51
175 198 51
176 198 51
174 197 44
174 197 44
172 194 62
175 199 57
175 198 54
175 198 51
178 201 76
176 199 92
175 198 62
175 198 67
179 202 84
176 198 84
178 200 72
175 198 62
174 197 57
173 197 76
176 198 62
172 196 62
175 198 76
179 201 95
174 197 67
179 202 88
173 196 62
173 195 51
174 198 72
176 198 84
173 196 80
175 199 72
170 194 80
175 198 84
176 199 92
174 197 76
176 199 92
173 196 54
171 194 54
175 198 97
170 193 60
172 195 74
171 194 80
171 193 62
172 195 80
166 189 92
170 192 70
167 190 57
163 186 72
168 191 78
167 191 82
169 193 99
168 190 74
168 190 78
170 192 80
165 188 72
160 183 62
158 180 85
146 170 99
120 145 131
65 100 155
62 98 163
62 99 170
62 99 168
62 99 168
63 99 171
62 99 175
62 98 167
62 99 167
61 98 169
62 98 168
62 98 170
62 98 164
62 99 174
62 98 167
61 98 170
62 98 171
62 98 170
62 99 172
62 99 172
62 99 175
62 98 172
62 98 171
63 99 177
61 98 169
62 99 174
62 99 174
62 99 174
62 98 170
62 99 174
62 98 170
62 99 175
62 99 178
62 99 173
61 98 174
63 99 177
62 98 172
62 99 176
61 98 172
62 99 179
62 98 172
61 97 167
63 100 176
62 98 170
62 99 180
62 99 177
62 99 177
61 98 173
62 99 177
61 98 174
62 99 175
62 98 175
62 99 178
62 98 176
62 99 171
61 97 172
62 99 179
61 98 175
62 99 177
62 98 176
62 99 180
62 99 177
62 99 175
61 97 172
62 98 176
62 98 177
62 98 175
61 98 174
62 98 174
61 97 170
62 99 177
61 98 175
62 98 175
62 98 172
62 98 176
61 98 176
61 96 170
62 98 175
61 98 175
62 98 172
61 97 170
61 97 168
62 98 174
62 98 176
61 97 171
62 97 172
61 96 169
61 97 170
60 95 166
61 96 168
60 95 167
62 97 171
62 97 173
61 96 167
61 95 163
62 97 170
61 97 170
60 95 165
62 97 168
62 96 165
60 95 163
61 96 168
61 96 164
61 96 165
61 96 164
61 95 161
61 96 162
61 96 164
61 97 164
62 97 167
61 96 157
124 149 124
144 168 74
171 194 25
169 192 0
169 191 0
166 190 0
170 193 0
169 194 0
175 198 0
171 194 0
169 193 0
172 195 0
169 192 0
167 190 0
171 195 0
170 193 0
173 196 0
169 192 0
171 195 0
174 196 16
169 192 11
168 191 0
170 193 11
171 194 0
170 193 0
172 195 16
173 196 11
168 190 16
173 195 16
171 193 11
174 196 19
174 194 25
169 192 0
172 193 25
174 195 16
173 194 28
174 193 32
167 190 11
174 195 25
170 192 22
174 194 30
172 194 19
171 192 25
172 193 22
172 193 19
172 193 16
173 194 22
171 194 19
171 193 28
171 193 19
173 194 25
174 195 25
173 195 22
174 195 28
171 194 16
174 195 22
171 194 16
171 192 19
172 193 22
172 194 19
174 196 11
172 195 11
172 194 16
171 194 16
170 193 11
171 194 11
172 195 0
173 195 16
172 195 0
170 193 0
175 197 0
171 195 0
167 190 0
174 197 0
173 197 0
172 196 0
173 196 0
173 196 0
172 195 0
168 192 0
170 194 0
171 194 0
173 196 0
172 195 0
172 196 0
172 196 0
173 196 0
172 195 0
172 196 0
174 197 0
171 196 0
170 194 0
173 196 0
172 196 0
174 196 0
173 196 0
172 195 0
173 196 0
176 199 0
172 194 0
173 196 0
172 194 0
173 196 0
173 197 0
172 196 0
174 197 0
173 197 0
172 195 0
172 195 0
174 196 0
173 196 0
175 198 0
171 196 0
174 198 0
174 197 0
174 197 0
172 195 0
174 197 0
172 195 0
173 196 0
171 195 0
174 196 0
174 198 0
173 197 0
172 195 0
175 198 0
174 196 0
173 195 0
175 198 0
172 195 0
170 195 0
171 195 0
174 197 0
174 198 0
173 197 0
172 196 0
173 197 0
175 198 0
173 196 0
171 195 0
171 195 0
173 197 0
173 196 0
176 199 0
173 197 0
174 197 0
170 195 0
173 197 0
174 198 0
173 196 0
174 197 0
173 197 0
174 198 0
175 198 0
175 198 0
173 197 0
173 196 0
174 198 0
172 196 0
173 196 0
171 195 0
173 197 0
173 197 0
174 197 0
173 196 0
175 198 0
172 195 0
173 197 0
174 198 0
172 196 0
173 197 0
174 197 0
171 195 0
172 196 0
173 196 0
175 198 0
172 196 0
171 195 0
174 197 0
175 198 0
173 196 0
173 196 0
173 197 0
175 198 0
174 197 0
174 197 0
172 196 0
172 196 0
172 196 0
173 196 0
174 198 0
172 196 0
172 196 0
174 198 0
171 196 0
173 197 0
172 196 0
174 197 0
174 197 0
171 195 0
172 196 0
175 198 0
172 196 0
173 196 0
173 197 0
174 198 0
175 198 0
174 197 0
176 199 0
173 197 0
172 196 0
175 198 0
173 197 0
173 196 0
175 198 25
174 197 0
173 197 0
173 196 0
171 195 0
172 196 25
173 196 36
173 197 0
173 197 25
172 195 0
171 195 0
174 196 0
173 196 36
173 195 36
177 199 36
173 197 44
174 198 57
176 199 57
175 198 44
179 201 62
175 197 62
172 195 44
173 196 67
172 195 51
170 193 57
176 199 76
176 198 62
174 197 44
175 197 62
174 196 62
174 197 72
177 199 72
177 200 72
176 198 72
177 200 76
174 197 57
178 201 84
175 198 80
177 200 80
174 196 72
177 200 84
176 198 51
177 199 88
173 197 76
174 196 67
175 197 80
174 197 72
173 196 67
175 199 95
175 198 84
174 197 57
172 196 92
172 195 80
176 200 72
172 195 47
177 199 84
167 190 72
172 196 80
171 194 74
172 195 60
170 193 74
171 194 86
165 189 88
169 192 66
166 188 78
171 193 92
164 187 74
167 190 62
174 196 82
169 193 74
159 182 76
160 183 72
162 185 84
143 167 102
90 119 152
62 99 167
61 98 167
62 98 164
62 98 164
61 98 171
62 98 163
62 98 169
61 98 165
62 98 169
61 98 168
62 98 169
63 99 175
62 98 170
62 98 165
62 99 173
62 98 169
62 99 173
62 99 172
62 99 170
61 98 171
62 99 171
62 99 174
61 98 174
62 99 173
62 98 168
62 99 175
62 99 178
62 99 178
63 99 175
62 99 178
61 99 178
62 99 172
63 99 175
62 99 174
62 98 174
62 99 174
61 98 171
62 99 173
62 99 176
61 98 173
62 99 177
61 98 174
62 99 173
62 98 174
61 98 176
61 98 176
61 98 175
62 99 175
62 98 175
62 99 175
62 98 172
62 98 175
61 98 171
62 99 174
62 99 174
62 99 176
62 98 172
63 99 176
62 98 172
62 99 174
62 98 176
62 99 176
62 99 177
61 97 170
62 98 174
62 99 177
62 98 174
61 98 174
61 97 172
62 98 176
62 98 173
61 98 173
61 97 170
62 98 172
61 97 170
61 97 171
62 98 176
62 98 174
61 98 174
61 96 167
61 97 171
61 97 172
62 98 175
62 97 171
62 97 169
61 97 172
62 98 173
60 95 165
61 96 168
62 98 174
62 98 174
61 95 165
61 96 169
61 96 168
61 97 171
61 95 164
62 98 173
61 96 166
61 96 166
60 95 165
61 96 161
61 95 160
61 97 168
61 97 170
61 96 167
62 97 168
61 97 168
62 97 168
62 96 164
60 95 151
61 96 162
89 117 139
151 174 75
163 185 31
168 192 0
173 196 0
171 194 0
169 192 0
171 195 0
171 195 0
171 195 0
169 193 0
168 191 0
171 195 0
173 195 0
173 195 0
171 193 0
172 194 11
170 193 11
170 193 0
170 193 0
170 193 0
166 188 0
170 193 11
170 193 11
169 191 11
173 195 16
170 192 16
173 193 30
173 194 30
173 193 30
172 192 22
175 196 25
174 191 42
173 194 28
172 194 16
172 192 34
172 196 16
172 193 25
172 193 25
175 195 32
173 193 32
171 192 32
172 194 22
171 192 30
174 195 28
173 194 22
174 192 39
172 192 36
173 196 16
167 189 16
174 194 30
173 195 25
174 194 32
172 193 25
173 194 22
172 193 28
173 195 22
174 194 30
169 190 19
170 191 22
172 195 11
169 192 16
174 195 19
173 196 11
171 195 11
172 194 19
172 195 11
174 196 16
173 196 11
173 196 16
174 197 11
170 193 11
172 196 0
170 193 0
175 197 0
170 193 0
170 194 0
173 196 0
173 196 0
173 197 0
173 196 0
172 194 0
173 197 0
174 196 0
171 195 0
171 194 0
172 195 0
172 195 0
171 195 0
173 196 0
172 195 0
172 196 0
170 194 0
173 196 0
174 197 0
172 196 0
173 196 0
172 196 0
172 195 0
173 197 0
172 196 0
174 197 0
173 196 0
171 195 0
174 197 0
176 198 0
173 196 0
174 197 0
176 199 0
171 194 0
173 196 0
173 197 0
175 198 0
174 197 0
173 197 0
173 196 0
173 197 0
171 195 0
174 197 0
173 196 0
174 197 0
173 196 0
174 197 0
172 197 0
172 196 0
175 198 0
176 198 0
170 194 0
173 197 0
173 196 0
172 194 0
173 196 0
172 196 0
174 197 0
173 196 0
172 196 0
174 197 0
172 195 0
173 196 0
173 196 0
173 197 0
172 195 0
174 197 0
175 198 0
175 198 0
174 198 0
174 197 0
175 198 0
175 198 0
174 197 0
175 198 0
174 197 0
173 197 0
174 197 0
175 198 0
176 199 0
173 197 0
172 196 0
174 197 0
173 197 0
173 196 0
172 196 0
173 197 0
173 197 0
175 198 0
173 196 0
174 197 0
175 198 0
174 198 0
171 195 0
173 197 0
175 198 0
173 197 0
175 198 0
173 196 0
173 197 0
174 198 0
174 197 0
172 196 0
173 197 0
172 196 0
174 198 0
172 196 0
172 196 0
174 197 0
173 196 0
173 196 0
173 197 0
173 197 0
175 197 0
173 197 0
173 197 0
174 198 0
173 197 0
173 197 0
174 197 0
174 197 0
173 196 0
171 194 0
173 196 0
174 196 0
174 197 0
172 195 0
175 198 0
175 198 0
173 196 0
174 198 0
173 196 0
173 197 0
171 194 0
172 196 0
172 196 0
176 198 0
173 196 0
173 196 0
173 196 0
173 197 0
172 197 0
173 196 0
175 198 25
173 196 25
175 198 25
173 197 0
173 196 36
173 196 0
173 197 44
172 196 0
175 198 36
176 199 44
174 197 25
173 197 36
174 198 36
176 199 44
172 195 36
174 197 44
172 196 44
173 196 51
176 200 67
175 198 62
171 195 36
178 200 62
179 201 72
179 201 80
178 199 67
170 193 44
176 199 76
174 197 72
177 200 76
176 198 67
176 198 67
176 199 76
177 199 67
174 197 62
179 201 80
178 201 84
175 197 67
174 196 57
172 195 72
177 200 84
177 199 80
173 195 57
174 196 80
176 198 57
173 196 76
176 198 57
174 196 67
174 196 72
175 198 76
176 199 80
174 197 62
176 198 88
172 195 44
169 192 82
175 198 80
174 197 65
168 192 88
166 189 78
169 192 60
168 191 60
166 189 84
167 190 74
167 191 90
163 185 78
167 190 67
165 188 86
162 185 70
151 174 105
130 155 116
65 101 159
62 98 162
62 98 166
62 98 165
61 98 164
62 98 163
63 99 172
62 98 163
62 98 167
62 98 168
62 99 169
62 99 167
61 98 168
62 99 176
62 98 169
63 99 172
63 99 172
62 99 171
62 99 175
63 99 174
62 98 169
62 99 172
62 99 172
62 99 173
62 99 170
62 99 169
62 99 176
62 98 168
62 99 173
62 99 175
62 99 173
62 99 174
62 99 174
61 98 173
62 99 176
61 98 175
62 98 172
62 99 176
63 99 174
62 99 173
62 98 174
61 98 174
62 99 175
63 99 172
62 99 178
61 98 174
62 99 174
62 99 177
62 99 177
61 98 177
62 99 176
62 98 171
61 98 174
62 98 174
62 98 174
62 98 175
62 99 178
62 98 171
62 99 177
62 99 178
62 99 176
61 98 175
62 98 174
61 98 174
62 99 179
61 97 170
62 98 171
62 99 175
61 97 173
61 98 175
62 98 177
62 98 176
61 97 173
61 97 169
61 97 171
62 98 173
61 97 174
62 96 166
62 97 174
61 97 173
61 97 174
62 98 173
61 97 172
61 97 170
61 96 171
61 95 167
61 97 172
61 96 171
61 97 169
61 96 168
61 97 171
61 96 169
60 95 167
61 96 167
61 97 171
61 95 166
61 96 173
61 97 169
61 96 166
61 96 167
61 95 161
62 97 173
61 95 164
60 94 156
60 94 161
61 96 164
60 95 160
60 94 160
61 96 161
61 95 159
62 97 160
61 96 156
61 96 153
125 150 117
163 186 52
172 194 18
169 193 0
167 190 0
171 194 0
172 195 0
170 194 0
169 193 0
171 194 0
169 193 0
168 191 0
172 195 0
170 193 0
170 192 0
172 194 16
170 194 0
166 189 11
169 192 11
175 195 30
172 194 22
171 194 16
170 192 19
173 194 19
167 190 16
172 192 28
172 193 34
170 190 28
175 195 28
169 191 25
173 193 30
171 191 28
174 194 34
170 189 37
173 192 36
173 194 28
173 194 28
172 190 42
171 192 32
173 193 32
171 190 36
173 192 39
171 191 32
169 189 32
173 191 41
174 193 37
172 192 28
172 192 30
172 193 22
171 192 32
173 192 41
176 195 34
172 193 22
172 191 34
173 192 32
175 196 22
172 192 30
172 193 30
171 192 25
175 194 32
176 195 36
172 191 34
174 195 22
175 195 22
172 194 25
174 194 25
171 193 11
174 196 11
172 195 0
174 195 16
171 194 0
173 196 0
174 197 0
170 193 0
171 194 0
171 194 0
173 196 0
175 197 0
171 194 0
170 195 0
172 195 0
173 196 0
171 195 0
169 193 0
173 196 0
174 197 0
172 196 0
173 196 0
173 196 0
170 194 0
174 197 0
172 196 0
172 196 0
171 195 0
174 197 0
174 197 0
172 196 0
173 195 0
172 196 0
174 197 0
174 197 0
170 194 0
173 197 0
172 195 0
173 196 0
173 196 0
174 197 0
174 197 0
173 196 0
173 196 0
173 196 0
173 196 0
170 194 0
174 197 0
174 197 0
173 196 0
175 198 0
172 195 0
172 196 0
175 198 0
172 196 0
173 197 0
171 195 0
172 195 0
173 197 0
171 194 0
172 196 0
174 197 0
172 195 0
173 197 0
171 194 0
173 196 0
172 196 0
172 195 0
173 196 0
175 197 0
171 195 0
173 196 0
172 196 0
173 197 0
173 196 0
173 196 0
171 194 0
174 197 0
174 197 0
174 198 0
173 196 0
173 197 0
173 196 0
173 196 0
173 197 0
174 198 0
174 197 0
172 197 0
174 198 0
173 196 0
173 197 0
171 196 0
170 194 0
173 196 0
174 198 0
173 196 0
173 196 0
171 195 0
173 197 0
174 198 0
172 196 0
173 196 0
174 197 0
174 197 0
172 196 0
174 197 0
174 198 0
173 197 0
173 196 0
173 197 0
174 198 0
171 194 0
172 196 0
173 196 0
172 195 0
174 197 0
173 196 0
173 197 0
174 197 0
173 197 0
173 197 0
176 199 0
174 198 0
174 197 0
174 197 0
172 195 0
172 196 0
174 197 0
173 197 0
172 196 0
173 196 0
174 196 0
174 197 0
174 197 0
174 197 0
174 197 0
173 196 0
172 196 0
173 197 0
174 198 0
176 198 0
174 197 0
172 196 0
174 197 0
173 196 0
173 196 0
171 194 0
174 197 0
173 196 0
175 197 0
172 196 0
173 196 0
174 197 0
173 197 0
175 198 0
176 199 44
174 197 25
174 198 25
174 198 44
173 195 25
175 198 44
173 197 51
172 195 36
173 196 36
177 199 57
173 196 44
175 198 51
173 196 51
173 196 44
174 197 67
175 198 67
179 201 84
174 197 62
175 199 67
175 197 67
173 195 72
173 196 72
173 196 62
173 196 72
173 196 80
176 199 62
174 197 72
173 196 36
174 196 80
172 195 72
174 196 51
178 200 88
176 199 88
175 199 99
172 195 67
172 194 76
175 197 44
172 194 51
174 197 80
175 198 72
172 194 44
174 196 57
171 194 62
173 196 84
172 195 57
170 192 51
171 195 70
173 196 60
174 196 74
169 192 74
169 193 103
169 192 86
165 188 70
165 188 76
163 187 65
170 194 88
164 187 62
167 190 82
165 187 80
169 192 78
166 188 62
166 188 92
164 186 62
155 179 67
147 171 102
99 127 140
61 97 160
61 97 156
61 97 160
62 98 166
61 97 163
62 98 165
62 98 168
62 98 169
62 98 169
62 98 164
62 99 169
62 98 169
62 99 168
62 99 170
62 98 170
62 99 172
63 99 171
62 99 174
62 98 168
62 99 171
61 98 169
62 99 173
62 99 176
63 99 172
62 99 171
63 100 176
62 99 175
62 99 172
62 99 174
63 99 176
62 99 175
62 99 178
62 99 174
62 98 173
61 98 168
62 99 174
61 98 174
62 98 174
61 98 174
62 99 177
62 99 179
62 99 174
62 98 171
62 99 175
61 99 180
62 99 175
62 99 175
61 98 170
62 98 176
62 99 178
61 98 173
62 98 175
62 98 174
62 99 177
62 99 179
62 98 171
62 98 171
62 99 176
62 98 171
61 98 174
63 99 177
61 98 174
62 98 172
61 98 174
62 98 176
61 97 169
61 97 171
61 97 174
62 98 174
61 97 170
61 97 173
61 97 170
62 98 176
62 99 176
62 97 172
62 98 174
61 97 171
61 97 172
61 96 172
62 98 176
60 95 164
61 96 168
61 98 175
62 97 171
61 96 169
61 96 170
61 97 172
62 98 174
62 97 170
61 97 170
61 96 166
61 97 170
61 96 165
61 96 170
60 95 167
61 97 171
61 96 168
60 95 165
61 97 170
61 95 164
62 96 167
61 96 161
61 95 158
61 95 164
61 96 164
61 97 167
61 96 166
60 94 154
60 95 158
61 96 163
62 97 163
61 96 156
61 95 157
100 128 132
140 164 87
165 189 26
170 193 0
172 195 0
167 190 0
169 193 0
171 195 0
171 194 0
166 190 0
174 196 0
167 190 0
167 190 0
173 197 0
170 192 11
166 189 16
171 192 22
173 193 28
172 193 25
166 189 11
172 190 37
167 189 25
169 190 25
173 193 32
172 191 30
171 192 30
171 192 30
172 192 36
173 191 37
173 192 36
172 193 28
174 194 32
170 190 32
173 192 28
171 190 41
171 191 34
173 191 41
173 193 32
174 191 36
176 191 49
171 192 28
175 193 37
171 191 30
175 194 34
172 190 42
176 194 39
175 193 41
175 193 45
173 192 36
175 191 42
172 190 41
170 188 37
174 194 32
174 195 30
174 191 42
175 193 37
174 191 47
172 191 36
173 194 22
173 193 32
170 192 22
168 190 19
175 194 37
172 193 25
173 193 32
172 195 16
176 197 19
172 194 19
172 193 22
174 196 19
175 196 16
174 197 16
171 193 19
170 193 0
172 195 0
170 193 0
173 196 0
172 196 0
169 193 0
172 194 0
171 194 0
174 198 0
171 195 0
173 196 0
169 192 0
167 191 0
172 196 0
172 195 0
171 195 0
170 193 0
171 194 0
175 198 0
173 196 0
171 195 0
174 197 0
176 198 0
172 196 0
172 195 0
173 196 0
173 197 0
173 196 0
171 195 0
173 196 0
172 196 0
174 197 0
173 196 0
173 197 0
172 195 0
174 197 0
173 196 0
173 196 0
173 197 0
173 197 0
173 196 0
173 196 0
172 195 0
173 196 0
175 198 0
174 197 0
174 196 0
173 196 0
172 195 0
172 195 0
174 198 0
172 195 0
172 195 0
172 196 0
172 196 0
172 196 0
174 196 0
174 197 0
174 197 0
173 197 0
173 197 0
173 196 0
173 197 0
173 197 0
175 198 0
173 196 0
169 192 0
171 195 0
173 197 0
171 196 0
173 196 0
173 197 0
176 198 0
172 196 0
175 198 0
175 198 0
174 198 0
174 197 0
173 196 0
171 195 0
172 196 0
174 197 0
175 198 0
173 197 0
174 198 0
174 197 0
174 198 0
172 196 0
172 195 0
172 196 0
172 196 0
172 196 0
173 197 0
173 197 0
173 197 0
173 197 0
172 195 0
173 197 0
173 196 0
173 197 0
173 196 0
173 196 0
174 197 0
175 198 0
173 197 0
173 197 0
174 198 0
173 197 0
175 198 0
175 198 0
172 196 0
173 196 0
172 196 0
175 198 0
174 197 0
174 197 0
173 195 0
174 198 0
171 195 0
175 198 0
174 197 0
174 197 0
173 196 0
173 196 0
171 195 0
172 196 0
173 196 0
171 195 0
172 196 0
173 196 0
173 197 0
173 196 0
174 197 0
172 197 0
173 197 0
173 197 0
173 196 0
172 196 0
171 195 0
174 197 0
175 198 0
173 196 0
173 196 0
174 197 0
174 197 25
169 192 25
175 198 0
174 197 0
173 196 0
173 196 0
174 197 25
173 197 0
173 196 44
174 197 25
174 196 25
176 198 51
176 198 51
174 197 36
175 198 51
176 199 57
175 198 62
174 197 44
175 198 44
173 196 44
176 199 72
176 199 57
171 194 36
175 197 62
175 198 67
176 199 57
176 198 72
173 197 57
177 199 62
177 199 72
176 199 88
176 199 92
172 194 57
172 195 80
176 199 76
174 196 67
176 198 76
175 198 80
176 198 67
172 194 62
173 196 72
172 195 84
176 199 88
174 195 51
174 195 72
175 198 92
178 200 76
172 195 67
176 199 80
172 194 67
172 195 84
173 197 76
174 196 72
169 192 62
168 191 70
163 187 84
172 194 80
170 193 76
169 192 84
165 187 31
166 188 76
169 192 76
164 187 78
155 177 65
167 189 82
168 191 62
161 184 57
159 183 101
142 166 105
67 101 158
62 98 164
62 98 164
62 98 162
62 98 167
62 98 164
62 98 166
62 99 170
62 98 168
62 98 166
63 99 165
62 98 160
61 98 171
63 99 167
62 99 170
62 98 168
63 99 173
62 99 172
63 99 176
62 99 173
62 99 173
62 98 172
62 98 168
62 98 170
62 99 169
61 98 173
62 99 172
63 99 177
62 99 176
62 99 173
61 98 173
62 99 177
62 99 170
62 99 176
62 98 173
62 99 172
62 99 173
62 99 175
62 99 173
62 99 178
62 99 175
62 98 172
62 98 174
62 98 175
62 99 177
62 99 177
62 98 171
62 99 175
62 98 172
62 98 173
63 99 174
61 98 170
63 99 175
61 98 173
61 98 166
61 98 176
62 98 176
62 98 176
62 98 175
61 97 171
62 98 170
62 99 174
62 99 177
62 99 179
62 98 175
62 99 177
62 98 173
61 97 172
62 97 171
61 96 166
61 97 173
62 98 172
61 97 170
61 98 174
62 98 174
61 97 173
61 96 168
62 97 169
62 98 174
61 97 173
62 98 175
62 98 175
61 97 173
60 97 171
61 97 171
61 97 172
61 95 168
61 96 169
62 96 166
61 97 169
60 95 167
61 96 166
62 97 171
61 95 163
61 95 166
61 96 167
62 97 169
61 96 167
61 95 163
61 96 168
61 96 166
60 94 160
61 96 170
61 95 162
61 95 164
60 95 164
61 95 162
60 94 158
60 94 156
60 94 156
60 93 155
61 95 157
61 95 156
60 94 150
66 99 149
143 166 85
161 185 55
167 190 26
168 191 0
170 193 0
170 193 0
169 192 0
170 192 0
165 188 0
172 196 11
170 193 11
175 194 22
169 191 22
167 189 16
169 192 19
169 191 22
170 193 0
169 189 28
171 192 28
172 193 28
168 187 30
173 194 28
173 193 30
174 192 39
170 188 36
171 190 41
174 192 36
171 191 34
174 192 39
169 190 32
173 191 36
171 191 37
175 194 39
171 189 39
174 193 37
172 190 39
172 191 37
173 190 42
177 193 47
175 192 47
175 193 42
175 193 45
175 191 45
171 190 39
172 191 41
172 190 41
174 191 45
174 191 42
173 191 36
175 192 44
170 187 42
173 193 37
172 193 30
176 194 39
178 193 48
173 194 30
172 191 36
172 189 45
173 193 32
173 193 34
174 194 30
169 191 28
171 190 30
172 193 30
168 187 34
173 195 22
173 193 30
173 196 22
172 194 16
170 192 22
174 196 16
173 194 22
175 198 0
173 195 16
172 193 16
170 194 0
173 196 11
168 192 0
172 195 0
168 192 0
172 196 0
171 195 0
175 198 0
173 196 0
171 195 0
174 198 0
170 194 0
173 196 0
171 194 0
173 196 0
170 194 0
172 195 0
172 195 0
174 197 0
170 194 0
173 196 0
173 196 0
172 195 0
173 196 0
171 195 0
173 196 0
172 196 0
174 196 0
173 197 0
173 196 0
174 198 0
174 196 0
175 197 0
175 197 0
171 195 0
174 197 0
171 195 0
173 196 0
172 195 0
175 198 0
171 195 0
171 194 0
172 196 0
174 197 0
171 195 0
172 196 0
172 195 0
174 197 0
174 197 0
172 195 0
173 196 0
173 197 0
173 196 0
170 194 0
175 198 0
175 197 0
173 197 0
172 196 0
171 195 0
171 195 0
172 196 0
175 198 0
173 197 0
172 196 0
174 197 0
176 198 0
173 197 0
172 196 0
173 196 0
173 196 0
174 197 0
174 197 0
172 196 0
174 197 0
172 196 0
172 196 0
174 198 0
174 197 0
174 197 0
174 198 0
173 196 0
172 196 0
175 198 0
173 197 0
173 196 0
173 197 0
173 197 0
173 197 0
172 196 0
174 197 0
173 196 0
172 196 0
175 198 0
173 197 0
174 198 0
172 195 0
174 198 0
173 197 0
173 197 0
175 198 0
174 197 0
175 197 0
173 196 0
171 195 0
174 197 0
175 198 0
173 196 0
175 198 0
174 197 0
175 198 0
173 197 0
176 198 0
174 197 0
176 198 0
173 196 0
173 197 0
172 195 0
174 197 0
175 198 0
173 195 0
172 195 0
172 196 0
170 194 0
171 195 0
171 195 0
171 194 0
174 196 0
174 197 0
174 197 0
174 197 0
175 198 0
173 197 0
172 196 0
173 196 0
172 196 0
173 196 0
172 195 0
172 196 0
173 197 0
173 197 0
172 196 0
170 193 0
175 198 25
173 196 0
169 193 0
173 196 36
172 195 0
173 196 0
177 199 25
174 197 44
173 196 51
172 195 36
174 198 51
176 198 57
173 197 44
173 196 25
173 196 51
174 197 57
175 198 44
175 197 62
177 199 44
174 196 67
177 198 57
175 198 76
175 197 67
178 199 88
174 197 62
175 198 72
176 198 76
177 199 76
175 198 67
177 199 72
175 197 62
175 198 72
175 198 62
172 195 67
176 199 84
175 197 57
175 197 57
172 195 67
172 194 44
175 197 51
174 196 57
176 199 95
170 193 62
175 197 80
175 198 76
169 192 72
174 196 67
172 194 76
170 192 84
177 199 51
170 192 67
171 193 76
171 194 67
167 190 70
170 192 70
171 193 76
168 191 72
169 191 70
163 186 72
170 194 76
169 190 74
161 184 67
168 190 72
165 187 80
165 189 72
165 188 60
155 177 92
120 145 128
62 98 165
61 97 155
61 97 160
62 98 161
61 97 166
62 98 162
62 98 165
62 98 163
62 99 166
61 98 170
62 98 166
62 99 170
62 98 165
62 99 171
62 99 170
62 98 167
62 99 172
61 98 170
62 99 176
62 99 171
62 99 171
61 98 167
63 99 175
62 99 172
61 98 169
61 98 171
62 99 174
61 98 168
62 99 173
62 98 166
63 100 175
62 99 169
62 98 174
61 98 175
62 98 171
62 98 173
62 99 173
62 99 174
62 99 172
62 99 178
63 99 174
62 99 173
62 98 170
62 99 171
62 99 173
62 99 175
62 99 175
62 98 173
62 98 177
62 99 176
62 98 172
61 98 175
61 98 174
61 98 172
62 98 173
62 99 173
61 98 172
62 99 176
62 98 174
62 99 176
61 98 174
62 98 172
62 99 176
62 98 172
62 99 175
62 98 174
61 98 172
62 97 170
61 98 173
61 97 173
61 98 173
61 98 175
61 97 174
62 97 170
62 98 175
61 96 169
61 97 173
61 98 175
61 97 172
61 96 171
61 96 168
61 97 173
61 97 171
60 96 169
61 97 171
61 96 169
62 97 170
62 98 173
61 96 170
60 95 162
61 97 170
61 96 168
62 97 172
60 95 166
60 94 159
62 96 166
62 97 170
60 95 165
61 96 167
60 95 164
58 91 154
61 95 166
60 95 164
61 96 164
60 93 156
62 98 172
60 92 152
62 97 166
61 96 165
61 95 157
62 97 164
60 94 156
61 96 159
60 95 154
61 96 157
108 134 130
149 173 81
168 191 31
170 191 0
169 192 0
170 193 0
169 192 11
166 189 11
165 186 22
169 192 11
171 194 0
173 194 28
171 193 11
173 193 28
173 194 28
172 194 11
171 187 42
170 190 32
168 188 30
172 194 19
171 191 32
174 192 32
168 187 39
169 189 25
176 194 41
172 187 49
173 193 32
173 191 34
172 193 30
175 193 39
173 191 42
172 190 41
176 193 47
173 190 45
174 191 47
172 192 36
171 190 41
173 191 41
176 191 52
177 191 56
175 193 42
175 192 42
174 192 41
174 191 49
174 190 49
174 190 49
172 192 36
173 191 44
176 193 45
173 190 42
175 194 41
175 191 47
173 193 41
173 190 41
171 188 45
172 191 41
173 192 39
175 192 41
174 192 42
177 194 42
175 195 32
174 194 32
174 193 36
170 188 37
172 194 22
172 191 37
172 192 36
172 194 19
172 193 22
174 195 30
174 195 25
174 197 11
172 194 11
172 193 25
173 195 11
172 195 11
174 196 16
175 197 16
174 196 16
171 194 0
173 195 0
170 192 0
171 194 0
172 195 0
172 195 0
172 196 0
171 196 0
171 193 0
173 196 0
169 193 0
172 195 0
174 197 0
169 193 0
171 194 0
172 196 0
175 198 0
172 196 0
172 196 0
174 197 0
172 195 0
173 196 0
173 197 0
171 195 0
172 196 0
172 195 0
173 197 0
173 195 0
171 195 0
173 196 0
174 197 0
174 197 0
173 197 0
172 196 0
174 197 0
171 194 0
173 196 0
175 198 0
174 197 0
173 196 0
170 193 0
174 197 0
172 195 0
173 196 0
171 195 0
172 196 0
174 197 0
173 196 0
171 194 0
172 195 0
174 197 0
172 196 0
174 196 0
172 196 0
172 196 0
173 196 0
171 195 0
173 196 0
173 196 0
173 195 0
172 196 0
175 198 0
171 195 0
173 196 0
175 197 0
172 196 0
173 197 0
174 198 0
174 197 0
172 196 0
174 197 0
174 197 0
172 196 0
172 197 0
172 196 0
175 198 0
174 197 0
174 198 0
175 198 0
173 197 0
172 196 0
173 197 0
173 196 0
175 197 0
172 196 0
172 195 0
173 197 0
172 197 0
172 196 0
172 196 0
173 197 0
174 197 0
173 197 0
171 195 0
175 198 0
173 197 0
173 197 0
173 197 0
174 198 0
171 195 0
173 197 0
173 196 0
173 197 0
172 196 0
173 196 0
174 197 0
171 194 0
174 197 0
174 197 0
172 196 0
174 197 0
174 197 0
174 197 0
174 197 0
171 195 0
175 197 0
174 197 0
173 197 0
173 196 0
173 196 0
173 197 0
175 198 0
173 196 0
173 196 0
174 197 0
175 198 0
172 196 0
170 195 0
172 196 0
172 195 0
174 198 0
173 196 0
171 194 0
174 198 0
173 196 0
175 198 0
175 197 0
172 196 25
174 198 0
174 198 0
173 197 0
173 196 0
173 196 0
172 195 0
173 196 25
174 197 25
175 197 25
171 194 25
174 196 51
174 197 44
174 197 62
171 194 51
173 196 51
171 195 25
172 195 44
171 194 44
175 198 51
176 198 57
172 195 57
174 197 67
172 195 51
177 199 67
175 198 62
175 198 67
175 197 67
174 196 57
174 197 72
176 199 67
174 197 67
178 201 95
177 199 72
171 194 36
174 196 67
174 197 67
171 194 57
176 198 72
171 194 44
174 197 80
168 192 72
174 196 84
172 194 67
172 195 84
176 199 67
173 195 51
175 196 51
172 195 80
174 196 80
168 191 57
171 192 67
168 191 72
165 189 70
170 192 72
165 188 78
173 195 67
168 191 88
163 185 76
165 188 67
166 189 72
168 191 74
171 192 60
163 185 76
164 186 80
162 184 70
160 182 95
135 158 103
80 112 151
61 97 157
63 99 169
63 99 163
63 99 165
62 99 166
62 98 162
62 98 162
63 99 171
63 99 168
62 99 165
62 98 168
63 99 174
62 99 164
62 98 170
62 98 167
62 98 169
62 99 171
63 99 169
62 98 170
61 98 170
61 98 166
62 99 173
62 98 172
62 99 175
63 99 173
63 99 170
62 99 170
62 99 176
62 98 170
62 98 170
61 98 167
62 98 174
62 99 173
62 98 170
62 98 172
63 100 178
61 97 165
62 99 175
62 98 172
62 99 172
62 99 173
62 98 171
61 98 170
62 99 175
62 99 176
61 98 172
62 99 174
61 97 169
61 98 171
62 99 174
62 99 173
62 99 173
62 99 172
62 99 174
62 98 173
62 99 173
62 98 176
61 97 168
61 97 166
62 98 173
62 98 174
62 98 174
62 98 171
61 97 172
61 97 172
62 98 172
61 98 174
61 97 171
62 98 173
62 97 168
62 98 176
62 98 172
61 95 163
62 98 174
62 97 173
61 97 171
62 98 175
61 97 172
62 98 174
61 96 170
61 95 167
61 96 165
60 95 164
61 97 174
60 94 163
61 97 169
62 97 170
60 94 161
61 97 175
61 96 167
60 95 164
61 95 165
60 95 166
61 95 167
60 94 164
60 95 170
60 95 166
61 95 164
60 95 161
60 94 160
60 94 161
60 94 162
61 94 157
61 96 166
61 95 164
60 94 159
60 95 162
60 95 160
60 94 156
60 94 154
60 93 155
61 95 160
60 95 156
60 95 153
60 95 156
87 117 143
153 177 69
157 180 51
170 193 11
166 189 0
168 191 0
169 191 16
169 190 25
171 192 19
169 190 22
172 192 32
168 190 19
171 191 25
166 187 28
172 192 30
170 190 32
170 188 37
171 189 34
170 191 28
169 187 37
173 193 37
172 191 41
172 192 36
171 189 42
172 189 44
173 190 37
174 191 45
171 189 41
171 186 52
172 188 45
173 189 44
176 192 47
175 192 44
173 190 51
174 190 45
169 187 39
174 189 53
175 192 47
174 191 47
172 188 53
175 192 45
172 187 49
173 189 52
173 189 51
175 192 47
170 185 48
175 191 47
174 190 44
174 191 44
171 189 44
171 189 39
174 190 48
176 191 52
174 193 36
173 190 47
174 190 53
174 190 49
176 194 42
176 193 45
170 187 39
173 193 34
175 194 30
173 193 30
174 192 41
170 190 30
173 194 28
170 190 34
175 192 44
175 193 37
173 193 28
172 194 16
174 194 34
173 194 30
171 192 22
172 194 19
173 193 25
171 194 11
174 193 34
170 193 11
173 196 11
172 194 16
171 195 0
171 195 0
172 196 0
170 194 0
171 195 0
174 197 0
172 196 0
173 197 0
171 195 0
173 196 0
171 194 0
172 195 0
173 195 0
170 195 0
173 196 0
169 193 0
173 196 0
176 198 0
172 196 0
172 195 0
173 197 0
172 196 0
174 197 0
172 195 0
172 196 0
172 196 0
172 196 0
174 198 0
172 195 0
172 195 0
174 197 0
172 196 0
173 196 0
173 197 0
172 195 0
173 196 0
174 197 0
173 196 0
171 195 0
170 195 0
172 196 0
174 197 0
173 197 0
174 196 0
172 196 0
174 196 0
175 198 0
172 195 0
173 195 0
174 197 0
173 196 0
174 197 0
169 193 0
172 196 0
174 197 0
172 196 0
174 197 0
172 195 0
174 198 0
173 196 0
172 196 0
173 197 0
171 195 0
173 197 0
172 196 0
173 197 0
174 197 0
173 196 0
173 197 0
173 197 0
174 197 0
172 195 0
174 197 0
173 197 0
173 197 0
174 198 0
173 196 0
172 196 0
174 197 0
173 196 0
172 196 0
171 194 0
172 196 0
174 197 0
175 198 0
174 197 0
174 198 0
174 197 0
173 197 0
175 198 0
175 198 0
174 197 0
175 197 0
172 196 0
174 197 0
173 196 0
172 195 0
174 198 0
174 197 0
174 197 0
172 196 0
174 198 0
172 195 0
175 198 0
174 197 0
172 196 0
175 198 0
173 197 0
173 196 0
172 195 0
174 197 0
173 197 0
174 197 0
173 197 0
170 194 0
171 195 0
173 197 0
174 197 0
172 196 0
174 197 0
173 196 0
173 196 0
174 197 0
175 198 0
174 198 0
172 196 0
172 196 0
171 195 0
173 197 0
173 196 0
172 195 0
173 196 0
173 197 0
169 194 0
174 198 0
169 193 0
173 197 0
173 197 25
174 198 0
173 196 25
173 195 36
175 198 36
173 196 36
173 197 36
171 194 36
173 196 51
177 199 0
173 198 44
175 198 25
172 195 36
173 196 25
176 199 67
173 196 76
175 198 44
169 192 72
172 195 67
174 197 62
175 198 67
175 198 51
173 196 67
174 197 62
175 197 67
174 196 57
177 199 80
173 196 62
176 198 62
173 196 57
174 197 72
174 196 72
174 197 84
174 197 57
174 197 62
173 196 57
173 195 62
172 194 84
175 198 57
170 192 80
171 194 62
166 189 36
172 195 67
171 194 67
174 196 80
172 194 62
175 198 67
173 195 76
174 197 57
172 195 80
170 193 65
173 194 62
167 189 72
169 191 57
166 188 65
172 194 65
165 188 78
168 191 92
166 189 76
171 192 88
165 186 94
167 189 78
165 186 78
163 185 80
153 176 97
135 159 111
63 98 151
62 97 153
62 98 159
62 98 160
62 99 169
61 97 161
62 98 161
61 97 161
62 98 166
62 98 163
62 99 172
63 99 173
62 99 167
62 99 172
62 98 166
62 99 167
62 98 167
62 98 168
62 99 170
62 99 170
62 99 176
62 98 172
62 98 170
62 99 171
62 99 170
62 99 170
63 99 171
62 98 168
61 97 169
61 98 170
62 98 172
62 99 176
62 99 171
62 99 176
62 98 171
62 98 170
61 98 169
62 99 171
62 99 172
62 99 174
62 99 172
63 99 173
61 98 165
62 98 173
63 99 170
62 98 172
62 99 174
62 99 176
61 98 170
62 99 174
61 98 170
63 99 174
61 97 167
61 97 170
62 98 172
62 98 172
62 98 176
61 98 175
62 98 173
61 97 166
61 98 173
62 98 169
62 98 171
62 98 169
61 97 170
62 98 169
61 97 167
61 97 170
61 97 170
61 97 170
62 99 179
62 98 174
62 98 173
61 97 172
62 98 172
61 97 170
61 96 168
62 99 177
62 98 171
61 96 171
62 97 171
61 96 167
61 97 170
61 97 171
61 95 163
62 98 174
61 97 171
61 97 170
60 94 164
61 95 166
60 96 167
60 95 165
61 96 168
59 94 164
61 96 168
60 94 159
59 94 162
61 96 169
60 94 164
60 94 162
60 94 161
60 95 161
60 93 156
61 95 160
60 94 160
61 95 158
61 95 162
60 93 159
60 95 162
60 94 159
59 92 152
61 95 157
61 94 158
61 94 147
62 96 159
61 96 162
67 98 147
133 157 101
159 181 52
171 194 18
168 191 16
169 191 16
168 190 11
165 184 30
174 193 28
172 194 25
169 188 32
173 191 32
168 189 25
168 188 30
170 190 34
173 188 49
175 193 37
171 191 32
174 192 39
170 190 28
172 191 34
176 192 49
172 189 44
177 191 54
175 188 56
170 186 44
178 191 57
170 187 44
173 189 45
172 190 37
172 188 48
172 187 44
176 192 49
170 186 49
175 190 52
173 188 54
174 189 52
176 189 58
175 191 52
171 186 52
173 188 56
175 189 58
170 186 52
175 190 51
174 188 54
175 192 51
174 188 58
174 188 58
173 188 49
170 185 47
175 190 54
173 188 51
172 188 51
171 187 47
172 186 51
175 191 47
172 189 42
176 191 49
175 192 49
174 193 37
175 190 42
174 189 48
174 193 41
175 191 48
174 194 37
173 190 42
177 195 39
170 191 28
170 191 34
174 195 34
172 193 22
172 192 34
175 193 32
174 195 22
173 195 19
170 193 11
175 197 19
171 195 11
174 196 11
173 195 25
172 194 11
173 196 0
173 196 11
172 196 0
173 194 11
172 196 0
173 196 0
172 196 0
174 197 0
173 196 0
173 197 0
171 195 0
171 195 0
172 196 0
171 195 0
173 196 0
173 197 0
172 196 0
172 195 0
175 198 0
171 195 0
173 197 0
174 197 0
173 197 0
172 195 0
172 195 0
173 196 0
173 196 0
173 196 0
174 198 0
174 196 0
173 196 0
174 197 0
174 196 0
172 196 0
173 196 0
173 195 0
174 197 0
173 196 0
174 197 0
170 193 0
173 196 0
173 196 0
173 196 0
173 196 0
174 198 0
174 197 0
174 197 0
172 196 0
174 197 0
173 197 0
172 196 0
170 193 0
170 194 0
172 196 0
174 197 0
174 197 0
173 197 0
173 196 0
176 198 0
174 198 0
172 195 0
175 197 0
175 198 0
173 197 0
175 198 0
175 198 0
172 196 0
173 197 0
173 197 0
172 196 0
172 196 0
173 197 0
172 196 0
174 197 0
174 198 0
173 197 0
174 198 0
172 195 0
173 197 0
172 196 0
172 196 0
172 195 0
173 196 0
174 198 0
174 197 0
173 197 0
173 197 0
173 196 0
174 197 0
174 198 0
174 197 0
174 197 0
174 197 0
175 197 0
172 196 0
172 196 0
171 194 0
172 196 0
174 196 0
173 197 0
171 194 0
175 198 0
172 196 0
173 196 0
173 197 0
174 197 0
173 197 0
173 196 0
171 195 0
177 199 0
173 197 0
172 195 0
170 193 0
174 197 0
172 196 0
172 195 0
175 198 0
171 195 0
172 196 0
171 194 0
173 197 0
172 196 0
173 196 0
173 197 0
174 197 0
173 196 0
173 196 0
171 195 0
176 198 0
171 194 0
172 195 0
173 196 0
174 196 0
172 195 0
173 196 0
173 197 0
173 196 0
174 198 0
173 196 25
173 196 0
172 195 25
173 195 25
172 196 44
173 196 0
171 195 25
174 197 57
173 197 0
171 195 25
172 196 25
172 194 36
171 194 25
172 196 51
174 197 25
177 200 57
175 198 62
174 197 57
174 197 62
173 196 44
173 196 67
173 196 51
175 198 80
173 196 51
172 194 44
172 195 62
174 197 67
176 198 80
175 197 72
176 198 72
171 193 80
174 197 88
176 198 76
171 194 72
174 196 25
172 195 67
171 194 84
175 197 44
173 195 62
177 198 80
173 196 88
175 196 76
175 198 67
171 193 57
174 196 80
173 195 62
175 197 80
170 193 88
169 191 76
166 188 62
172 195 92
170 192 84
168 191 76
174 195 62
167 188 62
172 194 51
168 191 72
164 186 78
167 190 62
167 189 62
166 188 60
167 188 82
160 183 92
152 175 94
108 135 144
62 98 159
62 97 157
62 98 156
62 99 164
63 99 168
61 97 161
61 97 159
62 98 163
62 98 163
62 98 169
63 99 164
61 97 160
61 98 164
63 99 168
63 99 172
62 98 164
62 98 167
62 98 167
62 99 172
62 98 167
62 98 168
62 98 169
62 99 173
62 99 173
62 98 165
61 98 165
63 99 173
62 99 177
62 99 174
62 98 174
62 98 175
61 98 172
62 99 172
62 98 169
62 99 171
62 99 175
61 98 174
62 98 170
62 98 170
62 99 174
62 99 171
63 99 176
62 99 176
62 98 175
62 99 172
62 99 175
62 98 172
62 99 177
62 99 177
62 99 174
62 98 173
62 98 172
62 99 178
62 99 172
63 99 175
62 99 174
62 98 174
62 98 174
62 98 170
61 97 173
61 98 174
62 98 176
62 98 173
61 98 171
62 98 169
62 99 174
62 98 170
62 98 178
61 97 168
62 98 171
61 97 170
61 97 168
61 97 170
62 97 171
61 97 170
62 98 172
61 97 171
62 97 168
61 96 166
60 95 160
62 98 173
61 96 169
61 96 168
61 97 168
61 96 166
61 96 168
61 97 171
61 96 168
61 97 172
60 95 168
61 96 165
61 95 163
61 95 162
60 94 161
60 94 161
61 96 165
60 94 164
60 93 161
59 93 158
61 96 166
60 94 162
60 93 160
60 93 155
59 92 154
61 95 166
60 93 157
61 95 163
60 92 152
60 94 159
59 92 152
61 95 159
61 94 155
61 94 154
61 95 157
60 95 153
61 96 155
63 95 149
116 140 116
157 180 58
170 193 3
165 187 16
170 191 25
170 191 22
167 188 19
168 190 22
169 190 22
174 194 34
168 189 32
169 187 36
172 191 36
170 189 37
174 191 45
169 187 39
172 189 44
175 193 42
174 193 39
171 186 48
175 192 41
173 189 52
174 190 48
175 190 54
173 189 45
176 191 51
175 187 59
171 186 49
176 190 59
174 188 51
176 188 59
172 187 51
171 185 57
176 189 60
174 186 61
175 189 57
174 189 57
170 185 52
173 188 53
171 187 48
175 188 60
171 187 53
177 190 61
172 188 51
174 188 54
176 187 64
176 191 56
174 187 57
173 189 48
171 186 53
177 191 52
172 189 51
174 190 53
175 189 53
174 190 53
173 189 53
175 190 49
176 193 45
175 192 44
177 190 52
174 193 36
174 191 45
175 190 53
176 192 49
175 190 52
174 192 36
176 192 47
171 191 32
174 191 42
172 191 42
176 194 39
173 192 32
171 193 22
172 194 22
176 195 36
171 193 22
174 193 37
173 195 19
173 193 22
172 194 25
170 193 0
174 197 16
171 194 0
173 196 11
171 194 0
173 196 0
172 196 0
169 193 0
173 196 0
173 195 0
172 195 0
172 196 0
173 197 0
172 195 0
171 194 0
173 197 0
172 195 0
174 195 0
173 197 0
172 196 0
172 195 0
173 196 0
173 197 0
173 195 0
172 196 0
172 196 0
173 196 0
174 197 0
173 196 0
172 196 0
174 197 0
174 197 0
173 196 0
173 196 0
173 197 0
172 196 0
173 196 0
172 196 0
172 196 0
174 197 0
173 197 0
173 196 0
174 197 0
172 196 0
173 196 0
174 197 0
175 198 0
174 197 0
173 196 0
172 196 0
172 196 0
170 194 0
174 197 0
172 196 0
175 198 0
171 195 0
175 198 0
174 197 0
175 198 0
172 196 0
174 197 0
172 196 0
174 197 0
175 198 0
172 195 0
173 197 0
174 197 0
172 196 0
172 196 0
173 197 0
174 198 0
173 197 0
174 198 0
171 195 0
173 197 0
172 196 0
174 198 0
170 194 0
175 198 0
171 195 0
175 198 0
173 197 0
172 196 0
174 198 0
174 197 0
174 198 0
171 194 0
172 196 0
172 196 0
173 196 0
174 197 0
174 197 0
173 197 0
174 198 0
172 195 0
174 197 0
171 195 0
173 196 0
174 198 0
172 195 0
173 197 0
173 197 0
172 196 0
173 196 0
174 197 0
173 196 0
174 198 0
169 194 0
174 197 0
173 196 0
173 196 0
175 198 0
172 195 0
174 198 0
172 195 0
172 195 0
171 196 0
172 196 0
175 198 0
172 196 0
174 197 0
172 195 0
173 196 0
173 196 0
173 196 0
173 196 0
173 196 0
174 198 0
170 194 0
173 196 0
172 195 0
171 195 0
173 196 0
172 196 0
176 199 0
174 197 0
173 196 0
173 195 25
171 195 0
172 196 0
174 197 0
173 196 0
171 194 25
174 197 44
172 195 25
171 194 25
172 195 44
172 196 36
171 193 36
173 196 36
173 196 44
173 195 36
175 197 36
174 196 44
175 197 62
171 194 57
178 200 76
176 198 72
172 195 72
174 197 57
172 195 72
173 196 62
176 198 80
174 196 57
177 199 57
173 195 44
171 193 62
172 195 62
174 197 62
173 195 67
173 195 57
173 195 57
174 197 72
173 195 67
172 195 72
173 195 67
175 198 67
172 194 62
168 190 67
171 194 57
172 195 72
177 200 76
174 196 62
171 193 57
163 186 57
176 198 92
169 191 80
167 189 44
169 190 67
172 193 44
168 190 70
169 191 65
166 188 74
169 191 80
161 184 72
168 189 62
161 183 60
170 193 80
165 186 76
160 183 73
161 182 80
148 171 108
96 123 143
62 98 163
61 97 161
62 98 162
62 98 163
62 98 164
63 99 166
61 97 156
62 98 168
62 98 163
62 98 162
62 99 168
62 99 169
62 99 173
62 98 168
63 99 169
63 99 170
62 98 168
63 99 172
62 99 174
62 99 166
63 99 171
62 99 174
63 100 175
61 98 169
62 99 170
62 99 170
62 99 175
62 98 165
62 98 168
63 99 171
62 99 173
62 99 172
62 99 176
62 98 170
62 99 171
62 99 170
61 98 171
63 99 174
62 99 175
62 99 175
63 100 175
63 99 174
62 99 174
62 98 174
61 98 174
62 99 173
63 99 172
62 98 169
62 99 175
62 97 168
62 98 169
63 99 173
62 98 173
63 99 174
62 98 170
62 99 175
62 98 172
62 98 169
62 98 171
61 97 168
62 98 174
61 98 172
62 98 167
62 98 175
61 97 171
62 98 170
61 97 170
63 99 174
62 98 174
61 97 168
62 98 174
62 98 172
61 97 172
61 97 168
61 96 169
61 97 168
62 97 167
61 97 169
61 97 170
61 96 165
61 96 168
61 97 167
62 98 173
61 95 165
61 96 167
61 97 170
61 96 165
60 94 163
60 94 164
61 96 168
61 95 165
60 94 159
59 93 158
61 95 164
60 94 160
60 94 161
60 94 163
60 94 161
62 96 168
61 96 167
61 95 163
60 93 159
60 94 160
60 94 160
60 94 159
60 94 159
60 94 157
60 93 159
60 94 157
60 94 159
60 94 159
60 93 154
61 95 157
59 91 148
60 94 157
59 92 143
61 95 151
95 121 132
147 170 76
169 190 37
170 193 18
173 193 25
170 193 11
168 188 28
170 190 32
170 190 28
173 189 44
171 190 34
173 192 34
170 187 42
172 187 51
166 186 36
170 187 42
172 189 41
173 191 42
171 185 49
174 189 51
174 190 53
171 186 52
175 190 51
173 189 48
174 186 59
173 190 48
172 187 52
172 184 62
175 189 58
175 186 63
174 186 60
177 190 62
176 189 60
172 186 59
176 188 62
176 187 65
169 185 52
175 188 62
176 189 58
175 187 61
174 189 54
173 185 59
173 185 62
171 185 53
175 190 53
172 188 53
176 188 62
172 184 61
172 186 52
171 185 56
171 187 48
176 189 60
176 188 66
177 192 52
173 189 49
174 189 52
175 189 56
171 188 44
176 192 47
178 191 61
173 190 49
175 189 53
175 190 49
175 193 42
174 191 42
177 192 49
176 191 51
171 189 36
175 193 39
173 192 37
174 192 39
172 191 36
175 195 32
172 192 30
175 194 34
172 194 25
176 196 32
175 194 28
171 192 25
174 197 19
172 194 19
173 196 19
174 196 19
172 194 0
174 197 16
170 192 11
169 191 0
173 196 0
172 195 0
172 195 0
175 197 0
171 195 0
171 195 0
173 195 0
173 196 0
172 195 0
171 194 0
171 195 0
172 195 0
173 197 0
172 195 0
172 196 0
172 195 0
170 193 0
173 196 0
173 197 0
172 196 0
167 191 0
174 197 0
171 195 0
173 195 0
175 197 0
174 197 0
174 197 0
172 195 0
174 197 0
171 195 0
173 197 0
174 197 0
170 194 0
173 195 0
174 197 0
172 194 0
176 199 0
175 198 0
173 196 0
174 197 0
175 197 0
173 196 0
174 197 0
173 195 0
173 197 0
173 197 0
173 197 0
172 196 0
175 198 0
172 194 0
171 195 0
174 197 0
171 195 0
174 197 0
174 197 0
172 196 0
173 197 0
171 194 0
174 197 0
174 197 0
174 197 0
175 197 0
172 196 0
172 197 0
173 197 0
173 196 0
174 198 0
175 197 0
172 196 0
173 196 0
174 197 0
172 196 0
174 198 0
173 196 0
172 196 0
173 197 0
171 195 0
172 195 0
171 195 0
174 198 0
176 198 0
173 196 0
172 196 0
173 196 0
172 196 0
172 195 0
173 197 0
174 198 0
172 195 0
170 194 0
171 195 0
172 196 0
174 198 0
171 194 0
175 198 0
172 195 0
173 197 0
174 197 0
173 196 0
174 197 0
172 196 0
173 196 0
172 196 0
173 196 0
173 197 0
171 195 0
172 196 0
174 197 0
172 195 0
171 195 0
174 197 0
174 197 0
172 196 0
171 194 0
175 198 0
174 197 0
173 196 0
170 194 0
173 196 0
175 198 0
173 197 0
173 196 0
173 196 0
172 195 0
174 197 0
171 195 0
170 193 0
174 198 0
173 196 0
173 196 0
174 197 0
172 196 0
171 194 0
173 196 0
172 196 0
172 196 25
174 196 0
171 195 36
170 193 36
173 195 0
172 196 44
169 193 0
174 197 36
168 192 44
173 196 44
172 195 36
173 196 51
174 197 57
172 195 62
172 195 51
174 197 51
175 197 57
176 198 51
175 198 44
172 195 51
176 199 80
177 199 67
174 196 51
176 199 72
172 194 51
175 198 72
176 197 67
174 195 67
171 195 72
169 192 67
175 197 84
173 195 57
175 197 67
172 194 51
170 193 57
174 195 62
168 191 44
174 196 76
170 192 51
174 196 57
172 194 80
170 193 72
170 193 36
171 193 67
174 196 67
172 194 76
173 195 57
172 194 80
169 192 62
169 192 51
169 191 60
165 188 74
162 185 57
165 187 70
164 186 80
160 182 82
160 183 60
171 192 76
158 181 78
133 156 125
70 104 155
62 98 157
63 99 163
62 98 160
62 98 163
62 98 163
62 98 164
62 98 168
62 99 168
61 97 162
63 99 170
61 98 160
63 99 169
62 98 163
63 99 171
62 98 163
62 98 166
62 99 168
62 98 161
63 99 166
62 98 168
62 98 164
63 99 174
62 98 171
61 98 169
63 99 166
62 99 173
61 98 168
63 99 171
62 98 172
62 98 165
62 98 170
62 99 175
62 98 169
62 99 175
61 98 167
63 99 172
62 99 175
62 99 174
62 98 169
62 99 172
61 98 169
62 98 167
62 98 170
62 99 173
62 99 176
63 99 171
62 98 170
62 98 172
62 99 174
62 99 173
61 98 170
62 98 171
62 98 172
62 99 172
62 98 170
62 97 169
62 99 174
61 98 169
61 97 170
62 98 173
62 97 171
62 98 168
63 99 173
62 98 171
61 97 170
62 98 171
61 97 170
62 98 171
61 97 171
61 97 170
61 96 170
62 97 169
61 97 172
61 96 165
61 97 171
62 98 174
60 95 165
62 99 176
60 95 166
61 96 165
61 96 168
61 96 167
61 96 165
61 97 170
61 95 163
61 95 164
61 96 166
61 96 167
60 94 162
61 95 161
61 96 167
60 94 162
61 95 164
60 95 165
60 94 164
61 95 165
60 95 165
60 94 162
59 93 161
59 91 154
59 92 157
60 93 159
60 93 161
60 93 156
61 96 167
59 93 160
58 90 148
60 93 158
60 92 153
61 96 164
59 92 152
59 92 150
60 93 149
60 93 152
63 95 155
67 96 144
65 95 146
77 105 155
147 167 78
156 177 69
161 180 31
169 190 26
169 187 37
173 190 41
171 189 37
169 187 41
173 192 36
170 189 37
172 190 42
169 185 47
173 188 44
172 186 44
170 188 37
173 188 48
175 191 42
172 186 56
173 187 57
172 187 53
174 187 62
172 186 56
176 187 61
174 186 64
171 186 53
172 183 65
173 186 61
173 186 56
175 188 61
174 183 65
177 189 65
171 184 53
173 185 58
174 183 68
176 188 62
176 184 73
175 186 65
172 183 57
176 188 64
173 186 59
176 188 62
174 187 63
177 189 63
173 184 61
175 185 66
176 186 70
174 186 63
177 191 61
175 184 68
175 187 65
174 189 51
176 189 61
176 190 57
176 189 63
173 189 49
175 189 58
177 190 62
176 192 53
174 190 51
176 191 53
175 191 49
174 191 39
174 190 52
174 193 44
174 190 48
176 191 49
173 190 44
175 193 44
176 192 47
174 191 42
171 190 30
175 194 37
171 190 36
171 192 28
176 195 32
175 193 42
174 193 34
173 194 25
170 190 19
174 196 28
171 192 25
171 194 0
173 194 22
173 195 16
169 192 11
174 196 11
171 193 11
172 195 0
173 196 0
173 196 0
171 195 0
172 196 0
174 197 0
173 195 0
173 197 0
174 197 0
171 195 0
169 191 0
173 196 0
170 193 0
172 196 0
172 196 0
173 196 0
172 195 0
170 194 0
174 197 0
172 195 0
171 194 0
174 196 0
173 196 0
173 195 0
173 197 0
172 195 0
172 196 0
172 196 0
173 197 0
172 196 0
173 196 0
172 195 0
174 198 0
174 197 0
173 196 0
173 197 0
175 198 0
175 197 0
173 197 0
172 195 0
171 194 0
174 198 0
173 196 0
173 197 0
173 196 0
173 197 0
173 197 0
175 197 0
174 197 0
172 196 0
174 197 0
172 196 0
172 194 0
173 197 0
172 196 0
173 197 0
173 197 0
173 197 0
172 195 0
171 195 0
175 198 0
172 196 0
176 199 0
174 198 0
173 197 0
172 195 0
173 197 0
174 197 0
172 196 0
173 197 0
173 197 0
174 197 0
171 195 0
171 195 0
174 197 0
173 197 0
172 196 0
172 195 0
174 197 0
173 197 0
174 197 0
173 197 0
173 197 0
173 196 0
174 196 0
172 196 0
173 197 0
173 196 0
174 197 0
173 196 0
172 196 0
174 197 0
172 196 0
173 196 0
172 195 0
172 196 0
171 195 0
174 197 0
174 197 0
172 196 0
174 197 0
173 197 0
172 195 0
173 196 0
172 196 0
175 198 0
175 198 0
172 196 0
174 198 0
172 196 0
173 197 0
171 195 0
171 195 0
173 196 0
173 196 0
172 196 0
175 197 0
175 198 0
171 195 0
173 196 0
172 196 0
173 196 0
174 197 0
173 197 0
173 197 0
172 195 0
172 196 0
171 194 0
173 195 25
170 195 25
174 197 0
172 196 0
174 197 0
172 195 0
172 196 25
174 197 25
171 195 0
172 196 0
174 197 0
173 196 25
172 195 0
174 198 51
171 194 25
172 195 44
173 195 36
171 195 57
176 198 36
172 194 44
175 197 51
173 196 72
172 194 36
174 197 62
173 195 44
175 197 80
174 196 72
174 195 62
175 197 57
174 196 51
174 196 80
173 195 76
173 195 80
173 195 51
175 197 72
175 197 25
174 196 44
174 196 76
176 197 62
176 198 84
173 196 76
172 194 62
172 194 72
171 193 44
171 194 62
174 196 67
175 197 57
169 191 67
167 190 72
167 189 62
168 190 72
170 192 82
171 193 62
171 193 76
164 186 70
168 191 72
166 188 67
169 190 90
170 192 67
159 180 51
173 194 57
165 188 86
166 187 65
162 185 57
156 178 95
131 155 99
63 99 152
62 98 163
61 97 160
62 98 164
61 97 160
62 99 166
62 98 167
61 97 159
62 98 167
63 99 171
63 99 164
62 98 162
62 98 167
62 98 163
61 97 154
62 98 164
61 97 159
63 99 169
62 98 165
62 99 167
62 99 167
62 99 169
62 99 168
62 98 167
61 98 166
62 99 172
62 98 166
63 99 172
62 99 170
62 99 172
62 99 170
62 99 174
62 99 175
62 99 172
62 98 170
63 99 171
62 98 172
62 98 174
61 98 165
61 98 165
62 99 174
63 99 177
62 98 170
62 98 171
63 99 175
62 98 171
62 99 173
62 98 173
63 99 177
62 99 171
62 98 171
62 98 168
62 98 168
61 98 168
61 98 170
62 98 167
61 97 168
62 99 174
61 97 169
62 98 172
61 97 168
62 98 167
62 98 171
61 97 170
61 96 164
61 97 171
61 97 168
62 98 168
62 97 169
61 98 168
61 97 170
61 97 165
61 96 164
61 96 167
62 98 170
61 95 167
61 96 169
61 97 171
62 98 174
62 97 171
61 95 164
61 96 166
60 96 167
60 95 161
62 97 172
62 97 169
61 96 169
61 96 167
61 96 167
61 96 166
61 95 166
59 93 156
59 93 161
60 94 162
60 94 162
61 95 162
60 94 163
60 93 157
58 90 153
59 92 156
60 93 157
60 94 162
60 94 158
60 93 156
60 94 163
58 90 151
59 93 156
59 92 156
61 95 160
60 93 154
59 92 154
59 91 153
59 93 155
58 90 146
60 93 151
72 98 143
65 94 141
72 97 137
76 103 147
125 148 112
157 177 67
167 187 37
170 190 34
167 188 29
172 190 39
168 185 42
168 185 41
171 189 37
172 187 51
172 189 39
174 191 51
169 187 42
171 187 51
174 190 49
169 183 48
176 187 61
175 189 62
176 190 53
174 188 57
175 187 61
171 185 52
174 184 68
172 184 61
174 186 63
170 186 48
175 189 61
171 182 63
174 186 62
177 188 67
173 187 58
174 185 67
175 185 71
175 187 62
173 184 63
175 185 72
172 183 63
177 185 74
176 187 65
176 188 63
175 186 63
173 184 64
172 183 62
177 184 73
176 184 73
175 187 67
175 183 74
177 186 68
173 184 64
174 186 62
176 187 69
175 184 69
173 185 63
176 189 60
176 186 66
174 186 62
174 190 57
175 189 57
177 189 63
175 190 51
175 189 54
176 189 60
174 189 49
175 188 58
173 189 47
175 190 48
172 188 44
175 192 47
174 188 53
175 191 47
174 193 30
174 192 39
171 186 47
171 192 28
171 191 36
172 192 34
172 191 36
176 195 41
174 195 19
173 192 34
173 192 30
171 193 19
173 193 25
171 194 16
172 193 19
173 197 11
172 194 16
173 197 0
172 196 0
171 194 0
173 196 0
170 193 0
171 195 0
171 195 0
172 196 0
174 196 0
173 196 0
168 192 0
174 197 0
172 195 0
173 196 0
170 194 0
174 197 0
175 198 0
172 195 0
172 195 0
172 196 0
172 195 0
174 197 0
171 195 0
176 198 0
172 196 0
172 194 0
173 196 0
173 195 0
172 195 0
173 197 0
172 195 0
172 196 0
174 197 0
174 197 0
173 196 0
173 196 0
172 195 0
172 196 0
173 197 0
173 197 0
174 197 0
172 195 0
174 197 0
172 195 0
173 196 0
172 196 0
171 194 0
174 197 0
174 198 0
173 197 0
173 197 0
172 196 0
173 196 0
172 197 0
174 197 0
173 196 0
176 199 0
172 196 0
175 198 0
175 198 0
174 198 0
172 196 0
173 196 0
174 197 0
173 197 0
175 198 0
171 195 0
173 197 0
174 197 0
173 197 0
173 197 0
174 197 0
173 197 0
173 197 0
176 198 0
172 197 0
173 196 0
173 197 0
174 197 0
171 195 0
173 196 0
174 198 0
174 198 0
174 197 0
172 196 0
172 195 0
172 196 0
174 197 0
173 197 0
172 196 0
172 195 0
174 198 0
173 197 0
172 195 0
174 197 0
174 197 0
173 196 0
174 198 0
174 197 0
172 196 0
172 196 0
174 197 0
174 198 0
172 196 0
169 193 0
173 197 0
172 196 0
173 197 0
174 197 0
172 196 0
172 195 0
173 196 0
170 194 0
173 196 0
170 194 0
174 197 0
173 196 0
171 195 0
172 195 0
170 194 0
175 197 0
174 197 0
174 198 0
175 198 0
173 196 0
172 196 0
174 197 0
172 196 0
175 198 0
173 195 0
169 192 0
170 193 0
175 197 0
174 197 0
173 196 0
173 197 36
173 196 44
171 194 25
174 197 36
175 198 25
174 197 36
173 196 36
172 195 25
173 196 44
170 192 36
173 195 36
173 196 57
172 194 25
171 194 36
175 198 57
173 195 57
179 201 80
176 197 62
169 192 51
170 192 36
172 194 62
172 194 57
175 197 72
173 194 51
174 197 72
176 199 67
175 197 57
176 198 57
172 194 44
176 197 67
174 196 51
172 195 44
174 196 72
177 199 80
172 195 67
170 193 67
171 194 51
176 198 92
167 190 76
174 196 67
169 190 72
169 190 76
171 194 51
168 190 72
170 192 82
167 189 76
171 192 51
169 191 76
169 190 70
163 184 51
167 189 78
165 187 67
167 189 70
167 188 82
170 191 90
167 188 60
169 190 82
144 167 80
115 140 120
62 98 160
61 96 155
61 97 155
62 98 158
61 97 151
62 98 167
61 97 158
62 98 162
62 97 159
62 98 162
61 98 166
62 98 167
61 97 157
62 98 164
63 99 169
62 99 168
61 97 156
62 98 169
61 97 161
62 98 163
61 98 160
62 99 169
62 98 166
62 98 168
61 98 167
62 99 168
61 97 161
62 98 175
61 98 165
63 99 174
62 99 172
62 99 173
62 98 168
63 99 171
61 98 165
62 98 172
62 99 174
61 98 168
62 98 167
62 99 174
62 98 165
63 99 174
62 98 172
62 98 167
62 98 169
62 99 172
62 98 170
62 99 171
61 97 167
61 98 169
62 99 176
62 99 172
61 98 170
62 98 166
63 99 174
62 98 172
61 98 172
61 97 170
62 99 172
62 98 171
62 98 173
61 98 173
61 98 170
62 97 164
62 98 174
61 97 164
61 97 169
61 97 167
62 98 173
61 98 173
61 97 167
61 97 170
61 96 169
60 96 166
62 98 174
62 97 170
60 96 166
61 96 166
61 96 166
60 96 166
61 96 168
61 96 166
60 95 163
61 95 161
61 95 163
61 96 167
62 97 168
60 94 160
61 95 166
61 95 162
60 95 167
59 93 159
61 95 164
60 94 161
60 95 166
61 95 166
60 95 164
58 92 156
59 92 158
60 94 159
60 92 156
59 92 156
59 93 159
61 95 162
60 94 160
59 92 156
59 92 152
60 94 158
59 91 153
59 92 151
60 92 153
60 93 154
60 92 151
59 91 141
63 95 154
65 95 151
66 97 149
66 97 151
81 104 148
110 133 110
153 172 74
167 185 46
171 192 31
172 190 37
170 187 41
170 188 41
174 189 48
168 184 48
171 186 48
171 186 49
172 184 56
172 187 56
174 189 52
177 185 70
172 190 45
174 185 61
173 186 56
173 184 59
175 189 54
172 183 64
176 185 70
175 187 65
176 187 67
176 188 61
173 185 66
175 185 70
175 184 72
172 183 62
171 182 66
172 184 59
175 186 67
176 184 74
172 185 66
172 180 71
176 184 73
178 185 79
176 184 73
176 183 76
174 182 72
175 184 70
176 184 75
175 183 71
177 185 75
175 187 68
175 182 76
173 184 67
174 185 65
176 187 69
178 187 75
172 181 69
171 184 59
175 188 61
176 187 62
175 187 63
172 186 57
177 191 60
170 186 56
174 186 66
175 186 62
176 189 62
173 188 54
177 191 54
172 186 56
173 188 53
173 188 51
172 189 47
172 186 52
173 187 52
172 187 52
174 192 39
177 191 53
174 191 47
176 195 37
175 193 42
171 190 28
175 195 32
171 191 28
174 194 32
171 190 37
173 193 25
173 194 25
176 196 30
170 192 22
173 195 11
170 191 19
174 196 11
172 195 11
172 194 16
172 196 0
171 194 11
173 196 0
170 193 0
173 197 0
172 194 0
173 197 0
172 196 0
175 198 0
172 196 0
172 195 0
173 196 0
174 197 0
171 195 0
174 197 0
172 195 0
175 198 0
172 195 0
174 196 0
173 196 0
173 197 0
171 195 0
172 196 0
174 197 0
173 196 0
173 195 0
172 195 0
171 195 0
171 194 0
173 196 0
174 197 0
173 197 0
171 195 0
172 196 0
172 195 0
173 197 0
173 196 0
172 196 0
173 196 0
175 197 0
174 197 0
173 196 0
174 198 0
173 197 0
173 196 0
173 197 0
174 198 0
173 197 0
172 196 0
174 197 0
172 196 0
173 196 0
172 195 0
175 198 0
173 197 0
175 198 0
173 197 0
174 198 0
172 195 0
173 197 0
173 197 0
174 197 0
173 196 0
172 196 0
174 197 0
173 196 0
171 195 0
170 194 0
174 197 0
172 195 0
170 194 0
171 195 0
174 197 0
172 196 0
172 195 0
174 198 0
173 197 0
173 197 0
173 197 0
172 196 0
171 195 0
173 197 0
175 198 0
173 196 0
173 197 0
174 197 0
172 196 0
173 196 0
173 196 0
173 196 0
171 196 0
172 196 0
173 197 0
173 196 0
174 198 0
172 196 0
174 198 0
173 196 0
174 197 0
172 195 0
171 195 0
174 197 0
169 194 0
173 196 0
175 198 0
172 196 0
175 198 0
176 198 0
170 194 0
174 197 0
173 196 0
173 196 0
172 195 0
171 195 0
171 195 0
172 195 0
170 194 0
173 197 0
174 197 0
174 197 0
173 196 0
171 194 0
170 193 0
175 198 0
172 195 0
174 197 0
174 198 0
171 195 0
171 195 0
170 194 0
172 195 0
172 196 0
173 196 0
174 197 25
172 195 36
175 198 0
175 198 25
174 197 36
173 196 36
172 194 36
175 198 51
171 194 0
175 197 51
169 192 0
168 192 25
174 196 62
174 196 44
169 192 36
173 195 62
170 193 25
174 197 67
173 195 76
173 196 67
177 199 80
174 196 51
170 192 51
169 192 36
175 197 44
173 195 36
169 192 62
172 194 57
172 194 57
175 196 80
170 193 76
171 193 67
172 194 67
177 200 84
169 191 62
169 191 67
169 191 67
171 194 72
171 192 51
169 191 80
174 195 72
169 191 62
173 196 72
172 193 76
166 189 67
169 191 57
167 189 67
168 189 62
169 190 36
173 195 95
167 189 40
166 187 74
166 187 70
168 189 80
166 188 65
163 185 74
160 182 72
152 175 62
100 126 121
60 96 149
62 98 157
61 97 152
62 98 162
62 98 161
61 96 154
62 98 157
62 99 163
61 97 159
62 98 164
62 98 162
62 98 163
62 98 163
62 98 159
62 99 170
61 98 163
62 98 163
62 98 168
62 98 166
62 98 166
61 98 162
62 98 168
62 98 165
62 99 170
62 98 165
62 98 168
63 99 174
62 98 169
63 99 173
62 99 171
62 98 170
63 99 168
62 98 172
62 99 170
62 98 166
62 99 172
62 98 166
61 98 167
62 99 172
62 98 168
61 98 165
62 99 170
61 98 169
62 98 167
62 98 172
62 99 174
62 99 176
62 98 166
62 98 173
63 99 174
62 98 165
63 99 176
61 97 166
62 97 167
63 99 170
61 97 169
62 99 171
61 98 168
62 98 174
63 99 176
61 97 168
62 98 170
61 97 169
61 96 168
61 97 168
62 97 166
62 97 169
62 98 171
62 97 166
61 97 168
60 95 162
62 97 171
61 96 161
63 98 170
61 96 164
62 97 170
61 96 162
61 97 169
62 97 170
59 95 165
60 94 162
61 95 165
61 96 166
61 96 168
61 97 170
60 94 159
61 96 165
60 94 158
60 94 162
60 94 162
60 94 159
60 93 161
59 92 154
61 96 169
60 94 161
60 95 164
60 95 164
59 92 156
58 90 148
59 91 151
61 95 164
60 93 159
60 94 160
59 91 153
59 92 156
58 91 155
60 93 157
59 91 148
59 91 149
59 92 151
59 91 150
58 91 152
65 94 152
65 95 149
70 97 143
74 100 151
75 100 147
72 98 143
76 99 138
102 121 121
153 174 69
161 180 39
166 184 34
168 183 47
167 182 49
172 186 51
172 187 47
175 186 60
171 186 51
169 184 53
173 186 57
170 184 54
177 187 65
170 180 62
177 188 63
175 186 61
175 184 68
179 188 71
173 185 61
178 189 65
174 185 58
174 182 69
171 182 61
177 186 75
171 183 63
178 190 61
171 182 62
177 183 79
173 180 76
178 185 75
175 181 76
174 183 72
176 184 73
177 182 81
175 181 78
176 185 74
173 186 61
178 186 74
174 180 75
173 181 77
179 187 75
173 183 64
176 185 75
172 180 77
174 184 72
176 186 71
173 181 74
178 186 71
177 188 69
175 184 74
177 186 73
172 183 66
172 184 59
177 188 65
174 184 71
174 186 63
178 189 67
177 186 70
176 187 68
169 184 57
175 187 62
174 184 64
177 191 60
175 188 60
175 189 60
176 191 53
175 191 48
173 188 52
173 190 48
178 190 60
176 190 49
177 191 54
174 190 52
173 191 37
172 189 44
174 192 44
174 192 44
174 192 42
170 189 32
177 194 37
171 192 30
172 192 30
173 194 16
173 194 28
174 196 25
171 193 16
173 194 16
170 193 0
173 195 16
169 193 0
173 196 0
172 195 0
172 196 0
174 197 0
172 196 0
174 198 0
171 195 0
171 194 0
174 198 0
172 195 0
174 197 0
172 196 0
173 197 0
173 196 0
172 196 0
173 197 0
172 196 0
173 197 0
173 197 0
174 197 0
170 194 0
173 196 0
172 196 0
170 194 0
174 196 0
174 197 0
171 195 0
172 196 0
175 198 0
171 195 0
174 197 0
173 197 0
171 195 0
175 198 0
174 197 0
173 197 0
174 197 0
173 196 0
172 196 0
175 198 0
173 196 0
172 196 0
174 197 0
171 194 0
174 197 0
173 196 0
173 197 0
174 197 0
173 196 0
174 198 0
175 198 0
173 197 0
176 199 0
173 197 0
174 198 0
174 197 0
171 196 0
172 196 0
175 198 0
174 198 0
173 197 0
172 196 0
172 196 0
175 198 0
175 198 0
172 196 0
173 197 0
170 194 0
173 197 0
173 197 0
173 197 0
174 196 0
174 197 0
174 197 0
173 197 0
173 196 0
174 198 0
174 197 0
173 196 0
172 196 0
173 197 0
174 197 0
174 197 0
174 198 0
174 197 0
171 194 0
176 197 0
170 195 0
174 197 0
174 197 0
173 197 0
173 196 0
173 197 0
173 196 0
174 197 0
174 196 0
174 196 0
173 197 0
171 195 0
173 196 0
174 196 0
174 197 0
172 195 0
171 194 0
171 195 0
173 197 0
171 194 0
172 196 0
174 197 0
173 197 0
173 196 0
172 195 0
172 195 0
171 194 0
173 196 0
173 196 0
173 196 0
170 193 0
174 198 0
173 196 0
173 196 0
174 196 0
172 195 25
175 197 0
172 195 0
172 195 0
174 196 25
174 197 0
173 196 0
174 196 0
170 193 0
172 195 25
172 195 0
175 198 51
172 195 25
170 194 25
172 195 25
172 195 25
171 194 0
174 197 44
169 192 36
174 197 44
170 194 36
169 193 36
174 196 72
171 194 36
175 197 57
172 195 44
171 194 44
170 192 36
170 193 67
172 195 62
174 197 72
171 193 62
174 196 51
172 194 51
174 195 57
175 198 92
172 194 62
172 194 57
172 194 44
168 190 51
169 191 36
175 196 57
176 198 84
171 193 76
171 194 84
171 193 57
174 196 62
173 195 57
170 191 51
169 192 72
172 194 57
170 192 51
164 186 76
168 189 72
170 191 62
170 191 57
169 190 72
169 190 80
165 187 54
168 190 67
165 187 72
161 182 57
167 188 92
164 185 62
163 185 51
154 176 65
137 161 99
84 115 148
62 98 161
61 97 159
61 96 155
62 98 161
61 97 155
62 97 157
62 97 156
61 97 156
62 99 166
62 98 163
62 99 164
61 97 158
62 98 161
62 99 167
62 98 166
62 99 170
62 98 164
63 99 167
62 98 164
63 99 168
62 99 171
62 98 164
62 98 169
62 98 162
62 98 164
62 99 170
61 98 162
62 99 172
61 97 164
62 98 160
62 99 174
62 98 165
62 98 165
63 99 168
62 98 170
62 98 165
62 99 174
62 98 168
62 98 170
62 99 170
62 98 172
62 98 170
61 98 167
61 97 164
63 99 173
62 98 170
63 99 174
62 98 169
61 98 167
61 97 167
61 97 164
62 98 173
62 98 169
61 97 166
63 99 175
61 97 167
62 98 174
61 97 168
62 99 175
62 97 165
62 99 174
62 98 169
61 97 168
62 99 175
61 98 170
62 98 172
62 98 171
61 97 171
62 97 172
61 97 168
62 96 169
61 97 167
62 98 172
61 98 176
62 97 169
61 95 160
61 97 168
61 97 166
62 97 167
61 96 166
61 95 164
60 95 165
61 96 166
61 96 167
60 95 165
60 95 167
60 94 163
59 92 157
61 95 165
61 96 166
60 94 160
59 93 159
59 91 152
60 94 162
60 93 160
59 91 153
60 93 157
59 93 158
60 93 153
61 94 156
59 91 150
58 91 151
58 91 157
58 90 151
59 91 154
61 95 160
58 90 148
60 93 157
57 88 140
58 89 141
59 91 149
70 96 142
59 91 141
67 94 141
60 91 146
75 98 140
76 99 142
74 99 139
86 108 152
110 129 116
145 162 81
161 178 65
172 184 61
167 183 45
169 185 49
173 187 52
172 188 46
176 190 60
174 187 58
172 185 54
174 184 67
171 183 56
171 184 56
173 187 53
173 184 62
174 182 75
174 186 65
174 185 66
174 182 75
174 181 69
174 180 72
175 183 71
172 182 71
173 183 68
176 184 75
172 181 71
177 182 81
175 180 82
173 179 78
175 185 75
177 184 78
176 186 73
174 183 72
176 181 82
178 182 83
174 179 76
175 184 70
177 183 80
176 183 74
174 183 66
177 183 80
177 185 78
176 183 74
173 181 74
175 182 76
172 182 67
177 184 72
179 184 83
177 185 74
177 184 77
177 183 76
178 187 77
174 184 69
175 182 75
175 186 67
177 187 66
174 183 71
176 186 66
178 186 71
175 188 59
174 186 63
175 184 71
175 185 64
176 189 62
176 190 57
177 188 61
175 191 54
173 188 56
173 189 52
175 187 60
178 192 54
174 190 49
172 187 49
175 190 48
172 189 47
171 188 44
172 191 37
175 192 45
172 190 42
174 191 41
171 191 32
175 194 32
172 191 30
171 192 28
171 192 25
173 195 22
172 194 19
174 196 0
175 197 0
174 196 19
169 193 0
171 193 0
171 196 0
172 195 0
173 197 0
173 197 0
170 194 0
174 197 0
174 197 0
174 197 0
173 195 0
174 197 0
173 196 0
174 197 0
174 197 0
172 193 0
172 196 0
172 195 0
171 194 0
173 196 0
174 197 0
171 194 0
171 195 0
172 194 0
170 193 0
171 195 0
175 198 0
172 194 0
173 196 0
172 196 0
172 196 0
171 195 0
174 196 0
174 197 0
172 195 0
174 197 0
173 197 0
172 196 0
171 195 0
172 195 0
173 196 0
171 194 0
174 197 0
173 196 0
173 197 0
171 195 0
174 198 0
173 196 0
172 196 0
173 197 0
174 198 0
174 197 0
174 197 0
173 196 0
171 195 0
172 197 0
175 198 0
173 196 0
173 196 0
172 196 0
173 196 0
175 198 0
174 198 0
173 197 0
175 198 0
174 197 0
173 196 0
173 196 0
174 197 0
175 198 0
172 196 0
172 196 0
174 197 0
174 197 0
172 195 0
173 197 0
174 198 0
173 197 0
175 198 0
173 196 0
173 197 0
174 197 0
175 198 0
170 193 0
171 195 0
175 198 0
171 194 0
171 195 0
172 196 0
172 196 0
174 197 0
172 196 0
171 195 0
172 195 0
170 194 0
173 197 0
173 197 0
171 195 0
173 196 0
170 194 0
173 197 0
173 196 0
174 197 0
172 195 0
174 197 0
171 195 0
173 196 0
173 197 0
173 196 0
174 198 0
172 194 0
174 196 0
172 196 0
175 198 0
172 196 0
171 195 0
171 195 0
175 198 0
172 195 0
173 196 0
172 195 0
171 194 0
174 197 0
172 196 0
173 197 0
171 194 0
173 196 0
175 198 0
170 192 0
170 193 0
172 195 0
171 194 25
176 198 0
171 194 25
175 198 25
174 197 25
174 197 44
171 193 0
173 195 36
171 195 0
171 193 0
173 196 44
170 193 25
172 195 36
172 195 44
170 193 44
174 196 44
174 197 57
173 195 57
174 196 44
170 193 51
171 194 44
172 193 76
173 196 62
172 195 62
173 195 36
168 190 57
174 196 72
173 195 44
169 191 57
172 194 51
173 194 67
173 194 67
168 191 57
176 197 84
174 195 62
172 195 80
172 194 72
173 195 57
170 192 62
166 187 51
172 194 76
173 195 67
168 188 44
173 194 76
170 192 57
170 191 57
163 184 67
167 189 62
172 192 62
169 191 65
164 186 72
169 190 65
160 182 72
161 183 44
161 183 47
158 180 70
152 175 67
139 162 86
74 107 145
62 98 161
61 96 149
62 98 153
61 97 154
62 97 154
62 98 159
62 98 157
62 98 160
62 98 162
62 98 162
62 98 164
63 99 169
61 97 154
61 98 161
61 98 161
62 98 164
62 99 167
62 98 167
62 98 165
62 98 164
62 98 168
62 98 166
62 98 163
62 98 165
61 98 167
63 99 166
62 98 166
62 98 169
63 99 172
63 99 173
63 99 171
62 98 166
61 98 166
63 99 171
62 98 171
63 99 173
62 98 165
61 98 165
63 99 170
62 98 170
62 98 168
61 98 169
62 99 175
62 98 174
61 97 161
62 99 173
62 98 169
61 97 168
61 98 166
62 98 170
62 98 170
61 98 169
62 98 170
62 99 171
62 99 172
62 98 170
62 98 168
62 98 167
61 98 170
62 99 172
62 98 174
61 97 165
62 98 172
61 96 167
61 97 167
61 97 169
61 97 169
61 97 170
61 97 172
61 97 168
61 97 166
62 98 171
61 97 170
62 97 174
61 96 167
60 95 167
61 96 164
61 96 166
61 96 166
61 96 168
60 94 161
61 97 169
59 94 160
61 95 161
61 96 165
61 96 167
60 94 161
59 93 158
60 95 166
60 94 162
60 94 165
60 94 161
60 94 163
58 90 149
60 94 161
58 91 152
60 92 152
59 92 155
59 92 157
60 93 159
59 93 162
59 92 151
59 91 154
59 91 151
58 90 153
58 91 153
58 90 149
59 92 152
57 88 142
58 90 152
61 91 143
59 90 149
71 97 146
76 99 141
68 94 141
64 93 144
75 97 128
77 101 146
87 104 129
95 113 138
135 154 93
165 179 67
171 185 53
170 185 51
170 184 54
171 184 53
172 185 56
172 184 57
167 178 62
172 183 67
170 184 52
173 185 58
170 183 61
172 181 67
172 180 69
176 185 70
173 182 70
177 189 63
173 179 71
175 184 67
175 183 70
174 184 72
174 182 75
171 180 68
175 184 69
177 183 80
180 185 82
177 181 82
175 182 77
174 183 75
174 181 80
173 180 78
175 180 78
177 179 85
175 181 79
179 183 83
175 183 76
172 178 76
174 179 82
174 181 77
175 182 76
176 181 84
176 182 79
176 182 80
177 182 84
175 185 70
177 185 78
174 182 75
175 182 77
174 184 68
177 183 78
175 180 79
175 186 69
177 183 79
177 185 76
175 182 76
178 188 70
179 187 75
176 188 65
175 187 63
175 186 64
175 188 63
177 188 66
173 186 59
174 187 59
176 189 61
177 186 75
173 185 62
176 187 65
176 189 59
175 190 51
177 190 57
176 191 53
175 191 45
174 188 54
173 190 44
176 190 53
169 189 32
175 191 48
169 190 28
175 193 41
172 192 28
176 192 47
175 195 28
174 192 34
172 192 28
176 196 22
170 192 22
170 192 19
171 193 11
173 195 11
171 193 19
173 196 0
171 194 0
173 196 0
173 197 0
170 193 0
174 197 0
173 197 0
173 195 0
170 193 0
170 194 0
171 195 0
173 196 0
172 195 0
173 195 0
171 195 0
173 196 0
171 194 0
173 197 0
172 196 0
173 196 0
174 197 0
171 194 0
172 195 0
170 194 0
173 197 0
173 196 0
174 196 0
174 197 0
175 197 0
170 193 0
174 197 0
173 196 0
175 198 0
173 196 0
174 197 0
174 197 0
175 198 0
174 197 0
174 197 0
172 195 0
172 195 0
172 195 0
170 192 0
172 195 0
172 195 0
172 195 0
172 195 0
174 197 0
172 196 0
173 197 0
172 196 0
174 198 0
173 197 0
174 197 0
174 198 0
172 197 0
175 198 0
174 197 0
168 192 0
173 197 0
175 198 0
173 197 0
171 195 0
174 197 0
170 194 0
173 196 0
171 196 0
172 196 0
173 197 0
171 195 0
173 197 0
174 197 0
173 197 0
174 197 0
171 194 0
173 196 0
172 196 0
174 197 0
171 195 0
174 197 0
173 197 0
174 197 0
174 197 0
173 196 0
172 195 0
174 197 0
172 196 0
174 197 0
173 197 0
174 198 0
173 197 0
172 195 0
172 195 0
173 197 0
171 195 0
172 196 0
172 196 0
175 198 0
173 197 0
173 197 0
173 197 0
173 197 0
174 197 0
171 194 0
173 196 0
173 197 0
173 197 0
173 196 0
174 197 0
173 196 0
173 196 0
171 194 0
172 196 0
171 194 0
176 198 0
173 196 0
167 191 0
171 194 0
171 195 0
172 195 0
172 195 0
174 196 0
171 194 0
174 197 0
173 196 0
172 195 0
175 198 0
170 193 0
173 196 0
170 193 0
173 196 0
171 195 25
172 195 0
174 197 36
168 191 25
169 192 0
171 193 57
172 195 44
173 195 44
166 189 25
173 196 36
175 198 51
171 194 25
168 192 36
169 192 36
174 196 44
174 196 44
174 197 57
171 193 36
173 196 44
172 195 57
173 195 36
168 191 51
174 196 67
173 194 57
171 194 51
174 196 51
170 193 57
173 195 44
170 193 72
172 195 62
172 194 57
171 193 72
169 190 67
172 195 80
174 195 67
170 192 57
171 193 57
165 186 67
169 193 57
173 194 57
162 184 62
175 196 76
167 188 67
163 185 57
168 189 44
164 186 72
169 190 67
171 192 67
165 187 67
162 183 51
158 180 57
165 187 86
159 181 31
160 181 62
142 164 70
126 149 105
61 96 151
61 96 144
61 97 155
62 98 158
62 98 162
62 98 161
63 99 168
62 98 158
61 97 158
62 97 155
62 98 160
61 97 162
61 98 165
62 98 167
61 97 162
62 98 167
63 99 166
62 98 165
61 97 155
62 98 165
62 98 162
62 98 164
61 98 166
63 99 171
62 99 166
62 99 170
63 99 171
62 98 165
62 99 171
62 98 169
61 97 162
62 98 162
61 98 170
62 98 165
62 99 171
62 98 168
63 99 170
62 98 165
62 98 165
62 98 168
62 99 172
62 99 169
61 98 167
62 99 173
62 98 169
62 98 169
62 99 170
62 98 173
61 98 170
62 98 173
62 98 170
63 99 172
62 97 168
62 98 175
62 98 171
61 98 169
62 98 170
62 98 172
61 97 167
62 98 166
61 97 169
62 99 172
62 98 171
61 96 166
61 96 160
61 97 165
61 96 165
61 97 167
62 98 169
61 96 166
61 96 162
61 96 162
62 98 170
61 96 165
61 95 164
62 97 169
61 96 166
61 96 165
61 96 168
60 95 162
61 96 167
61 96 166
61 96 165
60 94 162
61 96 167
59 93 159
60 94 158
60 93 156
60 93 158
60 94 162
59 93 156
58 90 147
59 93 158
59 91 150
59 92 153
59 92 155
60 94 163
58 91 155
59 92 156
59 92 159
58 89 147
59 93 158
58 90 150
59 92 158
58 90 150
59 90 148
59 92 158
57 88 144
58 89 147
59 91 155
60 90 143
58 90 147
58 89 142
72 96 144
64 92 142
87 106 140
71 97 144
68 94 135
69 96 142
98 113 140
93 110 135
130 147 105
155 169 70
159 173 52
167 182 55
164 183 42
169 182 58
169 182 63
173 186 60
171 183 53
171 183 58
169 179 64
172 180 71
168 179 63
175 183 70
170 179 69
174 184 68
176 184 74
174 183 72
174 182 75
176 183 77
177 186 74
175 179 80
175 184 74
177 186 75
175 184 72
176 180 83
178 183 82
174 180 79
173 178 80
179 181 89
177 183 83
175 180 84
174 178 81
175 182 81
178 179 90
173 178 79
174 179 78
174 182 78
176 183 80
175 182 78
178 184 79
174 182 75
177 184 79
176 180 87
178 181 87
176 181 84
176 179 87
173 182 75
174 182 75
178 182 87
178 181 90
176 182 83
174 181 82
174 182 72
172 178 78
175 183 73
178 184 80
174 185 71
174 184 65
176 182 80
177 185 74
176 187 67
175 183 72
176 188 64
175 188 61
176 188 62
174 187 58
177 188 66
176 186 65
175 185 64
175 185 65
176 190 59
175 189 54
174 189 51
175 189 57
176 191 53
173 190 44
171 188 42
176 193 44
173 189 44
175 193 41
176 192 41
172 189 42
173 192 37
174 195 28
171 192 32
172 193 22
172 194 19
170 192 22
171 191 28
173 194 28
173 195 19
171 194 0
172 195 0
171 195 0
171 195 0
172 194 0
171 195 0
172 195 0
172 195 0
176 198 0
172 196 0
175 197 0
172 196 0
173 196 0
172 196 0
174 197 0
173 196 0
172 195 0
174 197 0
171 194 0
173 196 0
171 194 0
170 193 0
171 195 0
174 197 0
173 197 0
174 197 0
174 197 0
172 196 0
173 197 0
174 197 0
169 191 0
170 194 0
171 194 0
173 197 0
173 195 0
174 196 0
172 195 0
173 196 0
172 196 0
170 193 0
172 196 0
173 196 0
172 196 0
174 197 0
174 198 0
172 196 0
173 196 0
172 196 0
172 196 0
172 196 0
172 196 0
174 197 0
173 197 0
174 198 0
175 198 0
173 197 0
174 197 0
173 196 0
171 196 0
174 197 0
172 196 0
173 197 0
174 198 0
173 197 0
174 197 0
174 197 0
174 198 0
175 198 0
174 197 0
174 197 0
174 197 0
172 196 0
171 195 0
174 198 0
173 197 0
173 196 0
173 196 0
174 197 0
174 198 0
173 196 0
171 195 0
172 195 0
173 197 0
173 196 0
172 196 0
172 195 0
174 198 0
174 198 0
171 194 0
174 197 0
171 195 0
173 197 0
172 196 0
176 199 0
173 197 0
173 196 0
174 197 0
174 197 0
175 198 0
173 197 0
172 195 0
173 197 0
173 196 0
171 195 0
175 198 0
171 195 0
172 195 0
171 195 0
173 196 0
172 196 0
172 196 0
175 198 0
173 197 0
171 195 0
170 194 0
171 194 0
173 196 0
172 195 0
174 198 0
172 195 0
173 197 0
173 196 25
172 195 0
170 194 0
173 197 0
173 196 0
171 194 0
174 197 0
173 195 0
173 195 0
172 194 0
173 196 0
172 196 0
171 194 36
169 192 25
168 190 44
168 191 25
174 196 51
172 195 36
171 194 0
168 190 44
172 194 0
169 192 36
168 191 25
177 199 51
171 194 51
172 195 36
176 198 67
173 195 51
172 194 36
172 195 62
175 196 67
167 189 36
171 194 67
172 194 44
172 194 57
171 193 51
172 194 44
172 195 72
167 188 67
169 191 51
169 191 62
171 193 44
170 193 80
170 191 62
168 190 62
172 194 67
165 187 57
167 189 57
172 193 67
168 190 80
172 194 72
165 188 57
167 188 57
167 189 76
163 185 57
169 190 76
167 189 57
170 191 67
168 190 67
158 180 44
156 177 60
159 181 86
166 188 70
161 183 67
152 174 72
111 136 121
61 97 155
62 98 154
61 97 156
62 97 155
62 98 158
62 98 153
62 97 152
62 98 152
62 98 164
62 97 158
63 99 166
62 98 164
62 98 164
61 97 158
63 99 167
62 98 164
62 98 159
62 99 168
62 98 166
62 98 165
62 98 163
62 98 167
62 98 164
62 98 160
62 98 163
62 99 169
62 98 160
62 98 165
62 98 161
62 98 168
62 98 164
61 98 161
62 98 165
62 99 172
62 99 171
62 98 167
62 98 166
61 97 165
62 99 170
62 98 168
62 98 169
62 98 165
63 99 171
61 98 170
62 98 165
61 97 166
61 98 167
62 98 172
62 98 169
62 98 168
62 98 173
63 98 169
62 98 169
62 98 173
62 99 172
62 98 173
61 97 164
62 99 175
61 97 167
61 97 167
62 98 172
62 97 169
61 98 172
62 98 171
61 97 167
61 97 163
62 98 172
61 97 168
62 98 169
62 97 170
61 96 166
62 96 163
61 96 164
61 95 161
61 96 163
61 96 167
62 97 166
60 94 156
61 95 160
59 93 156
61 96 166
61 94 158
60 94 159
60 95 164
60 93 159
60 95 162
60 94 163
60 94 163
60 94 165
60 94 160
60 93 156
60 95 165
59 92 156
60 92 155
60 94 161
60 93 155
59 91 151
60 93 160
60 93 158
59 91 152
58 91 155
58 91 156
57 90 156
58 90 153
59 90 146
57 88 143
57 87 140
59 90 145
57 86 136
55 85 139
64 92 139
62 89 134
67 91 131
69 96 146
66 93 136
70 93 130
69 96 143
95 110 136
95 110 139
93 108 125
99 112 131
130 144 101
157 172 68
166 179 60
167 180 59
165 177 60
172 184 61
172 183 66
176 185 73
173 185 60
178 187 64
176 184 73
174 187 58
174 182 69
175 185 66
173 181 70
177 183 79
174 183 74
171 180 67
173 178 80
178 184 81
169 174 76
174 181 72
178 183 81
178 182 80
173 180 81
178 181 87
176 181 78
176 178 84
177 179 88
178 178 90
174 178 84
174 179 83
174 178 85
175 178 85
175 180 80
175 177 87
173 177 85
175 178 85
178 180 92
177 179 91
175 179 86
170 179 76
173 178 84
175 178 87
176 177 90
171 178 75
176 183 80
173 179 82
177 180 86
175 180 80
176 180 80
174 179 81
175 180 82
177 183 80
177 180 84
177 183 76
175 184 72
173 179 79
176 183 79
172 181 73
177 188 67
176 186 68
177 186 73
177 185 72
173 183 67
175 187 62
177 186 69
177 186 70
175 184 70
176 185 68
173 185 58
173 185 57
175 188 56
174 187 60
177 190 59
173 187 53
178 193 51
174 189 49
174 188 48
173 189 48
178 190 58
173 191 39
174 190 42
173 193 32
172 192 36
173 192 37
171 192 22
173 194 30
174 193 39
173 191 37
168 190 19
173 194 25
173 194 19
171 193 0
173 196 0
172 195 0
172 195 0
170 194 0
171 195 0
174 197 0
170 194 0
171 195 0
170 193 0
171 194 0
171 193 0
170 194 0
174 198 0
173 196 0
174 197 0
175 198 0
173 196 0
173 196 0
172 195 0
174 196 0
174 196 0
172 195 0
173 196 0
171 194 0
171 194 0
173 196 0
171 195 0
173 196 0
174 197 0
174 197 0
171 194 0
173 196 0
172 195 0
175 198 0
172 195 0
171 195 0
172 196 0
173 196 0
174 198 0
173 196 0
172 195 0
174 196 0
175 198 0
174 197 0
173 197 0
173 194 0
174 198 0
174 198 0
172 196 0
172 196 0
173 197 0
172 195 0
176 199 0
176 198 0
174 197 0
172 195 0
172 195 0
172 196 0
174 198 0
172 196 0
173 196 0
172 196 0
172 196 0
173 196 0
174 197 0
172 196 0
172 195 0
174 197 0
171 195 0
174 197 0
173 196 0
174 197 0
171 195 0
172 196 0
172 195 0
176 199 0
171 195 0
172 196 0
174 198 0
171 195 0
173 197 0
172 196 0
175 198 0
173 197 0
173 196 0
174 198 0
172 195 0
173 197 0
173 196 0
170 194 0
171 195 0
173 197 0
172 196 0
171 195 0
174 197 0
173 197 0
172 195 0
172 196 0
172 195 0
174 197 0
173 197 0
171 194 0
172 195 0
173 196 0
172 196 0
172 196 0
174 197 0
175 198 0
173 196 0
173 196 0
172 196 0
176 198 0
172 194 0
174 197 0
175 197 0
172 195 0
173 196 0
174 196 0
170 193 0
170 193 0
172 196 0
175 198 0
172 194 0
171 194 0
172 195 0
173 196 25
174 196 0
171 194 0
174 196 0
173 196 0
172 194 25
173 196 0
168 191 0
176 198 44
172 195 0
169 192 25
173 195 0
171 194 25
173 194 36
171 194 36
172 195 25
170 192 51
172 194 36
169 192 25
173 195 36
173 195 57
171 194 44
165 188 44
173 195 51
173 195 51
173 195 62
168 191 36
167 189 84
171 193 67
171 193 62
170 192 62
172 193 76
171 193 72
170 192 36
166 188 36
168 190 67
163 186 57
173 195 25
168 190 57
170 192 44
166 187 57
165 186 57
172 195 80
166 187 62
169 190 57
171 193 44
172 193 57
167 188 51
171 191 62
163 186 62
160 182 62
161 182 57
165 186 67
165 186 54
161 183 67
158 180 57
160 182 51
160 181 36
151 173 92
99 125 128
62 97 156
61 97 155
61 97 151
62 98 155
62 97 155
62 98 159
61 97 154
63 98 159
62 98 165
63 99 160
62 98 160
61 97 153
61 97 156
61 97 154
61 97 164
62 97 154
62 98 165
62 98 162
61 97 163
62 98 159
61 98 164
62 98 167
62 98 169
62 98 167
62 99 171
63 99 174
62 98 165
62 98 166
61 98 168
62 98 167
61 97 158
61 97 160
63 99 168
62 98 166
62 99 168
61 97 164
62 98 168
62 98 170
62 98 170
62 98 165
62 99 173
61 97 164
62 98 163
62 98 165
62 99 172
62 98 174
63 99 168
62 98 171
62 99 167
62 98 166
61 97 166
61 97 166
62 99 172
61 98 169
62 98 167
61 98 168
62 98 169
61 98 172
62 98 168
62 98 168
62 97 165
61 97 167
61 96 165
61 96 161
61 96 162
61 97 170
61 96 162
61 97 168
62 97 169
61 97 171
61 96 167
61 97 168
61 95 160
61 97 167
61 96 160
62 97 168
61 96 165
61 96 167
62 97 168
60 94 161
61 95 162
60 95 163
61 96 166
60 93 157
60 94 161
60 94 163
60 94 158
60 94 163
60 93 155
61 96 167
60 93 157
59 91 156
61 95 162
60 93 159
59 91 152
60 94 165
60 94 162
58 90 152
59 93 159
58 90 151
59 92 156
57 89 144
59 91 153
59 90 145
59 92 155
58 90 148
58 89 146
58 89 143
58 89 144
68 93 136
57 88 143
65 89 128
73 96 141
72 96 138
71 93 128
74 95 126
82 103 148
89 106 138
73 94 124
91 107 131
95 109 128
122 135 120
152 166 80
162 177 60
163 177 58
173 185 63
166 180 55
171 180 71
169 181 61
171 179 71
172 182 71
171 180 71
171 179 70
175 183 70
176 182 75
176 179 84
173 180 77
176 184 75
177 183 79
174 178 85
173 179 77
175 177 85
174 180 80
174 178 84
175 176 86
176 180 77
178 179 88
177 179 88
175 178 87
174 177 87
179 180 88
173 177 83
174 177 84
180 182 91
176 178 90
176 181 85
178 179 94
178 180 91
169 173 85
176 176 93
176 179 87
175 175 90
176 180 84
177 178 95
175 178 89
178 179 90
174 179 80
173 179 84
176 178 87
176 180 88
178 182 86
178 182 87
177 182 80
177 181 85
177 179 89
173 177 82
177 182 80
177 185 74
175 183 78
178 183 87
177 183 83
174 181 77
174 184 67
176 185 72
179 185 81
175 186 67
176 185 69
174 186 64
175 183 69
177 186 73
178 187 73
175 187 60
177 187 65
174 186 56
176 188 60
176 190 54
173 187 56
175 189 56
172 187 47
175 191 49
174 190 47
175 192 41
175 192 34
174 190 48
175 192 41
171 191 30
174 192 39
173 191 37
173 193 30
177 194 41
170 190 22
172 191 34
174 196 16
173 194 19
171 193 16
170 193 16
168 191 11
173 196 0
173 197 0
170 194 0
171 194 0
169 193 0
171 195 0
172 196 0
173 197 0
173 195 0
172 196 0
174 196 0
173 196 0
171 194 0
172 195 0
172 195 0
171 195 0
173 196 0
173 195 0
173 196 0
171 194 0
176 198 0
172 196 0
174 197 0
173 196 0
171 194 0
172 196 0
171 194 0
172 195 0
173 196 0
173 197 0
171 195 0
173 196 0
173 195 0
171 195 0
174 197 0
175 198 0
174 197 0
173 196 0
169 192 0
171 194 0
174 197 0
172 196 0
172 196 0
174 197 0
174 197 0
173 197 0
174 197 0
174 197 0
175 198 0
174 198 0
171 195 0
173 197 0
173 196 0
174 197 0
175 198 0
171 195 0
174 198 0
173 197 0
172 196 0
172 196 0
172 195 0
172 196 0
171 194 0
172 195 0
173 197 0
176 198 0
173 197 0
174 198 0
174 198 0
173 197 0
174 198 0
173 196 0
170 195 0
171 195 0
173 196 0
173 196 0
171 195 0
173 197 0
174 197 0
174 197 0
174 197 0
173 197 0
175 198 0
172 195 0
172 196 0
175 198 0
177 199 0
172 196 0
170 193 0
174 197 0
173 196 0
173 196 0
174 197 0
174 197 0
172 196 0
171 195 0
174 197 0
174 197 0
173 196 0
172 195 0
176 198 0
172 196 0
173 196 0
173 196 0
174 197 0
173 197 0
173 196 0
175 198 0
174 198 0
173 196 0
172 196 0
173 197 0
175 198 0
171 194 0
172 195 0
176 198 0
172 195 0
174 197 0
175 198 0
173 196 25
173 195 25
167 191 0
174 197 0
172 195 0
170 193 0
172 195 0
174 197 25
173 196 0
173 196 25
169 192 0
172 195 36
171 194 36
172 195 0
172 194 36
174 196 0
171 194 36
166 189 25
170 193 36
173 196 44
171 194 36
168 191 36
172 194 57
173 196 62
173 195 36
170 192 0
169 191 36
177 198 72
173 195 44
174 196 67
171 193 67
169 190 44
171 192 57
171 193 51
170 193 62
169 191 62
171 192 51
167 190 80
169 191 72
168 189 51
173 195 72
168 189 62
168 189 67
170 192 57
167 189 62
165 186 57
177 198 67
167 188 36
167 187 72
166 187 51
167 189 67
166 188 57
159 181 51
168 189 44
163 185 51
162 183 25
160 182 57
158 180 57
161 183 36
153 174 62
157 179 51
162 184 65
141 162 90
88 116 126
61 96 145
61 97 149
61 96 150
61 96 150
62 97 155
62 97 159
61 97 155
61 97 153
61 97 153
61 96 147
62 98 160
62 98 160
62 98 159
63 99 171
62 97 156
62 98 165
62 98 167
62 98 166
62 99 165
61 97 161
62 98 164
62 99 166
61 97 158
62 98 168
62 98 168
62 98 164
62 98 162
62 98 162
62 98 166
62 99 172
62 98 166
62 98 165
62 98 168
62 98 169
62 98 164
62 98 168
62 99 166
61 98 165
63 99 175
61 97 164
61 97 169
62 98 169
62 99 170
62 98 168
62 98 168
62 98 167
61 97 160
63 99 171
61 97 160
62 97 163
62 97 164
62 98 169
61 97 161
61 98 171
61 97 165
62 98 170
61 97 165
61 97 164
62 98 170
61 97 162
61 97 165
61 97 167
61 97 165
60 96 161
63 98 171
62 98 171
61 97 168
62 97 165
62 98 173
61 96 165
61 96 162
61 96 164
61 95 159
60 94 156
60 96 164
61 96 163
61 96 165
61 96 162
60 96 164
60 94 158
62 96 166
61 95 163
60 95 162
61 95 160
60 93 155
61 95 162
59 92 153
61 95 161
59 91 150
59 92 156
60 93 157
61 94 159
60 93 157
58 91 153
58 91 153
59 92 160
61 95 164
59 92 159
58 91 152
59 92 156
58 90 155
57 89 147
57 88 144
58 90 151
59 91 152
58 89 148
57 88 144
57 86 130
57 87 142
57 87 142
62 88 131
74 94 124
68 93 134
67 90 132
84 101 129
73 95 137
80 98 127
90 105 127
94 109 137
102 114 131
95 109 123
134 142 113
156 170 87
162 175 65
164 176 67
169 179 63
171 180 68
168 178 63
170 176 74
168 178 65
174 181 75
172 180 71
170 178 71
176 182 75
176 182 76
172 179 76
175 179 87
176 180 84
174 178 80
176 178 88
178 181 87
174 179 81
174 176 84
175 179 86
178 179 90
176 178 87
175 178 87
177 175 92
176 178 93
176 179 89
178 179 87
173 175 87
176 176 95
175 177 90
175 177 90
175 174 90
177 178 92
174 177 84
177 178 93
177 177 95
176 177 93
175 177 93
177 178 90
178 180 95
176 180 89
176 177 94
173 176 87
174 177 87
177 178 90
175 178 88
173 177 84
177 180 92
176 179 88
177 180 87
174 178 86
175 181 80
173 180 75
175 182 80
176 181 85
176 178 87
174 183 73
177 184 77
176 181 77
178 182 81
178 184 78
175 180 80
176 183 77
176 186 66
177 185 74
174 184 70
175 184 69
172 183 62
175 185 72
175 187 63
175 188 60
173 184 64
178 189 64
176 188 62
173 189 49
175 190 53
175 187 59
175 187 57
173 191 42
174 188 51
175 192 42
176 194 37
174 192 41
171 191 30
175 193 41
173 193 32
173 193 32
172 192 25
169 189 22
170 190 28
172 195 11
175 196 19
171 194 16
171 194 11
173 196 0
174 197 0
176 198 0
173 196 0
171 194 0
173 195 0
170 194 0
172 195 0
173 196 0
173 196 0
171 195 0
172 196 0
174 198 0
171 193 0
171 195 0
173 196 0
173 197 0
172 196 0
174 197 0
172 196 0
172 196 0
172 194 0
171 195 0
175 198 0
174 196 0
172 195 0
173 196 0
174 197 0
173 197 0
174 196 0
171 195 0
174 197 0
173 196 0
175 198 0
173 197 0
174 197 0
172 196 0
174 197 0
174 197 0
173 196 0
174 197 0
175 198 0
172 196 0
172 196 0
173 197 0
173 197 0
174 197 0
171 195 0
173 197 0
173 197 0
174 198 0
171 194 0
173 196 0
173 197 0
174 197 0
174 197 0
172 196 0
174 198 0
173 197 0
174 198 0
171 195 0
172 196 0
173 197 0
174 198 0
172 195 0
173 197 0
173 197 0
173 197 0
175 198 0
173 196 0
172 196 0
174 197 0
172 196 0
173 196 0
174 197 0
170 194 0
172 196 0
172 196 0
172 197 0
174 197 0
174 197 0
173 197 0
174 197 0
174 197 0
175 198 0
172 195 0
173 196 0
172 195 0
173 197 0
171 195 0
171 194 0
172 195 0
173 196 0
172 196 0
173 197 0
173 196 0
172 195 0
171 196 0
173 196 0
171 194 0
173 195 0
173 196 0
170 193 0
170 193 0
172 196 0
173 196 0
172 195 0
174 196 0
174 197 0
173 196 0
169 192 0
171 193 0
171 195 0
173 196 0
172 195 0
172 195 25
174 197 0
172 196 0
174 196 25
170 193 0
173 196 0
170 193 25
172 194 0
171 193 0
170 192 0
171 194 0
174 196 0
168 192 25
169 192 0
175 197 0
170 193 0
170 193 36
170 193 0
173 196 0
174 196 36
167 190 25
168 191 0
169 191 51
172 194 51
170 192 44
171 193 25
171 193 62
171 194 44
173 196 51
169 192 51
175 197 51
175 197 57
171 193 44
171 193 44
170 192 62
169 192 51
167 189 44
170 192 44
166 189 67
168 190 36
175 197 76
172 194 67
172 194 67
164 186 36
165 185 51
164 187 57
165 187 67
172 194 51
169 190 51
166 188 36
168 189 25
168 190 62
169 190 51
164 186 62
169 190 51
170 191 51
157 179 44
163 184 25
157 178 72
162 183 57
160 181 57
166 188 36
166 189 57
156 178 31
162 183 72
138 161 78
87 117 139
60 95 143
61 97 151
61 97 151
62 97 151
61 97 154
61 96 149
61 97 155
62 98 156
61 97 149
61 97 154
61 97 159
61 97 157
62 98 160
62 98 163
63 99 169
62 98 168
62 98 161
62 98 160
61 97 159
62 98 163
62 98 163
62 98 163
61 98 162
61 97 163
63 99 169
63 99 167
62 98 166
62 99 167
62 98 165
63 99 162
62 99 168
62 98 162
62 99 172
62 98 170
62 98 164
62 98 170
61 98 167
61 98 161
62 98 164
62 98 164
62 98 173
63 99 171
63 99 168
62 98 166
62 98 169
62 98 165
63 99 173
61 97 163
62 97 163
62 99 171
61 97 161
62 98 170
61 97 167
62 98 168
62 98 165
62 98 167
61 98 170
62 98 165
61 96 159
61 97 170
61 96 165
62 97 164
62 97 169
61 97 171
61 97 166
62 97 166
62 98 172
61 96 166
62 97 166
62 97 166
62 97 169
62 97 165
61 95 164
61 96 160
61 97 168
61 96 166
61 95 157
61 96 165
61 96 165
60 95 162
60 94 157
61 95 157
61 95 163
60 94 160
61 95 163
60 94 159
60 92 152
59 92 151
59 94 164
59 92 155
58 91 153
59 91 151
59 92 154
59 91 154
59 92 154
58 92 158
59 93 160
59 92 155
56 86 143
59 92 155
59 91 152
58 90 148
57 88 144
58 90 149
57 88 141
56 87 141
58 90 148
63 90 138
57 87 138
59 87 132
72 94 133
75 97 141
69 94 142
69 91 128
86 103 126
84 101 131
81 100 136
92 107 137
95 109 132
100 113 130
107 117 131
130 140 113
150 163 88
161 173 72
166 177 63
165 175 68
170 180 72
169 178 71
170 174 81
173 179 75
176 181 80
171 177 75
171 177 80
172 178 78
178 181 87
178 179 89
178 179 91
173 177 80
174 179 80
176 179 86
176 179 86
172 177 83
175 175 90
175 176 90
178 178 97
174 176 87
176 175 94
174 175 88
178 176 101
176 176 94
177 177 91
179 178 95
180 179 95
175 177 91
178 175 102
172 173 93
177 177 90
175 175 95
174 177 85
175 179 86
179 178 97
175 177 90
173 176 90
175 177 90
179 177 92
173 174 95
173 175 88
175 177 93
177 180 90
176 175 97
175 178 85
177 179 89
177 180 88
178 181 90
174 177 89
178 180 91
179 179 90
178 180 86
174 177 87
178 183 84
178 184 83
177 181 87
177 182 82
175 181 76
170 180 67
176 182 77
179 185 78
176 182 76
177 183 75
177 182 78
175 185 69
179 186 76
176 186 72
176 186 69
172 183 62
175 185 67
172 182 63
178 189 63
174 189 57
178 189 62
175 188 56
173 190 45
175 188 60
171 187 42
176 191 53
175 193 39
176 191 48
174 190 45
169 189 34
174 193 34
172 192 34
171 191 25
174 193 30
173 193 28
175 194 34
171 193 19
172 193 25
175 196 16
171 194 11
169 192 0
172 195 0
170 194 0
172 194 0
172 195 0
172 195 0
174 196 0
173 197 0
173 195 0
174 197 0
174 197 0
171 194 0
169 192 0
171 195 0
173 197 0
173 196 0
171 194 0
173 195 0
174 197 0
174 197 0
173 196 0
174 197 0
171 195 0
173 196 0
173 196 0
173 196 0
174 196 0
174 197 0
174 196 0
173 196 0
172 195 0
173 196 0
171 195 0
173 196 0
174 196 0
173 196 0
174 197 0
172 196 0
173 197 0
172 195 0
172 196 0
173 197 0
175 198 0
174 198 0
172 196 0
174 197 0
175 198 0
174 197 0
173 197 0
173 196 0
173 197 0
171 195 0
171 195 0
175 198 0
173 197 0
174 198 0
174 198 0
175 198 0
173 196 0
171 195 0
175 198 0
173 197 0
173 196 0
175 198 0
172 196 0
171 195 0
174 197 0
174 197 0
172 197 0
174 197 0
171 195 0
173 197 0
172 196 0
170 194 0
174 197 0
172 196 0
172 196 0
173 196 0
173 196 0
172 196 0
174 197 0
175 198 0
171 194 0
173 196 0
175 198 0
169 193 0
171 195 0
172 195 0
172 196 0
172 196 0
170 193 0
174 197 0
172 196 0
171 195 0
173 196 0
174 197 0
175 198 0
173 197 0
171 195 0
170 193 0
174 197 0
172 195 0
170 194 0
169 193 0
173 197 0
172 195 0
172 196 0
171 193 0
171 195 0
172 196 0
173 197 0
175 198 0
175 197 0
172 196 0
172 195 0
172 195 0
172 195 0
174 197 0
172 195 0
173 195 0
170 193 0
173 195 0
174 196 0
175 197 0
170 192 0
171 194 0
172 194 0
170 193 25
171 194 0
173 195 0
173 195 0
173 195 0
171 193 36
172 195 36
173 195 44
175 197 44
171 193 25
173 196 57
174 196 25
170 193 25
169 192 0
167 189 36
174 196 36
169 191 51
170 193 25
169 191 25
171 194 36
167 189 44
172 194 44
170 192 44
166 189 44
167 189 36
170 192 62
168 190 51
169 190 76
171 193 67
168 189 57
167 189 57
170 191 51
171 193 57
168 189 36
171 193 62
165 186 62
166 187 51
165 186 25
168 189 51
170 192 57
168 189 25
161 182 51
162 182 51
163 183 36
162 184 57
162 184 25
164 184 44
167 189 40
157 178 25
163 184 57
160 181 57
162 184 72
141 165 88
82 113 149
61 97 147
62 98 154
61 97 151
61 97 152
62 97 153
62 98 160
61 96 153
62 98 163
62 98 156
62 98 155
62 98 160
62 97 153
62 98 156
61 97 154
62 98 164
62 98 162
62 98 156
61 97 160
62 98 159
62 98 163
62 98 163
62 98 161
62 99 169
62 98 166
62 99 166
61 98 165
62 98 159
62 99 169
63 99 171
62 98 162
62 98 163
62 98 167
63 99 168
62 98 168
63 99 169
62 99 169
63 99 170
63 99 166
62 98 169
62 98 169
61 97 163
62 98 166
61 98 165
62 98 170
62 98 168
62 98 165
62 99 174
62 99 175
62 98 172
61 98 165
62 98 169
61 97 163
61 97 166
62 98 171
61 97 160
62 97 165
62 97 160
61 97 165
61 97 169
62 98 165
61 96 165
61 96 159
61 96 164
62 97 164
60 96 167
61 96 162
61 96 162
62 97 166
62 98 170
61 96 165
60 95 159
61 96 159
61 96 163
61 97 164
61 95 163
62 97 170
61 96 163
61 95 159
61 95 164
60 95 162
59 94 160
60 94 157
60 93 156
60 94 159
59 93 156
61 95 165
58 89 146
60 93 158
59 92 153
59 92 153
59 91 154
59 92 158
60 93 157
59 92 153
57 89 145
59 92 156
57 88 148
56 87 144
59 91 153
59 91 149
58 88 144
56 87 143
57 87 143
56 86 142
57 88 140
56 85 136
55 84 134
62 89 138
60 88 136
63 91 142
75 96 134
71 92 126
76 97 131
83 101 135
82 98 123
72 91 124
99 111 129
101 113 136
102 113 128
98 110 126
116 124 125
124 131 108
146 159 83
163 171 77
165 176 69
172 179 77
173 179 82
165 175 65
170 178 71
170 178 74
172 179 75
175 178 85
172 177 78
174 178 83
177 179 85
179 178 92
173 175 87
175 174 95
174 177 85
176 174 90
178 178 90
179 178 95
176 177 88
175 176 91
178 177 93
175 175 93
178 177 93
178 176 94
172 175 90
179 176 101
178 177 95
175 175 93
171 172 91
178 175 99
176 175 95
176 174 97
176 176 99
175 174 99
175 174 99
176 176 94
176 174 95
175 174 97
177 176 100
176 175 99
177 176 99
177 177 93
176 178 93
177 176 99
177 178 99
175 174 99
178 176 102
176 177 92
172 175 90
176 179 91
174 177 87
177 180 89
175 176 90
176 179 87
177 177 90
175 178 90
175 181 82
176 180 85
176 181 84
173 179 80
176 180 84
177 183 79
177 182 86
176 182 81
176 182 78
175 181 78
178 183 82
178 186 77
178 187 71
177 185 75
175 185 66
176 186 70
178 189 61
179 189 64
174 188 59
177 190 59
171 186 51
174 186 58
175 188 53
175 188 62
175 193 42
174 191 44
174 191 41
171 189 39
174 193 34
176 194 41
174 193 30
173 193 32
174 192 32
174 194 28
171 192 22
173 194 25
169 191 0
170 193 11
171 193 16
171 195 0
173 195 11
170 193 0
170 194 0
175 197 0
174 197 0
173 195 0
172 196 0
173 196 0
172 196 0
174 197 0
173 196 0
172 195 0
173 196 0
173 196 0
174 197 0
172 194 0
172 196 0
173 196 0
170 194 0
171 195 0
173 196 0
175 198 0
171 194 0
173 197 0
172 196 0
174 197 0
172 195 0
174 198 0
173 196 0
172 195 0
174 197 0
173 196 0
173 196 0
173 196 0
172 196 0
173 197 0
173 196 0
172 196 0
171 195 0
172 196 0
174 196 0
171 195 0
175 198 0
173 196 0
171 195 0
174 197 0
173 196 0
172 195 0
174 197 0
174 197 0
173 197 0
174 198 0
171 194 0
173 197 0
174 197 0
174 197 0
173 196 0
174 198 0
173 196 0
174 197 0
173 196 0
173 197 0
174 197 0
173 197 0
174 197 0
173 197 0
173 197 0
173 196 0
172 195 0
174 198 0
171 195 0
173 197 0
173 196 0
174 196 0
175 197 0
174 197 0
173 197 0
174 198 0
170 194 0
172 195 0
174 197 0
173 197 0
175 198 0
174 198 0
171 194 0
173 197 0
173 197 0
173 197 0
172 195 0
173 197 0
171 195 0
171 195 0
173 197 0
172 196 0
172 195 0
172 195 0
171 194 0
171 195 0
174 197 0
173 196 0
174 197 0
172 195 0
174 197 0
175 198 0
172 195 0
171 194 0
173 196 0
172 195 0
176 198 0
168 191 0
174 197 0
173 197 0
173 196 0
172 196 0
173 195 0
174 197 0
172 196 0
174 197 0
172 195 25
170 194 0
173 196 0
172 195 0
170 193 0
171 193 0
172 195 0
173 196 0
172 195 0
173 195 0
172 195 0
172 195 25
168 190 0
176 198 36
170 192 0
174 197 0
172 195 25
172 193 25
172 194 36
166 188 36
166 187 0
167 189 44
169 191 36
174 195 51
172 194 25
170 192 67
167 188 36
172 194 44
169 190 51
168 189 36
164 186 36
175 197 67
171 192 44
169 191 36
170 191 51
161 184 44
169 190 72
164 186 44
160 183 44
172 193 62
168 190 51
164 186 62
172 195 36
167 187 36
168 190 44
168 189 36
164 185 57
169 189 57
168 189 51
166 187 51
155 177 44
161 182 67
170 191 36
156 177 51
162 184 36
160 181 36
157 178 44
169 191 57
163 184 57
160 182 88
134 157 97
80 111 151
62 98 155
61 96 144
62 98 154
60 95 149
61 96 147
61 97 156
62 97 150
62 98 158
63 99 161
63 99 163
61 96 153
62 97 157
62 98 157
61 97 154
62 98 161
62 98 165
61 97 155
62 98 164
62 98 163
61 97 156
62 97 154
61 97 156
63 99 169
62 98 163
62 98 163
62 98 159
63 99 167
62 98 167
61 97 155
62 98 163
62 99 169
61 97 158
61 97 158
62 98 167
61 98 167
63 99 168
63 99 164
62 98 163
61 98 164
62 98 164
61 97 162
63 99 171
62 98 168
61 97 166
63 98 167
62 98 168
62 97 164
62 98 168
61 97 163
61 98 167
61 97 164
63 99 171
62 98 166
62 98 171
62 97 167
62 97 165
62 97 168
61 97 166
61 98 168
62 98 168
62 97 161
62 97 165
62 97 162
62 97 166
62 98 168
61 96 157
61 96 162
61 96 165
61 95 161
62 97 169
61 95 162
60 94 159
61 97 166
60 95 163
60 93 157
61 94 156
61 95 162
60 93 157
60 95 159
61 96 164
60 94 160
59 92 154
59 93 152
60 94 154
60 94 162
59 92 150
59 91 153
59 93 155
57 89 144
60 93 157
57 89 146
59 92 158
59 93 161
59 90 151
60 95 164
58 91 155
59 91 151
57 88 144
58 90 149
57 88 146
57 88 142
57 87 146
56 87 143
57 87 141
56 85 135
59 86 134
59 88 138
61 88 137
64 90 133
82 99 129
77 96 125
77 98 136
76 96 132
86 102 132
88 103 125
104 114 125
106 116 129
97 108 116
104 114 120
105 114 123
107 115 116
103 115 115
142 151 98
161 168 78
160 168 71
162 169 76
173 178 77
172 176 83
172 177 82
168 173 78
173 174 87
172 174 87
175 178 86
175 175 84
172 174 80
177 178 95
177 178 87
176 176 92
176 178 86
178 177 95
180 180 97
178 178 97
178 178 89
179 178 96
176 176 91
176 176 94
174 178 89
179 178 98
176 172 103
177 176 99
177 175 102
180 177 98
177 172 108
176 173 96
178 177 98
177 178 93
176 174 99
175 173 100
175 173 99
178 175 103
172 170 97
176 174 98
173 173 95
175 174 95
176 175 99
177 175 95
176 174 98
176 176 97
177 174 100
171 173 97
175 173 97
178 175 100
176 177 95
180 179 97
178 178 93
177 179 93
177 178 95
176 178 87
174 177 84
176 180 85
172 174 93
179 181 91
175 179 88
179 179 93
176 182 80
177 184 80
177 182 80
173 179 78
176 183 79
177 185 76
177 186 77
176 184 76
178 185 70
176 182 73
175 186 68
174 182 74
175 183 75
177 187 67
177 188 63
175 185 69
176 188 60
179 190 66
174 185 63
175 187 58
177 190 56
176 189 54
173 187 53
173 191 42
176 192 44
173 192 37
176 193 44
173 192 37
174 192 36
175 191 47
170 192 25
174 194 30
173 194 19
172 194 19
173 194 22
173 194 16
173 195 16
173 195 11
175 197 0
174 196 0
173 196 0
172 195 0
172 194 0
174 197 0
173 196 0
172 195 0
172 196 0
173 196 0
175 198 0
171 195 0
173 196 0
173 196 0
173 197 0
171 194 0
173 196 0
173 196 0
173 196 0
174 197 0
174 197 0
174 197 0
173 197 0
172 196 0
173 197 0
171 194 0
174 197 0
171 194 0
172 196 0
173 197 0
173 196 0
172 195 0
174 197 0
173 197 0
172 195 0
174 198 0
171 194 0
173 197 0
171 194 0
174 197 0
173 196 0
171 195 0
172 196 0
173 196 0
171 195 0
175 198 0
173 197 0
175 198 0
173 197 0
174 198 0
173 197 0
174 197 0
173 196 0
174 197 0
171 194 0
171 195 0
173 197 0
171 195 0
172 196 0
174 197 0
172 196 0
170 195 0
172 196 0
173 197 0
172 195 0
171 195 0
173 197 0
172 196 0
174 198 0
172 196 0
172 196 0
174 197 0
172 195 0
173 197 0
172 196 0
172 196 0
171 196 0
173 196 0
173 197 0
171 195 0
174 197 0
174 197 0
173 196 0
169 193 0
172 196 0
171 195 0
172 195 0
174 197 0
172 196 0
172 195 0
170 194 0
174 198 0
170 194 0
174 198 0
174 197 0
170 193 0
173 196 0
175 198 0
173 196 0
175 198 0
170 194 0
173 197 0
170 194 0
174 197 0
170 193 0
168 191 0
169 192 0
170 193 0
172 195 0
169 192 0
172 195 0
173 196 0
171 194 0
172 195 25
169 193 0
173 196 0
176 198 0
173 196 0
168 192 0
170 193 0
173 195 0
171 194 0
171 193 0
171 193 0
172 194 0
173 195 0
170 193 0
173 196 44
170 193 0
171 193 0
170 192 0
173 196 25
171 194 25
172 194 36
170 192 0
165 188 0
172 194 25
174 196 25
174 196 0
164 187 57
170 193 25
169 191 36
173 195 44
167 189 0
166 189 44
172 194 36
169 191 44
168 190 57
170 192 72
172 193 51
170 192 67
171 193 51
163 185 44
168 189 62
169 190 44
167 189 57
171 193 67
168 190 57
165 186 62
163 184 44
165 186 36
166 187 57
167 189 51
167 189 57
157 179 51
170 191 57
161 184 44
170 191 51
160 181 44
157 178 36
164 186 67
153 175 51
166 187 57
166 187 62
161 182 51
157 179 65
133 156 92
78 108 125
61 96 147
61 96 144
60 96 142
62 97 155
62 98 154
62 98 157
61 97 156
62 98 153
62 98 164
62 98 160
62 97 154
62 98 157
61 97 161
61 97 154
61 97 159
62 98 160
61 97 157
62 98 160
63 99 163
61 97 159
62 98 158
62 98 161
62 98 161
61 98 162
62 99 167
63 99 169
62 98 162
61 97 158
61 97 162
62 98 166
61 97 155
62 99 163
63 99 170
62 98 167
61 97 165
62 98 170
61 97 159
62 98 168
62 98 169
61 97 161
62 98 165
62 98 169
61 97 160
62 98 166
62 98 165
61 97 164
61 97 160
62 98 167
63 99 172
61 97 163
62 98 168
62 97 161
62 98 169
62 98 169
62 97 162
62 98 165
62 98 167
60 96 159
61 96 155
62 97 165
61 97 166
61 97 165
60 95 154
61 96 167
61 96 158
61 96 157
61 96 162
61 96 165
61 97 166
62 97 170
62 97 166
60 95 160
60 95 162
61 95 163
61 95 158
60 94 159
60 95 164
62 96 163
60 94 158
61 96 164
60 94 158
60 93 155
60 93 154
59 92 150
60 93 156
60 94 155
57 88 142
59 92 153
59 93 159
60 93 155
59 92 154
58 90 147
57 88 144
58 90 149
58 90 148
58 89 149
56 87 142
57 89 150
56 86 140
57 87 142
56 87 135
58 90 144
56 84 133
57 88 144
57 88 144
57 88 145
65 91 135
71 93 134
81 99 134
71 93 129
68 90 122
74 95 133
90 105 129
86 102 128
89 101 117
85 101 122
94 107 117
88 102 122
107 117 128
102 111 113
105 116 130
114 122 116
144 153 92
157 166 81
159 169 72
162 172 66
166 173 75
163 168 80
166 168 81
167 171 83
173 176 84
173 175 85
174 174 87
175 177 88
179 178 94
179 180 87
174 175 91
180 177 97
174 175 90
178 177 97
176 173 97
177 176 97
175 174 95
180 177 97
179 176 103
177 175 101
176 174 101
179 176 99
176 175 96
174 173 98
175 173 103
173 171 100
177 174 99
177 173 102
176 172 104
177 173 106
176 172 99
174 173 97
177 174 105
177 174 105
175 172 98
177 174 105
181 177 99
175 172 103
175 173 100
176 173 97
177 175 102
176 174 101
177 177 97
177 176 100
176 174 98
175 174 94
176 174 101
178 175 96
175 175 93
175 174 94
177 176 93
177 179 95
172 175 93
178 177 95
174 179 88
178 179 90
178 181 88
174 178 88
178 182 86
176 179 84
178 180 87
177 179 90
176 183 80
174 182 77
176 182 79
176 184 77
179 185 76
180 187 80
176 184 71
175 183 66
173 187 59
175 182 78
176 184 72
180 188 69
176 187 66
175 188 58
172 185 52
179 190 62
174 190 48
175 189 49
176 190 51
174 189 48
175 190 48
176 192 45
174 193 39
171 191 36
172 191 41
175 195 28
176 194 39
170 193 16
172 194 25
172 194 22
173 194 19
171 193 16
174 195 19
170 193 0
172 195 0
171 194 11
170 193 0
172 195 0
172 195 0
172 196 0
171 194 0
174 196 0
173 196 0
172 194 0
173 195 0
171 195 0
173 196 0
170 195 0
171 193 0
174 196 0
173 196 0
173 197 0
172 195 0
171 194 0
172 196 0
172 195 0
172 196 0
172 195 0
171 194 0
171 194 0
172 195 0
172 195 0
173 196 0
174 197 0
173 196 0
175 197 0
173 197 0
172 196 0
173 197 0
172 196 0
174 197 0
171 194 0
171 194 0
174 197 0
172 196 0
174 198 0
172 195 0
174 197 0
172 196 0
172 196 0
175 198 0
174 197 0
172 196 0
170 194 0
173 197 0
173 195 0
173 197 0
174 197 0
172 196 0
174 197 0
172 196 0
173 196 0
173 196 0
169 193 0
173 197 0
175 198 0
171 196 0
173 197 0
171 195 0
173 196 0
172 196 0
172 196 0
173 197 0
171 195 0
175 197 0
173 197 0
174 197 0
173 197 0
172 195 0
172 196 0
171 195 0
174 197 0
174 197 0
171 195 0
175 197 0
169 193 0
173 197 0
170 193 0
169 193 0
175 198 0
172 195 0
174 197 0
172 195 0
171 195 0
175 198 0
172 196 0
173 196 0
172 196 0
172 196 0
173 196 0
172 196 0
174 197 0
174 197 0
173 196 0
172 196 0
171 194 0
172 194 0
172 195 0
172 195 0
168 191 0
173 196 0
172 196 0
173 196 0
169 193 0
171 194 0
172 195 0
170 193 0
173 195 0
172 195 0
169 192 0
172 195 0
171 194 0
171 193 0
170 193 0
173 195 0
171 194 0
171 193 0
171 193 25
171 194 0
172 196 0
170 193 0
174 195 0
174 196 0
171 193 0
171 193 36
168 190 0
171 194 25
167 189 0
169 193 0
172 195 0
170 192 25
170 193 25
171 193 36
172 193 36
172 194 0
172 193 25
173 195 25
170 191 36
172 194 72
168 189 44
168 190 25
173 194 36
170 192 36
158 180 51
172 193 36
167 189 44
170 192 25
168 189 0
169 190 25
162 184 51
165 186 51
171 192 44
169 190 25
161 182 25
166 187 62
160 180 51
160 181 36
159 181 36
165 187 51
166 188 44
165 187 51
167 187 67
168 189 57
160 180 76
165 186 51
154 174 36
159 180 36
153 174 57
151 173 40
157 178 57
136 159 78
71 103 140
61 96 144
62 97 154
60 96 149
61 97 161
61 97 150
61 97 152
62 97 152
62 97 157
62 97 153
62 98 158
61 97 145
63 99 163
61 97 152
63 99 165
62 98 159
62 98 159
61 97 160
62 99 163
62 98 160
62 98 159
61 97 153
61 97 157
63 99 164
62 98 161
62 98 164
61 97 160
62 98 163
62 98 163
62 98 166
63 99 169
62 98 164
62 98 171
61 97 159
62 98 163
62 98 162
62 97 155
62 98 163
62 99 173
62 98 164
62 98 162
61 97 157
62 99 169
61 97 162
62 98 166
63 99 175
62 98 164
62 98 162
62 98 163
62 98 167
61 97 161
61 97 162
63 99 171
62 98 170
62 99 170
62 98 164
61 96 158
62 98 167
61 96 158
62 97 164
62 97 163
60 96 165
63 99 173
61 97 164
62 98 166
61 97 165
60 95 160
61 96 159
61 96 161
61 96 165
61 96 164
61 96 160
61 95 161
60 95 156
60 95 160
60 94 153
60 95 161
61 95 162
61 96 161
60 95 161
61 95 163
60 93 155
60 94 156
61 95 156
60 93 156
60 93 153
59 92 155
59 92 154
59 92 152
59 90 144
58 90 151
59 91 150
59 91 155
58 91 153
57 88 143
57 89 149
58 89 145
58 90 147
57 88 144
59 90 149
57 89 149
56 85 136
58 89 144
57 87 139
57 86 137
58 86 134
67 90 132
67 91 133
70 93 134
62 85 123
80 99 139
75 94 129
90 106 134
80 98 132
81 97 122
98 110 121
85 99 116
97 108 119
99 110 122
103 112 116
118 123 109
112 119 119
117 125 118
135 143 100
157 162 83
162 170 77
167 172 83
162 169 75
165 171 80
161 168 76
166 166 89
169 170 88
170 171 86
170 171 89
176 178 89
178 176 95
177 176 96
176 176 89
174 173 88
174 173 94
176 174 99
177 175 101
179 175 97
179 174 104
175 172 98
179 176 100
176 172 102
177 174 99
177 173 104
178 174 102
173 170 101
176 170 104
174 171 102
178 173 106
176 173 105
177 173 106
176 173 101
177 172 104
175 171 100
178 173 106
175 171 106
175 172 105
176 173 103
178 175 108
176 173 103
175 172 105
176 174 103
176 175 99
175 173 101
176 173 100
178 173 103
173 171 102
175 173 99
174 172 99
174 175 93
175 174 99
175 174 97
178 174 97
178 176 101
175 176 96
176 176 91
176 176 93
179 177 97
176 178 85
176 176 95
174 175 90
175 177 90
179 180 93
176 179 86
177 181 81
176 179 87
177 185 75
175 179 83
175 183 75
175 182 77
174 182 76
176 181 80
175 182 76
177 183 71
178 184 73
176 185 74
177 186 70
174 186 64
178 189 62
175 188 57
177 187 64
175 189 56
175 189 57
173 191 41
175 190 51
176 191 47
174 190 45
174 190 48
172 191 39
174 192 37
170 191 22
175 195 32
174 195 22
173 192 32
173 193 25
173 194 22
173 196 19
173 194 22
173 196 11
173 195 0
170 194 0
173 195 0
171 193 0
173 196 0
173 196 0
171 195 0
171 195 0
175 198 0
171 195 0
171 195 0
171 195 0
172 195 0
174 197 0
174 196 0
172 195 0
171 195 0
172 195 0
173 196 0
171 195 0
171 195 0
173 197 0
175 198 0
169 193 0
170 193 0
175 198 0
173 197 0
174 196 0
174 197 0
173 197 0
172 196 0
173 197 0
173 195 0
174 197 0
172 196 0
173 197 0
173 196 0
172 195 0
173 197 0
174 197 0
172 196 0
174 197 0
173 197 0
174 197 0
173 197 0
174 198 0
175 198 0
175 198 0
172 196 0
170 194 0
174 197 0
175 198 0
176 199 0
171 194 0
172 197 0
171 194 0
173 197 0
173 196 0
173 196 0
172 195 0
173 197 0
174 197 0
174 198 0
173 197 0
171 195 0
172 195 0
174 198 0
173 197 0
171 195 0
175 198 0
170 194 0
174 197 0
172 195 0
172 195 0
174 197 0
172 196 0
168 193 0
173 197 0
174 198 0
171 195 0
174 197 0
172 196 0
172 195 0
172 196 0
171 195 0
172 195 0
169 193 0
172 196 0
174 197 0
173 197 0
171 195 0
173 196 0
175 197 0
174 197 0
172 196 0
175 198 0
172 196 0
175 198 0
172 195 0
171 194 0
175 198 0
173 196 0
172 195 0
172 195 0
170 193 0
172 195 0
172 195 0
168 192 0
171 195 0
172 195 0
174 196 0
173 196 0
169 193 0
170 194 0
172 195 0
171 194 0
173 196 0
169 192 0
174 197 0
175 197 0
170 192 0
172 195 25
170 194 0
173 196 0
170 192 0
173 195 0
173 195 0
171 194 0
174 196 25
167 189 25
173 195 36
170 192 25
168 189 25
174 196 25
168 190 36
168 191 0
168 189 0
170 192 25
167 188 25
170 192 36
162 183 36
168 190 62
170 192 36
165 188 0
170 192 36
169 191 51
169 190 44
171 192 36
163 185 44
162 184 36
172 194 44
167 188 51
169 191 44
163 185 44
159 180 51
169 190 36
169 191 51
167 187 36
166 187 67
161 183 51
163 183 51
164 185 36
169 191 36
157 179 44
164 187 51
157 178 0
165 186 44
159 180 44
167 189 44
162 183 44
165 187 51
166 186 51
153 173 51
164 186 51
162 182 47
142 164 82
73 104 134
62 98 154
61 96 140
60 96 145
61 97 150
61 96 148
61 96 148
63 99 163
60 96 147
61 97 155
60 95 144
61 97 152
61 96 157
62 98 156
62 98 164
62 98 161
62 98 159
62 98 161
62 98 161
62 98 161
62 98 158
62 98 161
61 97 157
62 98 161
61 98 160
62 98 158
62 99 163
61 97 160
62 98 159
63 99 169
62 98 156
61 97 161
63 99 167
62 98 161
61 98 164
62 98 164
61 98 165
62 98 172
62 98 166
61 98 165
62 98 162
62 98 165
61 96 159
62 98 161
62 98 160
62 98 169
63 99 173
61 97 164
62 98 165
61 97 164
62 98 165
62 98 169
61 97 162
61 97 158
61 97 163
61 96 160
62 98 162
62 98 166
61 96 160
61 96 156
61 96 161
61 95 157
61 95 155
61 96 163
60 96 159
60 94 154
61 96 162
61 97 166
60 96 161
61 96 159
61 96 161
60 96 163
61 96 165
60 94 153
61 95 159
61 96 165
60 95 158
60 94 157
60 94 156
61 95 160
60 94 162
61 95 158
61 95 161
61 95 158
59 92 155
60 93 154
59 92 155
59 92 154
60 93 155
60 93 155
60 93 157
58 90 146
59 93 159
58 90 147
59 92 150
58 89 148
58 89 145
57 87 144
57 88 145
58 89 149
56 86 140
57 87 140
56 86 139
56 86 138
55 84 132
61 87 133
60 85 127
71 92 130
68 90 125
66 91 134
72 91 122
74 92 120
82 97 122
86 103 133
87 102 122
100 110 122
97 108 121
110 118 126
111 118 118
92 106 123
107 114 112
114 120 116
121 128 120
140 147 94
155 162 83
159 166 80
166 169 85
168 172 85
165 170 83
168 170 88
161 162 81
173 173 92
174 174 94
171 172 89
176 176 90
175 175 90
176 174 93
181 176 101
176 174 97
176 173 93
177 173 99
179 176 102
178 172 103
178 175 102
177 174 102
176 173 103
179 175 106
180 175 106
181 174 108
175 171 103
176 172 101
175 171 106
177 172 109
174 171 101
176 173 103
176 172 108
176 172 105
179 175 108
176 171 108
173 171 101
175 171 102
175 171 104
177 172 103
177 173 105
175 172 107
174 171 102
177 172 106
174 170 103
175 173 103
176 174 103
177 173 106
175 174 102
176 173 102
177 176 101
175 172 100
176 174 102
177 174 99
176 176 99
176 175 97
175 174 100
177 175 99
176 178 95
177 176 99
177 179 90
175 175 90
177 178 91
178 179 88
178 181 90
175 180 87
175 178 86
176 178 86
179 182 90
175 180 80
179 183 87
175 182 75
178 183 84
178 180 85
178 184 77
175 180 77
178 184 77
170 181 66
175 186 64
174 184 65
177 189 61
179 190 65
175 187 62
175 189 58
173 186 58
175 188 52
174 189 48
174 189 48
171 186 48
175 192 47
175 191 45
174 192 37
176 194 37
175 192 42
173 192 32
172 193 25
175 195 28
175 196 32
173 193 19
173 195 16
170 193 0
172 196 0
172 195 0
171 194 0
171 194 0
172 195 0
173 196 0
169 192 0
169 192 0
173 196 0
171 194 0
174 197 0
173 196 0
174 196 0
173 196 0
172 196 0
172 195 0
174 197 0
172 195 0
172 196 0
173 197 0
172 196 0
172 196 0
175 198 0
172 195 0
172 195 0
174 197 0
174 197 0
171 195 0
173 196 0
173 197 0
174 198 0
172 195 0
171 194 0
173 196 0
172 196 0
174 197 0
174 197 0
172 195 0
175 198 0
172 195 0
173 197 0
172 196 0
173 197 0
173 197 0
172 196 0
174 196 0
171 195 0
172 197 0
172 196 0
174 197 0
172 195 0
174 197 0
173 196 0
172 195 0
172 196 0
175 197 0
173 197 0
171 195 0
173 196 0
172 196 0
173 197 0
171 195 0
173 197 0
173 196 0
175 198 0
173 196 0
175 198 0
173 197 0
173 196 0
174 197 0
172 195 0
172 196 0
171 195 0
175 197 0
176 198 0
173 196 0
173 197 0
172 196 0
172 196 0
171 195 0
174 196 0
173 196 0
172 196 0
172 196 0
171 195 0
174 197 0
172 195 0
173 197 0
173 197 0
172 196 0
167 191 0
173 196 0
172 196 0
174 197 0
172 196 0
174 197 0
171 194 0
172 196 0
171 195 0
171 194 0
173 196 0
172 196 0
174 196 0
171 195 0
173 196 0
169 191 0
170 194 0
174 197 0
172 195 0
172 195 0
171 194 0
172 194 0
172 194 0
172 195 0
172 194 0
169 192 0
173 196 0
168 192 0
168 192 0
174 197 0
170 193 0
172 194 0
170 193 0
171 194 0
170 194 25
173 196 0
172 194 0
174 196 0
171 193 0
169 190 0
172 194 0
174 195 0
168 189 0
171 192 0
170 193 25
170 193 0
165 187 0
166 189 0
167 190 25
168 189 36
169 191 0
170 192 44
166 187 51
174 195 44
172 194 0
168 190 62
166 187 36
169 191 36
166 188 25
163 185 36
164 186 36
164 187 44
164 186 25
171 192 44
171 192 51
168 190 44
160 182 44
164 186 44
168 189 57
165 186 57
159 181 36
165 185 62
163 185 25
156 177 44
157 180 36
162 183 36
158 179 51
158 179 36
166 187 44
165 186 36
160 183 36
158 179 36
161 182 25
163 183 36
156 178 31
143 165 70
75 106 140
60 96 149
61 97 147
61 96 148
61 96 148
60 96 149
61 97 154
61 96 141
62 98 155
61 97 155
61 96 148
62 97 155
61 98 160
63 99 164
62 97 156
61 97 151
61 97 158
62 98 158
62 97 153
62 98 162
62 98 159
61 97 158
63 99 161
63 99 167
62 98 163
62 98 163
61 97 157
63 99 164
61 96 152
62 98 164
62 98 164
63 99 165
63 99 167
62 99 165
61 97 162
62 98 164
62 98 167
62 98 163
62 98 169
62 98 164
62 98 163
62 98 165
62 98 164
62 98 164
61 97 156
62 98 169
61 96 158
62 98 168
62 98 163
62 98 165
61 97 160
62 99 171
61 97 166
62 98 165
62 97 169
62 97 163
61 96 162
61 97 163
62 97 167
61 97 164
62 97 165
61 97 161
61 95 154
61 96 160
61 97 166
60 94 155
61 97 163
60 95 162
61 95 159
61 95 156
62 97 165
61 96 160
61 95 160
61 96 159
60 94 154
60 94 155
61 96 163
60 94 155
61 95 160
60 93 153
61 95 159
60 92 149
58 92 152
60 93 154
60 93 157
58 90 146
59 92 152
58 90 147
60 93 154
59 91 155
60 92 151
59 92 153
58 90 149
56 87 139
57 88 145
57 88 148
56 87 147
57 87 137
57 88 145
54 84 136
56 86 139
55 84 133
54 82 123
56 85 134
61 85 127
61 87 132
61 86 129
59 87 135
68 90 124
68 89 122
82 98 120
91 102 108
85 99 116
87 102 127
103 112 119
94 105 117
109 116 117
108 116 113
98 109 113
109 118 122
111 116 100
122 127 121
131 134 105
135 142 103
159 162 93
159 164 82
162 165 89
162 167 79
162 166 80
169 170 92
168 168 90
167 165 95
172 172 92
170 169 92
178 176 98
173 171 95
176 173 99
175 173 97
173 171 94
177 173 100
177 173 105
178 173 104
178 173 104
177 172 99
178 174 105
177 172 108
176 171 104
177 173 106
177 172 110
177 172 107
176 172 109
177 172 109
177 171 107
178 172 108
174 169 103
175 171 106
174 170 105
178 172 106
174 170 103
175 170 107
175 171 106
177 172 109
174 171 108
177 173 108
176 171 110
177 172 107
176 172 108
177 171 108
175 171 102
178 173 107
175 172 104
176 173 107
175 172 101
176 173 103
176 172 103
180 175 109
176 173 97
177 174 102
178 176 101
174 175 94
178 176 100
177 177 97
177 174 98
175 173 99
177 176 98
176 177 92
176 176 95
178 180 93
175 176 89
175 176 90
177 181 84
177 180 84
179 183 85
176 179 84
174 184 71
175 181 76
175 178 83
178 181 84
174 180 80
179 185 78
177 184 75
176 185 67
177 186 67
175 185 63
175 184 67
178 186 70
176 186 64
175 188 60
174 185 60
173 188 52
174 189 44
174 190 51
175 192 39
176 192 51
175 193 37
173 192 30
173 192 36
176 195 32
171 191 32
169 191 22
171 191 28
172 193 22
168 190 16
169 192 16
169 191 0
171 193 11
172 194 0
169 192 0
174 197 0
173 195 0
172 195 0
173 197 0
171 195 0
172 195 0
173 196 0
173 196 0
171 194 0
173 196 0
172 196 0
174 196 0
170 193 0
172 195 0
170 194 0
170 193 0
172 195 0
173 197 0
172 196 0
172 196 0
172 195 0
172 195 0
170 194 0
172 195 0
174 196 0
172 195 0
171 193 0
171 195 0
173 196 0
174 196 0
172 196 0
173 197 0
172 196 0
173 196 0
176 198 0
173 197 0
172 195 0
171 194 0
172 196 0
175 198 0
173 196 0
172 196 0
171 195 0
172 196 0
174 197 0
175 197 0
173 197 0
174 197 0
174 198 0
174 197 0
173 197 0
171 195 0
172 196 0
172 196 0
171 195 0
174 196 0
175 198 0
173 196 0
174 197 0
172 196 0
174 197 0
174 198 0
173 196 0
172 196 0
173 196 0
172 195 0
172 196 0
171 194 0
172 196 0
171 195 0
172 195 0
174 197 0
171 194 0
173 196 0
169 193 0
171 194 0
171 194 0
173 196 0
173 196 0
175 198 0
173 196 0
172 196 0
173 197 0
174 197 0
171 195 0
171 194 0
174 197 0
173 196 0
172 196 0
173 196 0
171 194 0
171 195 0
170 194 0
176 199 0
173 196 0
173 196 0
172 195 0
172 196 0
172 195 0
172 194 0
170 193 0
173 196 0
170 193 0
170 194 0
171 194 0
172 194 0
173 196 0
174 196 0
175 198 0
172 195 0
172 195 0
172 194 0
174 197 0
175 197 0
173 196 0
171 194 0
170 193 0
171 194 0
172 195 0
175 198 25
171 193 0
170 192 0
174 196 0
173 194 0
168 191 0
170 193 0
170 192 25
174 197 0
174 196 25
168 190 0
170 192 0
172 195 0
164 187 0
169 191 0
173 194 25
170 192 25
168 190 25
170 193 0
171 192 44
166 188 0
173 193 44
169 190 36
167 190 36
170 191 51
163 186 25
169 190 36
172 194 44
170 191 36
164 186 0
171 192 44
165 186 0
165 187 0
166 188 44
166 188 44
164 186 57
161 183 25
157 178 0
157 178 57
161 182 25
161 182 25
164 184 57
159 180 44
170 191 51
162 183 51
166 187 51
153 173 44
161 183 36
164 185 25
164 185 57
165 186 62
146 168 51
142 164 65
77 108 131
60 95 144
61 97 149
61 96 139
61 96 149
62 98 152
61 96 152
62 97 155
61 96 152
63 98 157
62 97 153
62 97 152
61 97 148
62 97 154
62 97 154
62 98 156
62 98 158
61 97 156
62 98 159
63 99 166
62 98 161
61 97 159
61 97 156
61 97 159
61 97 153
60 96 156
62 98 159
62 98 167
62 98 160
61 97 151
62 98 161
61 98 163
61 97 161
61 97 157
62 98 161
63 99 164
62 98 160
61 98 164
62 97 158
62 98 163
62 98 166
62 98 161
61 97 158
62 97 164
62 97 165
61 97 158
61 98 162
61 97 160
61 97 161
62 98 165
61 97 158
62 97 163
61 98 166
62 98 167
62 97 162
62 98 169
62 98 169
61 96 159
61 96 162
61 96 156
62 97 166
61 96 162
61 96 164
61 96 162
61 96 158
61 95 158
61 97 165
62 97 165
61 97 164
60 94 157
61 96 163
61 95 159
61 94 154
61 95 159
61 95 158
60 94 159
60 94 158
59 93 149
60 94 159
60 95 160
61 95 158
60 94 158
59 93 150
59 92 155
58 90 144
58 90 148
58 90 142
59 90 144
59 92 150
57 87 139
60 94 161
58 90 149
57 88 143
56 86 140
57 88 144
54 84 137
56 86 141
57 88 147
54 83 134
57 87 143
55 84 133
56 85 131
58 86 128
54 81 124
69 92 136
60 86 130
73 93 125
78 95 124
72 91 125
70 91 124
77 96 124
84 97 112
84 99 118
98 108 123
95 105 113
96 107 117
105 113 118
94 107 124
120 125 116
117 122 115
108 115 111
121 125 105
124 128 103
139 145 98
154 157 91
164 166 90
158 162 85
165 167 91
161 162 92
160 162 87
169 168 94
163 164 93
169 168 96
173 169 100
175 171 99
176 172 95
178 173 101
180 175 103
178 175 105
178 173 103
176 171 107
176 172 106
178 172 104
177 172 104
176 171 103
179 173 105
178 172 109
177 172 109
176 171 109
176 171 106
177 172 109
178 172 107
176 171 109
175 171 109
176 171 108
176 171 112
177 172 111
175 171 109
175 170 109
178 173 111
177 172 110
177 172 109
177 172 108
176 171 109
176 171 108
175 171 110
176 172 108
178 172 109
178 172 109
176 172 109
178 173 110
174 171 104
177 173 108
176 173 106
174 171 104
175 173 103
176 174 103
177 173 104
177 174 103
175 174 99
176 175 100
175 173 99
178 176 98
177 173 104
179 177 97
177 175 95
176 174 100
174 172 98
177 177 92
176 174 97
177 178 95
175 178 88
179 180 87
178 181 86
178 183 84
171 174 86
178 184 80
176 181 77
177 184 71
176 183 77
175 183 72
176 182 80
176 182 75
177 185 68
176 188 62
177 188 63
176 186 66
176 189 60
170 184 56
175 185 65
175 189 53
178 190 60
176 190 56
176 192 49
174 189 47
175 192 42
174 193 39
175 193 44
172 190 32
173 193 28
174 194 32
172 192 28
175 196 25
172 195 16
171 193 11
174 196 11
169 193 0
170 194 0
168 192 0
171 194 0
170 193 0
172 195 0
171 195 0
172 196 0
172 195 0
172 196 0
170 193 0
172 195 0
172 196 0
171 193 0
170 193 0
174 197 0
173 195 0
172 195 0
169 192 0
174 198 0
170 194 0
173 197 0
174 196 0
173 195 0
171 195 0
173 197 0
172 196 0
170 194 0
173 196 0
171 195 0
174 197 0
171 195 0
173 196 0
173 196 0
173 196 0
173 196 0
174 197 0
175 198 0
174 197 0
172 195 0
172 195 0
170 194 0
173 197 0
174 198 0
173 197 0
173 196 0
172 196 0
174 197 0
174 197 0
174 197 0
171 195 0
173 197 0
173 196 0
174 197 0
173 196 0
173 197 0
175 198 0
173 196 0
172 196 0
172 197 0
173 196 0
170 194 0
171 194 0
172 195 0
172 195 0
172 196 0
167 191 0
174 197 0
170 193 0
171 195 0
174 197 0
174 197 0
172 195 0
173 197 0
171 195 0
169 193 0
174 198 0
172 195 0
173 196 0
172 196 0
170 195 0
173 196 0
172 196 0
172 196 0
172 196 0
172 196 0
171 195 0
172 196 0
172 196 0
171 195 0
169 193 0
172 195 0
172 195 0
173 196 0
171 194 0
172 195 0
171 194 0
175 197 0
172 195 0
173 197 0
173 195 0
173 195 0
170 193 0
171 194 0
171 194 0
174 196 0
173 196 0
172 195 0
170 192 0
168 192 0
169 191 0
173 196 0
172 195 0
174 196 0
171 194 0
171 194 0
174 196 0
173 197 0
170 193 0
171 194 0
169 192 0
172 195 0
171 194 0
169 191 0
171 193 0
170 192 0
170 193 0
168 190 0
170 192 0
171 194 0
171 193 0
172 194 0
169 191 0
168 190 25
167 189 25
169 191 0
166 188 0
165 187 0
169 190 25
167 189 36
171 193 25
170 192 25
167 189 25
170 192 36
166 188 36
169 190 36
169 190 57
163 185 36
166 187 44
172 194 36
172 193 44
167 188 51
162 183 25
167 187 25
170 191 44
169 191 44
164 186 25
163 183 36
170 191 25
167 189 57
162 184 0
162 184 25
167 188 36
159 180 36
159 181 36
166 187 25
156 176 51
160 181 36
155 176 36
153 175 25
160 181 0
160 181 36
153 174 44
145 167 76
86 115 124
61 97 144
60 95 139
61 96 142
62 97 151
62 97 161
61 96 147
61 97 152
62 98 160
62 97 153
62 97 152
62 97 156
62 98 159
61 97 158
61 97 154
61 97 152
62 98 159
61 97 153
62 98 166
62 98 161
62 99 163
62 98 164
63 99 161
61 97 156
62 98 154
63 98 160
61 97 152
63 99 164
62 98 166
61 97 160
61 97 159
61 98 161
61 96 151
61 96 155
61 97 163
62 98 166
62 97 153
62 98 166
62 98 165
62 98 165
62 98 163
62 98 162
61 97 162
60 96 156
61 98 166
62 98 164
62 97 158
61 96 156
62 97 159
62 97 161
62 97 164
62 98 163
62 98 168
62 98 165
62 97 161
62 98 166
61 96 155
62 97 167
61 96 160
62 98 167
62 98 163
61 96 158
61 96 155
62 98 170
61 97 165
61 96 158
60 95 158
61 95 162
60 95 161
62 97 167
61 95 159
61 95 157
60 94 159
60 94 156
60 94 152
61 95 155
61 94 154
60 94 161
59 92 152
60 93 155
59 92 152
59 93 157
60 94 156
60 92 148
60 92 151
60 93 155
59 92 147
58 89 140
58 89 142
58 90 149
58 90 144
57 89 150
58 90 153
58 89 148
55 86 138
55 85 134
57 88 141
56 87 144
57 87 140
55 84 132
54 82 123
55 84 134
56 82 125
53 81 128
65 88 131
70 89 122
70 90 122
75 93 122
71 92 124
76 92 105
63 86 125
105 113 122
99 110 126
103 111 118
100 108 115
103 111 106
105 113 115
106 113 110
103 110 105
116 122 118
106 114 117
131 133 113
137 138 103
145 146 106
157 158 97
157 162 87
156 159 88
163 162 95
166 164 98
163 162 96
169 167 98
169 167 100
173 169 101
172 167 100
174 169 102
174 171 102
175 170 103
177 173 106
178 172 106
178 172 104
178 172 109
177 171 104
180 174 110
178 172 107
176 171 109
176 171 108
176 172 110
179 173 110
177 172 110
175 171 110
177 172 111
178 173 113
178 172 110
180 173 112
177 172 111
174 171 110
178 172 112
177 172 110
177 172 112
176 172 111
176 171 109
175 171 111
176 172 112
175 171 110
174 171 111
176 171 110
177 172 110
175 171 109
176 172 112
176 172 111
173 170 109
177 171 108
178 173 110
175 171 106
178 173 108
176 171 109
177 172 104
177 172 108
176 172 106
179 175 103
173 172 101
180 175 107
176 174 98
176 171 101
176 173 104
177 174 99
178 175 99
178 177 99
176 175 95
181 178 101
176 176 95
176 179 87
177 177 93
177 176 97
179 182 85
175 178 86
177 178 84
176 181 79
176 182 76
179 185 77
174 180 75
177 183 80
178 185 78
176 183 75
175 185 66
176 186 64
176 188 54
175 190 53
177 188 59
176 189 54
174 188 58
175 189 57
178 191 58
175 188 52
176 190 49
171 187 42
173 189 44
172 192 32
174 190 44
174 190 51
172 192 34
175 195 34
174 195 28
172 195 19
171 194 11
173 194 16
170 192 11
173 195 16
172 195 0
171 194 0
173 196 0
170 193 0
171 194 0
173 197 0
170 193 0
171 194 0
174 197 0
173 196 0
174 197 0
169 193 0
172 195 0
173 196 0
172 196 0
174 197 0
172 195 0
172 195 0
173 196 0
172 195 0
173 197 0
173 196 0
172 196 0
173 197 0
173 196 0
171 193 0
173 196 0
171 195 0
174 196 0
173 195 0
170 193 0
174 197 0
172 195 0
172 196 0
173 197 0
174 197 0
170 194 0
172 196 0
173 196 0
174 198 0
172 195 0
174 198 0
173 197 0
174 198 0
173 197 0
175 198 0
171 194 0
174 197 0
174 197 0
176 198 0
173 196 0
174 197 0
173 196 0
171 195 0
174 197 0
172 196 0
171 195 0
174 197 0
175 198 0
172 196 0
173 197 0
174 197 0
172 196 0
176 198 0
173 197 0
170 194 0
174 197 0
172 196 0
173 196 0
173 196 0
173 197 0
174 198 0
173 196 0
171 194 0
174 198 0
175 198 0
173 196 0
172 195 0
170 193 0
173 197 0
172 196 0
171 194 0
173 195 0
175 198 0
172 195 0
172 195 0
170 194 0
169 193 0
174 197 0
171 194 0
173 197 0
169 193 0
172 195 0
173 196 0
172 196 0
171 194 0
172 196 0
174 196 0
175 198 0
174 197 0
171 194 0
173 196 0
173 196 0
171 194 0
174 197 0
173 196 0
175 197 0
173 195 0
171 194 0
171 194 0
171 194 0
173 196 0
174 196 0
172 195 0
171 194 0
171 194 0
175 197 0
173 195 0
174 197 0
171 194 0
172 194 0
173 195 0
172 194 0
176 197 0
169 191 0
172 194 0
170 193 0
172 194 0
173 195 0
172 194 0
172 194 25
170 192 25
164 187 25
173 195 36
174 195 36
169 191 0
171 193 36
164 187 0
163 186 0
165 186 0
174 195 36
166 188 25
165 186 36
173 193 44
168 189 25
166 187 44
170 190 57
166 188 25
168 190 44
166 187 36
160 181 25
161 182 25
163 184 36
166 187 44
166 187 44
168 189 36
171 191 36
161 182 36
164 184 25
154 175 44
166 186 0
162 183 25
165 187 25
153 174 36
159 181 36
160 182 44
153 174 0
160 181 0
156 177 0
159 180 36
161 182 47
135 156 76
89 117 131
62 97 149
60 95 143
62 97 147
62 97 160
61 97 147
60 95 145
60 96 148
61 97 158
62 98 155
62 97 154
61 97 151
62 97 154
61 97 149
62 97 151
61 97 156
61 97 154
61 97 152
61 97 159
63 99 166
62 98 162
61 97 156
61 97 156
62 98 163
61 98 162
62 98 160
61 97 156
62 98 160
61 97 153
62 98 159
62 98 158
62 98 159
61 97 157
62 97 156
61 97 156
62 97 160
62 98 161
61 97 159
61 97 162
62 98 162
63 99 167
61 97 155
62 98 161
61 96 154
61 96 155
61 96 161
62 98 167
61 96 155
62 98 163
62 98 162
62 98 165
63 99 170
60 96 157
61 95 152
61 97 158
62 97 164
62 98 165
61 95 154
61 97 160
60 95 155
62 97 169
60 95 155
61 97 163
60 94 152
60 95 160
60 94 151
62 97 161
60 94 148
60 93 151
59 94 153
60 94 151
60 94 152
60 95 156
60 93 153
61 95 159
61 95 160
59 93 153
60 92 153
60 94 151
59 92 153
59 93 157
59 92 152
60 93 155
60 94 158
59 91 148
60 93 154
58 90 143
58 90 145
59 92 151
58 89 142
57 88 145
58 89 142
58 88 142
57 88 141
58 89 143
55 86 140
56 87 140
56 86 139
55 83 124
56 85 131
54 82 129
52 79 120
68 92 138
62 86 126
66 88 128
74 92 122
75 92 116
82 98 129
72 92 123
83 97 121
86 99 115
97 108 124
91 101 107
98 108 120
98 106 110
106 112 115
115 119 108
104 112 114
119 123 104
131 132 109
122 125 109
119 124 110
136 136 108
145 149 100
151 154 92
164 165 91
157 160 91
160 160 95
159 159 95
165 164 95
161 162 91
165 164 96
168 165 102
173 170 97
175 170 105
171 168 99
177 170 104
180 173 107
178 171 102
178 172 105
177 171 106
178 172 109
175 170 107
177 172 110
179 173 111
178 172 109
177 172 113
178 173 112
179 173 111
178 172 112
178 173 113
179 173 113
176 172 113
176 172 112
177 173 114
177 172 113
174 171 109
176 172 113
177 172 113
174 171 112
175 171 110
178 173 113
176 172 113
177 172 112
176 172 113
176 172 113
176 172 112
176 171 110
176 172 112
176 171 112
175 171 111
177 172 109
176 171 105
176 171 110
176 171 109
175 171 107
178 173 108
178 173 108
177 171 108
179 174 107
176 173 104
175 173 101
178 175 101
177 171 103
176 172 100
177 174 101
177 175 100
174 174 90
177 174 99
176 175 97
172 174 84
178 178 93
177 179 90
174 176 83
177 178 90
174 177 84
179 179 94
174 177 85
176 183 75
174 179 83
178 184 78
174 180 75
177 184 71
176 187 67
173 181 70
176 185 72
177 185 75
178 186 71
178 188 64
177 189 63
178 188 67
175 188 58
173 189 48
174 188 54
177 192 53
175 192 45
176 191 48
171 188 37
173 190 47
173 191 32
173 192 32
172 191 34
171 189 34
172 193 19
170 192 19
171 192 22
170 193 11
172 194 16
169 191 11
173 195 0
174 197 0
171 195 0
174 197 0
173 195 0
174 197 0
175 197 0
171 195 0
171 194 0
173 197 0
171 194 0
175 198 0
171 194 0
172 194 0
171 195 0
173 197 0
173 197 0
173 195 0
171 194 0
170 195 0
173 196 0
172 195 0
171 195 0
173 196 0
170 194 0
172 196 0
171 194 0
174 198 0
172 195 0
174 197 0
173 195 0
171 194 0
174 197 0
174 198 0
173 196 0
173 196 0
175 198 0
170 194 0
174 197 0
172 195 0
170 194 0
173 196 0
174 198 0
176 198 0
171 195 0
175 197 0
172 196 0
173 197 0
173 196 0
172 195 0
171 194 0
175 198 0
173 197 0
172 195 0
175 198 0
172 196 0
172 195 0
175 198 0
171 195 0
174 197 0
171 195 0
170 193 0
174 197 0
172 196 0
172 195 0
173 197 0
169 193 0
174 197 0
171 194 0
175 198 0
171 194 0
174 197 0
171 196 0
171 194 0
172 195 0
170 193 0
171 195 0
173 197 0
170 194 0
174 197 0
173 196 0
172 196 0
174 197 0
170 193 0
171 195 0
170 194 0
172 196 0
172 196 0
172 195 0
175 197 0
173 197 0
170 194 0
171 195 0
173 196 0
172 195 0
171 194 0
173 196 0
171 195 0
174 197 0
171 194 0
171 195 0
172 196 0
169 192 0
172 194 0
170 192 0
173 196 0
168 191 0
172 195 0
170 193 0
169 192 0
171 193 0
172 195 0
171 194 0
169 192 0
172 195 0
173 196 0
171 194 0
173 196 0
168 190 0
169 191 0
174 195 0
169 191 0
169 191 0
172 194 0
171 193 0
170 192 25
169 191 0
171 193 0
171 192 25
166 188 0
171 194 0
167 188 0
167 189 0
170 192 0
169 190 0
170 193 36
166 187 0
169 191 25
171 193 0
168 190 25
164 186 0
172 194 36
168 190 0
169 190 25
165 186 0
161 183 36
166 187 25
164 185 25
170 190 25
168 190 25
169 189 25
164 185 25
167 187 57
164 185 36
165 186 25
161 182 36
161 182 25
161 182 36
165 185 44
161 181 51
161 182 36
157 177 0
163 183 44
160 181 25
159 179 44
165 186 25
166 187 0
162 183 25
163 184 44
154 174 47
140 163 67
84 112 114
59 94 135
61 97 144
60 95 141
61 96 147
60 95 136
61 96 149
61 97 149
61 96 156
61 97 152
62 98 158
60 95 147
61 96 147
61 97 153
62 97 153
61 97 154
61 97 152
60 96 144
62 97 154
61 96 150
61 97 158
62 98 162
62 98 160
62 98 162
61 97 161
62 98 161
62 98 160
62 98 164
62 98 163
61 97 157
62 97 160
61 96 155
62 98 165
61 97 158
61 96 157
62 98 162
63 99 165
62 98 167
61 97 160
61 97 159
61 97 152
62 98 163
62 97 163
62 97 163
61 97 154
62 98 166
62 98 163
62 98 168
61 96 158
62 97 161
61 97 159
61 96 156
61 96 157
61 97 162
61 97 157
61 96 152
62 97 161
61 95 156
61 96 157
60 94 152
60 95 149
60 95 155
61 96 157
61 96 164
62 96 157
62 97 160
62 97 162
61 95 154
61 95 159
60 94 157
60 94 149
61 95 162
59 93 155
61 95 157
60 93 155
60 94 157
59 92 145
61 95 158
60 95 162
60 93 156
60 93 154
59 92 151
61 95 160
58 91 149
56 87 141
58 90 146
58 90 147
59 92 154
58 90 153
56 87 142
56 87 139
55 86 138
57 88 145
58 89 147
57 87 141
56 85 135
56 85 131
55 85 135
56 86 138
56 86 136
56 82 127
58 81 118
62 86 126
66 89 124
62 84 122
69 91 129
81 98 123
79 93 115
92 103 112
84 95 102
84 99 121
94 105 118
104 112 114
104 111 108
101 109 109
85 95 98
109 115 114
118 121 99
117 120 100
112 118 112
124 127 105
122 125 102
134 136 110
136 140 98
157 159 94
160 162 90
151 153 92
161 160 100
163 163 95
167 164 103
163 162 98
167 164 100
171 166 100
173 168 106
177 171 106
176 169 108
177 171 104
176 171 107
179 172 109
176 171 108
179 173 112
182 175 113
180 173 112
177 172 110
177 172 111
177 172 112
177 172 112
177 172 111
177 172 112
176 172 113
179 173 113
177 172 113
176 172 113
176 172 114
175 171 113
176 172 114
176 172 114
178 173 114
174 171 114
178 173 114
176 172 114
175 172 114
178 173 114
176 172 112
176 172 113
176 172 114
174 171 113
175 172 113
175 171 113
177 172 112
177 172 112
174 171 111
175 171 110
176 172 112
178 173 112
178 173 109
176 171 108
177 172 112
178 172 108
177 172 106
177 172 108
178 173 108
177 174 106
176 174 97
178 175 103
177 173 105
177 173 102
177 174 100
176 174 96
174 173 97
179 176 98
176 173 98
178 176 99
176 176 95
176 175 90
175 179 86
176 177 87
180 180 92
176 176 89
178 181 87
177 180 80
177 182 81
178 185 78
179 186 78
173 181 73
173 182 68
175 183 70
177 186 64
177 187 68
172 184 59
176 188 59
173 186 56
176 188 59
174 189 51
172 188 45
176 190 53
176 192 47
172 190 39
171 190 34
173 192 32
173 192 37
170 189 25
171 191 32
174 193 30
174 194 28
170 193 11
172 194 16
172 192 22
173 195 11
171 194 0
171 195 0
171 193 0
173 195 0
171 194 0
170 194 0
171 194 0
171 195 0
172 195 0
172 195 0
172 196 0
173 195 0
173 197 0
172 196 0
171 195 0
171 194 0
173 196 0
174 198 0
172 195 0
167 191 0
171 194 0
170 194 0
172 195 0
172 195 0
170 194 0
171 194 0
172 196 0
174 197 0
173 196 0
172 194 0
170 194 0
170 194 0
174 198 0
172 196 0
173 197 0
174 197 0
173 197 0
175 198 0
172 196 0
172 195 0
173 196 0
175 197 0
173 196 0
174 198 0
173 196 0
172 196 0
172 196 0
170 194 0
173 197 0
174 197 0
170 195 0
172 196 0
173 197 0
172 196 0
173 197 0
173 197 0
173 197 0
171 194 0
174 197 0
177 199 0
172 196 0
171 195 0
173 196 0
174 198 0
171 195 0
171 195 0
175 198 0
170 194 0
173 197 0
173 197 0
171 195 0
172 195 0
174 197 0
172 196 0
173 197 0
174 197 0
172 196 0
173 197 0
172 195 0
171 194 0
173 196 0
168 191 0
169 193 0
173 197 0
171 195 0
175 198 0
173 196 0
174 197 0
172 196 0
170 193 0
172 195 0
173 196 0
173 196 0
173 196 0
175 197 0
171 194 0
173 197 0
169 192 0
173 196 0
169 193 0
173 196 0
173 196 0
170 194 0
174 196 0
174 196 0
168 190 0
171 194 0
172 194 0
172 195 0
172 194 0
174 197 0
172 195 0
174 196 0
172 195 0
171 194 0
174 197 0
172 194 0
173 196 0
174 196 0
175 197 0
172 194 0
172 194 0
168 191 25
168 191 0
173 195 0
172 194 0
169 191 0
172 193 0
169 191 0
169 191 0
171 193 0
167 189 0
171 194 0
170 192 0
167 189 0
170 191 25
167 189 25
171 193 36
166 188 0
168 189 0
169 191 0
167 188 0
167 188 36
167 188 25
168 190 25
166 188 25
170 191 36
165 186 36
165 186 0
160 181 25
164 185 36
163 185 0
159 181 36
164 185 25
165 187 25
158 178 0
165 187 36
158 180 25
156 179 25
164 185 25
157 178 25
163 183 36
165 186 25
155 176 25
164 185 25
163 184 25
157 178 0
160 180 25
160 181 36
157 178 31
144 165 67
97 123 120
60 95 144
61 97 148
61 96 142
61 97 149
61 96 148
61 97 159
61 96 147
62 97 151
62 97 151
61 96 142
61 96 145
61 96 145
62 97 149
62 97 153
61 96 153
61 97 157
61 97 156
62 98 161
61 97 155
62 98 160
62 98 161
62 98 159
63 99 168
61 97 158
62 98 163
62 98 161
61 97 155
61 97 156
61 97 160
62 98 159
62 97 157
63 99 163
62 98 162
62 97 159
61 97 151
61 97 157
62 98 166
62 98 160
61 97 162
61 97 159
62 97 160
62 98 161
61 97 162
61 97 159
61 97 158
61 97 161
62 98 163
62 97 157
61 96 156
61 97 164
61 97 157
62 96 159
61 97 162
61 97 160
62 97 162
60 95 154
61 95 159
60 95 156
61 96 158
61 96 157
61 95 156
61 95 158
61 96 158
60 94 154
61 96 165
60 95 157
61 96 159
61 96 162
61 96 159
60 94 152
60 94 157
60 93 159
60 93 150
60 92 149
60 94 156
58 92 151
59 93 154
59 92 151
60 93 150
59 92 148
60 94 156
58 91 147
59 92 152
58 90 148
59 91 153
59 91 151
57 87 138
57 89 144
57 88 149
57 88 142
57 88 143
57 88 141
57 87 144
56 86 140
55 85 137
55 83 130
54 82 125
54 82 129
58 85 133
53 79 119
56 81 121
65 86 118
61 83 114
77 93 111
66 87 121
71 89 117
91 103 116
83 98 125
95 105 116
99 108 116
99 108 113
99 107 110
98 109 120
107 113 110
122 126 117
113 118 103
131 132 106
116 120 104
127 130 106
130 132 105
133 134 100
131 133 104
140 141 99
158 158 97
149 151 89
153 155 95
162 159 102
160 159 99
160 157 99
163 161 99
168 164 103
165 160 103
173 168 107
171 165 104
172 167 104
177 171 109
179 172 109
180 174 111
179 173 109
179 173 113
177 172 113
179 173 112
179 173 113
177 172 112
178 173 114
177 172 113
177 172 113
177 172 114
178 173 114
177 172 114
176 172 114
176 172 114
174 171 114
175 172 114
176 172 114
176 172 114
174 171 114
174 171 114
176 172 114
174 171 114
175 172 114
175 171 114
174 171 114
173 171 114
174 171 114
175 171 113
178 173 113
178 173 114
177 172 113
178 173 112
174 171 113
175 172 114
178 173 114
177 172 110
177 172 112
177 172 110
178 172 110
177 172 112
177 172 110
177 172 106
177 172 108
176 173 101
176 173 106
179 174 111
177 173 105
178 175 101
179 176 100
178 174 101
173 174 97
177 175 97
178 175 99
179 179 93
177 177 93
177 177 93
177 179 91
175 179 85
176 181 80
178 181 84
177 178 90
176 178 87
177 181 81
176 182 74
175 183 73
178 185 75
175 184 67
178 182 77
176 185 65
178 188 64
175 188 59
176 188 60
173 186 57
175 187 62
171 187 44
178 191 60
174 189 49
173 188 49
175 189 47
175 192 45
172 189 44
175 192 41
172 192 30
175 193 34
173 193 30
172 193 22
171 192 19
174 193 32
172 194 11
170 192 11
171 194 11
171 194 11
174 197 0
173 196 0
172 194 0
173 195 0
171 195 0
170 194 0
174 197 0
174 197 0
174 197 0
174 197 0
173 196 0
173 196 0
171 194 0
173 196 0
172 195 0
174 197 0
170 192 0
171 195 0
172 195 0
169 192 0
173 196 0
173 197 0
173 197 0
173 196 0
173 196 0
172 195 0
173 196 0
172 195 0
174 196 0
172 195 0
172 195 0
173 197 0
172 196 0
172 196 0
174 198 0
175 198 0
173 197 0
174 197 0
174 197 0
171 194 0
172 195 0
171 195 0
172 195 0
172 196 0
173 197 0
174 197 0
176 198 0
171 195 0
173 196 0
172 196 0
172 195 0
171 194 0
172 195 0
173 196 0
174 197 0
174 197 0
172 195 0
172 196 0
174 197 0
173 197 0
173 196 0
172 195 0
171 195 0
173 197 0
171 195 0
173 196 0
172 196 0
172 194 0
169 194 0
172 196 0
172 195 0
172 196 0
173 196 0
171 195 0
175 198 0
172 196 0
173 196 0
173 196 0
171 195 0
171 194 0
171 194 0
173 196 0
171 194 0
174 197 0
173 196 0
171 196 0
171 194 0
170 194 0
173 196 0
170 194 0
172 194 0
171 195 0
170 194 0
172 196 0
173 197 0
170 193 0
169 191 0
172 195 0
169 192 0
171 195 0
172 195 0
173 197 0
169 192 0
172 195 0
170 193 0
174 196 0
172 195 0
174 196 0
169 192 0
170 193 0
171 193 0
169 192 0
171 194 0
176 198 0
172 194 0
171 194 0
171 193 0
172 194 0
170 193 0
170 192 25
173 196 0
171 193 0
169 191 0
169 191 0
171 193 0
175 195 0
165 188 0
174 196 0
167 189 0
167 189 0
170 192 0
174 195 0
165 188 0
169 192 0
165 187 0
171 192 36
168 190 0
170 191 25
163 185 36
170 192 0
167 188 25
166 187 25
172 194 36
165 187 0
165 187 25
171 192 25
171 192 25
163 184 36
168 189 0
163 183 0
167 188 25
164 186 0
164 187 25
167 188 25
162 182 25
160 182 36
162 183 36
162 182 0
162 183 36
157 179 0
161 181 44
164 184 25
159 180 25
167 188 36
163 184 0
151 173 0
152 173 0
162 183 25
144 165 57
91 118 120
61 96 145
59 94 129
61 96 149
61 96 144
62 97 145
62 97 150
62 97 150
60 95 144
61 97 149
62 98 158
62 98 158
60 96 143
61 96 151
61 97 153
62 98 159
61 97 150
62 98 161
62 98 158
61 97 151
61 97 150
62 98 157
61 97 157
62 98 160
61 97 154
61 97 158
61 97 153
61 97 158
61 97 162
62 98 160
62 97 158
62 98 163
61 96 150
62 99 169
61 97 159
61 96 156
61 96 148
63 99 170
62 97 156
61 97 155
61 97 155
61 97 159
61 97 160
61 97 157
62 98 162
62 97 157
62 97 155
62 98 163
61 96 155
61 97 159
61 96 156
62 98 163
61 97 157
62 97 158
60 95 160
60 96 163
61 97 159
61 97 160
62 97 163
61 96 158
61 96 156
60 95 148
61 96 154
62 96 157
61 97 165
61 97 163
61 95 156
61 95 152
61 95 152
61 95 152
61 95 161
60 95 157
60 94 157
58 91 145
59 93 152
59 92 152
60 94 155
59 93 154
58 92 151
58 91 149
59 92 154
59 93 154
59 91 138
60 93 154
60 93 155
59 92 152
59 91 148
57 89 145
57 89 144
57 88 140
56 88 147
56 86 140
56 86 137
56 85 138
56 86 138
56 87 142
55 83 132
56 85 134
59 86 133
63 86 128
61 83 116
71 91 125
59 83 121
64 86 120
73 89 116
72 91 122
75 91 114
78 93 114
82 96 116
83 95 101
93 102 104
106 112 107
112 117 107
112 117 109
111 116 109
113 116 102
118 121 104
126 127 101
128 130 102
135 136 108
127 128 99
135 135 108
132 133 104
142 144 99
157 158 97
150 150 92
153 154 94
156 154 99
164 161 105
155 154 101
159 156 104
167 162 104
171 167 109
171 165 108
176 170 107
175 170 108
179 173 112
179 173 109
177 172 112
177 172 110
179 173 113
179 173 113
180 174 113
178 173 114
177 172 113
178 173 114
175 172 114
176 172 114
176 172 114
174 171 114
174 171 114
176 172 114
174 171 114
174 171 114
175 171 114
173 171 114
174 171 114
174 171 114
173 170 114
175 171 114
176 172 114
175 172 114
173 171 114
173 171 114
175 172 114
174 171 114
175 171 114
174 171 114
173 171 113
176 172 114
175 172 114
177 172 114
176 172 113
174 171 113
175 171 113
177 172 113
175 171 110
175 171 111
178 172 110
177 172 110
177 172 110
178 172 110
178 173 106
176 172 108
177 173 108
176 172 102
181 176 105
177 174 100
178 174 103
177 175 99
179 178 95
177 175 101
176 174 91
175 174 92
180 177 101
177 177 93
176 177 90
177 175 92
177 177 86
177 178 88
179 182 87
178 180 84
179 183 84
177 181 83
178 183 79
176 181 82
179 184 80
178 184 80
173 184 61
175 185 65
178 186 72
176 187 65
176 188 61
175 187 58
176 189 54
176 189 57
174 188 51
172 187 49
176 191 48
174 190 45
175 193 37
172 191 32
172 190 37
173 195 25
171 190 25
173 192 32
174 195 25
172 193 11
172 192 22
173 193 22
167 191 11
174 197 0
172 195 0
174 196 0
173 196 0
170 193 0
175 197 0
172 194 0
173 196 0
173 196 0
173 196 0
172 195 0
173 197 0
172 195 0
169 193 0
170 193 0
171 195 0
171 194 0
172 195 0
169 192 0
172 195 0
170 194 0
174 197 0
173 196 0
174 197 0
171 195 0
173 196 0
172 195 0
174 197 0
174 197 0
174 197 0
174 196 0
172 196 0
174 197 0
173 197 0
174 197 0
174 197 0
172 195 0
173 196 0
174 197 0
172 195 0
173 196 0
174 198 0
173 197 0
174 197 0
172 196 0
175 198 0
172 196 0
175 198 0
172 196 0
173 196 0
172 195 0
172 195 0
173 196 0
174 197 0
173 197 0
176 199 0
171 195 0
171 195 0
173 196 0
173 196 0
173 196 0
174 197 0
172 195 0
170 195 0
171 194 0
173 196 0
173 196 0
175 198 0
172 196 0
171 195 0
170 193 0
170 194 0
173 196 0
171 195 0
170 194 0
175 198 0
171 195 0
171 196 0
171 195 0
172 197 0
171 194 0
172 196 0
173 197 0
175 198 0
170 193 0
172 196 0
172 195 0
171 194 0
173 195 0
170 194 0
170 193 0
170 193 0
173 196 0
173 196 0
171 194 0
171 194 0
172 196 0
170 194 0
169 192 0
171 195 0
173 196 0
171 195 0
172 195 0
171 193 0
171 194 0
170 193 0
171 195 0
169 192 0
174 197 0
169 192 0
171 193 0
173 195 0
172 194 0
169 192 0
171 193 0
174 196 0
168 191 0
172 195 0
174 196 0
170 192 25
169 191 0
174 196 0
174 195 25
166 188 0
173 195 25
170 192 0
171 194 0
170 191 0
170 192 0
166 189 0
171 192 0
171 193 0
168 190 0
167 188 25
169 191 0
164 186 0
168 190 0
167 188 0
172 193 0
168 190 0
159 181 25
170 191 0
173 194 0
170 191 36
171 192 25
167 188 0
166 188 25
169 191 25
170 191 25
167 188 25
164 185 25
163 184 25
157 178 25
164 185 0
160 182 0
164 185 25
163 183 57
162 182 0
163 184 44
156 177 44
159 180 0
153 174 0
164 184 25
162 183 0
158 180 25
162 184 0
160 180 0
160 180 51
146 168 60
111 135 105
59 94 133
60 95 134
62 97 151
61 97 149
60 95 137
61 96 145
59 94 137
60 95 135
61 97 150
62 97 152
62 97 155
60 96 149
61 97 157
61 96 144
61 96 152
61 96 155
61 96 147
61 96 150
60 95 140
62 98 154
62 98 159
62 97 155
61 97 152
62 98 160
61 96 159
62 98 159
62 98 162
61 97 150
63 99 163
61 97 161
62 97 160
62 98 162
61 97 157
62 98 164
61 97 153
61 97 164
60 96 146
62 97 162
61 97 155
61 98 164
61 97 161
62 98 161
62 98 161
62 97 163
61 97 159
62 98 166
62 97 160
61 96 161
61 98 165
62 98 161
62 98 165
60 96 158
62 97 160
61 96 156
60 95 152
62 97 163
61 97 162
60 94 153
61 96 160
61 96 162
62 97 155
61 96 160
61 95 156
61 95 155
60 95 159
61 96 159
61 96 163
60 94 151
61 95 154
61 95 156
61 95 162
59 93 152
59 91 147
59 92 144
59 92 148
59 93 154
59 91 147
60 93 151
61 94 154
59 92 147
60 94 155
58 89 145
59 91 147
58 90 149
59 91 152
57 88 136
57 89 148
58 90 148
57 88 142
58 88 138
55 84 133
54 84 136
53 82 118
56 84 130
53 80 123
56 85 133
55 83 128
56 79 110
55 79 113
66 84 110
57 82 120
72 89 111
77 95 126
75 92 115
83 98 125
64 84 112
79 93 113
94 103 104
87 99 113
92 103 109
90 101 108
104 110 104
98 106 105
108 113 104
115 119 108
119 122 100
125 127 102
129 129 100
130 130 102
119 122 101
136 137 103
140 139 100
147 147 101
148 147 99
149 151 94
157 155 99
157 154 103
156 152 99
165 161 104
162 158 105
176 169 110
172 166 107
171 165 106
175 169 109
174 168 107
177 171 112
178 173 113
179 173 113
179 173 112
179 173 113
178 173 113
178 173 114
178 173 114
177 172 114
176 172 114
177 172 114
176 172 114
176 172 114
175 172 114
175 171 114
174 171 114
175 172 114
173 171 114
174 171 114
172 170 114
173 171 114
171 170 114
173 171 114
172 170 114
173 170 114
172 170 114
173 171 114
174 171 114
173 170 114
175 171 114
174 171 114
173 171 114
174 171 114
175 171 114
176 172 114
173 171 114
177 172 113
175 172 113
178 173 113
176 172 113
176 172 112
175 171 111
177 173 113
176 172 112
177 172 110
176 172 110
178 172 110
176 171 107
176 172 107
175 171 107
177 172 105
177 171 106
177 174 103
177 175 95
175 172 103
177 174 101
177 174 100
178 174 101
178 177 96
177 177 90
179 177 96
180 180 90
181 181 91
175 178 87
178 178 90
178 178 92
180 182 87
175 180 80
177 182 80
179 181 84
174 182 71
175 181 76
179 185 75
177 185 72
176 186 66
174 184 60
175 184 64
178 188 64
176 188 60
174 189 47
175 190 52
175 190 48
175 190 52
174 192 39
175 189 51
174 192 37
175 191 42
176 193 42
173 193 34
171 190 34
172 192 28
171 194 11
173 194 19
173 195 19
172 193 11
171 193 0
172 195 0
173 196 0
173 195 0
173 196 0
174 197 0
173 196 0
170 193 0
174 197 0
173 197 0
170 192 0
171 195 0
174 196 0
172 194 0
173 197 0
171 195 0
172 196 0
173 196 0
173 196 0
174 197 0
171 194 0
172 195 0
173 196 0
172 195 0
173 195 0
171 195 0
173 196 0
174 196 0
173 196 0
174 198 0
174 196 0
173 196 0
174 197 0
172 196 0
174 198 0
174 197 0
170 194 0
173 196 0
175 198 0
171 195 0
169 192 0
173 196 0
173 197 0
174 197 0
174 198 0
173 196 0
170 193 0
172 196 0
171 195 0
173 197 0
173 196 0
174 197 0
175 198 0
174 197 0
175 197 0
173 196 0
172 195 0
174 197 0
172 195 0
174 197 0
171 195 0
171 195 0
172 194 0
175 198 0
170 194 0
173 196 0
172 196 0
172 195 0
171 195 0
170 193 0
174 197 0
172 196 0
172 196 0
173 197 0
172 195 0
171 194 0
171 194 0
174 198 0
176 198 0
173 196 0
170 193 0
172 195 0
171 194 0
173 196 0
172 195 0
169 193 0
170 193 0
170 193 0
169 192 0
170 194 0
171 195 0
171 194 0
172 195 0
170 192 0
170 193 0
173 196 0
169 192 0
172 195 0
171 194 0
172 194 0
171 194 0
172 194 0
172 195 0
170 193 0
170 193 0
171 194 0
171 194 0
173 196 0
172 195 0
173 196 0
169 192 0
171 193 0
168 191 0
171 194 0
170 193 0
169 192 0
170 192 0
169 191 0
173 194 0
171 193 0
169 192 25
168 191 0
174 195 25
167 188 0
170 192 0
170 192 0
167 190 0
169 191 0
166 189 0
174 195 0
172 194 0
168 189 0
169 190 0
161 183 0
169 191 0
168 189 0
167 188 0
168 189 25
164 187 0
166 188 0
161 182 0
170 192 25
165 187 0
163 183 0
163 185 0
163 185 25
162 184 25
163 186 0
163 183 0
169 191 25
167 189 25
160 182 25
159 181 0
161 182 0
168 189 25
164 185 25
156 177 0
164 184 44
159 181 25
165 185 0
164 185 25
162 182 0
160 181 0
159 180 0
164 185 36
154 175 0
165 185 0
159 180 25
148 169 62
116 140 99
61 96 144
60 95 136
60 94 141
59 94 144
61 97 145
61 96 141
61 96 147
61 96 140
61 97 150
62 97 150
62 98 155
61 97 148
62 97 148
61 97 150
61 96 158
62 97 148
61 97 154
61 96 151
61 97 150
63 99 163
62 97 151
61 96 150
61 97 156
62 98 158
61 96 149
62 97 152
63 99 160
62 98 158
61 96 150
62 98 162
62 98 154
62 98 158
62 97 159
62 97 159
61 97 154
61 97 155
62 98 159
61 97 156
61 97 155
62 97 161
61 97 158
61 96 151
62 97 162
62 97 153
61 97 157
61 96 160
62 98 164
61 96 152
61 96 152
61 97 159
62 98 163
61 96 155
61 96 158
60 95 148
61 95 155
61 96 158
61 96 156
61 96 157
62 98 165
62 97 160
61 96 156
61 97 165
60 94 149
62 97 157
60 95 156
61 95 157
60 94 158
61 95 156
60 93 154
60 94 153
60 94 151
61 95 157
61 95 154
60 94 156
59 92 146
60 93 150
60 92 146
59 92 148
58 91 146
58 91 148
59 90 145
58 89 144
59 93 149
59 92 153
58 91 148
58 90 147
58 90 145
59 90 144
56 86 136
55 85 135
58 90 146
57 88 143
56 85 132
55 83 129
54 81 123
54 83 132
53 81 125
61 87 131
59 82 120
65 87 122
66 85 108
66 85 111
75 91 111
76 93 115
86 98 110
89 100 111
87 98 107
94 103 108
103 109 105
98 105 106
106 112 109
108 114 113
104 109 97
111 115 106
122 125 108
121 122 97
118 122 107
117 120 100
128 130 104
134 135 105
128 129 101
142 141 96
148 148 101
153 151 101
149 148 98
155 153 102
155 153 100
162 158 106
155 152 104
161 157 106
165 161 107
165 161 108
173 168 111
171 166 108
172 168 111
179 173 113
178 173 113
180 174 113
180 174 113
178 173 114
178 173 114
177 173 114
177 172 114
176 172 114
175 172 114
174 171 114
174 171 114
174 171 114
171 170 114
173 171 114
173 171 114
174 171 114
173 170 114
173 171 114
171 170 114
174 171 114
173 171 114
171 170 114
171 170 114
172 170 114
172 170 114
172 170 114
174 171 114
171 170 114
172 170 114
172 170 114
172 170 114
172 170 114
174 171 114
173 171 114
172 170 114
174 171 114
176 172 114
176 172 114
175 172 114
176 172 113
177 173 114
176 172 113
176 172 111
175 171 112
178 172 112
177 172 112
175 171 111
178 172 109
178 173 109
177 171 108
176 172 104
175 172 107
176 171 108
176 173 102
177 173 103
176 174 95
176 174 97
179 177 101
175 173 94
177 175 99
178 177 93
176 176 93
178 176 95
177 178 88
179 180 89
178 180 84
176 179 82
177 181 84
178 181 86
179 183 84
177 183 75
175 180 75
174 186 59
174 184 71
175 186 61
175 187 56
178 189 63
177 187 62
174 186 59
173 187 52
175 188 58
177 191 51
175 189 53
174 192 37
172 188 44
174 191 41
175 193 37
173 191 37
173 193 30
172 192 25
172 192 28
174 195 16
173 194 22
172 194 16
172 193 16
170 193 0
172 196 0
171 194 0
170 193 0
172 194 0
171 195 0
172 196 0
173 196 0
172 195 0
172 196 0
173 197 0
174 196 0
173 196 0
171 194 0
172 196 0
172 195 0
173 196 0
171 194 0
170 194 0
173 196 0
174 197 0
175 198 0
171 195 0
173 196 0
173 197 0
173 196 0
174 196 0
173 195 0
172 196 0
171 194 0
173 196 0
173 196 0
173 196 0
173 197 0
171 195 0
173 196 0
174 197 0
171 195 0
172 196 0
175 198 0
173 197 0
173 197 0
173 195 0
172 197 0
173 197 0
173 197 0
168 192 0
174 197 0
174 197 0
171 194 0
172 196 0
173 196 0
172 195 0
172 195 0
172 196 0
173 197 0
173 197 0
174 197 0
171 194 0
171 195 0
173 196 0
169 193 0
173 197 0
171 194 0
172 195 0
173 196 0
171 194 0
174 197 0
172 195 0
169 193 0
171 194 0
172 195 0
173 196 0
169 192 0
174 197 0
170 194 0
174 198 0
169 193 0
170 193 0
173 197 0
171 195 0
172 196 0
173 196 0
171 193 0
170 193 0
174 197 0
173 196 0
170 193 0
169 193 0
173 196 0
171 194 0
170 194 0
171 195 0
167 190 0
173 195 0
172 195 0
169 192 0
171 194 0
164 188 0
173 196 0
171 194 0
171 194 0
169 192 0
172 195 0
171 194 0
172 194 0
169 191 0
172 195 0
170 193 0
173 196 0
166 189 0
172 196 0
171 194 0
171 193 0
170 192 0
171 194 0
169 192 0
167 190 0
169 192 0
172 194 25
171 192 0
171 193 0
166 188 0
171 194 0
171 192 0
172 195 0
169 191 0
169 190 0
170 191 0
170 191 0
170 191 0
168 190 0
167 189 0
168 189 0
162 185 0
167 190 0
167 189 0
167 190 0
170 191 0
162 185 0
169 190 0
168 189 0
169 191 0
167 188 25
169 190 0
166 186 0
169 190 0
164 186 0
163 184 0
163 185 25
154 175 25
162 185 25
158 179 0
166 186 0
158 180 0
163 184 0
161 182 0
156 177 25
160 180 0
157 178 36
161 182 0
164 185 0
159 179 0
152 173 0
154 176 0
156 177 0
153 174 18
158 180 44
118 142 99
62 96 134
62 97 154
60 95 130
60 95 140
61 96 141
61 96 149
61 96 143
62 97 148
60 96 150
61 97 149
60 95 141
62 97 151
61 96 152
61 96 149
61 97 157
62 97 151
61 97 144
61 97 150
61 97 151
61 97 156
61 97 153
62 98 160
61 97 149
60 96 149
61 96 149
60 96 153
62 98 156
61 96 147
62 97 148
62 98 162
62 99 162
62 98 154
62 97 151
62 98 161
62 98 165
61 97 152
61 97 158
62 98 165
62 99 169
61 96 155
61 97 161
62 97 158
62 97 160
62 97 163
62 98 168
62 98 161
62 97 156
61 96 157
62 98 164
60 95 142
61 97 156
61 96 153
61 97 162
61 95 152
60 95 150
62 97 157
61 96 155
60 95 154
61 96 161
60 95 157
61 96 156
60 95 155
60 94 150
61 95 156
61 96 159
61 95 155
61 96 157
60 94 158
61 95 156
61 94 158
60 94 152
60 93 153
59 92 148
61 95 157
61 95 157
59 92 152
59 92 155
60 93 148
59 92 151
59 92 153
57 89 145
59 91 147
57 88 136
58 89 137
58 88 134
56 86 138
57 88 140
57 88 135
57 88 141
55 85 138
58 88 137
56 85 132
54 82 126
54 81 120
56 84 130
55 85 133
57 84 124
54 77 109
70 93 130
67 88 123
67 87 119
69 86 108
79 94 113
80 94 112
95 105 116
92 101 102
91 101 104
97 104 103
104 110 105
100 107 103
98 106 105
115 118 98
110 114 100
122 123 99
117 120 105
123 125 104
122 124 94
132 132 100
129 129 97
139 138 99
143 141 99
131 131 94
155 153 104
150 149 98
147 146 98
151 150 102
158 154 104
156 153 104
160 156 106
160 157 106
171 166 110
166 161 108
171 167 110
172 167 109
181 174 113
180 173 113
178 173 114
178 173 114
176 172 114
177 172 114
177 172 114
177 172 114
176 172 114
176 172 114
174 171 114
175 171 114
174 171 114
173 170 114
174 171 114
173 170 114
172 170 114
173 170 114
173 171 114
172 170 114
172 170 114
170 169 114
171 170 114
171 170 114
173 170 114
173 170 114
172 170 114
172 170 114
172 170 114
172 170 114
171 170 114
172 170 114
172 170 114
173 170 114
174 171 114
173 171 114
174 171 114
174 171 114
173 171 114
174 171 114
174 171 114
174 171 114
176 172 114
173 171 114
174 171 113
175 172 114
178 173 113
177 172 112
176 171 111
178 172 110
175 171 110
179 172 109
175 171 106
178 173 104
178 174 104
179 173 106
175 171 103
178 173 103
177 174 99
180 174 102
177 175 97
177 175 97
176 175 92
178 175 97
178 177 93
178 177 93
176 176 87
178 179 87
177 180 87
176 181 81
178 179 88
178 184 77
177 181 81
177 185 72
178 185 73
176 185 67
174 182 72
176 185 62
176 185 68
174 185 60
175 186 64
173 188 45
175 188 57
174 187 52
174 188 49
171 188 39
176 190 52
173 192 34
172 191 32
173 191 39
172 191 32
171 193 19
173 193 22
173 192 28
176 195 30
174 195 19
172 194 0
171 193 11
169 192 0
172 194 0
173 197 0
172 195 0
173 196 0
175 198 0
171 194 0
174 197 0
173 197 0
173 196 0
172 195 0
173 196 0
174 197 0
173 196 0
174 195 0
167 191 0
173 196 0
174 197 0
172 195 0
170 194 0
173 196 0
174 197 0
175 198 0
172 196 0
174 197 0
173 197 0
172 196 0
172 196 0
174 196 0
173 197 0
173 197 0
171 195 0
174 197 0
174 197 0
171 195 0
175 197 0
170 194 0
174 197 0
172 195 0
173 196 0
171 195 0
171 194 0
174 197 0
169 192 0
173 197 0
171 195 0
169 193 0
174 198 0
174 197 0
172 195 0
172 195 0
173 196 0
174 198 0
170 193 0
174 197 0
174 197 0
172 196 0
171 194 0
172 195 0
174 197 0
172 196 0
171 195 0
172 196 0
171 196 0
171 195 0
170 193 0
173 197 0
174 197 0
174 198 0
170 194 0
170 193 0
172 196 0
170 193 0
173 196 0
170 194 0
173 196 0
170 194 0
173 196 0
173 196 0
171 195 0
172 195 0
172 195 0
171 195 0
172 196 0
175 197 0
172 196 0
172 196 0
171 194 0
172 195 0
167 191 0
175 198 0
173 196 0
175 198 0
171 194 0
172 195 0
169 191 0
170 193 0
168 191 0
172 195 0
171 194 0
172 195 0
171 194 0
167 190 0
168 191 0
171 194 0
174 196 0
171 194 0
173 196 0
169 193 0
171 194 0
173 196 0
172 195 0
170 193 0
170 192 0
167 191 0
166 187 0
172 195 0
170 192 0
173 196 0
168 189 0
167 189 25
170 191 25
169 191 0
172 194 0
170 191 0
170 191 0
171 192 25
169 192 0
163 185 0
169 190 0
168 190 0
167 189 0
170 192 0
167 189 0
168 190 25
170 191 0
171 192 0
170 191 0
164 185 0
164 185 0
166 188 0
167 188 0
164 184 0
160 182 0
160 181 0
159 180 0
165 186 0
164 185 0
164 186 0
166 187 0
164 186 25
161 182 25
159 180 0
161 183 0
165 186 0
163 185 0
163 184 0
165 185 0
156 177 0
156 178 25
160 182 0
160 181 0
158 180 0
150 170 25
151 171 0
159 180 18
155 176 25
135 158 67
64 97 139
60 94 135
61 96 152
62 97 153
59 94 133
60 95 134
61 96 141
61 96 145
60 96 149
61 96 141
61 96 154
62 98 157
61 97 149
60 95 140
62 97 152
61 97 151
61 97 151
62 98 150
62 98 159
62 98 156
61 96 151
62 97 156
61 96 148
61 96 153
61 97 154
60 96 148
60 95 145
61 97 151
61 97 153
62 98 160
62 98 161
61 96 152
62 97 163
61 96 152
62 98 161
61 96 146
61 97 159
62 97 156
62 98 161
61 97 156
62 98 160
60 96 156
62 97 158
61 96 147
62 97 159
62 98 158
61 97 156
62 97 154
62 97 161
60 96 154
61 95 148
61 97 160
62 98 164
61 96 160
62 97 160
61 96 156
61 96 157
61 96 159
60 95 159
59 94 145
61 95 153
61 96 156
62 96 157
60 94 146
61 96 154
60 94 153
60 93 152
60 94 155
60 94 149
59 92 142
60 93 151
62 96 159
59 92 152
60 94 151
57 90 142
59 91 147
57 89 138
59 91 150
59 91 145
59 91 145
59 92 149
58 89 142
59 90 146
59 91 145
57 87 142
59 90 146
58 89 147
56 87 141
55 85 138
55 84 129
57 88 143
55 84 136
54 82 130
53 81 125
53 80 119
54 81 122
65 87 121
62 83 115
59 84 124
61 81 103
77 91 110
80 96 118
74 88 102
78 91 107
85 98 113
84 94 105
87 97 106
101 107 102
102 108 100
84 96 98
109 113 101
108 112 100
108 112 94
112 116 102
121 122 99
128 128 100
125 126 96
137 136 98
137 136 97
139 138 100
138 137 103
141 140 99
146 145 99
154 151 101
154 152 102
160 156 105
161 157 106
165 161 108
167 162 108
168 163 108
170 165 110
174 169 112
174 169 111
177 171 113
177 172 113
176 171 113
178 173 114
176 172 114
177 172 114
177 173 114
175 171 114
176 172 114
173 171 114
173 170 114
174 171 114
173 170 114
173 171 114
172 170 114
171 170 114
171 169 114
171 170 114
171 170 114
171 170 114
172 170 114
169 169 114
170 169 114
171 170 114
169 169 114
170 169 114
171 170 114
169 169 114
172 170 114
170 169 114
169 169 114
170 169 114
170 169 114
172 170 114
172 170 114
171 170 114
174 171 114
170 169 114
173 171 114
173 170 114
173 171 114
174 171 114
174 171 114
174 171 114
174 171 114
176 172 114
177 172 114
177 172 114
178 173 113
178 173 112
177 172 113
176 171 110
177 172 108
176 171 107
176 171 108
180 174 108
177 172 102
176 171 104
175 171 104
178 174 101
180 175 102
177 174 101
178 176 97
180 177 100
177 177 93
176 178 89
178 179 90
177 176 93
178 178 88
178 180 89
178 181 84
177 179 86
181 183 83
175 183 70
179 182 84
179 184 80
177 187 67
181 186 79
178 187 66
177 185 63
175 187 62
177 185 65
174 185 66
177 188 56
174 188 54
176 186 58
174 189 52
173 188 44
172 188 42
174 191 41
174 189 47
173 190 41
174 192 36
171 191 28
172 192 30
169 190 19
171 192 25
171 192 16
170 192 11
171 195 0
170 193 0
172 194 0
172 195 0
170 194 0
174 196 0
172 196 0
174 196 0
172 196 0
173 196 0
171 194 0
173 196 0
174 197 0
171 195 0
174 197 0
175 198 0
169 193 0
171 194 0
171 195 0
171 194 0
171 194 0
171 194 0
172 195 0
171 193 0
171 195 0
173 196 0
172 195 0
171 194 0
170 193 0
172 196 0
173 197 0
173 197 0
171 195 0
175 198 0
174 197 0
170 194 0
173 196 0
172 196 0
175 198 0
173 197 0
173 196 0
174 197 0
173 197 0
174 197 0
175 198 0
174 197 0
174 197 0
173 197 0
169 193 0
172 196 0
170 194 0
173 197 0
173 197 0
174 197 0
174 197 0
172 195 0
173 197 0
175 198 0
172 196 0
173 196 0
173 196 0
173 196 0
171 194 0
173 197 0
172 195 0
173 196 0
171 195 0
170 194 0
173 197 0
173 196 0
173 196 0
170 192 0
173 196 0
171 194 0
174 197 0
172 195 0
170 193 0
170 193 0
170 194 0
172 195 0
171 194 0
170 194 0
174 197 0
172 195 0
171 195 0
172 195 0
173 196 0
169 193 0
174 196 0
168 191 0
174 197 0
169 192 0
173 196 0
170 194 0
169 192 0
171 194 0
174 197 0
170 193 0
173 196 0
171 194 0
170 193 0
171 193 0
170 192 0
170 192 0
170 193 0
172 195 0
167 190 0
171 193 0
171 194 0
171 193 0
172 194 0
171 193 0
171 193 0
168 191 0
170 193 0
173 195 0
169 192 0
167 190 0
173 195 0
171 193 0
171 193 0
171 193 0
169 191 0
168 190 0
169 191 0
171 194 0
168 191 0
165 188 0
172 193 0
162 185 0
164 187 0
172 194 0
171 192 0
168 189 25
166 188 0
168 189 0
162 185 0
165 187 0
167 188 25
164 185 0
167 188 0
169 190 0
168 190 0
168 189 0
165 186 0
168 189 0
159 180 0
156 177 0
159 179 0
165 186 0
158 179 0
165 188 25
159 181 0
161 183 0
162 183 0
162 184 0
159 181 0
156 177 0
163 185 0
163 184 0
166 187 0
158 180 25
156 176 0
159 179 0
168 189 0
161 182 0
145 166 40
137 159 78
81 110 130
61 96 145
60 94 134
60 94 140
60 96 149
60 94 141
60 95 139
60 95 137
62 97 147
61 96 148
60 95 136
61 96 148
61 96 139
61 96 145
60 95 137
61 96 148
60 95 141
60 96 145
61 97 151
61 96 147
61 97 151
61 96 150
61 97 150
61 96 151
61 97 148
62 98 154
62 97 152
61 97 153
62 98 160
62 98 160
61 96 148
61 97 160
62 97 152
61 97 156
60 95 152
63 98 156
62 98 160
62 98 162
61 96 151
61 97 156
61 97 153
62 98 160
61 96 150
61 97 160
62 98 159
61 97 158
61 96 152
62 97 157
61 96 154
61 96 156
62 97 158
62 98 167
61 95 152
61 95 149
61 97 154
61 97 160
60 95 155
61 96 152
61 96 156
61 96 155
60 94 149
60 95 149
60 94 154
59 93 150
61 95 153
60 94 152
60 94 152
60 94 150
60 93 146
61 95 156
60 94 151
61 95 156
59 92 144
60 94 157
60 92 137
60 92 151
58 90 143
58 91 138
58 90 147
57 89 144
58 91 148
58 90 144
57 89 144
56 86 134
58 88 138
58 90 145
56 86 134
56 86 131
57 88 141
54 82 122
55 83 123
54 83 131
55 83 125
54 81 116
52 79 120
59 83 121
60 83 113
67 86 113
70 89 115
70 89 113
79 92 109
78 93 112
88 99 110
84 96 107
84 93 92
93 101 101
84 94 101
103 108 100
101 107 106
90 99 98
113 116 98
106 112 102
107 111 92
124 125 96
131 132 100
125 126 95
126 127 99
130 130 97
130 130 91
138 136 96
143 142 99
150 146 99
152 149 99
161 157 104
151 148 102
164 160 107
161 158 106
167 162 109
167 163 110
172 167 111
167 163 109
173 168 112
172 168 112
175 170 113
175 171 113
176 172 114
178 173 114
177 173 114
176 172 114
174 171 114
175 172 114
175 171 114
175 171 114
172 170 114
173 171 114
171 170 114
172 170 114
172 170 114
171 170 114
173 171 114
172 170 114
170 169 114
170 169 114
170 169 114
171 170 114
169 169 114
169 169 114
171 170 114
169 169 114
170 169 114
171 170 114
170 169 114
169 169 114
171 170 114
170 169 114
170 169 114
170 169 114
170 169 114
170 169 114
171 170 114
173 170 114
170 169 114
172 170 114
172 170 114
174 171 114
176 172 114
173 171 114
174 171 114
175 172 114
176 172 114
175 172 114
177 172 113
176 172 114
177 172 112
179 173 114
178 173 113
175 171 108
178 172 110
178 172 109
178 173 108
178 173 106
178 172 106
179 175 106
179 176 101
177 173 101
177 174 103
178 174 99
175 174 93
179 177 95
177 176 88
178 178 93
180 179 93
177 177 89
176 178 84
176 182 77
177 179 82
175 176 84
178 182 80
175 180 75
175 180 74
175 183 65
177 180 81
176 184 72
180 185 76
176 184 69
178 188 65
175 183 66
173 187 51
174 185 57
174 189 49
176 190 51
176 189 52
176 193 44
170 189 36
172 190 37
174 192 39
172 192 28
174 193 32
175 194 36
172 194 11
172 193 11
173 196 0
171 194 0
174 196 0
170 193 0
172 195 0
173 196 0
174 196 0
171 194 0
171 194 0
172 196 0
171 194 0
172 196 0
172 194 0
172 195 0
171 193 0
172 195 0
172 195 0
170 195 0
171 193 0
172 195 0
170 194 0
172 196 0
173 196 0
170 193 0
173 196 0
172 195 0
173 195 0
173 196 0
172 195 0
172 196 0
173 197 0
172 196 0
175 198 0
174 197 0
173 197 0
174 197 0
173 196 0
174 197 0
174 196 0
170 194 0
173 197 0
172 196 0
171 194 0
173 197 0
171 195 0
174 197 0
171 195 0
174 197 0
173 197 0
172 195 0
173 196 0
168 192 0
170 195 0
173 196 0
169 193 0
172 195 0
174 197 0
173 197 0
171 195 0
173 197 0
172 195 0
172 196 0
171 195 0
173 196 0
172 196 0
171 195 0
171 195 0
171 194 0
173 196 0
173 197 0
173 197 0
171 194 0
173 196 0
171 195 0
166 190 0
172 195 0
173 196 0
170 193 0
172 196 0
168 193 0
170 194 0
172 195 0
173 196 0
173 196 0
169 193 0
171 194 0
173 195 0
172 195 0
174 198 0
171 194 0
174 196 0
172 195 0
171 194 0
170 193 0
173 196 0
173 196 0
169 192 0
171 195 0
169 192 0
173 196 0
171 194 0
173 195 0
170 193 0
172 195 0
171 194 0
174 196 0
172 195 0
171 193 0
170 193 0
172 194 0
169 192 0
169 192 0
175 198 0
170 192 0
172 194 0
170 193 0
172 194 0
170 193 0
168 191 0
169 191 25
172 194 0
171 193 0
167 190 25
167 190 0
173 195 25
167 190 0
169 191 0
170 192 0
170 192 25
171 193 0
163 185 0
164 185 0
170 192 0
168 189 0
168 189 0
167 189 0
172 193 0
169 191 0
164 186 0
166 187 0
165 186 0
166 187 0
168 189 0
162 183 0
162 184 0
162 184 0
166 188 0
166 187 25
159 180 0
158 179 0
162 184 0
161 182 0
154 175 0
166 188 25
164 185 0
164 186 25
165 186 0
158 178 0
159 181 0
157 179 0
162 183 0
159 180 0
160 181 0
165 187 0
155 177 25
154 175 0
161 181 0
158 179 51
142 164 70
90 118 117
59 94 134
59 94 130
59 94 130
61 97 147
61 96 143
60 95 143
60 95 143
61 96 141
62 97 152
61 97 152
61 96 144
60 95 140
60 95 143
61 96 150
61 97 148
60 95 143
61 96 144
61 97 150
61 96 144
62 98 159
61 96 144
62 98 157
62 97 157
61 97 150
61 96 151
61 96 152
62 98 159
62 97 152
62 97 158
62 97 146
60 96 152
62 97 153
61 96 154
62 97 154
61 96 153
62 98 155
61 96 154
61 96 148
61 95 146
62 97 158
62 97 155
62 98 159
62 97 158
62 97 152
62 98 160
61 96 155
61 96 156
62 97 152
61 96 154
61 96 149
62 97 159
61 97 156
60 94 143
62 97 158
61 96 152
61 96 159
61 96 158
60 96 158
60 95 151
61 95 157
61 95 155
61 96 154
60 94 151
59 93 147
61 95 151
60 94 149
60 94 147
60 93 149
59 93 148
60 92 147
59 92 147
59 92 144
58 90 137
61 95 156
58 91 143
60 93 149
60 93 155
58 90 146
61 94 154
57 89 143
59 91 143
58 90 144
57 88 145
56 86 134
56 87 137
56 84 129
57 87 134
56 85 128
55 84 130
56 85 133
56 83 123
56 84 127
56 86 134
62 84 112
54 80 116
57 82 116
65 85 113
70 90 118
72 87 108
83 96 114
82 95 111
91 102 110
76 90 106
90 99 101
94 104 110
105 110 106
94 102 96
100 107 104
109 114 105
125 126 109
121 122 98
106 110 93
126 126 97
125 127 104
130 130 98
143 141 101
131 131 98
144 141 98
147 145 100
139 138 95
144 142 100
150 147 101
152 149 103
163 158 107
161 156 105
159 156 106
165 161 109
168 164 109
170 166 110
174 169 112
174 169 112
176 171 113
175 170 113
178 173 114
176 172 114
176 172 114
176 172 114
176 172 114
174 171 114
174 171 114
173 171 114
173 171 114
173 171 114
172 170 114
172 170 114
171 170 114
170 169 114
170 169 114
171 170 114
170 169 114
170 169 114
170 169 114
168 168 114
169 169 114
169 169 114
168 168 114
168 168 114
169 169 114
170 169 114
168 168 114
170 169 114
169 169 114
170 169 114
170 169 114
169 169 114
171 170 114
170 169 114
171 170 114
171 170 114
171 169 114
171 170 114
172 170 114
171 170 114
171 170 114
171 170 114
174 171 114
173 171 114
175 172 114
174 171 114
175 171 114
174 171 114
176 172 113
177 172 114
177 172 113
176 172 112
177 172 112
176 172 111
176 172 110
177 171 106
177 172 109
180 173 109
180 174 109
179 174 107
177 173 103
179 174 100
179 175 101
175 174 93
178 176 97
179 179 95
177 178 93
176 176 87
177 178 85
177 179 87
177 178 87
177 178 88
176 179 85
174 177 78
178 181 80
180 181 87
175 182 73
175 181 75
177 186 69
176 183 68
172 183 59
175 185 62
172 186 48
176 186 63
176 187 59
176 189 49
176 192 48
174 186 57
172 190 36
176 191 48
176 193 41
172 191 30
174 192 34
172 192 22
171 190 28
171 191 30
171 191 22
170 193 16
172 194 11
172 194 11
170 193 0
172 195 0
171 194 0
173 195 0
172 195 0
166 190 0
170 194 0
172 195 0
170 194 0
172 195 0
171 195 0
169 193 0
175 198 0
169 193 0
169 191 0
173 196 0
172 196 0
169 192 0
173 197 0
175 198 0
173 196 0
172 196 0
172 195 0
172 195 0
173 196 0
170 193 0
174 197 0
172 196 0
174 197 0
174 197 0
174 197 0
172 196 0
172 196 0
172 196 0
173 197 0
173 197 0
174 197 0
170 194 0
174 197 0
173 196 0
174 197 0
172 195 0
172 196 0
176 197 0
173 197 0
173 197 0
173 197 0
169 193 0
174 197 0
176 198 0
171 195 0
169 192 0
173 197 0
170 195 0
170 194 0
169 194 0
172 196 0
169 193 0
168 191 0
173 197 0
172 195 0
169 193 0
172 196 0
173 196 0
171 194 0
170 193 0
171 195 0
172 195 0
172 196 0
171 195 0
171 195 0
173 196 0
167 190 0
170 194 0
167 190 0
172 195 0
170 194 0
172 195 0
173 197 0
172 195 0
175 197 0
172 195 0
173 197 0
170 193 0
173 196 0
171 194 0
172 195 0
172 194 0
171 194 0
169 192 0
172 194 0
170 193 0
173 196 0
165 188 0
171 194 0
167 191 0
165 188 0
170 194 0
170 192 0
171 194 0
169 192 0
174 196 0
170 192 0
169 192 0
173 196 0
172 195 0
169 192 0
168 190 0
173 196 0
169 192 0
170 194 0
171 193 0
169 192 0
172 194 0
172 195 0
170 192 0
168 190 0
169 191 0
168 190 0
173 196 0
165 187 0
172 194 0
171 193 0
171 192 0
167 189 0
168 190 25
166 188 0
171 192 0
175 196 0
171 192 25
169 191 25
171 192 0
165 187 0
165 185 25
164 185 0
164 185 0
168 190 0
166 189 0
167 188 0
169 191 0
165 187 0
165 186 0
161 183 25
164 185 0
165 186 0
158 180 25
160 181 25
159 180 0
168 189 0
166 188 0
160 181 0
166 188 0
158 180 0
161 182 0
167 187 0
160 180 0
163 183 0
163 184 0
159 181 0
156 177 0
158 180 0
158 179 0
159 181 25
161 182 0
149 171 44
147 168 51
108 133 118
61 95 134
60 94 139
60 95 136
60 96 142
61 95 143
59 94 126
61 96 147
61 96 150
62 97 150
60 96 141
61 97 151
62 97 149
61 96 144
61 97 151
61 96 149
62 97 150
61 96 144
61 96 148
62 97 149
61 96 148
60 95 141
61 97 154
62 98 157
62 98 156
60 96 147
60 95 143
61 96 151
61 96 148
62 98 163
62 97 161
62 97 152
61 97 157
61 97 158
61 96 152
62 97 154
62 98 159
62 97 156
61 96 152
61 96 153
61 96 150
61 96 154
61 97 152
61 96 146
62 97 159
61 95 142
60 95 153
61 97 158
62 97 158
62 97 160
61 96 156
61 97 156
60 94 151
60 95 151
60 94 148
62 97 160
61 96 157
61 95 150
60 95 154
61 96 153
60 95 151
62 97 161
60 95 152
60 95 154
60 94 151
60 94 150
61 95 154
60 94 152
59 93 153
61 94 150
59 92 142
59 93 149
60 94 155
59 92 140
58 91 144
59 92 149
59 91 145
59 92 152
59 92 149
59 91 146
58 89 141
58 90 146
58 90 147
57 88 142
55 84 123
57 87 136
56 84 129
55 84 132
52 79 114
56 85 129
53 81 123
54 81 118
56 84 130
56 80 116
64 87 122
59 82 117
67 87 118
66 85 110
76 91 111
65 82 104
84 94 101
81 93 101
88 99 107
86 94 94
103 109 106
97 104 106
99 106 105
106 111 103
106 111 103
113 115 93
118 120 98
112 115 97
120 122 97
127 127 94
116 117 87
127 128 95
124 125 93
139 137 96
144 142 100
150 147 100
146 144 101
151 148 101
151 149 102
158 154 104
157 154 104
165 160 107
164 160 108
163 160 108
167 163 109
165 161 109
171 167 112
175 171 113
175 171 113
177 173 114
175 172 114
177 173 114
177 172 114
176 172 114
175 171 114
175 171 114
172 170 114
172 170 114
173 171 114
170 169 114
171 170 114
173 171 114
170 169 114
170 169 114
169 169 114
170 169 114
169 169 114
170 169 114
168 169 114
169 169 114
168 168 114
169 169 114
168 168 114
168 168 114
168 169 114
168 168 114
169 169 114
169 169 114
168 168 114
168 168 114
169 169 114
169 169 114
170 169 114
168 169 114
169 169 114
170 169 114
170 169 114
171 169 114
170 169 114
171 170 114
171 170 114
171 170 114
171 170 114
172 170 114
173 171 114
174 171 114
176 172 114
176 172 114
176 172 114
177 172 114
177 172 114
180 174 114
178 173 113
177 172 113
178 172 112
177 172 110
179 173 109
178 172 104
176 171 101
177 172 107
176 171 103
178 173 104
177 171 104
175 172 101
179 175 102
180 177 96
178 178 89
180 176 99
176 175 93
175 176 84
177 178 87
180 178 92
174 176 84
176 176 85
177 181 80
175 179 77
176 183 73
175 179 72
176 183 71
175 184 67
178 184 74
176 185 72
175 183 65
171 182 64
174 186 54
173 186 54
172 185 54
177 191 47
175 189 52
173 190 45
174 190 37
173 191 36
173 192 39
173 193 25
170 190 25
175 195 22
170 192 16
172 193 22
170 192 11
169 191 0
171 194 0
172 195 0
173 196 0
171 195 0
170 194 0
170 193 0
171 195 0
171 194 0
173 196 0
173 195 0
170 193 0
171 193 0
170 193 0
172 194 0
171 195 0
173 196 0
170 193 0
172 195 0
173 197 0
169 192 0
171 196 0
172 195 0
171 194 0
172 195 0
172 196 0
173 196 0
174 198 0
173 196 0
174 197 0
172 196 0
173 197 0
173 197 0
174 196 0
172 196 0
173 196 0
172 196 0
173 196 0
172 196 0
173 197 0
173 197 0
173 196 0
173 197 0
170 194 0
171 196 0
173 196 0
172 196 0
173 196 0
171 194 0
173 196 0
170 193 0
170 194 0
172 195 0
171 194 0
173 196 0
171 194 0
171 195 0
170 194 0
171 195 0
172 195 0
171 194 0
173 196 0
175 198 0
171 194 0
173 196 0
171 195 0
172 195 0
173 196 0
170 194 0
168 191 0
173 196 0
170 194 0
171 194 0
170 194 0
173 195 0
173 197 0
170 193 0
170 193 0
171 195 0
174 198 0
170 193 0
170 193 0
172 195 0
173 196 0
170 194 0
171 194 0
169 193 0
170 193 0
169 193 0
173 196 0
171 194 0
169 193 0
172 195 0
165 188 0
174 197 0
166 189 0
171 194 0
173 196 0
172 195 0
172 195 0
170 193 0
172 195 0
172 194 0
172 195 0
172 194 0
171 194 0
166 189 0
173 196 0
168 190 0
168 191 0
170 193 0
168 192 0
167 189 0
171 193 0
170 192 0
168 189 0
166 188 0
169 191 0
171 194 0
166 187 0
167 189 0
169 192 0
170 193 0
168 190 0
170 192 0
173 195 25
168 189 0
168 190 0
169 191 0
169 191 0
168 190 0
169 191 0
165 187 0
168 190 0
167 189 0
167 189 25
167 189 0
166 188 0
168 190 0
166 188 0
159 181 0
166 188 25
160 182 0
159 180 0
165 186 25
168 189 25
165 186 0
163 184 0
159 180 0
163 184 0
159 180 0
164 184 0
165 186 0
159 181 25
152 174 0
164 185 0
160 180 0
165 186 0
151 173 0
157 178 0
160 181 25
155 176 0
159 181 0
158 179 0
157 178 0
156 177 25
152 173 44
125 148 88
61 94 125
59 94 137
60 94 134
60 95 139
61 96 145
61 96 142
61 97 145
62 97 149
60 96 145
61 96 145
61 96 147
62 98 154
60 95 141
61 96 145
61 97 152
61 97 152
61 97 151
62 97 149
61 97 145
61 97 155
61 96 151
62 97 152
60 95 145
60 96 144
61 96 152
61 97 158
61 97 155
61 97 151
61 97 148
62 97 143
62 97 156
62 98 154
61 96 148
61 96 152
62 98 154
61 96 153
63 98 161
62 97 156
61 96 146
61 97 154
62 97 152
61 97 157
62 98 159
60 96 145
62 98 152
62 96 152
61 96 149
61 96 154
61 96 151
62 97 154
61 96 158
60 95 149
61 96 155
60 95 149
61 95 150
61 96 155
60 95 158
60 94 152
61 96 152
60 95 148
62 96 156
61 96 155
60 94 153
62 96 156
60 94 151
60 94 153
60 93 154
59 92 145
59 91 141
61 94 154
59 92 144
59 93 151
59 92 146
60 93 145
58 90 132
59 91 141
59 91 143
59 92 151
57 89 140
58 89 142
58 90 146
58 89 139
57 87 136
56 87 136
57 88 141
54 83 126
56 87 142
55 83 124
53 80 122
55 84 134
54 80 120
53 79 116
53 78 113
59 82 118
59 83 121
56 78 106
58 82 117
78 92 108
79 91 99
85 96 107
76 88 95
95 103 107
88 98 103
86 97 104
93 100 96
94 100 94
103 108 97
100 105 95
124 124 96
108 111 86
124 124 94
112 116 98
128 127 93
129 128 91
126 126 92
138 136 96
134 133 94
133 133 94
146 144 100
155 152 104
146 145 101
157 154 105
159 156 106
152 150 104
164 160 108
163 160 108
170 166 110
170 166 111
171 166 111
173 168 112
176 171 113
175 171 114
174 171 113
176 172 114
177 172 114
176 172 114
175 171 114
174 171 114
174 171 114
173 170 114
173 171 114
173 171 114
172 170 114
171 169 114
170 169 114
170 169 114
170 169 114
170 169 114
170 169 114
170 169 114
169 169 114
167 168 114
168 168 114
168 168 114
168 168 114
167 168 114
168 168 114
169 169 114
167 168 114
167 168 114
168 168 114
168 169 114
168 168 114
168 168 114
167 168 114
169 169 114
168 168 114
169 169 114
170 169 114
169 169 114
169 169 114
170 169 114
170 169 114
170 169 114
171 170 114
170 169 114
173 170 114
171 170 114
173 171 114
172 170 114
174 171 114
174 171 114
174 171 114
176 172 114
177 172 114
177 172 113
177 172 112
180 173 112
178 172 110
179 173 110
179 173 111
177 171 109
178 172 108
179 173 103
177 173 106
178 172 106
179 175 104
174 172 97
180 178 99
179 176 103
181 176 103
181 177 97
177 177 89
176 175 90
177 176 90
177 181 85
180 183 83
179 181 86
178 180 80
180 185 80
174 180 72
175 181 71
179 185 76
176 187 63
177 182 75
176 184 71
178 185 66
177 186 62
179 188 67
178 185 63
177 189 57
175 189 51
177 191 48
172 187 42
172 188 42
173 190 39
169 189 30
171 189 32
173 193 19
171 191 19
173 194 11
170 192 16
172 195 16
171 194 11
173 195 0
171 195 0
172 194 0
171 193 0
171 194 0
171 195 0
171 195 0
172 195 0
171 194 0
171 193 0
172 195 0
170 192 0
169 192 0
172 196 0
173 196 0
170 193 0
173 195 0
173 195 0
172 196 0
170 193 0
173 197 0
173 196 0
173 197 0
171 195 0
172 194 0
172 195 0
175 198 0
174 197 0
173 196 0
172 196 0
173 196 0
172 195 0
172 195 0
169 193 0
173 196 0
173 197 0
175 198 0
170 193 0
174 197 0
172 195 0
173 196 0
171 195 0
173 196 0
174 197 0
173 196 0
173 197 0
173 197 0
172 196 0
170 193 0
173 197 0
171 195 0
173 196 0
172 196 0
170 194 0
174 197 0
170 193 0
171 195 0
172 196 0
174 197 0
173 196 0
173 197 0
172 196 0
171 194 0
174 197 0
169 193 0
169 193 0
172 196 0
170 193 0
171 195 0
170 194 0
171 195 0
172 195 0
172 196 0
175 198 0
173 197 0
174 197 0
172 195 0
171 195 0
172 195 0
172 195 0
169 193 0
171 193 0
171 194 0
171 194 0
170 193 0
169 192 0
174 197 0
171 194 0
169 192 0
174 196 0
172 195 0
172 195 0
169 193 0
170 193 0
169 193 0
170 193 0
172 195 0
169 193 0
171 194 0
173 195 0
168 191 0
172 196 0
170 193 0
171 194 0
167 190 0
165 188 0
171 194 0
171 194 0
171 194 0
169 192 0
169 191 0
172 195 0
170 192 0
168 191 0
168 190 0
173 196 0
170 192 0
171 194 0
168 191 0
170 193 0
171 193 0
172 193 0
168 190 0
168 190 0
172 193 0
161 183 0
167 190 0
169 191 0
172 193 0
175 197 0
173 195 0
163 185 0
169 190 0
166 187 0
167 188 0
164 185 0
166 186 0
171 192 0
162 184 0
166 188 0
163 184 0
165 186 0
164 186 0
165 187 25
163 185 25
165 185 25
168 189 25
158 179 0
159 180 0
158 179 0
163 184 0
166 187 25
161 183 0
159 180 0
158 178 0
162 183 0
157 179 0
156 178 0
156 178 0
166 188 0
162 183 0
160 180 25
166 187 0
157 178 0
149 170 51
140 163 78
69 100 131
60 94 129
59 93 124
60 95 130
59 93 131
59 94 130
61 97 142
60 95 139
60 95 133
61 95 141
62 97 147
60 96 143
60 95 141
61 97 148
60 95 144
62 97 152
61 96 142
61 97 147
60 96 140
61 96 144
61 97 149
60 95 144
62 97 157
60 96 149
61 97 157
61 96 150
62 97 156
62 97 155
62 97 153
62 97 153
61 97 154
61 96 152
63 98 158
61 96 149
62 97 158
61 97 150
62 97 153
60 95 147
60 95 144
61 96 157
61 96 148
60 95 148
62 97 156
62 97 159
61 97 154
61 96 153
61 95 148
60 95 151
62 97 159
62 97 155
62 96 158
61 95 148
61 95 160
60 94 148
61 95 154
60 95 149
61 96 157
60 95 148
60 94 143
60 93 141
60 94 146
61 96 156
60 94 145
60 93 144
60 94 152
60 94 144
60 93 147
59 92 147
60 93 148
59 90 136
60 93 151
59 91 143
58 90 144
60 93 144
58 90 144
58 92 146
59 92 149
60 93 149
58 89 136
59 91 150
56 85 128
56 86 134
57 89 141
57 89 144
56 85 130
56 86 136
55 83 125
51 77 112
57 86 135
54 82 119
56 86 139
60 85 126
58 82 119
62 85 117
56 80 112
68 86 111
67 82 97
72 86 103
83 98 115
91 100 104
77 89 100
88 96 96
98 105 98
102 107 102
89 96 91
105 109 93
102 107 95
112 114 94
124 123 94
117 118 89
127 126 96
133 133 101
127 127 94
130 130 98
128 129 97
138 136 96
141 138 96
147 144 100
152 148 101
150 147 102
149 147 101
150 147 101
162 158 106
162 159 107
161 158 107
164 160 108
168 164 110
170 165 111
172 168 112
175 170 113
172 168 112
175 171 113
178 173 114
176 172 114
175 171 114
175 172 114
174 171 114
172 170 114
173 171 114
172 170 114
172 170 114
172 170 114
171 169 114
170 169 114
171 170 114
170 169 114
169 169 114
170 169 114
169 169 114
169 169 114
168 168 114
168 168 114
168 168 114
167 168 114
167 168 114
168 168 114
168 168 114
167 168 114
167 168 114
168 168 114
167 168 114
166 168 114
168 168 114
168 168 114
168 168 114
168 168 114
168 168 114
168 168 114
169 169 114
171 170 114
169 169 114
169 169 114
171 170 114
171 170 114
171 170 114
172 170 114
172 170 114
171 170 114
172 170 114
172 170 114
175 172 114
175 172 114
173 171 114
175 172 114
178 173 114
178 173 114
177 172 113
179 173 113
179 173 113
178 172 111
178 172 109
178 172 109
178 172 108
180 173 108
178 173 104
179 174 106
177 173 104
182 176 103
179 174 102
176 175 96
181 177 99
176 175 95
178 175 91
178 178 92
179 178 92
176 179 82
178 180 87
174 178 79
175 177 80
180 182 83
177 181 76
175 181 75
177 185 67
179 187 69
177 185 66
176 185 63
178 184 68
176 186 61
175 187 56
174 188 45
172 189 42
176 188 57
174 189 48
172 188 45
173 190 39
171 190 30
171 188 39
169 189 19
173 191 34
171 190 28
168 189 22
172 192 19
174 194 19
171 192 0
172 194 0
170 192 0
171 194 0
170 193 0
173 196 0
171 194 0
171 193 0
174 197 0
172 196 0
173 195 0
175 196 0
174 197 0
172 194 0
171 195 0
173 196 0
172 195 0
174 197 0
173 196 0
174 197 0
173 196 0
174 197 0
171 194 0
170 193 0
172 196 0
171 194 0
172 196 0
173 197 0
174 197 0
173 196 0
172 196 0
169 193 0
171 195 0
173 197 0
174 197 0
172 196 0
173 197 0
171 195 0
171 195 0
173 196 0
172 196 0
172 196 0
171 195 0
171 194 0
173 196 0
174 197 0
173 197 0
171 195 0
169 193 0
171 194 0
175 198 0
172 195 0
172 197 0
172 196 0
172 195 0
171 195 0
173 197 0
172 196 0
173 196 0
170 194 0
176 198 0
169 193 0
169 193 0
171 195 0
171 194 0
174 197 0
170 194 0
171 194 0
170 194 0
173 197 0
172 196 0
172 196 0
173 197 0
171 194 0
171 194 0
170 193 0
172 196 0
172 195 0
171 195 0
170 193 0
173 196 0
172 196 0
172 194 0
173 197 0
169 193 0
168 192 0
172 194 0
168 191 0
171 194 0
170 194 0
171 194 0
173 196 0
169 192 0
171 194 0
169 192 0
172 195 0
170 193 0
167 190 0
173 196 0
168 191 0
169 191 0
171 193 0
172 195 0
166 189 0
167 190 0
172 194 0
163 187 0
169 192 0
167 190 0
166 189 0
171 193 0
167 190 0
170 193 0
172 194 0
169 191 0
167 190 0
170 193 0
173 194 0
168 191 0
167 189 0
167 189 0
170 192 0
165 187 0
166 189 25
171 193 0
168 190 0
165 187 0
169 191 25
162 184 0
167 188 0
169 191 0
172 193 0
172 193 0
160 182 0
167 189 0
166 189 0
163 185 0
166 188 0
164 186 0
170 191 0
165 186 0
164 186 0
165 188 0
155 176 0
166 188 0
163 184 0
164 185 0
164 186 0
160 182 0
160 182 0
163 184 0
162 183 0
162 183 0
160 181 0
162 183 0
149 169 0
165 186 0
164 185 0
150 171 0
154 175 0
158 179 25
155 176 0
157 178 0
153 174 0
164 185 0
158 179 31
139 162 74
82 110 115
60 95 129
60 95 135
61 95 134
62 97 150
60 94 137
61 96 139
61 96 141
60 95 134
61 96 145
61 96 148
62 98 154
61 96 144
62 98 156
60 94 145
60 95 143
60 96 147
62 97 145
61 96 149
60 95 136
61 96 142
62 97 158
61 96 149
61 97 145
61 96 150
61 97 150
60 94 137
61 96 148
62 97 151
60 96 147
61 97 152
61 97 151
62 97 154
61 97 153
61 97 156
60 95 146
61 96 144
61 97 155
61 97 158
61 97 155
59 94 136
61 96 149
62 97 153
59 94 145
61 96 147
62 98 164
61 96 151
61 96 148
61 96 155
61 96 145
61 95 153
60 95 145
61 95 151
61 96 153
61 96 148
61 96 151
61 94 149
61 95 150
61 95 147
60 93 145
60 94 143
60 93 145
60 95 146
60 94 145
60 93 148
60 92 143
60 92 147
59 93 148
60 93 149
60 93 155
59 92 142
58 91 146
59 92 147
58 90 140
59 92 150
58 89 140
59 91 144
56 86 125
58 89 142
56 86 135
58 88 136
57 89 140
55 84 128
55 85 134
57 87 139
57 87 138
55 85 133
55 84 127
55 84 129
55 82 121
57 83 120
52 76 105
66 88 120
62 83 109
72 88 105
66 86 118
72 88 109
87 97 101
72 86 101
86 96 101
88 97 95
107 112 105
94 101 100
99 105 96
114 117 103
121 121 96
114 114 88
119 120 100
119 120 93
123 123 91
122 121 88
122 122 91
135 134 100
122 122 86
136 135 96
143 141 99
149 146 100
151 148 101
141 140 97
160 156 106
154 151 104
162 158 107
161 157 107
169 164 110
158 155 106
167 163 109
170 166 111
171 167 111
173 169 112
176 171 113
177 172 114
176 172 114
178 173 114
175 171 114
174 171 114
175 171 114
174 171 114
173 171 114
173 171 114
172 170 114
172 170 114
171 170 114
171 170 114
170 169 114
170 169 114
169 169 114
168 168 114
168 168 114
169 169 114
168 168 114
168 168 114
167 168 114
168 168 114
166 168 114
167 168 114
167 168 114
167 168 114
168 168 114
168 168 114
167 168 114
167 168 114
167 168 114
167 168 114
168 168 114
167 168 114
167 168 114
168 168 114
167 168 114
168 168 114
168 168 114
168 168 114
169 169 114
169 169 114
169 169 114
171 170 114
171 170 114
171 170 114
172 170 114
173 170 114
172 170 114
173 170 114
174 171 114
177 173 114
175 171 114
176 172 114
177 173 114
177 173 114
179 173 114
179 173 112
179 173 112
180 173 112
178 172 110
178 172 110
180 173 109
180 173 107
178 173 108
178 172 102
178 175 101
182 177 105
178 175 97
178 175 99
178 175 99
175 172 93
181 180 93
177 177 85
178 178 85
180 179 90
179 181 87
179 182 80
173 175 80
182 185 82
176 183 73
177 184 72
175 182 75
175 183 65
178 186 66
175 185 61
181 187 74
178 186 68
174 187 54
175 188 52
177 190 52
173 187 48
174 193 32
173 188 42
173 189 37
172 191 28
173 191 36
172 191 25
172 192 28
172 191 22
169 190 11
170 192 19
170 192 11
171 194 0
169 192 0
172 195 0
170 193 0
171 193 0
173 196 0
173 196 0
172 195 0
173 195 0
170 193 0
172 195 0
170 193 0
173 197 0
173 196 0
171 194 0
172 195 0
173 197 0
171 194 0
173 195 0
174 196 0
175 198 0
172 195 0
175 198 0
173 195 0
173 196 0
172 196 0
172 196 0
173 197 0
172 195 0
171 195 0
171 195 0
172 195 0
172 195 0
173 196 0
172 196 0
174 198 0
173 197 0
174 197 0
173 196 0
173 197 0
174 198 0
171 195 0
172 195 0
174 197 0
172 196 0
173 196 0
173 196 0
172 196 0
172 195 0
171 194 0
172 196 0
170 194 0
170 194 0
173 197 0
172 196 0
170 194 0
173 196 0
172 196 0
175 198 0
172 195 0
175 198 0
173 196 0
170 194 0
170 194 0
169 193 0
173 196 0
171 194 0
174 197 0
171 194 0
172 195 0
168 192 0
172 195 0
167 191 0
171 195 0
173 196 0
173 196 0
171 194 0
172 195 0
172 196 0
174 197 0
172 195 0
170 194 0
170 192 0
172 195 0
170 193 0
167 191 0
172 195 0
173 195 0
168 192 0
169 193 0
167 191 0
169 192 0
168 191 0
171 194 0
170 192 0
167 191 0
169 193 0
166 189 0
172 195 0
171 193 0
169 192 0
170 194 0
166 189 0
168 191 0
166 189 0
171 193 0
171 194 0
172 195 0
168 191 0
171 193 0
167 190 0
170 193 0
168 192 0
170 193 0
169 192 0
167 189 0
170 192 0
172 195 0
165 187 0
170 193 0
164 186 0
168 191 0
165 187 0
169 190 0
172 194 0
169 191 0
167 189 0
164 186 0
166 187 0
162 184 0
166 188 0
165 188 0
165 187 0
169 191 0
163 185 0
169 191 0
169 191 0
170 192 0
160 182 0
169 190 0
165 186 0
162 183 0
159 179 0
161 182 0
154 175 0
165 186 0
161 182 0
165 186 25
162 183 0
159 181 0
160 182 0
166 189 0
159 179 0
158 179 0
158 180 0
158 180 0
163 185 0
155 176 0
167 188 25
152 173 0
157 178 0
155 177 36
157 178 0
154 175 0
155 177 0
145 167 51
116 140 108
60 94 124
60 95 141
60 95 133
60 95 136
60 95 136
60 95 142
60 95 137
60 95 139
60 95 149
60 95 144
61 96 141
60 95 143
60 95 134
60 95 141
61 96 142
61 97 153
61 96 151
60 96 142
61 96 142
61 97 151
60 95 139
61 97 145
61 96 149
61 97 152
62 97 152
61 97 147
60 95 142
62 97 158
62 97 152
60 95 146
61 97 152
61 97 154
61 97 156
61 97 150
62 98 163
61 97 151
61 95 152
60 96 152
61 96 145
61 95 141
60 96 146
61 97 155
62 96 152
62 97 155
60 95 146
60 96 150
61 96 156
61 95 146
61 96 152
61 95 145
61 96 158
61 96 153
60 94 147
61 95 148
59 93 139
61 95 149
61 96 155
61 95 153
59 93 145
60 94 151
59 93 147
60 95 157
59 92 143
58 91 141
60 94 147
60 93 139
60 94 151
60 93 152
58 90 141
57 88 138
58 90 143
58 89 137
57 89 134
59 91 144
59 92 148
58 89 136
57 87 129
57 87 140
56 87 134
56 88 145
55 84 123
56 86 127
56 86 133
56 85 126
55 82 123
54 82 123
54 82 122
53 83 130
60 84 124
58 81 113
67 85 104
63 84 112
79 94 115
63 83 104
63 81 100
74 87 99
71 85 98
101 106 96
86 96 107
107 112 104
102 107 100
96 101 94
94 101 95
102 103 79
110 112 95
90 98 93
126 125 98
131 129 93
122 122 90
122 123 91
123 123 90
149 145 99
140 138 95
140 138 96
152 148 100
145 142 98
148 145 100
151 148 102
161 157 106
156 154 105
164 160 108
157 155 106
167 162 109
168 164 109
161 158 107
171 166 110
168 164 110
175 170 113
177 172 114
176 172 114
177 173 114
175 172 114
175 172 114
173 171 114
174 171 114
173 170 114
174 171 114
172 170 114
171 170 114
170 169 114
170 169 114
169 169 114
170 169 114
169 169 114
169 169 114
168 169 114
169 169 114
168 168 114
167 168 114
168 168 114
167 168 114
167 168 114
167 168 114
167 168 114
166 168 114
167 168 114
167 168 114
166 168 114
167 168 114
166 168 114
167 168 114
167 168 114
167 168 114
167 168 114
167 168 114
168 168 114
167 168 114
169 169 114
168 168 114
168 168 114
169 169 114
168 168 114
169 169 114
169 169 114
168 168 114
170 169 114
171 170 114
172 170 114
171 170 114
173 171 114
174 171 114
174 171 114
176 172 114
177 172 114
176 172 114
177 172 114
177 173 114
178 173 114
179 173 113
179 173 111
180 174 113
179 173 110
179 172 108
177 172 108
178 172 106
180 173 109
180 173 109
176 172 98
177 174 101
177 173 97
178 176 96
179 175 94
180 176 101
179 175 97
177 177 90
176 175 92
178 180 85
178 178 86
177 180 80
176 180 75
178 183 78
174 180 71
177 184 69
173 181 67
176 185 69
176 185 68
175 182 68
176 187 59
174 185 59
175 186 58
176 188 57
178 187 66
170 186 36
176 190 47
171 187 42
173 191 32
176 194 32
171 188 32
172 188 39
173 191 32
172 192 19
174 193 22
173 194 22
171 193 11
174 196 0
171 194 0
172 196 0
171 194 0
173 196 0
173 196 0
171 194 0
173 195 0
172 194 0
172 194 0
172 196 0
173 196 0
171 194 0
173 196 0
172 195 0
174 196 0
171 194 0
170 193 0
175 197 0
174 196 0
170 194 0
170 193 0
170 192 0
170 193 0
170 194 0
173 196 0
175 197 0
172 196 0
170 194 0
174 197 0
172 196 0
173 197 0
174 197 0
171 195 0
173 196 0
174 197 0
173 196 0
173 196 0
172 196 0
170 194 0
173 195 0
173 196 0
171 195 0
172 196 0
174 197 0
173 196 0
168 192 0
172 195 0
171 195 0
170 193 0
173 196 0
171 195 0
170 193 0
174 198 0
170 194 0
171 195 0
170 194 0
173 196 0
171 195 0
170 194 0
171 195 0
167 191 0
171 194 0
170 194 0
171 194 0
170 193 0
172 196 0
170 194 0
172 196 0
172 196 0
170 193 0
172 195 0
173 197 0
172 195 0
167 191 0
170 193 0
169 193 0
171 193 0
169 193 0
170 194 0
170 193 0
173 196 0
168 192 0
170 193 0
171 194 0
168 191 0
169 193 0
170 193 0
171 194 0
168 192 0
170 193 0
171 194 0
172 195 0
169 193 0
170 194 0
172 195 0
172 194 0
167 190 0
168 191 0
167 190 0
170 193 0
168 190 0
169 191 0
167 189 0
171 193 0
172 194 0
174 197 0
172 194 0
169 192 0
168 190 0
166 188 0
167 190 0
170 193 0
169 191 0
169 191 0
169 192 0
168 189 0
168 190 0
167 189 0
167 190 0
170 192 0
166 189 0
170 193 0
163 185 0
171 193 0
169 191 0
173 194 0
168 191 0
164 186 0
167 189 0
170 192 0
170 191 0
171 192 0
163 184 25
170 192 25
170 192 0
161 183 0
160 183 0
158 179 25
162 183 36
165 186 0
164 186 0
160 182 0
165 186 0
165 187 25
165 186 0
159 180 0
156 178 0
160 182 0
160 182 0
163 184 0
155 177 0
158 179 0
163 185 0
155 176 25
156 178 0
156 178 0
157 179 25
152 174 0
166 187 0
158 180 0
159 181 0
155 176 0
155 176 0
146 167 47
133 155 65
67 100 134
59 94 133
58 92 128
59 93 124
59 93 133
62 97 147
60 95 135
61 96 136
61 96 137
61 96 148
60 95 135
60 95 144
61 96 150
61 96 148
60 95 139
60 95 147
61 97 153
62 98 158
61 96 143
60 95 145
61 97 148
61 96 152
61 97 151
62 98 162
62 98 156
60 95 143
62 97 153
61 97 147
62 97 154
61 97 160
61 97 150
62 97 155
61 96 149
61 96 145
61 96 148
60 95 146
61 96 156
61 97 154
61 97 157
60 95 144
61 96 152
61 96 147
62 98 161
62 96 156
63 98 165
62 97 158
60 96 148
60 95 149
62 96 153
62 97 151
61 96 151
59 93 145
61 97 158
60 94 147
59 93 142
60 94 142
60 93 138
61 95 146
59 93 145
60 94 149
60 95 151
60 94 144
62 96 153
60 93 148
60 93 149
61 95 158
59 93 147
60 92 145
58 90 142
58 90 136
59 91 142
58 88 127
60 94 151
58 89 135
58 90 139
57 89 141
57 89 134
57 86 126
57 88 138
56 85 117
55 85 130
56 86 128
54 83 123
55 83 116
53 80 119
54 82 120
53 81 119
52 78 108
52 79 118
58 82 116
66 85 108
61 82 110
67 86 115
64 83 109
85 98 117
90 99 100
85 95 102
87 97 96
91 100 109
73 85 90
97 102 95
96 103 99
106 110 94
103 107 90
123 123 99
115 116 95
129 129 100
130 129 95
131 129 92
130 129 92
134 132 93
139 136 94
147 144 98
137 136 94
144 142 97
152 149 101
155 152 103
150 147 101
154 151 104
155 153 104
162 158 107
170 165 111
169 163 109
168 163 110
171 167 111
170 166 111
171 167 111
167 164 111
176 171 113
176 172 114
175 172 114
175 172 114
175 172 114
174 171 114
174 171 114
173 171 114
172 170 114
172 170 114
172 170 114
171 170 114
170 169 114
170 169 114
170 169 114
169 169 114
168 168 114
168 168 114
168 168 114
168 168 114
167 168 114
167 168 114
167 168 114
167 168 114
166 168 114
166 168 114
166 167 114
167 168 114
166 167 114
167 168 114
166 168 114
166 167 114
166 168 114
167 168 114
166 167 114
166 168 114
167 168 114
167 168 114
167 168 114
167 168 114
168 168 114
168 168 114
168 169 114
169 169 114
170 169 114
169 169 114
170 169 114
171 170 114
172 170 114
170 169 114
172 170 114
170 169 114
173 171 114
173 171 114
173 170 114
175 171 114
176 172 114
175 172 114
178 173 114
176 172 114
177 172 114
180 174 112
182 174 113
178 172 108
179 173 112
177 171 108
179 172 108
180 173 106
179 173 106
177 171 106
180 175 103
177 173 93
177 174 98
179 175 99
180 179 94
180 178 94
180 179 90
177 177 87
178 179 87
181 179 93
177 177 85
177 181 79
179 183 76
178 180 84
178 185 70
176 182 71
176 184 65
177 185 67
177 185 64
173 183 61
174 185 60
172 183 51
176 187 57
174 186 51
176 192 48
173 189 41
171 187 37
173 189 42
174 190 44
173 191 34
171 188 30
173 193 25
173 194 22
175 195 22
172 192 19
172 194 16
169 191 0
170 192 0
171 194 0
169 193 0
172 195 0
169 194 0
170 192 0
170 193 0
171 194 0
172 195 0
171 194 0
172 195 0
173 195 0
172 195 0
173 196 0
169 191 0
170 194 0
173 196 0
171 193 0
171 194 0
173 196 0
173 196 0
171 194 0
174 196 0
172 195 0
174 197 0
173 197 0
173 196 0
174 197 0
173 197 0
173 197 0
173 196 0
172 196 0
174 197 0
170 193 0
172 196 0
173 197 0
172 195 0
172 195 0
172 195 0
168 192 0
173 196 0
171 195 0
168 192 0
174 197 0
175 198 0
176 198 0
175 198 0
173 197 0
169 192 0
170 193 0
172 195 0
174 198 0
169 192 0
172 195 0
173 196 0
172 196 0
173 197 0
171 195 0
170 195 0
171 194 0
172 196 0
171 195 0
171 196 0
170 193 0
170 194 0
171 194 0
173 196 0
171 194 0
172 196 0
172 195 0
168 192 0
171 195 0
172 195 0
169 192 0
172 195 0
172 195 0
167 191 0
173 197 0
171 195 0
168 191 0
169 192 0
169 193 0
171 195 0
168 191 0
166 190 0
169 192 0
172 195 0
168 190 0
168 191 0
168 192 0
174 197 0
169 192 0
171 193 0
172 195 0
169 194 0
172 194 0
171 194 0
174 196 0
170 193 0
170 193 0
170 192 0
168 191 0
171 193 0
168 191 0
166 189 0
168 191 0
172 194 0
169 193 0
169 192 0
169 191 0
166 189 0
166 188 0
166 189 0
164 188 0
162 184 0
168 190 0
168 191 0
168 190 0
165 189 0
169 191 0
170 192 0
166 188 0
166 188 0
162 184 0
169 190 0
169 190 0
171 193 0
161 183 0
165 187 0
163 185 0
161 182 0
166 189 0
163 185 0
163 185 0
165 188 0
167 188 0
165 186 0
165 187 0
160 182 0
164 186 36
163 184 0
161 183 0
161 182 0
163 184 0
160 181 0
166 187 36
159 181 0
157 179 0
162 183 0
163 185 0
162 183 0
158 179 0
160 182 0
158 179 0
154 175 0
162 184 0
158 179 0
151 173 0
149 170 0
160 181 0
153 174 0
156 177 0
158 179 0
158 179 40
135 157 76
81 110 118
60 94 131
61 96 140
60 95 141
59 94 134
59 94 134
60 95 136
61 96 139
61 96 139
61 96 141
60 95 141
61 96 142
61 97 144
60 95 134
60 95 139
61 96 142
62 98 154
62 98 152
60 96 147
62 97 149
60 95 137
61 96 146
60 95 149
60 95 145
61 96 145
62 97 153
61 97 149
62 97 158
62 97 150
61 96 147
61 96 152
61 97 159
61 96 151
62 97 157
61 96 152
61 96 142
62 98 160
61 97 154
61 96 147
61 96 144
61 96 151
61 97 154
60 95 142
61 96 149
62 97 156
60 94 146
60 94 142
61 95 150
61 96 147
61 95 152
61 95 152
61 96 147
60 94 150
61 96 153
60 94 149
60 94 147
60 94 142
60 93 147
60 94 142
60 94 150
59 93 142
60 93 145
59 92 144
60 93 145
58 90 139
60 93 147
58 90 137
60 93 143
58 90 134
60 92 144
58 90 133
58 91 146
60 92 143
58 89 133
59 91 141
57 87 132
58 90 143
58 88 130
58 89 136
57 88 134
55 84 127
57 86 128
54 83 127
55 85 125
54 82 124
53 80 116
53 80 109
52 79 109
63 86 119
63 84 110
68 88 115
73 91 116
80 93 103
67 85 111
85 96 101
76 90 103
79 90 96
87 97 103
97 104 96
99 104 92
101 106 96
103 107 96
119 119 89
97 102 87
114 116 94
116 117 92
115 115 91
112 113 83
125 125 91
124 124 89
144 140 96
129 128 91
150 146 99
156 152 102
143 140 97
157 153 103
147 145 100
156 153 104
164 159 107
164 160 107
158 155 105
164 160 108
169 164 110
170 166 111
170 166 111
173 169 112
170 166 111
174 170 113
175 171 113
175 171 114
176 172 114
175 171 114
174 171 114
173 170 114
173 171 114
173 171 114
171 170 114
172 170 114
172 170 114
170 169 114
171 170 114
169 169 114
168 169 114
169 169 114
168 168 114
168 169 114
168 169 114
167 168 114
167 168 114
167 168 114
167 168 114
166 168 114
166 167 114
166 167 114
166 167 114
166 167 114
165 167 114
165 167 114
165 167 114
166 168 114
166 167 114
166 168 114
166 167 114
166 167 114
166 168 114
166 168 114
166 167 114
167 168 114
167 168 114
167 168 114
168 168 114
168 169 114
169 169 114
168 168 114
170 169 114
169 169 114
170 169 114
170 169 114
171 170 114
171 170 114
172 170 114
172 170 114
172 170 114
173 171 114
175 172 114
177 172 114
177 172 114
177 172 114
178 173 114
177 172 113
179 173 113
181 174 112
180 173 112
181 174 110
180 173 109
178 172 109
179 172 106
180 173 103
179 174 104
179 173 103
181 174 100
179 175 100
179 174 99
180 179 93
177 174 91
180 179 87
179 179 87
176 178 80
175 179 77
177 181 80
180 182 82
179 182 84
177 182 72
174 184 66
178 184 77
177 184 70
175 184 61
178 185 71
177 187 62
172 184 52
172 186 49
173 188 51
173 186 56
175 189 49
171 187 44
175 191 45
175 194 34
174 193 32
171 190 22
172 191 25
173 194 28
173 192 28
171 191 16
170 191 22
172 195 0
172 193 0
171 194 0
172 195 0
173 197 0
170 194 0
173 195 0
170 193 0
171 195 0
172 196 0
172 195 0
171 194 0
173 196 0
170 192 0
172 195 0
174 196 0
172 195 0
169 192 0
173 196 0
172 195 0
174 197 0
172 196 0
168 192 0
171 194 0
174 197 0
173 196 0
175 198 0
173 196 0
174 197 0
173 196 0
172 196 0
169 193 0
173 196 0
172 195 0
172 196 0
170 194 0
173 196 0
173 196 0
174 197 0
169 193 0
172 195 0
170 194 0
172 195 0
171 195 0
173 196 0
174 198 0
174 197 0
170 194 0
169 193 0
171 194 0
172 196 0
173 197 0
172 196 0
172 195 0
174 198 0
171 195 0
172 196 0
173 196 0
171 195 0
171 195 0
174 196 0
168 192 0
172 195 0
171 194 0
170 194 0
168 191 0
172 195 0
169 193 0
173 196 0
170 194 0
170 193 0
173 197 0
173 196 0
173 196 0
171 194 0
169 193 0
174 197 0
169 193 0
166 190 0
171 194 0
169 193 0
172 195 0
172 195 0
171 193 0
171 194 0
171 194 0
167 190 0
170 193 0
170 194 0
169 192 0
168 191 0
172 195 0
172 195 0
167 191 0
168 191 0
171 195 0
170 193 0
165 188 0
172 194 0
172 195 0
171 194 0
169 192 0
170 192 0
168 191 0
172 194 0
171 194 0
170 193 0
165 187 0
167 190 0
170 193 0
167 190 0
170 191 0
172 194 0
167 190 0
166 189 0
173 195 0
164 186 0
169 192 0
170 192 0
168 190 0
166 188 0
168 190 0
170 192 0
162 185 0
161 182 0
157 179 0
168 189 0
169 191 0
168 189 0
167 189 0
157 179 0
165 188 0
169 190 0
164 186 0
165 186 0
165 187 0
158 179 0
165 187 0
165 187 0
165 186 0
163 185 0
158 180 0
163 185 0
162 183 0
166 187 0
163 184 0
162 184 0
163 183 0
161 182 0
156 178 0
160 182 0
155 176 0
154 175 0
159 181 0
156 177 0
150 171 25
154 176 0
156 178 0
158 179 0
158 180 0
157 177 0
153 174 0
153 175 0
151 173 0
160 180 18
137 158 62
106 131 103
60 94 129
61 96 135
61 96 143
61 96 137
59 93 136
61 96 136
61 97 150
61 96 141
60 94 141
60 96 140
61 96 148
61 96 145
60 95 139
60 95 140
61 96 148
61 96 145
61 97 153
60 95 145
61 96 143
59 94 135
61 97 145
61 96 147
62 97 150
61 96 148
61 96 140
60 95 141
61 97 152
62 97 150
61 96 152
61 97 151
61 96 147
62 97 153
61 96 148
60 96 146
61 96 144
61 96 145
59 93 145
60 95 145
62 97 151
61 96 145
61 95 155
61 96 147
61 97 155
60 94 144
60 94 141
60 94 151
61 96 146
60 94 143
61 96 149
60 95 150
60 94 145
61 96 147
60 94 143
60 95 141
61 95 150
61 95 151
61 95 145
60 94 148
60 93 142
60 93 142
59 93 149
59 91 136
60 92 144
60 93 139
59 92 142
59 92 144
60 93 139
58 89 135
59 92 141
59 91 147
59 91 146
59 91 141
59 90 136
57 89 134
57 89 140
58 90 133
57 86 127
56 86 127
56 87 135
55 84 125
56 84 119
55 83 125
54 81 116
55 82 125
55 83 117
51 77 107
53 79 107
58 80 108
55 78 107
75 91 106
64 85 105
64 82 99
71 87 102
66 80 84
73 87 100
95 102 100
85 95 98
84 94 92
91 98 91
109 111 92
111 114 98
113 114 90
120 120 92
107 110 89
128 126 92
137 134 94
129 127 88
133 131 93
136 134 92
148 145 100
146 142 96
152 148 101
152 147 99
141 139 97
152 149 102
163 158 105
160 156 105
163 159 107
165 161 108
156 153 104
170 165 111
169 164 110
169 165 110
171 167 112
174 169 112
172 168 112
175 171 113
175 171 114
177 172 114
175 172 114
175 171 114
175 171 114
173 171 114
172 170 114
172 170 114
172 170 114
170 169 114
171 170 114
170 169 114
169 169 114
169 169 114
169 169 114
168 168 114
168 168 114
168 168 114
168 168 114
167 168 114
166 168 114
166 168 114
167 168 114
166 167 114
166 167 114
166 167 114
166 167 114
165 167 114
166 167 114
166 167 114
165 167 114
165 167 114
165 167 114
166 167 114
166 168 114
166 167 114
166 167 114
166 167 114
166 168 114
167 168 114
166 168 114
167 168 114
166 168 114
169 169 114
168 168 114
169 169 114
169 169 114
169 169 114
169 169 114
170 169 114
171 170 114
172 170 114
171 170 114
173 170 114
174 171 114
174 171 114
175 171 114
176 172 114
175 172 114
176 172 114
179 173 114
178 173 114
178 173 113
178 173 113
181 174 114
180 174 112
179 172 108
179 173 109
178 172 106
180 173 108
179 174 104
179 174 103
180 175 101
178 173 101
180 175 101
174 172 91
180 177 94
178 174 97
179 179 90
179 181 87
182 181 91
175 177 78
175 176 82
174 180 72
177 180 80
175 182 68
175 182 73
177 183 73
177 184 73
175 182 68
177 185 65
175 183 61
175 184 63
175 187 57
173 185 51
174 187 51
175 190 47
172 189 42
173 191 39
171 189 34
176 193 36
174 192 30
170 190 30
174 195 22
173 194 19
170 191 0
172 195 0
171 193 11
171 192 0
175 197 0
168 190 0
173 196 0
172 194 0
169 193 0
173 197 0
170 193 0
174 197 0
169 193 0
170 194 0
176 197 0
174 195 0
171 193 0
171 195 0
171 195 0
170 194 0
171 194 0
172 196 0
173 196 0
172 195 0
173 197 0
170 193 0
174 198 0
174 197 0
172 196 0
173 196 0
172 195 0
169 194 0
174 197 0
173 197 0
173 196 0
172 195 0
173 197 0
170 193 0
170 194 0
173 196 0
173 197 0
172 195 0
170 194 0
171 195 0
171 193 0
172 195 0
168 193 0
173 196 0
171 195 0
171 194 0
172 195 0
172 195 0
171 195 0
172 196 0
170 194 0
170 194 0
171 195 0
168 191 0
171 195 0
169 193 0
172 195 0
171 194 0
172 195 0
170 195 0
172 195 0
170 193 0
167 191 0
171 194 0
170 193 0
171 195 0
169 193 0
171 194 0
172 196 0
171 194 0
173 196 0
171 195 0
172 195 0
169 192 0
172 196 0
171 195 0
171 195 0
172 196 0
172 195 0
172 196 0
168 193 0
170 194 0
170 193 0
171 194 0
169 193 0
169 192 0
173 195 0
170 193 0
168 191 0
170 193 0
167 190 0
166 188 0
168 190 0
167 190 0
167 191 0
169 193 0
171 195 0
172 195 0
167 190 0
172 195 0
172 195 0
173 195 0
171 195 0
169 192 0
169 192 0
171 193 0
171 193 0
168 191 0
162 185 0
167 190 0
164 187 0
163 186 0
166 189 0
164 187 0
170 192 0
168 190 0
168 190 0
167 189 0
171 193 0
161 183 0
167 189 0
166 187 0
168 191 0
165 187 0
161 184 0
166 187 0
164 185 0
164 186 0
160 182 0
170 192 0
160 182 0
164 186 0
162 183 0
165 187 0
168 190 0
162 184 0
164 187 0
163 185 0
162 185 0
160 181 0
164 186 0
158 179 0
168 189 0
160 181 0
164 186 0
159 180 0
151 173 0
163 183 0
162 184 0
151 172 0
158 179 0
163 184 0
157 178 0
159 180 0
156 177 0
154 175 0
157 178 0
154 174 0
159 181 0
155 176 0
158 180 0
152 174 0
140 162 51
132 154 90
72 102 122
58 92 118
60 95 141
59 93 121
59 94 135
59 94 128
61 95 141
61 96 137
60 95 135
61 95 141
61 97 144
60 95 142
59 94 143
60 95 145
59 94 135
61 96 144
61 96 148
60 95 136
60 95 131
60 95 145
61 96 147
60 95 139
61 97 151
60 96 140
61 96 144
60 95 140
61 97 153
60 95 141
61 96 151
61 96 148
62 97 151
61 97 153
61 97 154
61 95 147
62 97 149
61 97 155
62 97 151
61 96 147
61 97 157
59 94 143
61 96 155
61 96 145
60 95 137
62 97 156
61 95 146
61 97 156
61 96 151
62 96 152
59 93 139
61 95 147
61 95 147
61 95 146
60 94 146
60 95 147
61 96 154
60 93 144
60 94 142
60 93 145
60 94 147
59 92 137
60 94 144
59 93 146
59 91 139
60 93 144
59 91 140
59 91 137
60 93 144
59 92 147
60 93 143
60 93 145
59 91 140
57 88 131
58 89 134
58 89 135
58 87 128
58 90 137
56 85 125
56 85 127
56 86 131
55 84 118
55 85 127
53 80 112
55 83 124
54 82 123
54 82 128
58 82 115
60 83 110
62 84 117
61 81 108
76 91 107
78 93 104
64 82 104
86 96 102
99 105 96
89 97 96
105 110 106
98 105 101
87 94 92
100 104 95
111 113 94
111 113 93
112 112 85
115 116 95
113 113 84
119 120 96
122 121 85
125 125 90
135 132 91
143 140 98
138 137 95
146 143 97
145 142 97
145 143 99
150 147 100
156 153 104
157 153 104
153 150 102
164 160 107
161 157 106
164 159 107
167 163 109
174 169 112
175 170 113
176 170 113
174 169 113
174 170 113
175 171 114
173 170 113
176 172 114
174 171 114
174 171 114
174 171 114
173 170 114
174 171 114
172 170 114
171 170 114
171 170 114
170 169 114
169 169 114
170 169 114
169 169 114
169 169 114
168 168 114
168 168 114
168 168 114
167 168 114
166 168 114
167 168 114
166 168 114
166 168 114
166 168 114
166 167 114
166 168 114
166 167 114
166 167 114
166 167 114
165 167 114
166 167 114
166 167 114
165 167 114
166 167 114
166 167 114
166 167 114
166 167 114
167 168 114
166 167 114
166 167 114
166 167 114
167 168 114
167 168 114
167 168 114
168 168 114
169 169 114
168 168 114
169 169 114
170 169 114
169 169 114
170 169 114
171 170 114
172 170 114
172 170 114
173 171 114
173 170 114
175 171 114
175 171 114
175 172 114
177 172 114
177 172 114
177 173 114
178 173 114
178 173 113
178 173 112
180 173 112
180 173 111
182 174 112
179 173 112
178 171 103
181 173 105
182 174 107
181 174 107
181 175 104
180 175 102
180 176 101
178 175 92
180 178 93
178 175 97
178 176 87
178 177 90
179 179 87
178 176 89
176 181 78
178 182 84
176 182 72
176 181 75
177 183 75
176 186 61
177 185 62
177 183 69
177 185 65
174 185 59
173 187 47
175 185 58
175 186 54
174 187 49
175 188 51
170 185 42
173 189 41
171 187 39
170 188 34
171 189 37
170 189 32
170 191 22
171 191 11
173 194 11
172 194 0
170 193 0
170 194 0
170 193 0
169 191 0
172 194 0
175 198 0
172 194 0
172 196 0
172 195 0
174 196 0
170 193 0
171 195 0
174 196 0
170 194 0
173 196 0
171 194 0
172 195 0
172 194 0
171 194 0
173 196 0
173 196 0
172 195 0
171 194 0
172 195 0
173 196 0
173 196 0
173 196 0
171 196 0
172 196 0
170 194 0
171 195 0
172 196 0
174 198 0
173 197 0
173 196 0
173 197 0
171 195 0
172 195 0
170 193 0
174 196 0
170 194 0
172 196 0
169 193 0
173 197 0
170 194 0
173 196 0
171 195 0
171 196 0
171 195 0
173 196 0
171 195 0
168 192 0
170 194 0
171 194 0
171 195 0
170 195 0
168 192 0
171 194 0
171 195 0
172 194 0
171 194 0
170 194 0
174 197 0
171 195 0
174 197 0
172 194 0
172 195 0
173 196 0
170 193 0
174 196 0
169 193 0
173 196 0
172 196 0
174 197 0
170 193 0
173 197 0
165 190 0
171 194 0
170 193 0
166 189 0
171 195 0
171 194 0
167 190 0
169 192 0
173 196 0
169 193 0
172 195 0
173 196 0
172 195 0
169 192 0
170 193 0
168 192 0
170 193 0
168 191 0
172 195 0
168 191 0
169 192 0
169 193 0
168 191 0
171 193 0
167 189 0
169 191 0
170 194 0
169 192 0
166 190 0
167 190 0
167 190 0
167 189 0
168 191 0
171 193 0
163 187 0
171 192 0
166 188 0
170 192 0
163 186 0
163 186 0
169 191 0
164 186 0
169 192 0
171 193 0
168 190 0
165 186 0
168 189 0
168 190 0
164 186 0
162 183 0
170 192 0
167 189 0
165 188 0
163 186 0
172 193 0
166 188 0
162 183 0
165 186 0
163 184 0
158 180 0
162 183 0
162 185 0
161 183 0
164 185 0
163 185 0
159 181 0
152 174 0
157 178 0
155 177 0
154 176 0
159 180 0
159 181 0
154 176 0
157 179 0
154 176 0
156 177 0
156 177 0
156 177 0
160 182 0
165 186 0
147 168 0
151 173 0
165 186 0
147 170 0
152 173 0
153 173 0
153 175 0
140 160 18
127 149 44
90 117 103
59 93 126
60 95 136
59 94 133
60 95 137
60 95 137
60 95 137
60 95 130
60 95 141
60 95 133
61 96 144
60 95 140
59 94 137
60 95 134
60 96 144
61 96 146
61 95 139
60 95 142
61 96 148
61 96 150
60 95 129
62 97 155
60 95 141
62 97 149
60 95 136
61 96 144
61 96 147
61 97 155
60 95 138
61 96 142
61 95 145
61 96 146
61 95 141
61 96 142
60 94 132
61 96 150
61 96 145
59 93 136
61 95 146
61 97 153
62 97 155
61 95 148
62 97 156
59 94 137
62 96 143
60 95 148
62 96 151
60 94 144
61 96 155
60 94 145
61 95 145
61 95 150
60 94 148
61 95 149
61 96 152
61 94 143
60 94 145
60 93 143
59 92 142
59 92 138
58 90 124
61 94 143
60 94 148
59 91 140
59 92 137
59 91 139
58 90 140
59 92 142
59 92 147
57 89 137
57 88 127
58 89 137
58 90 134
57 88 133
58 89 134
56 86 131
58 89 133
56 87 132
56 85 126
56 84 128
55 83 124
55 83 126
55 82 123
54 81 119
56 82 117
55 79 109
59 82 108
72 89 107
70 88 113
69 85 98
67 85 105
65 82 98
82 95 102
94 101 98
79 89 90
90 97 94
94 99 88
100 104 90
98 102 92
107 110 88
120 120 94
120 120 91
124 124 92
126 124 89
131 130 97
139 136 96
134 132 94
135 133 93
143 139 96
138 136 93
141 138 94
154 150 101
152 148 101
151 147 100
160 156 104
159 154 104
160 156 105
165 161 108
166 161 108
171 166 111
173 168 112
175 170 112
170 166 111
175 170 112
172 167 111
175 170 113
176 171 114
176 172 114
176 172 114
175 171 114
174 171 114
173 171 114
174 171 114
173 170 114
171 170 114
171 170 114
170 169 114
170 169 114
170 169 114
169 169 114
169 169 114
169 169 114
168 169 114
167 168 114
167 168 114
167 168 114
167 168 114
166 167 114
166 167 114
166 167 114
166 167 114
166 167 114
165 167 114
166 167 114
165 167 114
165 167 114
165 167 114
165 167 114
165 167 114
165 167 114
165 167 114
166 167 114
165 167 114
165 167 114
166 167 114
166 167 114
167 168 114
167 168 114
166 168 114
167 168 114
167 168 114
168 168 114
169 169 114
168 168 114
168 168 114
169 169 114
171 170 114
170 169 114
170 169 114
171 170 114
171 170 114
173 170 114
173 171 114
174 171 114
174 171 114
176 172 114
178 173 114
176 172 114
179 173 114
179 174 114
180 174 113
181 174 113
179 173 113
177 172 109
180 173 110
180 173 110
182 174 112
179 172 107
181 174 108
181 175 103
180 176 101
181 176 100
180 176 98
178 173 93
178 179 90
179 176 91
179 178 92
181 179 90
177 177 86
178 179 84
178 178 85
179 183 79
177 181 73
176 181 72
175 180 74
178 184 73
178 184 72
178 184 70
176 186 63
176 187 61
178 186 65
174 185 58
178 191 54
174 188 47
174 187 48
174 187 49
172 189 37
173 191 32
170 187 39
170 190 22
172 193 22
173 194 16
172 192 22
171 192 11
170 193 0
168 191 0
172 195 0
173 196 0
167 189 0
169 192 0
171 194 0
172 194 0
172 196 0
172 195 0
172 195 0
171 194 0
170 194 0
169 192 0
171 194 0
173 196 0
173 195 0
170 194 0
170 193 0
171 191 0
173 196 0
172 196 0
171 194 0
172 195 0
174 197 0
173 197 0
173 197 0
171 195 0
172 195 0
174 197 0
172 195 0
170 195 0
173 197 0
174 197 0
174 197 0
171 194 0
170 195 0
172 195 0
172 195 0
174 197 0
173 197 0
171 196 0
171 195 0
172 196 0
172 195 0
173 197 0
170 193 0
171 195 0
173 196 0
169 192 0
173 197 0
169 193 0
174 197 0
173 196 0
171 194 0
173 196 0
171 195 0
172 196 0
171 195 0
169 193 0
170 194 0
170 194 0
169 193 0
173 196 0
172 195 0
174 197 0
172 195 0
172 196 0
169 192 0
170 194 0
173 197 0
172 195 0
169 193 0
171 194 0
171 194 0
172 195 0
167 192 0
169 192 0
171 194 0
173 195 0
170 194 0
171 195 0
174 197 0
169 193 0
169 193 0
172 195 0
168 191 0
169 193 0
172 196 0
171 194 0
174 196 0
166 189 0
171 194 0
174 197 0
169 192 0
169 191 0
169 193 0
170 192 0
167 190 0
169 192 0
171 194 0
171 194 0
166 189 0
167 191 0
168 190 0
171 194 0
171 194 0
167 190 0
169 192 0
168 191 0
167 190 0
166 189 0
168 190 0
166 189 0
170 192 0
167 190 0
167 189 0
171 193 0
167 188 0
160 183 0
167 190 0
164 188 0
158 181 0
163 187 0
163 185 0
165 189 0
161 182 0
166 188 0
172 194 0
162 183 0
162 184 0
157 180 0
163 184 0
159 181 0
164 186 0
160 182 0
160 182 0
161 183 0
164 187 0
162 184 0
164 186 0
163 185 0
157 179 0
160 182 0
162 185 0
162 184 0
160 181 0
161 182 0
159 181 0
151 173 0
160 182 0
155 177 0
162 184 0
149 170 0
161 183 0
156 177 0
155 176 0
158 181 0
151 172 0
160 181 0
154 175 0
146 166 0
153 174 0
149 169 0
151 172 18
138 160 54
115 138 86
59 92 115
59 93 125
59 93 125
60 95 139
58 92 131
60 95 137
60 94 140
61 95 144
60 95 139
60 95 141
61 96 145
61 95 136
61 96 136
60 96 137
61 96 142
60 95 136
61 95 147
60 95 141
62 96 148
61 96 147
61 95 143
60 95 143
60 95 147
60 96 143
60 94 139
60 95 139
60 94 139
60 95 142
60 94 141
61 97 151
61 96 153
61 96 150
61 96 152
60 95 142
61 96 149
62 97 152
60 95 148
61 96 148
61 95 146
61 96 150
61 95 146
60 95 147
61 96 149
61 95 149
61 95 145
61 95 151
60 94 148
60 94 142
61 95 150
60 94 144
61 94 147
60 94 143
59 93 143
61 95 153
60 93 145
60 94 140
59 93 135
60 93 138
60 94 144
60 93 141
60 92 143
60 92 138
60 93 142
58 90 131
58 91 136
58 89 134
58 89 133
60 92 141
59 91 137
58 90 132
56 86 127
57 87 130
57 87 127
57 89 136
56 86 131
57 87 131
56 85 125
55 85 128
55 85 125
56 86 121
54 83 119
55 83 111
55 82 118
56 84 122
62 83 104
54 77 103
63 85 114
74 90 106
75 88 99
70 87 110
87 98 104
90 98 98
97 103 91
89 96 94
99 104 94
97 101 85
101 105 84
100 105 98
105 108 94
107 109 86
115 115 85
126 125 95
117 117 86
123 123 90
134 132 92
137 134 94
136 134 93
134 133 92
146 143 98
147 144 98
144 142 99
155 151 101
162 157 105
156 153 104
162 158 106
166 161 108
167 162 108
166 162 109
168 163 110
167 163 109
174 169 112
172 168 112
177 171 113
174 170 113
177 173 114
177 173 114
174 171 114
175 171 114
175 172 114
174 171 114
173 171 114
171 170 114
171 170 114
172 170 114
172 170 114
171 170 114
170 169 114
169 169 114
169 169 114
169 169 114
168 169 114
169 169 114
167 168 114
167 168 114
166 168 114
166 167 114
166 167 114
166 167 114
166 167 114
166 167 114
165 167 114
166 167 114
165 167 114
165 167 114
165 167 114
165 167 114
165 167 114
165 167 114
165 167 114
165 167 114
165 167 114
166 167 114
166 167 114
165 167 114
166 167 114
166 167 114
166 168 114
166 168 114
166 168 114
167 168 114
168 168 114
168 168 114
169 169 114
169 169 114
169 169 114
170 169 114
170 169 114
170 169 114
171 170 114
172 170 114
173 170 114
174 171 114
174 171 114
174 171 114
175 172 114
176 172 114
176 172 114
178 173 114
177 173 114
178 173 114
181 174 114
181 174 113
179 173 113
180 174 111
180 174 111
177 171 104
181 173 109
180 173 105
179 172 104
178 172 99
181 174 104
180 173 101
180 176 93
178 175 93
178 175 94
178 174 91
178 176 90
181 179 93
177 178 80
177 179 82
177 181 76
181 181 89
177 181 74
173 177 75
176 184 64
178 185 66
174 182 59
177 185 65
174 186 57
176 186 63
176 189 54
176 186 58
172 188 42
175 187 56
174 187 47
175 189 49
173 190 37
171 188 39
172 189 34
173 191 30
172 193 28
170 190 19
173 195 16
173 194 19
173 194 0
173 194 0
172 195 0
172 193 0
171 194 0
170 192 0
174 197 0
173 195 0
171 195 0
172 195 0
167 190 0
172 195 0
173 196 0
171 194 0
173 196 0
173 196 0
172 196 0
168 192 0
172 196 0
173 195 0
173 195 0
173 195 0
173 196 0
174 197 0
172 195 0
173 197 0
174 197 0
174 197 0
173 196 0
172 195 0
172 195 0
175 197 0
173 197 0
172 196 0
172 195 0
170 194 0
173 196 0
176 199 0
174 197 0
172 196 0
173 196 0
171 194 0
169 192 0
172 195 0
171 194 0
170 193 0
174 197 0
174 196 0
169 192 0
173 196 0
170 194 0
170 194 0
172 196 0
171 195 0
170 194 0
171 194 0
172 195 0
171 194 0
170 193 0
169 192 0
172 196 0
170 194 0
172 195 0
172 196 0
170 194 0
169 193 0
171 194 0
170 194 0
170 194 0
170 194 0
168 191 0
169 192 0
171 195 0
167 191 0
170 193 0
169 192 0
172 195 0
169 193 0
167 190 0
169 193 0
171 195 0
171 195 0
172 195 0
173 196 0
170 194 0
170 193 0
168 191 0
168 190 0
170 194 0
168 192 0
170 194 0
170 193 0
172 194 0
171 195 0
165 188 0
170 192 0
171 194 0
170 193 0
168 191 0
165 187 0
173 195 0
169 191 0
168 191 0
168 191 0
166 189 0
165 188 0
164 187 0
167 190 0
165 188 0
163 186 0
166 188 0
166 188 0
167 191 0
168 192 0
169 192 0
160 183 0
167 190 0
171 194 0
165 187 0
166 189 0
163 185 0
163 186 0
165 188 0
161 184 0
160 182 0
166 188 0
166 188 0
166 189 0
167 189 0
164 186 0
162 184 0
168 190 0
163 184 0
167 189 0
162 185 0
162 184 0
162 184 0
164 185 0
155 177 0
167 189 0
164 186 0
161 182 0
159 181 0
164 186 0
160 182 0
160 182 0
163 185 0
159 181 0
153 174 0
163 183 0
161 182 0
155 178 0
152 173 0
154 177 0
156 178 0
156 178 0
161 183 0
155 176 0
148 170 0
156 178 0
150 170 0
152 174 0
157 178 0
148 170 0
142 164 47
126 148 60
86 115 113
58 92 121
60 94 128
60 94 128
59 94 129
61 96 137
59 93 129
60 94 131
60 94 131
59 93 130
60 95 130
60 95 134
60 94 139
60 94 132
61 96 142
60 94 134
59 94 136
60 95 139
60 95 139
60 95 140
61 95 142
60 95 141
62 97 149
60 95 139
60 95 135
60 95 143
61 96 145
61 96 147
61 96 149
61 96 146
61 96 149
61 95 144
61 96 146
61 97 146
61 96 148
61 96 149
59 93 142
60 94 140
61 95 151
60 95 148
61 95 143
60 95 144
60 94 146
60 94 150
61 95 145
60 95 149
60 94 144
60 95 148
60 94 143
60 95 144
59 93 130
60 95 146
60 94 142
60 94 149
60 94 148
60 93 143
59 93 148
59 91 135
61 95 145
60 94 148
58 90 137
58 90 128
59 91 145
60 94 147
59 91 142
60 92 140
58 90 128
59 91 139
59 93 147
58 89 134
57 88 127
55 84 119
55 85 128
56 86 125
56 85 119
57 86 130
56 85 122
55 82 118
54 82 113
55 83 124
51 76 106
53 80 109
54 81 114
57 81 113
54 77 105
59 81 103
65 83 102
65 82 94
75 88 96
88 99 109
90 99 99
87 96 95
97 101 87
82 93 94
109 110 88
102 105 86
112 114 94
117 118 98
114 114 85
111 113 90
114 115 91
126 124 87
111 112 86
134 131 90
126 125 88
149 145 98
130 129 90
143 140 97
153 149 99
152 148 101
163 157 105
156 153 103
153 149 102
165 159 106
158 154 103
165 160 107
171 166 110
167 162 109
164 160 108
174 169 111
169 165 110
174 170 112
177 172 114
175 171 113
177 173 114
176 172 114
175 172 114
176 172 114
175 172 114
174 171 114
174 171 114
173 171 114
171 170 114
171 170 114
170 169 114
171 170 114
170 169 114
171 169 114
169 169 114
169 169 114
168 168 114
167 168 114
167 168 114
166 168 114
166 167 114
166 167 114
166 167 114
166 167 114
166 167 114
166 167 114
165 167 114
165 167 114
165 167 114
165 167 114
165 167 114
165 167 114
165 167 114
165 167 114
165 167 114
165 167 114
165 167 114
165 167 114
166 167 114
165 167 114
166 167 114
166 168 114
167 168 114
166 168 114
166 168 114
167 168 114
167 168 114
167 168 114
168 168 114
168 168 114
169 169 114
169 169 114
171 170 114
171 170 114
172 170 114
172 170 114
172 170 114
173 171 114
172 170 114
175 171 114
175 171 114
176 172 114
176 172 114
178 173 114
178 173 114
178 173 114
180 174 114
180 174 114
180 174 113
182 175 113
180 174 112
180 173 110
178 172 106
178 171 101
182 174 107
180 174 104
179 172 103
180 175 97
177 173 96
178 175 96
176 173 91
180 175 95
179 176 90
176 178 84
181 176 93
180 180 84
175 179 74
178 180 80
180 184 80
181 182 80
173 178 72
175 182 65
179 184 75
176 186 61
173 184 57
176 185 63
177 183 66
175 186 56
175 187 54
174 189 45
168 183 44
172 189 41
174 187 48
173 191 32
174 191 39
170 188 25
171 191 25
170 189 28
171 191 16
170 192 16
168 191 0
171 193 0
173 196 0
173 196 0
171 193 0
169 192 0
174 197 0
172 195 0
172 194 0
171 194 0
169 192 0
175 197 0
172 195 0
173 196 0
173 196 0
175 197 0
174 197 0
172 195 0
172 195 0
172 195 0
173 195 0
175 198 0
173 196 0
169 193 0
173 197 0
173 196 0
175 198 0
173 196 0
172 196 0
172 196 0
170 194 0
174 197 0
174 197 0
171 195 0
174 197 0
170 194 0
170 194 0
172 196 0
173 196 0
171 195 0
172 196 0
172 196 0
172 195 0
169 193 0
171 195 0
173 196 0
175 198 0
174 197 0
172 196 0
171 195 0
170 194 0
171 194 0
171 195 0
170 194 0
170 194 0
170 194 0
173 197 0
170 193 0
173 196 0
172 196 0
168 191 0
171 195 0
172 195 0
171 195 0
170 194 0
173 196 0
170 193 0
172 195 0
171 194 0
168 192 0
167 190 0
171 195 0
171 194 0
171 194 0
169 192 0
169 192 0
171 194 0
171 195 0
171 195 0
170 192 0
174 197 0
172 196 0
168 191 0
166 190 0
169 192 0
167 190 0
170 194 0
167 191 0
167 191 0
168 191 0
168 191 0
170 193 0
168 192 0
165 189 0
165 187 0
170 193 0
166 190 0
165 188 0
168 191 0
170 193 0
165 188 0
163 186 0
165 188 0
168 191 0
168 191 0
166 189 0
169 192 0
166 189 0
166 189 0
169 191 0
165 189 0
162 186 0
167 189 0
168 192 0
165 187 0
168 190 0
160 183 0
168 190 0
167 189 0
164 186 0
165 188 0
164 187 0
163 186 0
168 190 0
167 189 0
167 189 0
157 180 0
160 182 0
161 183 0
166 189 0
165 188 0
164 187 0
161 184 0
158 181 0
166 188 0
159 181 0
161 183 0
161 183 0
161 183 0
161 182 0
163 186 0
158 181 0
160 182 0
161 183 0
165 187 0
167 189 0
159 180 0
155 176 0
160 181 0
160 183 0
157 178 0
163 185 0
159 180 0
158 180 0
151 172 0
154 176 0
149 170 0
151 173 0
148 169 0
155 176 0
149 169 0
152 173 0
155 176 0
156 177 0
151 173 0
138 160 57
112 136 88
58 92 129
59 93 130
59 93 125
62 97 145
60 94 131
60 94 131
60 95 135
59 93 133
61 95 136
60 95 137
60 95 140
59 94 124
61 96 137
60 95 137
61 95 142
60 95 140
60 95 142
59 93 135
60 95 139
60 95 139
61 96 142
59 93 126
60 94 134
61 96 143
61 95 145
60 95 142
62 97 153
61 96 147
61 96 153
61 96 145
60 95 145
61 96 145
61 95 142
60 94 137
60 94 148
61 95 144
61 96 151
60 95 140
60 95 145
60 94 146
62 97 151
61 96 151
60 95 145
61 96 145
60 94 140
60 95 145
61 95 144
61 95 147
61 95 147
61 94 145
59 93 132
61 95 147
61 94 149
60 94 146
61 94 146
59 92 143
59 92 139
60 94 144
58 90 136
60 92 144
58 90 130
58 90 137
58 90 138
59 91 142
57 89 130
58 89 132
58 91 133
59 90 135
57 89 127
55 85 124
57 88 133
57 87 133
57 87 124
56 86 124
56 85 121
54 82 124
52 80 110
53 82 121
53 80 108
54 82 122
57 82 108
52 78 109
64 86 114
59 82 108
59 78 100
64 83 106
76 90 103
71 86 100
78 90 95
92 99 90
91 97 91
86 96 96
105 109 97
90 97 88
103 107 90
105 109 91
110 112 95
121 120 88
116 116 90
129 127 89
125 125 89
133 130 91
138 134 92
137 135 95
138 136 94
146 142 96
149 145 99
152 147 99
148 145 99
148 145 100
156 152 102
150 147 101
166 161 108
164 160 107
164 159 107
166 162 109
172 167 111
170 165 110
171 166 111
175 169 112
177 171 113
176 171 113
176 172 114
176 172 114
176 172 114
176 172 114
176 172 114
175 171 114
174 171 114
173 171 114
172 170 114
171 170 114
171 170 114
170 169 114
171 170 114
170 169 114
170 169 114
168 168 114
169 169 114
168 168 114
167 168 114
167 168 114
167 168 114
167 168 114
166 167 114
166 167 114
166 167 114
166 167 114
165 167 114
166 167 114
165 167 114
165 167 114
165 167 114
165 167 114
165 167 114
165 167 114
165 167 114
165 167 114
165 167 114
165 167 114
165 167 114
166 167 114
165 167 114
166 167 114
166 167 114
166 167 114
166 167 114
166 168 114
167 168 114
168 168 114
167 168 114
168 169 114
169 169 114
169 169 114
169 169 114
170 169 114
170 169 114
171 170 114
171 170 114
172 170 114
172 170 114
172 170 114
174 171 114
175 171 114
176 172 114
177 172 114
177 172 114
177 172 114
178 173 114
176 172 114
180 174 114
180 174 114
179 173 112
180 173 112
181 174 112
179 173 109
182 174 109
182 174 109
181 174 106
180 174 100
178 173 99
182 176 101
179 174 98
178 175 87
181 177 95
179 176 93
180 177 95
180 179 87
182 180 89
180 177 91
173 176 72
180 183 79
178 180 81
179 180 78
176 182 73
176 186 65
174 183 64
174 182 58
173 185 53
177 186 59
175 189 52
176 186 58
172 188 47
175 188 51
172 189 37
174 191 42
171 189 32
167 187 22
170 187 36
171 192 19
172 192 28
170 191 11
172 195 16
170 192 11
171 194 0
169 191 0
171 193 0
170 194 0
173 195 0
172 195 0
170 194 0
171 194 0
172 195 0
173 196 0
168 191 0
172 195 0
173 196 0
172 195 0
170 193 0
172 194 0
173 196 0
171 194 0
172 196 0
174 197 0
174 197 0
172 195 0
171 195 0
174 197 0
172 195 0
171 194 0
172 196 0
174 197 0
174 197 0
171 195 0
173 196 0
173 196 0
174 197 0
170 194 0
171 195 0
173 196 0
175 198 0
171 195 0
173 197 0
173 196 0
170 194 0
171 193 0
173 196 0
169 192 0
172 196 0
171 196 0
172 196 0
171 194 0
172 195 0
172 196 0
170 194 0
171 194 0
172 196 0
173 197 0
171 193 0
171 195 0
173 196 0
170 193 0
173 197 0
169 193 0
173 196 0
170 194 0
169 192 0
172 195 0
173 196 0
169 193 0
168 192 0
176 198 0
172 195 0
167 190 0
170 193 0
168 191 0
172 195 0
169 192 0
167 191 0
171 195 0
162 185 0
170 193 0
168 191 0
164 188 0
169 192 0
170 193 0
168 191 0
171 195 0
165 189 0
170 192 0
172 194 0
168 191 0
167 191 0
173 195 0
170 193 0
166 189 0
168 192 0
171 194 0
163 186 0
168 191 0
164 188 0
171 193 0
167 190 0
165 188 0
166 188 0
163 186 0
170 193 0
167 190 0
166 189 0
168 191 0
167 190 0
163 186 0
169 192 0
161 183 0
164 187 0
162 184 0
160 182 0
159 182 0
159 181 0
165 188 0
166 188 0
164 186 0
161 183 0
166 188 0
168 191 0
163 186 0
164 187 0
172 194 0
167 189 0
157 180 0
158 181 0
159 182 0
166 188 0
160 183 0
166 189 0
159 181 0
159 182 0
165 187 0
158 180 0
163 184 0
169 192 0
163 184 0
161 183 0
164 186 0
154 176 0
156 178 0
157 179 0
160 183 0
158 180 0
160 182 0
156 178 0
151 173 0
157 179 0
155 177 0
159 181 0
162 185 0
149 172 0
153 175 0
150 170 0
159 180 0
159 180 0
154 176 0
159 180 0
153 175 0
141 162 0
155 177 0
156 177 0
145 166 0
142 163 44
133 156 78
78 107 103
58 92 122
58 92 124
57 91 121
59 93 126
59 93 125
60 95 136
60 94 129
58 93 129
61 96 142
60 95 137
60 95 137
61 96 142
60 95 141
59 93 129
59 94 128
61 96 145
60 96 146
59 94 137
60 95 143
59 94 135
61 96 142
62 96 148
61 96 145
59 93 134
62 97 148
60 95 148
60 95 137
59 94 133
61 96 145
60 95 138
60 96 142
61 96 143
60 95 145
62 97 149
61 96 151
60 94 141
60 94 135
62 97 151
61 97 152
60 94 144
60 94 141
60 94 139
61 95 145
60 94 142
60 94 143
60 95 141
61 95 148
59 93 138
60 94 145
60 93 137
59 93 140
60 93 140
61 96 156
60 93 133
61 95 150
58 91 132
58 91 138
59 91 136
59 91 142
59 92 138
59 93 149
58 90 129
59 91 133
58 90 132
59 90 131
58 90 139
58 89 134
57 88 119
58 90 133
57 87 127
56 88 133
56 85 126
56 84 123
54 83 119
57 86 129
53 80 112
54 82 121
54 81 120
54 81 110
52 79 106
54 80 112
64 84 110
74 88 96
73 89 110
63 84 106
70 87 106
74 89 104
82 92 95
86 97 101
99 104 93
101 106 99
90 95 86
95 100 88
113 115 95
109 110 85
123 122 99
112 112 82
118 118 87
124 122 92
139 135 91
139 135 93
135 132 91
125 125 87
134 131 90
151 146 98
150 146 97
154 150 102
161 155 104
159 155 105
155 151 102
171 164 109
169 163 109
164 159 107
165 160 107
174 168 111
168 163 109
174 169 112
175 169 112
175 170 113
178 173 114
179 174 114
178 173 114
178 173 114
177 173 114
176 172 114
174 171 114
174 171 114
173 170 114
172 170 114
173 171 114
172 170 114
172 170 114
170 169 114
171 169 114
170 169 114
169 169 114
168 169 114
169 169 114
168 168 114
167 168 114
166 168 114
168 168 114
167 168 114
166 168 114
166 167 114
166 167 114
166 167 114
166 167 114
165 167 114
165 167 114
165 167 114
165 167 114
165 167 114
165 167 114
165 167 114
165 167 114
165 167 114
165 167 114
165 167 114
165 167 114
165 167 114
165 167 114
165 167 114
166 167 114
166 168 114
166 167 114
166 168 114
167 168 114
168 168 114
167 168 114
167 168 114
168 168 114
168 168 114
170 169 114
169 169 114
170 169 114
169 169 114
172 170 114
171 170 114
174 171 114
173 171 114
174 171 114
175 171 114
175 171 114
176 172 114
177 172 114
178 173 114
177 172 114
181 174 114
179 174 114
180 174 114
181 174 112
182 175 113
181 174 111
179 173 108
184 175 112
180 173 108
178 171 103
179 172 104
180 173 100
180 174 102
179 175 96
178 172 95
178 175 93
177 176 87
177 173 87
182 178 92
177 177 84
180 181 85
177 178 84
173 177 72
174 178 70
177 178 77
174 180 72
176 184 62
175 186 59
175 185 60
179 183 75
174 187 52
172 182 56
172 184 52
173 186 52
171 187 44
173 189 41
175 190 41
173 188 42
174 193 37
169 188 28
167 189 16
176 193 36
173 193 22
167 188 11
172 192 11
172 193 11
169 191 0
172 195 0
172 195 0
169 193 0
172 194 0
170 192 0
171 194 0
174 196 0
171 194 0
173 196 0
174 197 0
173 196 0
173 195 0
172 195 0
173 197 0
173 197 0
170 193 0
173 196 0
171 194 0
170 193 0
172 194 0
174 197 0
171 195 0
173 196 0
174 197 0
171 195 0
170 194 0
172 195 0
172 196 0
171 195 0
170 194 0
172 196 0
175 197 0
175 198 0
171 195 0
170 194 0
172 196 0
172 196 0
169 192 0
175 198 0
171 195 0
174 197 0
173 196 0
171 194 0
170 194 0
170 194 0
171 194 0
173 197 0
170 195 0
168 192 0
172 195 0
168 191 0
171 195 0
172 196 0
171 194 0
173 196 0
173 195 0
170 194 0
170 194 0
173 197 0
173 196 0
173 196 0
168 192 0
170 194 0
173 195 0
170 194 0
169 192 0
167 190 0
170 193 0
169 192 0
173 195 0
168 192 0
169 192 0
167 190 0
168 192 0
171 194 0
170 193 0
170 193 0
171 194 0
169 193 0
171 194 0
172 195 0
171 194 0
170 193 0
166 189 0
168 192 0
167 191 0
169 192 0
172 195 0
171 194 0
171 194 0
174 197 0
170 193 0
173 196 0
174 197 0
167 190 0
164 188 0
167 190 0
170 194 0
169 190 0
169 191 0
167 190 0
162 184 0
167 189 0
168 191 0
160 183 0
167 190 0
169 192 0
164 186 0
164 187 0
166 188 0
168 190 0
165 188 0
163 186 0
163 186 0
166 190 0
168 190 0
162 186 0
168 191 0
163 184 0
166 189 0
162 185 0
162 185 0
163 186 0
163 187 0
168 190 0
162 185 0
165 188 0
162 184 0
162 185 0
160 183 0
156 179 0
158 180 0
155 177 0
150 172 0
159 181 0
157 179 0
155 176 0
161 183 0
157 179 0
156 177 0
155 177 0
153 175 0
155 177 0
158 181 0
157 179 0
161 182 0
159 181 0
156 178 0
160 181 0
148 170 0
153 174 0
153 175 0
152 173 0
152 174 0
155 175 0
157 178 0
152 173 0
156 177 0
150 172 0
149 172 0
151 173 0
148 168 0
143 165 36
132 154 60
102 127 97
57 90 110
56 88 110
59 94 124
61 95 136
59 93 129
60 95 133
59 94 130
59 93 130
59 94 135
60 95 140
59 93 135
60 95 140
60 94 130
60 95 142
59 93 134
60 95 135
61 96 142
61 96 144
60 94 138
59 94 141
60 96 145
61 96 147
61 96 144
61 97 152
61 96 141
61 96 147
61 96 140
59 93 129
60 95 143
61 96 144
60 94 131
58 93 130
61 97 147
60 95 140
61 95 145
60 95 144
60 94 136
60 93 136
59 93 132
60 94 142
60 95 138
59 94 130
60 94 144
60 93 142
61 94 142
59 92 137
61 96 151
60 94 143
60 94 142
60 94 145
59 93 137
59 91 134
60 93 139
59 93 140
59 92 140
58 91 138
59 93 139
59 92 133
59 92 143
59 92 137
59 92 141
58 90 137
58 90 132
59 91 136
59 90 135
57 88 127
58 89 128
57 87 123
57 88 124
58 88 131
57 87 122
56 86 131
57 87 130
56 86 125
55 82 110
53 81 115
54 80 105
54 82 119
53 79 111
55 79 108
59 82 112
70 88 101
75 92 109
63 82 99
79 94 102
78 89 92
89 97 101
77 89 95
86 93 79
101 105 93
94 102 98
102 107 98
84 91 80
99 103 86
101 105 87
115 115 90
124 123 99
134 131 94
127 125 90
129 126 87
139 135 92
138 135 94
136 133 90
149 145 98
142 139 95
144 141 97
145 142 97
153 149 100
154 150 101
162 156 104
163 158 106
168 162 107
169 164 109
171 165 110
165 161 108
174 168 111
175 169 112
175 170 112
175 169 112
175 170 113
175 170 113
177 173 114
178 173 114
177 172 114
175 172 114
175 171 114
175 171 114
173 171 114
173 171 114
173 170 114
171 170 114
171 170 114
170 169 114
170 169 114
170 169 114
170 169 114
169 169 114
168 168 114
168 168 114
167 168 114
167 168 114
167 168 114
166 168 114
166 167 114
166 167 114
166 167 114
166 167 114
166 167 114
165 167 114
165 167 114
165 167 114
165 167 114
165 167 114
165 167 114
165 167 114
165 167 114
165 167 114
165 167 114
165 167 114
165 167 114
165 167 114
165 167 114
166 167 114
166 167 114
166 167 114
166 167 114
166 167 114
167 168 114
168 168 114
168 168 114
167 168 114
168 168 114
169 169 114
169 169 114
169 169 114
171 170 114
171 170 114
170 169 114
171 170 114
172 170 114
173 171 114
173 170 114
175 171 114
176 172 114
176 172 114
177 173 114
177 172 114
177 172 114
179 173 114
179 173 114
181 174 114
181 174 113
181 174 114
182 175 113
182 174 111
181 173 109
180 172 104
181 173 105
182 174 109
181 174 106
181 174 100
179 173 101
180 176 97
179 175 97
178 175 91
177 175 85
179 177 90
178 177 84
179 180 83
178 178 82
175 176 80
177 183 72
178 181 77
178 182 72
176 179 76
180 184 76
173 176 69
175 184 63
175 184 63
173 184 56
175 187 56
179 188 62
172 188 37
176 188 53
171 183 42
175 191 39
173 191 30
172 191 32
172 190 30
174 191 37
171 191 16
170 190 22
170 191 16
172 193 0
169 190 0
172 194 0
169 191 0
169 192 0
170 194 0
170 194 0
170 193 0
173 196 0
169 192 0
172 194 0
173 196 0
171 194 0
170 194 0
174 197 0
171 194 0
172 196 0
171 194 0
174 196 0
172 194 0
173 195 0
174 197 0
172 196 0
173 196 0
171 195 0
174 198 0
173 196 0
172 195 0
170 194 0
174 197 0
170 193 0
173 196 0
169 193 0
174 197 0
172 197 0
171 194 0
171 194 0
174 197 0
172 196 0
173 196 0
170 194 0
173 197 0
172 195 0
172 196 0
169 193 0
172 195 0
170 193 0
172 194 0
169 194 0
169 191 0
171 194 0
171 194 0
172 195 0
171 195 0
169 192 0
173 196 0
173 196 0
173 196 0
167 191 0
170 194 0
172 195 0
172 196 0
173 195 0
171 194 0
172 195 0
171 194 0
170 194 0
172 195 0
169 192 0
170 194 0
172 195 0
167 191 0
167 191 0
169 192 0
168 192 0
171 195 0
167 190 0
172 195 0
165 189 0
170 193 0
171 195 0
169 192 0
170 193 0
169 193 0
167 190 0
170 193 0
170 194 0
174 196 0
168 191 0
170 193 0
164 187 0
165 188 0
172 195 0
168 191 0
168 191 0
171 195 0
164 187 0
169 192 0
171 194 0
169 192 0
172 195 0
166 190 0
169 192 0
170 193 0
164 187 0
168 191 0
170 193 0
164 187 0
164 188 0
163 185 0
167 190 0
163 186 0
165 187 0
165 188 0
167 191 0
163 186 0
162 185 0
164 187 0
168 191 0
158 181 0
159 183 0
159 182 0
168 190 0
162 185 0
163 185 0
168 191 0
166 189 0
159 182 0
162 185 0
156 178 0
164 186 0
163 184 0
162 184 0
164 186 0
167 189 0
154 176 0
163 185 0
164 186 0
162 183 0
153 175 0
161 184 0
154 176 0
152 175 0
162 184 0
161 183 0
159 180 0
159 181 0
158 180 0
142 164 0
158 179 0
157 179 0
154 175 0
160 181 0
153 176 0
149 170 0
153 174 0
150 172 0
154 176 0
152 172 0
149 169 0
152 173 0
157 179 0
158 179 0
143 165 0
141 163 0
141 163 40
130 152 76
75 105 115
57 90 114
60 94 130
60 94 124
60 95 125
59 93 121
61 96 144
61 95 139
59 93 135
59 94 129
60 96 139
60 94 134
61 95 134
59 94 124
59 93 125
61 96 140
59 93 133
60 94 130
60 93 129
60 94 131
61 96 143
60 94 136
59 94 141
61 96 137
60 94 141
61 96 143
61 96 141
60 94 137
61 96 144
60 95 138
60 95 140
60 95 141
60 95 142
61 95 140
60 95 141
61 96 147
60 95 140
60 95 142
61 95 143
61 95 145
61 95 145
60 94 141
59 93 127
60 94 131
59 93 139
60 94 134
60 94 144
61 95 145
60 94 145
59 92 128
58 92 136
59 93 137
58 91 136
60 94 141
60 93 143
59 92 140
59 92 139
59 92 136
59 91 136
59 91 134
58 89 125
59 91 139
58 90 130
58 89 133
58 89 133
57 88 129
58 89 130
58 90 130
57 87 136
56 85 126
56 87 130
54 83 115
57 88 129
54 82 112
56 84 118
52 81 115
54 81 107
55 82 110
54 81 113
53 79 115
60 79 94
63 85 106
70 89 113
69 85 96
77 91 105
76 88 93
82 92 96
87 96 98
94 100 95
106 110 101
114 113 82
99 102 80
122 122 94
100 102 84
121 119 89
118 117 89
122 121 90
120 119 85
135 132 93
138 135 93
140 136 93
129 127 88
141 137 95
138 135 92
151 146 100
144 140 95
156 151 101
165 158 106
153 149 101
164 159 106
164 159 106
165 159 107
169 164 109
172 166 110
171 165 110
173 168 111
173 168 112
176 170 113
178 172 113
178 172 113
180 174 114
178 173 114
176 172 114
176 172 114
176 172 114
174 171 114
174 171 114
173 171 114
173 171 114
173 170 114
173 170 114
171 170 114
171 170 114
171 170 114
170 169 114
170 169 114
170 169 114
169 169 114
168 168 114
167 168 114
167 168 114
167 168 114
167 168 114
166 167 114
166 167 114
166 167 114
165 167 114
166 167 114
166 167 114
165 167 114
166 167 114
165 167 114
165 167 114
165 167 114
165 167 114
165 167 114
165 167 114
165 167 114
165 167 114
165 167 114
166 167 114
165 167 114
166 167 114
166 167 114
166 168 114
166 168 114
166 168 114
167 168 114
168 168 114
168 168 114
168 168 114
167 168 114
168 168 114
169 169 114
169 169 114
170 169 114
170 169 114
172 170 114
173 170 114
172 170 114
173 171 114
173 171 114
173 171 114
174 171 114
174 171 114
177 172 114
178 173 114
177 173 114
177 172 114
179 173 114
181 174 114
180 174 113
181 174 113
181 174 112
184 175 112
183 175 110
180 173 108
183 175 109
180 172 106
182 174 107
180 173 101
181 175 103
180 173 97
179 175 98
181 175 95
178 174 90
178 178 86
180 178 91
182 180 87
176 177 82
176 176 79
178 183 75
177 178 81
178 183 72
175 181 71
176 181 70
177 183 67
178 184 66
174 186 53
173 185 51
174 181 61
174 185 57
175 188 53
175 189 47
174 188 44
171 189 36
171 186 39
171 188 34
170 188 28
173 191 25
172 193 19
170 190 0
173 195 11
172 194 11
169 190 0
169 191 0
170 192 0
169 192 0
170 192 0
172 196 0
171 193 0
172 195 0
171 194 0
173 197 0
173 196 0
174 197 0
173 196 0
171 193 0
171 193 0
172 195 0
172 195 0
172 195 0
171 194 0
173 197 0
172 195 0
169 192 0
170 194 0
170 194 0
173 197 0
170 193 0
172 195 0
172 197 0
173 197 0
172 195 0
173 196 0
173 196 0
171 194 0
172 195 0
168 192 0
176 198 0
172 196 0
170 194 0
171 195 0
172 196 0
169 192 0
172 196 0
172 196 0
173 196 0
171 193 0
172 195 0
172 195 0
169 192 0
169 193 0
169 193 0
174 198 0
171 195 0
170 194 0
170 193 0
169 192 0
174 198 0
170 194 0
173 197 0
169 194 0
175 198 0
169 192 0
169 192 0
170 193 0
170 194 0
174 196 0
169 193 0
170 193 0
171 195 0
170 193 0
166 189 0
172 195 0
169 192 0
172 196 0
169 192 0
168 192 0
170 193 0
170 193 0
171 194 0
168 191 0
168 191 0
167 190 0
168 192 0
172 196 0
171 194 0
168 191 0
170 193 0
167 191 0
169 192 0
167 190 0
167 190 0
171 194 0
166 190 0
171 194 0
169 192 0
168 192 0
167 189 0
169 193 0
169 192 0
165 189 0
169 192 0
171 195 0
171 193 0
169 193 0
165 188 0
166 188 0
164 187 0
170 193 0
158 181 0
166 188 0
166 189 0
164 186 0
161 184 0
166 188 0
166 189 0
166 190 0
166 190 0
164 187 0
161 183 0
162 186 0
159 182 0
163 185 0
156 178 0
161 184 0
162 184 0
157 180 0
169 192 0
166 189 0
162 184 0
157 179 0
157 181 0
160 183 0
161 184 0
164 187 0
162 184 0
162 183 0
160 182 0
156 179 0
162 184 0
158 180 0
152 174 0
161 183 0
163 185 0
155 177 0
149 171 0
156 178 0
154 176 0
154 176 0
153 174 0
162 183 0
155 176 0
159 181 0
155 176 0
153 175 0
157 179 0
155 176 0
143 166 0
157 179 0
153 175 0
150 173 0
156 177 0
152 175 0
142 164 0
137 157 0
159 180 0
145 167 0
137 159 47
87 113 107
60 93 120
58 92 118
60 94 131
59 93 125
59 93 120
59 93 120
61 96 136
60 94 134
60 95 135
61 96 136
59 93 131
60 94 134
60 95 139
61 96 142
61 96 145
60 95 136
59 94 129
59 93 129
60 94 133
60 95 134
59 93 129
60 95 134
61 96 142
60 95 140
59 93 132
60 95 148
60 95 150
61 96 139
59 93 138
61 95 142
60 95 143
62 96 143
60 94 140
60 94 136
61 95 137
62 96 148
61 95 144
59 93 135
59 93 130
60 95 137
60 93 132
61 95 142
60 94 139
60 95 140
60 95 148
59 92 141
60 94 142
59 92 139
59 93 139
59 93 138
59 93 141
60 94 134
59 93 139
61 95 146
57 89 133
58 91 137
59 92 137
59 92 135
60 94 140
57 89 130
58 90 136
59 91 138
57 89 132
57 89 128
59 89 127
57 88 124
56 87 116
58 88 126
57 86 120
56 86 119
57 87 128
53 83 113
54 80 107
53 81 112
55 84 125
54 82 113
57 84 118
50 74 97
54 80 110
60 81 104
59 81 103
60 79 86
77 90 99
73 87 92
73 89 106
93 100 101
87 96 95
85 94 87
96 102 89
96 100 83
106 109 86
110 110 78
114 113 81
118 118 87
114 114 87
125 123 92
123 121 83
126 123 83
141 137 91
135 131 89
142 138 94
153 147 98
147 143 98
153 148 99
157 152 102
154 149 101
160 155 104
155 151 102
163 158 106
167 161 108
166 161 107
171 165 110
170 165 109
171 165 110
177 171 113
180 173 113
178 172 113
178 172 113
177 172 113
179 173 114
178 173 114
176 172 114
175 172 114
176 172 114
176 172 114
174 171 114
173 171 114
173 171 114
172 170 114
172 170 114
171 170 114
171 170 114
171 170 114
170 169 114
170 169 114
169 169 114
169 169 114
169 169 114
167 168 114
167 168 114
166 168 114
167 168 114
166 168 114
167 168 114
166 168 114
166 167 114
166 167 114
166 167 114
165 167 114
166 167 114
165 167 114
165 167 114
165 167 114
165 167 114
165 167 114
165 167 114
165 167 114
165 167 114
165 167 114
165 167 114
165 167 114
166 168 114
166 167 114
166 167 114
167 168 114
167 168 114
167 168 114
167 168 114
168 168 114
167 168 114
168 168 114
168 168 114
169 169 114
170 169 114
169 169 114
170 169 114
171 169 114
173 170 114
173 170 114
173 171 114
174 171 114
175 171 114
174 171 114
176 172 114
176 172 114
176 172 114
177 173 114
177 172 114
180 174 114
182 175 114
182 175 114
181 174 114
181 174 113
182 175 114
182 174 109
182 174 108
184 175 112
179 172 108
179 172 101
183 174 106
184 175 105
178 173 95
180 174 98
182 176 97
179 176 91
178 173 94
181 180 91
177 177 84
181 180 84
181 179 87
178 180 79
174 177 75
177 182 74
179 185 72
173 182 64
173 181 60
174 184 59
176 185 62
176 182 64
173 186 48
173 185 56
173 185 48
171 186 39
170 186 34
172 186 42
171 188 37
171 188 36
173 189 37
170 188 25
169 188 16
172 191 16
172 193 0
172 193 22
171 193 0
173 194 0
173 195 0
172 195 0
171 193 0
171 195 0
170 193 0
172 195 0
171 195 0
170 192 0
172 195 0
172 195 0
172 195 0
172 195 0
170 195 0
170 193 0
173 196 0
170 193 0
173 195 0
173 195 0
173 195 0
172 196 0
172 196 0
172 194 0
170 193 0
173 196 0
173 197 0
169 193 0
171 195 0
170 194 0
171 194 0
173 196 0
170 194 0
171 195 0
176 198 0
170 195 0
168 191 0
173 196 0
173 197 0
173 197 0
172 196 0
173 196 0
174 197 0
173 196 0
170 193 0
173 196 0
169 192 0
174 197 0
171 195 0
171 194 0
169 192 0
172 196 0
171 194 0
172 194 0
172 196 0
173 196 0
171 195 0
169 191 0
171 195 0
170 193 0
172 195 0
169 192 0
170 194 0
167 191 0
172 196 0
171 195 0
167 191 0
172 195 0
173 196 0
169 193 0
171 195 0
172 196 0
169 192 0
168 191 0
173 197 0
170 194 0
172 195 0
172 196 0
170 193 0
166 188 0
168 192 0
172 195 0
170 193 0
171 195 0
168 192 0
168 192 0
166 188 0
169 192 0
169 193 0
168 191 0
165 188 0
168 193 0
168 191 0
170 194 0
165 188 0
164 188 0
163 187 0
166 189 0
166 189 0
165 189 0
169 191 0
171 194 0
167 190 0
165 188 0
165 188 0
164 188 0
168 190 0
167 190 0
166 190 0
164 187 0
162 186 0
163 186 0
170 192 0
168 191 0
167 190 0
168 191 0
168 191 0
162 184 0
167 190 0
169 191 0
166 189 0
164 187 0
166 189 0
168 190 0
161 184 0
164 187 0
162 185 0
162 185 0
166 188 0
163 187 0
161 184 0
160 183 0
159 182 0
156 177 0
159 182 0
163 184 0
160 182 0
156 178 0
162 184 0
160 182 0
160 182 0
162 185 0
159 181 0
154 176 0
151 173 0
152 175 0
155 177 0
155 176 0
145 167 0
153 174 0
157 179 0
154 176 0
156 177 0
158 180 0
144 166 0
145 166 0
152 174 0
157 179 0
142 164 0
146 167 0
149 172 0
140 162 0
140 162 0
151 172 0
137 157 0
137 159 44
127 150 62
78 106 92
58 92 114
60 95 128
60 94 133
58 92 126
60 95 129
59 94 131
59 93 125
59 93 136
60 94 142
59 94 131
61 96 141
62 96 144
59 93 121
60 95 136
60 95 140
61 96 137
60 95 143
61 95 139
58 93 133
60 95 141
61 95 138
59 93 126
60 95 140
61 95 134
60 95 146
61 96 148
60 94 139
59 94 135
59 94 140
62 96 147
60 94 142
59 94 134
60 94 142
60 95 141
60 94 134
61 95 145
60 94 141
61 96 142
61 95 147
59 93 139
59 92 135
61 95 139
60 93 132
59 94 138
60 94 140
59 91 131
59 91 134
60 94 140
60 93 137
57 89 115
60 93 143
59 92 140
59 90 132
58 90 130
59 90 135
58 90 135
59 91 135
60 95 151
58 90 133
58 90 133
57 89 125
58 89 126
57 88 128
58 89 127
55 85 120
55 84 117
59 91 139
57 87 126
56 86 117
55 83 118
55 83 112
54 82 115
54 81 102
55 84 124
51 76 104
52 78 109
57 81 104
55 82 107
59 81 101
74 90 100
67 85 109
75 86 82
94 102 98
75 88 84
83 92 89
90 96 87
73 86 91
96 101 91
109 112 90
110 112 91
115 115 86
110 111 89
119 118 85
122 120 87
119 118 83
133 130 93
139 135 93
131 129 88
137 133 89
134 131 92
146 142 97
151 145 97
151 146 96
145 142 99
157 152 101
168 161 107
162 156 104
171 165 109
173 166 109
155 152 103
177 170 112
172 167 110
178 171 112
175 169 112
176 171 113
179 173 113
179 173 114
180 174 114
179 173 114
178 173 114
177 172 114
177 173 114
176 172 114
175 171 114
175 171 114
173 170 114
174 171 114
172 170 114
172 170 114
171 170 114
170 169 114
171 170 114
170 169 114
169 169 114
169 169 114
170 169 114
169 169 114
168 169 114
167 168 114
167 168 114
167 168 114
167 168 114
166 167 114
166 167 114
166 167 114
166 167 114
166 167 114
166 168 114
166 167 114
165 167 114
165 167 114
165 167 114
165 167 114
165 167 114
165 167 114
165 167 114
165 167 114
165 167 114
165 167 114
165 167 114
166 167 114
166 168 114
166 167 114
166 167 114
167 168 114
167 168 114
168 168 114
167 168 114
168 168 114
168 168 114
169 169 114
168 168 114
169 169 114
171 170 114
170 169 114
171 170 114
171 170 114
172 170 114
172 170 114
173 171 114
174 171 114
175 172 114
176 172 114
175 172 114
177 172 114
177 173 114
177 172 114
180 174 114
180 174 114
182 175 114
182 175 114
182 175 114
182 175 113
184 175 112
181 174 110
183 174 109
179 172 103
179 172 99
182 174 107
182 175 104
178 172 100
179 174 97
182 175 101
179 174 92
180 176 93
177 175 84
177 177 83
174 173 81
179 181 82
178 178 85
179 181 84
177 180 79
180 183 79
177 184 71
175 183 64
173 182 60
176 184 59
175 185 57
175 187 56
173 186 48
171 185 45
173 187 47
175 188 53
172 187 39
175 187 49
172 189 36
173 190 32
168 188 19
172 190 28
172 192 25
169 190 11
170 190 0
168 188 0
170 191 0
170 193 0
170 193 0
169 192 0
172 195 0
168 192 0
168 190 0
171 193 0
170 192 0
172 196 0
172 195 0
172 195 0
172 195 0
170 193 0
173 196 0
174 197 0
172 195 0
171 194 0
174 197 0
174 197 0
175 198 0
169 194 0
170 194 0
173 197 0
173 196 0
172 197 0
170 194 0
170 194 0
170 193 0
171 195 0
173 197 0
172 196 0
174 197 0
169 193 0
174 197 0
171 195 0
168 192 0
172 194 0
169 192 0
173 196 0
172 195 0
171 196 0
170 193 0
174 197 0
171 194 0
171 195 0
170 194 0
172 194 0
171 195 0
173 196 0
170 194 0
168 191 0
173 195 0
171 195 0
172 195 0
168 193 0
174 198 0
168 193 0
169 192 0
173 196 0
170 193 0
172 196 0
171 195 0
170 193 0
168 192 0
173 197 0
172 195 0
174 197 0
169 193 0
169 193 0
173 196 0
172 195 0
169 193 0
166 190 0
169 192 0
173 196 0
170 194 0
171 195 0
166 189 0
168 191 0
172 196 0
166 190 0
166 189 0
169 192 0
171 194 0
169 192 0
165 188 0
167 190 0
168 192 0
167 190 0
171 193 0
164 188 0
169 192 0
167 189 0
166 190 0
170 193 0
165 189 0
166 190 0
166 189 0
167 190 0
166 189 0
169 192 0
164 188 0
168 192 0
167 190 0
167 190 0
165 187 0
166 188 0
168 191 0
167 190 0
170 193 0
168 191 0
166 188 0
165 187 0
168 191 0
160 184 0
163 185 0
171 194 0
164 187 0
163 186 0
164 187 0
167 189 0
163 185 0
157 180 0
162 184 0
168 191 0
160 182 0
167 190 0
153 175 0
163 185 0
162 186 0
165 188 0
156 179 0
159 182 0
162 184 0
157 179 0
152 174 0
160 182 0
156 178 0
154 175 0
165 187 0
156 178 0
157 179 0
156 179 0
160 182 0
161 183 0
149 170 0
150 171 0
153 174 0
151 173 0
146 168 0
160 181 0
157 179 0
156 177 0
152 174 0
155 177 0
143 164 0
151 171 0
147 169 0
147 168 0
145 168 0
151 172 0
145 166 0
144 166 0
132 152 18
130 153 54
113 137 82
66 98 110
59 94 129
59 93 130
60 95 134
58 92 122
58 92 114
60 94 134
60 95 133
59 93 125
59 94 125
60 94 128
59 93 129
60 95 133
59 94 139
61 96 145
60 94 133
61 96 143
60 95 130
59 93 126
61 96 144
59 92 129
60 94 134
60 94 128
60 95 138
60 95 137
60 95 142
59 93 130
61 96 144
60 94 128
60 94 139
61 96 150
59 92 138
60 94 143
60 94 137
60 94 142
60 94 136
62 96 152
59 93 142
59 93 139
60 93 132
61 95 144
59 93 133
59 93 133
59 92 135
60 93 138
60 93 136
59 93 142
58 91 130
59 93 139
59 91 134
60 93 133
60 94 140
59 92 135
59 92 139
58 90 128
58 89 125
60 92 132
57 89 124
60 92 141
57 89 127
58 89 130
57 87 124
57 87 130
58 89 128
56 88 124
56 86 119
57 88 122
54 83 111
53 80 113
53 81 116
55 82 109
57 85 118
56 85 121
54 82 114
52 77 93
53 78 103
52 78 110
53 80 114
75 90 96
58 77 87
65 81 86
81 91 84
87 95 93
80 92 92
94 102 95
82 92 91
97 101 84
87 96 90
111 112 82
120 118 86
126 124 90
115 115 86
134 130 92
131 128 89
119 119 86
130 127 86
130 128 89
147 142 98
147 142 95
140 136 92
148 144 97
150 145 98
155 149 100
156 150 101
160 155 104
167 160 107
165 159 105
169 163 109
159 154 104
175 168 110
171 165 109
174 167 110
179 171 112
177 171 112
179 173 113
179 173 113
179 173 114
179 174 114
178 173 114
177 173 114
176 172 114
175 172 114
176 172 114
174 171 114
175 171 114
174 171 114
173 171 114
173 171 114
172 170 114
170 169 114
171 170 114
171 170 114
171 170 114
170 169 114
169 169 114
168 168 114
168 168 114
168 168 114
168 168 114
167 168 114
167 168 114
166 168 114
166 168 114
166 168 114
166 167 114
166 167 114
165 167 114
166 167 114
166 167 114
165 167 114
166 167 114
165 167 114
165 167 114
165 167 114
165 167 114
165 167 114
165 167 114
165 167 114
166 167 114
166 167 114
166 167 114
166 167 114
166 168 114
166 168 114
167 168 114
167 168 114
167 168 114
168 168 114
168 168 114
168 168 114
170 169 114
169 169 114
170 169 114
171 170 114
171 170 114
171 170 114
171 170 114
172 170 114
172 170 114
173 171 114
174 171 114
175 172 114
174 171 114
176 172 114
176 172 114
176 172 114
179 173 114
179 174 114
181 174 114
181 174 114
183 175 114
182 175 114
183 175 114
183 175 113
183 175 111
183 174 109
181 173 107
182 173 104
181 173 103
180 173 103
180 173 101
181 174 101
180 174 99
178 173 90
178 173 90
182 177 95
179 176 89
181 177 90
180 179 86
178 179 80
178 180 77
177 180 75
174 178 72
178 183 74
176 181 71
176 182 63
177 182 66
175 183 59
171 183 49
175 188 49
175 191 42
171 185 41
173 185 48
173 188 41
171 187 41
172 189 32
175 193 36
174 190 36
171 189 19
172 190 22
171 190 0
170 190 0
170 192 0
171 193 0
171 194 0
170 192 0
170 194 0
171 194 0
173 197 0
171 194 0
171 193 0
172 195 0
171 194 0
170 192 0
172 194 0
174 195 0
172 195 0
171 194 0
170 193 0
171 193 0
171 194 0
174 197 0
171 194 0
169 193 0
175 198 0
173 196 0
173 196 0
173 196 0
173 196 0
173 197 0
173 196 0
171 195 0
172 195 0
172 196 0
172 195 0
169 193 0
170 195 0
172 196 0
171 195 0
171 194 0
171 194 0
170 194 0
171 194 0
171 194 0
173 196 0
172 196 0
169 192 0
170 194 0
168 192 0
167 191 0
168 191 0
171 194 0
174 197 0
173 196 0
171 194 0
172 196 0
173 196 0
173 196 0
169 193 0
171 195 0
171 194 0
171 195 0
170 193 0
170 194 0
171 195 0
168 192 0
169 191 0
171 195 0
170 194 0
170 193 0
167 191 0
170 194 0
169 192 0
170 195 0
171 194 0
170 194 0
167 191 0
169 193 0
170 193 0
172 195 0
169 192 0
170 194 0
169 193 0
168 190 0
167 190 0
168 192 0
171 194 0
169 192 0
170 194 0
169 192 0
167 190 0
166 189 0
168 192 0
169 193 0
167 190 0
168 190 0
170 192 0
167 190 0
166 189 0
168 191 0
165 188 0
170 193 0
169 191 0
166 189 0
166 189 0
167 191 0
164 188 0
167 189 0
160 184 0
168 191 0
166 190 0
167 189 0
165 188 0
166 189 0
167 190 0
163 186 0
160 183 0
165 187 0
165 188 0
169 192 0
161 184 0
167 189 0
166 189 0
168 190 0
165 188 0
160 182 0
161 184 0
159 181 0
161 183 0
162 184 0
157 179 0
163 186 0
165 188 0
161 182 0
161 183 0
160 184 0
161 184 0
158 180 0
165 187 0
160 182 0
157 180 0
158 182 0
163 185 0
156 179 0
156 178 0
156 179 0
162 183 0
156 178 0
154 176 0
156 177 0
154 176 0
151 173 0
157 179 0
153 174 0
148 170 0
146 168 0
144 166 0
145 167 0
147 169 0
156 178 0
149 170 0
148 170 0
145 167 0
146 167 0
146 167 0
150 171 0
143 164 0
155 176 0
135 157 44
140 161 65
96 122 97
59 92 126
59 93 130
58 92 117
58 91 122
57 90 118
60 94 133
57 90 118
60 95 135
60 94 129
60 94 131
59 94 135
61 96 139
59 94 131
60 94 134
60 95 141
60 94 130
59 92 130
59 94 133
61 95 139
60 95 142
59 93 139
60 95 138
60 95 134
60 95 128
59 94 134
61 96 144
60 95 139
61 96 145
60 94 142
60 94 139
60 94 136
60 94 137
59 92 132
60 93 136
60 95 142
58 92 124
60 94 143
60 94 137
60 94 141
57 90 122
59 92 124
61 95 149
60 93 137
58 91 133
59 91 132
59 92 124
59 93 135
60 94 146
58 91 133
58 91 126
60 94 145
58 90 124
58 92 137
60 93 138
59 91 133
59 93 137
58 90 136
59 91 136
56 87 123
59 90 132
58 89 123
59 91 138
55 84 116
56 88 132
56 86 120
56 85 113
56 87 130
54 84 123
54 83 117
56 85 116
55 83 115
53 81 108
54 83 115
56 83 112
55 81 104
52 78 100
71 88 94
69 89 109
76 92 106
82 93 97
79 91 93
79 90 94
83 92 85
97 105 105
91 98 94
105 108 83
103 106 82
120 119 88
91 95 74
112 113 88
122 120 81
127 124 90
119 118 85
138 134 90
133 130 87
137 133 86
145 141 98
152 147 98
151 145 94
153 148 98
154 149 100
156 151 102
160 154 102
163 156 105
169 163 108
167 160 107
168 162 108
171 164 109
179 171 112
176 169 111
178 171 112
177 171 112
179 172 112
181 174 113
179 173 113
179 173 114
179 174 114
179 174 114
178 173 114
177 173 114
177 172 114
176 172 114
175 171 114
175 171 114
174 171 114
174 171 114
173 171 114
172 170 114
172 170 114
170 169 114
171 170 114
170 169 114
170 169 114
169 169 114
169 169 114
169 169 114
168 168 114
168 168 114
167 168 114
168 168 114
167 168 114
167 168 114
166 168 114
166 168 114
166 167 114
166 167 114
166 167 114
166 167 114
166 167 114
166 167 114
166 167 114
166 168 114
166 168 114
166 167 114
166 167 114
166 167 114
165 167 114
166 168 114
166 168 114
167 168 114
165 167 114
167 168 114
167 168 114
167 168 114
168 168 114
168 168 114
168 168 114
169 169 114
168 168 114
169 169 114
169 169 114
169 169 114
170 169 114
170 169 114
172 170 114
171 170 114
171 170 114
173 170 114
174 171 114
174 171 114
174 171 114
176 172 114
176 172 114
177 172 114
179 173 114
178 173 114
178 173 114
180 174 114
182 175 114
180 174 114
182 174 113
183 175 114
182 175 113
184 176 112
183 174 108
183 174 108
183 174 106
182 174 106
182 174 107
179 172 99
181 175 99
181 176 97
178 174 94
180 176 95
178 174 88
176 176 82
179 178 89
178 182 76
177 173 83
177 178 80
176 178 72
177 180 75
178 183 72
179 182 75
177 182 70
177 186 65
174 185 54
172 184 54
178 185 64
178 186 60
178 191 54
169 182 42
168 183 39
174 190 37
175 191 36
171 187 37
169 186 28
170 190 25
169 189 19
170 190 11
170 190 11
172 195 0
169 192 0
169 191 0
171 194 0
169 190 0
170 193 0
169 191 0
172 194 0
171 195 0
172 195 0
173 196 0
173 194 0
173 195 0
172 194 0
170 193 0
171 195 0
170 193 0
174 197 0
173 195 0
170 193 0
171 194 0
172 196 0
171 195 0
169 193 0
172 196 0
174 197 0
173 196 0
173 196 0
171 194 0
170 193 0
170 194 0
172 196 0
172 196 0
172 196 0
171 195 0
171 195 0
170 194 0
171 194 0
172 196 0
172 195 0
171 195 0
172 195 0
170 195 0
170 193 0
172 196 0
172 195 0
174 197 0
172 195 0
167 191 0
172 196 0
170 193 0
170 193 0
170 193 0
171 195 0
170 194 0
172 195 0
170 193 0
172 195 0
172 194 0
173 196 0
171 194 0
168 192 0
170 193 0
167 192 0
171 194 0
173 196 0
171 194 0
167 191 0
170 193 0
169 193 0
169 192 0
170 193 0
173 195 0
169 192 0
169 192 0
172 195 0
168 190 0
169 192 0
169 192 0
171 194 0
169 192 0
169 191 0
168 192 0
166 188 0
169 193 0
165 187 0
169 192 0
168 192 0
171 194 0
168 191 0
169 192 0
170 193 0
166 190 0
170 193 0
164 187 0
169 192 0
168 192 0
163 187 0
166 191 0
171 194 0
170 193 0
160 183 0
171 194 0
166 189 0
169 192 0
166 188 0
165 189 0
166 190 0
171 194 0
160 184 0
170 194 0
161 184 0
167 190 0
164 186 0
163 186 0
166 188 0
167 188 0
163 186 0
163 186 0
165 188 0
161 184 0
164 187 0
157 180 0
161 183 0
164 186 0
161 183 0
164 187 0
162 184 0
160 182 0
155 178 0
166 188 0
157 179 0
161 183 0
156 179 0
159 182 0
163 186 0
158 181 0
159 180 0
165 188 0
159 181 0
164 186 0
161 184 0
154 175 0
163 186 0
160 182 0
150 172 0
157 179 0
154 175 0
149 172 0
152 175 0
152 174 0
147 170 0
156 178 0
160 181 0
152 174 0
150 172 0
144 165 0
151 173 0
140 162 0
150 172 0
154 175 0
143 164 0
145 167 0
144 165 0
145 167 0
145 166 0
148 170 18
140 161 44
118 141 78
75 104 111
58 91 114
58 91 117
56 90 114
59 93 133
60 94 126
59 93 120
59 93 117
59 93 126
59 92 126
61 95 135
58 92 121
59 93 129
59 93 128
60 95 133
60 94 137
60 93 139
59 93 126
59 93 132
60 95 144
59 93 124
59 93 130
59 93 131
60 95 141
60 94 135
59 92 130
60 94 133
61 96 139
59 92 127
59 94 134
60 94 138
61 95 139
60 94 135
60 94 138
60 94 133
60 94 139
60 94 137
58 91 129
59 93 134
59 93 134
60 94 133
59 92 138
58 91 133
60 94 134
59 93 134
59 92 138
59 92 131
59 92 138
59 92 133
58 90 137
59 92 134
59 92 135
57 88 122
58 91 129
59 92 134
59 92 135
57 90 124
60 94 142
57 88 126
56 86 121
56 87 122
54 82 107
56 86 120
58 89 121
57 87 122
56 86 116
56 86 125
55 84 120
55 83 109
55 84 120
55 84 118
55 84 120
53 80 96
53 81 106
51 76 95
56 83 116
63 83 96
61 81 98
76 89 97
74 87 92
85 93 86
85 94 84
99 106 96
96 102 87
81 91 85
96 101 86
99 102 88
104 106 79
116 116 87
111 112 85
113 114 91
129 126 88
126 125 87
147 141 94
138 134 92
140 135 87
148 143 95
144 139 94
147 142 94
151 146 97
161 154 101
160 153 101
155 150 100
168 160 106
163 157 104
162 156 104
175 167 109
172 166 109
177 170 111
174 167 110
183 175 114
180 173 113
181 174 114
180 173 113
181 174 114
182 175 114
180 174 114
180 174 114
178 173 114
177 173 114
176 172 114
177 172 114
175 172 114
176 172 114
173 171 114
173 171 114
173 171 114
173 171 114
171 170 114
172 170 114
171 170 114
171 170 114
170 169 114
169 169 114
169 169 114
168 168 114
169 169 114
168 168 114
168 168 114
169 169 114
167 168 114
167 168 114
167 168 114
167 168 114
166 167 114
166 167 114
166 168 114
166 167 114
166 167 114
166 167 114
166 167 114
166 167 114
166 167 114
166 168 114
166 167 114
166 168 114
166 167 114
166 167 114
167 168 114
166 168 114
167 168 114
166 168 114
167 168 114
167 168 114
167 168 114
168 168 114
169 169 114
168 168 114
168 168 114
168 168 114
169 169 114
170 169 114
171 169 114
170 169 114
171 170 114
171 170 114
172 170 114
173 171 114
173 170 114
173 171 114
174 171 114
175 172 114
178 173 114
177 172 114
177 173 114
180 174 114
180 174 114
180 174 114
180 174 114
180 174 114
183 175 114
183 175 114
182 174 110
183 175 112
183 175 111
185 175 109
183 174 107
180 173 104
182 173 106
178 171 99
182 174 99
178 172 93
180 175 95
179 177 89
180 175 92
177 175 87
180 174 89
177 178 76
174 176 74
178 178 79
178 179 81
179 180 74
181 184 75
177 183 65
172 179 60
176 181 68
178 188 60
171 183 52
170 180 59
174 185 58
175 187 53
173 185 49
172 184 45
173 187 44
171 188 28
170 186 36
174 191 36
170 188 30
171 187 28
171 194 11
169 192 11
173 196 0
171 192 0
173 194 0
169 192 0
169 192 0
170 194 0
170 192 0
171 194 0
171 194 0
172 196 0
171 194 0
172 194 0
169 192 0
173 196 0
171 194 0
170 193 0
168 191 0
173 196 0
172 194 0
171 194 0
170 193 0
173 196 0
171 195 0
173 196 0
170 195 0
171 195 0
170 194 0
175 198 0
174 197 0
171 194 0
172 196 0
172 196 0
171 195 0
170 194 0
170 194 0
171 194 0
171 194 0
171 195 0
173 197 0
171 195 0
173 196 0
174 197 0
173 196 0
172 195 0
170 194 0
172 196 0
172 195 0
173 196 0
171 194 0
171 194 0
170 194 0
174 197 0
173 196 0
171 195 0
171 194 0
168 192 0
170 194 0
171 195 0
174 196 0
170 194 0
170 193 0
174 197 0
170 194 0
171 194 0
168 192 0
173 196 0
170 194 0
171 194 0
173 196 0
171 194 0
173 196 0
168 191 0
171 194 0
168 191 0
171 195 0
169 193 0
166 190 0
169 192 0
171 195 0
167 192 0
169 192 0
172 194 0
171 193 0
170 193 0
166 189 0
165 188 0
165 188 0
167 190 0
168 192 0
168 192 0
171 194 0
166 189 0
166 189 0
166 190 0
168 191 0
167 190 0
165 189 0
167 190 0
169 192 0
165 188 0
169 192 0
164 186 0
162 185 0
163 187 0
165 187 0
162 186 0
166 188 0
164 188 0
163 186 0
165 187 0
162 186 0
166 190 0
165 187 0
168 191 0
168 190 0
164 186 0
164 188 0
159 181 0
161 184 0
166 188 0
161 184 0
167 188 0
166 189 0
164 187 0
165 188 0
161 183 0
160 184 0
159 182 0
162 184 0
158 181 0
154 177 0
158 181 0
160 183 0
165 187 0
159 181 0
157 180 0
158 181 0
162 183 0
159 181 0
160 182 0
157 179 0
158 180 0
154 175 0
158 181 0
157 180 0
156 178 0
154 177 0
154 177 0
155 177 0
147 169 0
153 174 0
151 172 0
148 169 0
146 167 0
161 182 0
153 174 0
152 174 0
148 169 0
145 166 0
144 166 0
148 170 0
150 171 0
144 166 0
145 166 0
147 168 0
139 161 0
142 162 0
141 162 18
136 157 51
94 118 88
55 88 110
58 92 110
58 93 120
57 90 113
59 93 124
59 93 124
59 93 124
58 92 124
59 93 131
60 94 130
59 92 126
58 92 124
60 94 132
60 95 132
60 95 139
59 94 133
57 90 114
60 94 136
60 95 134
59 94 130
60 95 140
58 92 123
59 93 125
59 94 131
60 93 126
59 94 132
60 94 137
60 95 142
61 95 138
58 92 134
61 96 146
58 92 121
59 93 131
60 93 135
60 94 140
61 95 135
59 93 133
58 92 122
61 95 142
59 93 136
58 92 134
58 91 128
60 93 133
60 93 139
59 92 129
59 92 130
60 93 136
59 92 133
59 91 130
58 91 135
59 92 134
59 91 132
58 91 131
59 92 130
57 89 129
58 89 127
58 88 125
59 90 129
55 85 105
56 86 126
56 86 119
55 86 119
58 89 123
56 85 118
57 86 122
55 83 112
52 80 100
55 83 116
55 83 116
55 81 112
53 79 106
53 79 106
51 77 91
55 77 96
59 81 93
64 85 106
74 90 103
73 88 98
73 86 83
82 93 98
82 93 83
93 100 85
89 97 90
100 105 89
110 112 84
110 111 79
111 111 84
109 110 80
119 117 85
119 118 80
135 131 85
127 124 83
124 121 79
137 133 87
136 132 90
151 146 96
151 145 96
152 146 95
148 144 95
158 152 101
167 160 105
165 158 105
165 158 105
165 158 105
177 169 111
170 163 107
171 164 108
171 164 109
177 169 111
180 172 112
181 174 114
182 175 113
184 176 114
180 174 114
179 174 114
179 173 114
180 174 114
178 173 114
177 173 114
177 172 114
176 172 114
177 173 114
175 171 114
173 171 114
173 170 114
173 171 114
172 170 114
174 171 114
171 170 114
171 170 114
171 170 114
170 169 114
169 169 114
169 169 114
169 169 114
168 168 114
169 169 114
169 169 114
168 168 114
168 168 114
166 168 114
168 168 114
167 168 114
167 168 114
166 168 114
166 167 114
167 168 114
166 167 114
166 167 114
166 167 114
166 168 114
166 167 114
165 167 114
166 167 114
166 167 114
167 168 114
167 168 114
167 168 114
167 168 114
167 168 114
167 168 114
167 168 114
167 168 114
167 168 114
168 168 114
169 169 114
168 168 114
169 169 114
170 169 114
171 170 114
170 169 114
171 170 114
171 170 114
172 170 114
171 170 114
172 170 114
172 170 114
173 170 114
174 171 114
174 171 114
175 172 114
175 172 114
176 172 114
178 173 114
178 173 114
178 173 114
181 174 114
180 174 114
182 175 114
181 174 113
184 176 113
182 175 112
182 174 109
185 176 112
184 175 109
182 174 106
180 172 104
180 172 99
180 172 100
180 173 97
182 173 103
180 175 98
183 176 99
178 172 93
176 176 82
178 176 84
177 175 82
178 177 87
176 179 78
177 177 79
177 180 76
182 183 83
174 179 66
174 183 61
174 178 63
179 183 77
173 183 59
178 188 61
171 182 53
172 183 51
172 183 47
174 190 42
176 190 45
170 188 28
172 189 37
172 189 32
171 189 19
174 192 19
170 190 11
169 189 19
169 190 16
172 193 11
170 191 0
171 193 0
170 193 0
170 192 0
172 195 0
171 193 0
172 194 0
170 192 0
171 194 0
170 193 0
169 192 0
174 196 0
173 196 0
169 193 0
173 195 0
172 195 0
172 196 0
173 196 0
170 193 0
173 197 0
169 194 0
172 195 0
171 194 0
170 193 0
171 194 0
171 195 0
174 197 0
173 196 0
171 195 0
174 197 0
173 196 0
170 193 0
173 196 0
169 193 0
173 197 0
172 196 0
174 198 0
173 197 0
173 196 0
172 196 0
173 196 0
173 196 0
173 196 0
172 195 0
171 194 0
172 196 0
172 196 0
172 196 0
171 194 0
172 196 0
167 191 0
170 193 0
173 197 0
170 193 0
172 195 0
172 196 0
170 193 0
171 194 0
170 193 0
170 193 0
171 194 0
171 194 0
171 195 0
172 195 0
167 191 0
172 195 0
170 193 0
170 193 0
166 189 0
173 197 0
171 194 0
172 195 0
168 191 0
168 191 0
168 192 0
169 192 0
168 191 0
168 191 0
169 192 0
169 193 0
168 192 0
168 191 0
169 193 0
168 192 0
166 189 0
169 191 0
166 190 0
165 187 0
166 189 0
168 191 0
170 192 0
170 194 0
168 192 0
167 189 0
166 190 0
166 189 0
166 190 0
164 187 0
166 190 0
165 188 0
169 193 0
166 189 0
167 189 0
168 191 0
166 188 0
165 189 0
166 189 0
167 190 0
160 183 0
164 187 0
166 188 0
165 188 0
166 189 0
162 185 0
161 183 0
160 184 0
159 182 0
166 190 0
165 188 0
163 186 0
159 182 0
159 182 0
160 183 0
160 183 0
162 185 0
160 183 0
163 185 0
160 181 0
163 186 0
160 181 0
157 180 0
155 177 0
157 180 0
154 176 0
157 179 0
166 188 0
156 179 0
157 179 0
155 177 0
157 179 0
158 180 0
158 180 0
159 181 0
162 185 0
157 178 0
155 176 0
150 171 0
154 175 0
151 173 0
152 172 0
149 171 0
143 165 0
153 174 0
146 168 0
150 171 0
144 165 0
151 174 0
143 164 0
152 173 0
143 164 0
142 163 0
145 167 0
143 165 0
141 163 0
143 164 0
143 164 0
138 159 31
134 156 47
95 120 92
58 91 118
59 93 128
59 93 122
60 95 133
59 93 118
58 92 121
59 93 125
59 93 128
59 94 134
58 92 117
59 93 137
59 94 129
58 93 122
60 94 131
58 92 120
59 93 128
59 93 126
60 94 131
60 95 136
58 91 128
59 92 125
60 94 144
60 94 141
59 93 127
60 93 130
59 93 121
58 91 118
58 92 129
60 94 134
61 95 138
58 91 124
59 92 131
59 93 129
59 93 128
60 94 140
59 92 122
61 94 135
60 94 137
60 93 131
60 93 136
59 92 135
59 93 132
57 90 127
59 93 130
59 92 132
59 92 138
58 89 124
59 92 134
59 92 141
59 94 138
57 89 125
58 90 121
56 87 115
59 90 131
59 91 129
57 89 122
56 87 128
58 89 119
58 88 127
56 85 122
56 86 114
55 83 115
55 84 115
56 86 120
54 83 113
57 85 116
54 82 112
53 80 102
55 83 113
53 79 101
52 78 99
53 79 96
55 78 86
63 84 102
59 79 86
72 88 85
76 91 93
73 87 79
93 99 78
84 93 82
95 102 87
104 107 89
93 100 87
109 111 81
107 109 79
105 107 76
124 123 80
123 121 83
117 116 79
123 121 79
131 129 87
137 133 89
134 131 87
155 148 95
144 139 91
150 145 95
144 140 93
157 151 99
157 151 99
165 158 104
166 159 103
172 164 106
170 163 107
169 162 107
179 171 112
173 166 109
177 169 111
180 172 113
180 173 113
180 173 113
183 175 114
183 175 114
181 174 114
180 174 114
181 174 114
179 173 114
179 173 114
179 173 114
178 173 114
176 172 114
176 172 114
176 172 114
174 171 114
174 171 114
174 171 114
172 170 114
173 170 114
173 170 114
170 169 114
171 170 114
172 170 114
170 169 114
170 169 114
169 169 114
169 169 114
169 169 114
168 168 114
168 168 114
167 168 114
168 168 114
167 168 114
167 168 114
167 168 114
167 168 114
168 168 114
166 168 114
167 168 114
167 168 114
166 168 114
167 168 114
166 168 114
167 168 114
166 167 114
167 168 114
167 168 114
167 168 114
168 168 114
167 168 114
167 168 114
168 168 114
168 168 114
167 168 114
168 168 114
168 168 114
169 169 114
169 169 114
169 169 114
170 169 114
170 169 114
170 169 114
171 170 114
171 170 114
172 170 114
172 170 114
172 170 114
174 171 114
173 171 114
174 171 114
174 171 114
177 172 114
175 172 114
178 173 114
179 173 114
179 173 114
179 174 114
179 173 114
180 174 114
181 174 114
183 175 114
183 175 114
183 175 113
184 176 112
182 174 110
182 174 109
182 174 109
183 174 107
182 173 102
182 174 103
181 173 99
183 175 103
180 173 96
177 171 93
178 174 88
180 175 93
177 174 85
177 175 84
177 176 84
176 176 75
178 176 83
180 177 87
176 179 75
175 179 71
176 180 67
175 183 60
177 185 64
172 183 57
176 184 61
173 183 58
176 186 52
173 187 44
176 188 53
174 191 37
172 187 41
168 185 19
170 188 25
171 191 28
170 190 0
167 186 25
171 190 22
173 192 11
166 186 16
168 190 0
170 191 0
172 194 0
173 195 0
167 191 0
171 192 0
171 194 0
169 192 0
174 196 0
171 195 0
170 193 0
171 195 0
170 193 0
170 192 0
172 194 0
167 190 0
169 191 0
169 192 0
170 193 0
172 196 0
172 196 0
173 196 0
172 196 0
176 198 0
169 193 0
173 196 0
172 195 0
171 194 0
172 195 0
173 195 0
172 195 0
169 192 0
170 194 0
171 194 0
174 197 0
169 193 0
173 196 0
173 197 0
172 196 0
172 196 0
174 197 0
172 196 0
170 193 0
172 195 0
171 195 0
172 196 0
172 196 0
171 195 0
172 196 0
169 192 0
170 194 0
170 193 0
171 195 0
170 194 0
171 194 0
170 194 0
168 192 0
171 195 0
170 193 0
170 193 0
169 193 0
169 193 0
169 194 0
172 194 0
171 195 0
166 189 0
171 194 0
171 194 0
171 194 0
171 195 0
166 190 0
168 191 0
169 192 0
171 195 0
168 191 0
164 187 0
168 192 0
168 192 0
169 191 0
167 191 0
167 190 0
168 191 0
166 189 0
167 190 0
165 189 0
166 190 0
167 189 0
166 190 0
171 194 0
170 193 0
169 193 0
169 192 0
169 191 0
168 192 0
166 189 0
165 189 0
168 192 0
164 188 0
168 191 0
167 191 0
164 187 0
162 185 0
165 188 0
163 185 0
166 189 0
162 185 0
158 181 0
163 185 0
165 188 0
167 190 0
167 190 0
161 184 0
162 185 0
158 182 0
164 186 0
164 187 0
166 189 0
165 188 0
160 183 0
160 183 0
160 183 0
164 187 0
167 189 0
163 185 0
160 184 0
161 183 0
162 184 0
157 180 0
161 184 0
161 183 0
162 185 0
156 178 0
163 186 0
159 181 0
155 177 0
154 177 0
158 180 0
152 176 0
161 182 0
157 179 0
155 179 0
157 180 0
153 174 0
153 175 0
158 181 0
149 171 0
152 174 0
154 176 0
159 181 0
149 171 0
153 175 0
143 164 0
150 172 0
148 169 0
145 167 0
159 180 0
148 169 0
147 169 0
148 170 0
132 154 0
146 166 0
146 168 0
147 169 0
136 157 0
136 157 0
148 169 0
147 170 0
137 159 44
126 148 60
75 103 105
58 93 121
58 92 120
58 92 122
58 91 120
59 93 115
59 94 130
59 93 120
60 94 131
59 93 126
60 94 129
58 92 121
59 93 121
57 91 121
59 94 131
58 91 113
60 95 129
60 95 131
59 94 128
59 92 128
58 92 123
61 95 137
59 93 129
59 93 123
60 94 135
59 93 130
61 95 143
58 92 124
60 94 136
58 92 123
59 92 127
59 93 135
61 95 142
59 93 121
59 92 129
60 94 139
59 93 134
59 93 136
59 92 125
58 91 131
58 90 128
58 91 124
59 93 134
58 90 121
60 94 138
59 92 134
58 90 124
59 91 128
57 88 115
58 91 124
59 93 133
57 88 112
58 90 129
58 88 125
57 88 115
56 86 115
56 86 115
57 88 122
57 89 125
56 85 118
56 86 119
58 90 128
58 88 124
56 85 113
56 84 115
52 79 105
54 83 108
54 82 104
53 80 106
54 82 104
54 80 102
56 80 97
66 88 105
57 80 100
57 79 89
73 88 97
76 90 95
72 85 90
77 90 94
94 101 89
102 106 91
97 102 81
94 98 72
96 101 84
122 120 84
110 111 83
114 114 82
126 125 86
123 121 77
129 126 85
125 124 85
144 139 90
144 139 92
139 135 87
156 149 96
149 144 91
154 148 98
145 141 92
164 157 102
158 152 100
175 166 107
175 166 109
178 169 109
172 165 108
175 167 109
175 167 110
183 174 112
178 170 111
182 173 113
182 174 114
182 174 114
183 175 114
181 174 114
180 174 114
181 174 114
178 173 114
178 173 114
178 173 114
179 173 114
177 172 114
176 172 114
176 172 114
175 172 114
175 171 114
174 171 114
174 171 114
173 170 114
172 170 114
172 170 114
172 170 114
171 170 114
171 169 114
170 169 114
170 169 114
169 169 114
169 169 114
170 169 114
169 169 114
168 168 114
168 168 114
167 168 114
168 168 114
167 168 114
167 168 114
168 168 114
166 168 114
167 168 114
167 168 114
166 168 114
167 168 114
166 168 114
167 168 114
166 168 114
167 168 114
167 168 114
167 168 114
167 168 114
167 168 114
168 168 114
167 168 114
168 168 114
168 168 114
168 168 114
168 169 114
169 169 114
169 169 114
169 169 114
170 169 114
171 170 114
171 170 114
171 169 114
171 170 114
171 170 114
174 171 114
173 171 114
173 171 114
175 171 114
175 172 114
174 171 114
176 172 114
175 172 114
177 173 114
178 173 114
179 173 114
179 173 114
180 174 114
180 174 114
183 175 114
183 175 114
184 176 114
182 175 113
184 176 113
184 176 113
184 175 110
183 175 109
184 175 108
179 171 102
184 175 104
180 172 101
183 174 103
181 173 99
179 174 92
180 174 96
181 177 92
183 179 93
182 178 91
177 176 80
178 177 84
178 178 80
177 176 79
178 179 80
174 177 69
175 179 72
177 183 71
173 180 61
179 185 68
173 181 57
174 185 49
176 186 56
172 188 42
174 189 41
169 187 30
171 187 28
172 192 25
170 187 30
172 189 32
169 186 28
171 191 19
168 188 0
168 186 16
167 187 0
174 195 0
170 191 0
171 194 0
169 192 0
171 194 0
171 194 0
172 195 0
168 191 0
172 196 0
170 193 0
171 194 0
172 195 0
171 195 0
171 193 0
171 195 0
171 194 0
172 195 0
170 193 0
171 193 0
173 196 0
173 196 0
174 197 0
173 197 0
174 198 0
176 198 0
170 195 0
168 193 0
172 195 0
172 195 0
169 193 0
174 196 0
170 193 0
172 195 0
170 194 0
172 196 0
173 196 0
173 196 0
174 197 0
170 193 0
172 195 0
169 192 0
172 196 0
174 197 0
169 192 0
170 194 0
171 195 0
166 190 0
171 195 0
172 196 0
172 195 0
167 190 0
171 194 0
172 195 0
168 192 0
172 194 0
168 192 0
173 196 0
169 192 0
169 193 0
172 195 0
172 195 0
172 195 0
171 194 0
168 191 0
170 193 0
172 195 0
172 195 0
167 191 0
171 194 0
169 193 0
171 195 0
168 190 0
170 194 0
168 192 0
166 190 0
169 191 0
169 193 0
167 190 0
168 192 0
167 191 0
169 192 0
169 192 0
163 187 0
166 189 0
167 190 0
165 188 0
168 191 0
169 193 0
172 195 0
165 190 0
169 192 0
168 191 0
166 190 0
169 193 0
170 193 0
167 190 0
167 190 0
171 194 0
169 191 0
163 187 0
164 188 0
165 188 0
169 192 0
166 188 0
165 189 0
164 187 0
166 189 0
167 190 0
168 191 0
164 186 0
160 183 0
163 186 0
171 194 0
163 186 0
158 181 0
163 186 0
160 184 0
165 188 0
162 185 0
164 187 0
162 184 0
159 182 0
162 184 0
159 181 0
157 180 0
161 183 0
165 188 0
155 178 0
160 183 0
161 185 0
158 179 0
165 188 0
159 181 0
161 185 0
156 179 0
156 178 0
150 171 0
160 182 0
158 180 0
159 181 0
158 180 0
153 175 0
154 176 0
154 176 0
155 177 0
149 170 0
154 176 0
148 170 0
152 174 0
155 177 0
142 164 0
152 173 0
151 173 0
151 173 0
153 176 0
153 175 0
150 172 0
147 169 0
149 171 0
141 163 0
140 161 0
140 161 0
139 160 0
141 163 0
150 171 0
133 153 0
133 155 0
131 152 0
130 153 44
118 142 76
54 86 102
58 92 124
59 94 121
58 92 125
58 92 126
59 93 126
59 92 118
58 92 125
59 93 120
58 91 129
59 93 118
60 94 125
57 90 117
59 94 130
58 92 121
60 94 134
59 93 122
60 93 132
59 93 129
59 92 123
59 92 130
58 92 130
59 93 128
58 91 126
59 93 135
58 91 118
60 94 134
59 92 131
59 94 133
59 92 128
59 93 135
60 94 133
59 93 127
59 93 126
61 95 137
58 92 127
59 93 133
58 91 127
59 91 127
60 94 138
59 92 128
58 91 126
59 93 138
57 90 120
60 92 135
60 94 142
58 89 120
59 92 134
59 91 133
58 91 129
59 92 135
57 89 118
57 88 126
58 90 129
57 89 132
60 91 131
54 83 105
56 86 127
55 84 115
55 85 106
57 88 122
56 85 119
56 85 112
54 81 102
54 83 107
56 84 106
54 83 112
55 83 110
52 77 99
55 80 101
52 78 84
56 77 82
71 88 91
64 83 87
63 81 88
86 97 92
85 94 91
80 91 84
83 92 78
97 102 84
101 106 85
98 102 78
108 110 81
94 98 70
112 112 79
128 125 86
131 127 86
127 124 86
135 131 87
147 142 92
139 135 90
145 140 88
157 149 96
150 145 93
153 146 95
159 152 97
164 157 99
162 155 99
156 150 99
168 160 103
172 164 106
171 163 107
171 164 107
176 168 110
182 173 112
179 171 111
181 173 113
182 174 113
184 175 114
184 176 114
182 175 114
184 176 114
182 175 114
181 174 114
180 174 114
179 173 114
179 173 114
177 172 114
177 172 114
176 172 114
176 172 114
175 172 114
175 171 114
174 171 114
174 171 114
173 170 114
173 170 114
172 170 114
172 170 114
172 170 114
171 170 114
170 169 114
170 169 114
169 169 114
170 169 114
169 169 114
168 168 114
168 168 114
169 169 114
167 168 114
168 168 114
168 168 114
168 168 114
168 168 114
167 168 114
167 168 114
167 168 114
167 168 114
168 168 114
166 168 114
167 168 114
168 168 114
167 168 114
168 168 114
167 168 114
168 168 114
167 168 114
167 168 114
168 168 114
169 169 114
168 169 114
169 169 114
169 169 114
169 169 114
169 169 114
170 169 114
170 169 114
171 170 114
171 170 114
172 170 114
171 170 114
171 170 114
173 170 114
174 171 114
174 171 114
174 171 114
175 172 114
175 172 114
177 172 114
177 172 114
178 173 114
179 173 114
177 173 114
180 174 114
179 173 114
179 174 114
182 175 114
184 176 114
184 176 114
184 176 113
186 176 113
185 176 111
185 176 112
185 175 110
183 174 106
182 173 106
182 173 101
178 171 98
181 173 101
181 174 97
179 172 93
179 175 90
179 173 92
180 175 92
180 179 87
178 175 84
177 177 80
178 178 80
180 180 80
179 176 86
177 180 72
177 181 71
177 183 67
179 185 66
177 181 69
173 182 58
172 184 52
175 186 52
169 183 39
168 182 41
171 185 39
173 186 41
172 189 37
173 188 37
173 191 30
168 188 22
172 191 22
172 192 16
171 190 19
171 191 0
169 192 0
170 193 0
171 193 0
172 195 0
173 195 0
173 196 0
171 194 0
170 194 0
172 195 0
169 191 0
172 195 0
171 194 0
171 194 0
173 196 0
170 192 0
172 197 0
174 197 0
171 194 0
172 195 0
173 197 0
169 193 0
171 195 0
171 194 0
172 196 0
175 198 0
174 197 0
172 196 0
170 194 0
171 195 0
169 193 0
171 194 0
171 195 0
171 194 0
169 193 0
169 193 0
170 193 0
170 192 0
173 196 0
172 195 0
170 194 0
171 194 0
169 192 0
174 197 0
168 192 0
171 194 0
170 193 0
170 194 0
172 196 0
169 193 0
174 196 0
172 196 0
166 190 0
170 194 0
169 193 0
174 196 0
170 195 0
170 193 0
169 193 0
174 197 0
169 193 0
169 192 0
171 194 0
169 193 0
168 191 0
171 195 0
173 196 0
172 196 0
170 194 0
171 194 0
166 190 0
168 191 0
168 191 0
167 190 0
170 194 0
164 187 0
172 195 0
170 193 0
167 191 0
167 191 0
169 193 0
167 190 0
170 193 0
166 189 0
161 185 0
171 194 0
168 192 0
167 190 0
169 192 0
169 192 0
169 193 0
167 190 0
165 189 0
166 190 0
166 189 0
168 192 0
168 191 0
169 192 0
171 194 0
165 188 0
170 193 0
167 190 0
167 190 0
170 193 0
164 187 0
167 189 0
162 186 0
163 185 0
168 189 0
165 187 0
169 192 0
164 187 0
165 187 0
161 185 0
164 188 0
159 183 0
160 184 0
161 185 0
158 180 0
163 186 0
165 187 0
165 187 0
162 184 0
159 182 0
159 182 0
163 186 0
159 181 0
158 181 0
161 184 0
154 176 0
149 172 0
158 181 0
156 180 0
158 180 0
157 181 0
162 184 0
160 183 0
156 179 0
155 178 0
149 173 0
151 173 0
158 180 0
155 177 0
147 170 0
154 176 0
156 178 0
157 180 0
147 168 0
151 173 0
153 175 0
147 168 0
152 174 0
156 177 0
157 179 0
153 175 0
153 175 0
155 176 0
147 169 0
148 169 0
149 170 0
147 169 0
145 166 0
147 168 0
142 164 0
142 164 0
153 174 0
150 170 0
135 157 0
139 160 0
138 160 44
121 142 51
97 122 76
59 92 111
59 92 118
56 89 105
57 91 117
59 93 131
58 91 108
59 93 136
58 92 118
58 91 110
58 92 128
60 94 141
58 92 126
60 94 130
58 92 126
59 92 122
59 93 128
59 94 133
59 92 122
59 93 126
59 93 134
60 95 137
59 93 137
61 96 143
59 93 133
59 94 126
59 92 126
60 94 133
57 91 113
60 93 132
60 93 128
60 93 132
59 93 129
59 93 129
58 91 129
58 92 127
59 92 126
59 92 134
58 91 125
58 90 125
59 92 125
58 90 126
59 92 128
59 92 133
58 91 124
59 92 137
59 92 128
58 90 128
58 90 134
58 91 130
59 90 128
58 90 125
57 88 114
58 88 124
58 88 124
56 86 117
56 86 112
55 84 115
56 88 121
57 88 117
54 82 110
56 84 116
55 86 109
55 84 118
55 84 112
54 82 107
56 86 112
52 78 103
56 82 98
49 72 79
59 82 98
58 80 89
62 83 101
63 81 78
76 90 94
67 85 84
86 96 82
85 95 93
99 102 71
89 95 72
112 113 75
112 111 76
109 111 84
119 118 81
117 117 76
126 123 83
112 112 76
119 118 77
131 128 86
137 133 85
145 140 87
145 141 94
149 143 94
151 145 94
155 149 94
152 147 96
161 155 100
165 158 103
162 155 101
174 166 105
179 169 109
176 167 109
180 171 111
178 169 109
180 171 111
182 173 113
180 172 112
184 175 114
184 176 114
184 176 114
183 175 114
182 175 114
182 175 114
180 174 114
180 174 114
179 173 114
178 173 114
178 173 114
177 172 114
176 172 114
176 172 114
175 172 114
174 171 114
174 171 114
174 171 114
173 171 114
173 170 114
172 170 114
172 170 114
171 170 114
172 170 114
171 170 114
171 170 114
170 169 114
170 169 114
170 169 114
169 169 114
169 169 114
169 169 114
168 169 114
168 168 114
168 168 114
169 169 114
167 168 114
167 168 114
167 168 114
167 168 114
167 168 114
167 168 114
167 168 114
167 168 114
167 168 114
168 168 114
167 168 114
168 168 114
168 168 114
169 169 114
167 168 114
168 168 114
168 169 114
169 169 114
169 169 114
168 169 114
169 169 114
169 169 114
171 170 114
171 170 114
171 170 114
172 170 114
170 169 114
171 170 114
173 171 114
173 170 114
174 171 114
173 171 114
174 171 114
176 172 114
176 172 114
176 172 114
177 173 114
177 172 114
178 173 114
179 173 114
179 173 114
180 174 114
181 174 114
180 174 114
183 175 114
184 176 114
184 176 113
185 176 112
184 175 109
185 176 110
184 175 108
183 174 109
180 172 102
184 174 103
181 173 101
182 173 100
181 174 99
177 170 90
183 175 100
179 174 92
183 177 96
180 177 89
181 175 90
175 174 80
178 177 78
176 178 75
180 179 81
177 181 75
175 182 60
176 182 70
170 179 54
179 186 68
173 183 52
173 184 48
169 178 47
173 183 54
173 187 42
175 189 48
175 187 49
169 183 36
174 190 41
174 191 36
169 189 22
172 193 16
169 189 11
170 189 16
168 189 11
171 194 0
167 187 0
172 196 0
170 192 0
174 197 0
169 190 0
172 194 0
172 194 0
172 195 0
173 196 0
170 192 0
169 191 0
171 193 0
173 196 0
173 196 0
169 192 0
171 194 0
167 189 0
173 196 0
173 197 0
173 196 0
171 196 0
173 196 0
173 197 0
170 194 0
174 197 0
172 195 0
172 196 0
172 195 0
172 195 0
171 195 0
173 196 0
172 195 0
172 196 0
174 197 0
169 193 0
171 194 0
171 194 0
171 195 0
170 194 0
168 192 0
168 192 0
170 194 0
171 195 0
171 194 0
167 191 0
171 195 0
172 195 0
171 195 0
171 196 0
169 193 0
170 193 0
170 194 0
172 195 0
171 194 0
170 194 0
174 197 0
170 194 0
169 192 0
173 197 0
171 194 0
169 192 0
168 192 0
170 194 0
169 193 0
174 197 0
170 194 0
171 194 0
169 192 0
170 194 0
168 192 0
167 191 0
168 192 0
169 193 0
169 192 0
169 192 0
167 191 0
167 191 0
171 194 0
167 190 0
168 191 0
169 193 0
172 195 0
167 190 0
168 191 0
167 190 0
168 192 0
164 187 0
167 190 0
161 185 0
166 190 0
165 187 0
169 192 0
167 190 0
166 189 0
165 189 0
164 187 0
166 189 0
166 188 0
170 193 0
170 192 0
166 189 0
164 187 0
168 191 0
166 189 0
167 190 0
166 189 0
164 187 0
164 187 0
166 189 0
163 186 0
166 189 0
161 184 0
161 184 0
162 184 0
170 193 0
167 190 0
162 186 0
159 181 0
164 186 0
164 187 0
160 184 0
155 178 0
159 182 0
161 185 0
161 183 0
160 183 0
161 183 0
160 183 0
157 179 0
165 187 0
155 178 0
151 175 0
156 179 0
155 178 0
150 174 0
156 179 0
158 181 0
155 178 0
159 182 0
154 176 0
153 176 0
154 177 0
156 179 0
151 174 0
147 169 0
154 177 0
148 170 0
152 173 0
145 167 0
152 174 0
145 168 0
145 166 0
144 166 0
151 172 0
141 163 0
149 171 0
147 169 0
140 161 0
140 162 0
148 169 0
137 157 0
137 159 0
141 163 0
144 165 0
140 161 0
132 154 0
135 155 0
143 163 0
131 152 36
117 139 51
90 116 90
56 89 102
59 92 122
60 94 122
59 93 121
57 91 118
56 89 102
58 92 118
59 93 134
58 92 126
59 92 121
59 93 124
57 90 124
58 92 111
58 91 113
58 91 120
58 92 124
58 92 120
60 94 138
59 93 124
58 92 121
58 91 118
59 92 124
58 91 124
60 93 127
61 95 139
59 92 123
59 93 129
59 93 129
59 92 134
59 93 129
59 92 129
59 93 127
57 89 119
59 93 133
58 89 116
58 91 122
59 93 127
57 88 102
58 91 122
59 92 126
58 90 131
57 89 117
58 90 117
59 92 134
57 90 131
58 91 125
57 89 117
56 86 112
57 87 115
57 89 121
59 91 132
57 89 125
56 87 119
57 87 120
56 86 121
55 85 108
56 85 106
56 86 123
56 87 112
56 86 120
54 83 108
54 81 106
54 82 106
54 81 106
53 80 103
52 79 99
54 82 104
55 81 99
56 77 80
66 86 97
67 85 95
69 85 82
59 76 79
73 87 70
85 96 90
83 92 85
90 97 74
95 101 83
92 99 74
101 103 73
111 113 83
104 107 79
132 129 83
127 124 79
129 126 78
125 123 82
139 134 85
140 136 85
139 134 83
150 144 93
158 151 95
145 140 86
158 152 91
162 154 95
163 156 97
169 161 99
162 156 100
165 159 104
175 166 107
175 166 105
174 166 108
178 170 110
183 173 112
184 174 112
185 176 114
185 176 114
185 176 114
184 176 114
183 175 114
182 175 114
181 175 114
180 174 114
181 174 114
179 173 114
179 173 114
178 173 114
177 173 114
178 173 114
177 172 114
176 172 114
175 171 114
174 171 114
174 171 114
174 171 114
173 171 114
172 170 114
172 170 114
171 170 114
172 170 114
171 170 114
170 169 114
170 169 114
170 169 114
170 169 114
169 169 114
169 169 114
169 169 114
169 169 114
167 168 114
169 169 114
168 169 114
168 168 114
168 168 114
169 169 114
169 169 114
168 168 114
168 168 114
168 168 114
168 168 114
168 168 114
168 168 114
168 168 114
167 168 114
168 168 114
168 169 114
169 169 114
167 168 114
169 169 114
168 168 114
169 169 114
168 168 114
169 169 114
169 169 114
170 169 114
171 170 114
171 170 114
171 170 114
171 170 114
173 171 114
172 170 114
173 171 114
174 171 114
174 171 114
174 171 114
176 172 114
176 172 114
176 172 114
177 173 114
178 173 114
179 173 114
178 173 114
180 174 114
180 174 114
181 174 114
181 174 114
183 175 114
185 176 114
185 176 113
184 176 112
183 174 109
185 176 110
183 174 108
184 175 109
184 174 106
180 172 102
180 172 101
183 174 104
186 176 105
182 174 99
182 175 95
180 175 91
178 173 88
178 175 85
179 176 85
177 174 80
176 176 77
174 175 69
176 174 80
176 179 72
171 175 66
174 182 60
178 181 70
172 177 60
169 181 42
175 186 59
174 184 54
171 181 48
174 185 53
168 183 41
174 186 45
175 187 48
175 187 42
173 189 34
169 189 19
172 191 22
169 190 16
167 188 0
168 188 0
173 196 0
168 190 0
170 191 0
171 195 0
170 192 0
170 193 0
172 194 0
169 192 0
174 196 0
170 192 0
173 194 0
171 193 0
174 196 0
172 195 0
171 194 0
172 195 0
171 193 0
169 192 0
172 196 0
172 196 0
172 195 0
169 193 0
173 196 0
171 194 0
172 195 0
171 194 0
173 197 0
171 196 0
171 194 0
171 195 0
172 196 0
171 195 0
171 194 0
171 195 0
170 193 0
171 195 0
167 190 0
168 192 0
173 196 0
172 196 0
169 193 0
171 194 0
171 194 0
168 192 0
172 196 0
170 193 0
173 196 0
173 196 0
173 196 0
168 192 0
173 196 0
172 196 0
171 194 0
172 195 0
172 196 0
168 192 0
172 196 0
169 193 0
168 190 0
169 193 0
172 196 0
170 194 0
171 195 0
168 192 0
168 192 0
172 196 0
169 193 0
169 192 0
167 191 0
169 192 0
170 193 0
168 192 0
168 192 0
172 195 0
168 192 0
167 190 0
170 194 0
170 194 0
168 192 0
167 190 0
169 193 0
168 191 0
163 187 0
172 194 0
169 192 0
167 190 0
165 188 0
166 190 0
169 193 0
164 187 0
168 192 0
167 190 0
166 189 0
166 189 0
164 187 0
165 189 0
163 185 0
168 191 0
164 186 0
166 189 0
168 191 0
163 186 0
164 186 0
163 185 0
164 187 0
162 186 0
158 181 0
165 189 0
169 193 0
163 186 0
163 186 0
161 184 0
158 181 0
159 182 0
159 181 0
164 188 0
159 182 0
166 189 0
163 185 0
162 184 0
162 184 0
161 184 0
160 182 0
159 182 0
156 179 0
161 183 0
155 178 0
161 183 0
160 181 0
159 182 0
162 185 0
161 184 0
154 177 0
160 183 0
160 183 0
153 175 0
151 174 0
153 175 0
159 181 0
154 177 0
156 177 0
159 181 0
153 176 0
151 174 0
156 179 0
147 170 0
148 170 0
154 176 0
162 184 0
156 178 0
149 172 0
141 162 0
143 164 0
152 174 0
155 177 0
146 167 0
155 177 0
151 173 0
145 167 0
151 173 0
147 169 0
149 171 0
150 171 0
130 152 0
143 163 0
152 173 0
128 149 0
139 160 0
149 171 0
135 155 18
128 149 51
115 137 54
86 111 88
56 89 110
57 89 111
57 91 105
56 89 103
57 90 113
57 90 114
58 92 118
58 92 118
58 92 124
58 91 120
58 92 120
58 92 123
58 91 120
59 93 138
59 92 123
59 94 129
60 93 123
60 93 133
59 93 124
58 92 125
59 93 133
58 91 121
58 91 122
58 91 123
59 93 130
59 92 128
58 91 122
60 94 138
59 93 127
58 91 119
59 93 122
59 92 127
59 92 133
60 93 130
58 91 128
58 92 126
59 92 128
57 89 116
59 92 124
59 92 131
58 91 125
59 91 126
58 89 122
57 89 116
57 88 119
57 89 108
57 87 111
57 89 120
58 89 124
57 89 124
58 90 119
56 87 114
56 87 115
56 86 110
56 87 119
56 85 115
56 86 118
55 84 109
57 87 122
55 83 109
53 82 108
53 81 98
51 78 96
54 81 101
54 79 97
53 80 98
57 81 90
54 78 102
62 80 79
75 90 85
76 92 93
58 77 74
74 87 73
77 88 78
88 97 81
96 102 63
98 102 77
96 102 74
87 93 67
107 108 76
114 116 83
116 116 75
128 125 82
119 119 75
122 120 70
136 133 79
139 134 81
146 140 89
153 146 90
151 145 95
149 143 91
161 153 96
158 151 96
170 162 104
166 159 100
168 161 101
174 165 106
172 164 103
178 169 107
182 172 110
179 170 110
186 176 113
187 177 113
184 175 114
185 176 114
184 176 114
185 176 114
182 175 114
182 175 114
182 175 114
181 174 114
181 174 114
179 173 114
180 174 114
178 173 114
179 173 114
177 172 114
178 173 114
176 172 114
175 172 114
175 171 114
175 171 114
174 171 114
174 171 114
173 171 114
173 171 114
173 170 114
173 171 114
172 170 114
172 170 114
171 170 114
170 169 114
172 170 114
170 169 114
170 169 114
169 169 114
170 169 114
168 168 114
169 169 114
169 169 114
167 168 114
168 168 114
169 169 114
169 169 114
167 168 114
169 169 114
168 168 114
168 168 114
169 169 114
167 168 114
168 168 114
169 169 114
168 169 114
169 169 114
168 168 114
168 168 114
168 168 114
169 169 114
169 169 114
170 169 114
172 170 114
170 169 114
170 169 114
171 170 114
171 170 114
172 170 114
173 171 114
173 170 114
173 171 114
174 171 114
174 171 114
176 172 114
175 172 114
176 172 114
175 171 114
176 172 114
179 173 114
177 173 114
179 173 114
178 173 114
180 174 114
182 175 114
182 175 114
181 174 114
183 175 114
184 176 114
184 176 114
184 175 111
184 175 112
184 175 110
185 176 111
184 175 108
183 174 106
183 174 102
182 173 101
182 173 102
183 173 100
182 174 99
182 173 97
178 171 92
178 174 86
178 175 80
178 176 79
178 176 81
176 174 78
172 174 73
175 180 65
176 178 73
177 181 68
177 181 72
175 179 69
173 178 63
169 180 53
172 181 58
169 176 53
174 185 45
174 187 49
174 181 59
171 185 42
174 189 39
173 186 44
171 188 22
171 190 19
170 189 19
171 188 28
173 191 16
171 192 11
169 191 0
170 192 0
173 194 0
171 193 0
173 195 0
172 196 0
172 194 0
171 194 0
172 194 0
170 193 0
172 194 0
173 195 0
170 191 0
172 194 0
172 195 0
171 194 0
173 197 0
172 195 0
170 193 0
171 195 0
173 196 0
173 196 0
172 195 0
173 196 0
171 194 0
174 197 0
173 197 0
172 195 0
171 195 0
174 196 0
175 197 0
174 197 0
172 196 0
172 196 0
173 197 0
170 194 0
170 193 0
170 193 0
173 196 0
171 194 0
171 194 0
170 194 0
171 194 0
174 197 0
171 195 0
171 194 0
169 193 0
169 192 0
169 193 0
174 197 0
174 197 0
172 196 0
169 193 0
171 194 0
170 194 0
171 194 0
168 191 0
169 193 0
171 194 0
169 192 0
169 193 0
171 195 0
168 191 0
173 196 0
169 193 0
171 194 0
171 195 0
171 194 0
171 194 0
171 195 0
169 192 0
168 191 0
171 194 0
170 193 0
171 194 0
170 193 0
169 193 0
169 192 0
166 190 0
170 193 0
170 193 0
170 192 0
173 196 0
167 190 0
166 190 0
163 186 0
168 190 0
169 193 0
168 192 0
165 189 0
168 192 0
168 191 0
167 191 0
167 190 0
168 191 0
168 191 0
165 189 0
165 188 0
169 193 0
166 190 0
167 191 0
161 185 0
162 185 0
169 191 0
162 185 0
169 192 0
168 191 0
159 183 0
165 188 0
160 182 0
157 180 0
163 186 0
158 181 0
162 185 0
158 181 0
163 187 0
161 185 0
159 183 0
161 184 0
164 187 0
155 178 0
163 185 0
164 186 0
163 186 0
157 179 0
159 182 0
160 182 0
161 184 0
158 181 0
158 181 0
158 181 0
162 184 0
162 185 0
155 178 0
152 174 0
155 177 0
159 182 0
163 185 0
162 185 0
160 183 0
153 176 0
157 180 0
153 175 0
155 178 0
160 183 0
155 178 0
157 179 0
155 179 0
146 168 0
154 177 0
152 174 0
154 177 0
152 175 0
150 172 0
143 166 0
155 177 0
145 167 0
145 167 0
152 173 0
143 165 0
143 164 0
139 159 0
143 165 0
138 159 0
139 161 0
142 164 0
135 154 0
145 166 0
141 162 0
136 157 0
136 157 18
121 142 31
116 137 65
83 110 99
58 91 113
57 90 114
59 93 122
59 93 122
58 91 124
58 92 114
58 92 124
59 93 131
57 90 124
60 94 131
57 90 110
59 92 126
59 94 129
59 93 126
59 93 124
56 90 120
58 91 115
56 89 117
60 94 132
58 91 120
59 92 128
58 92 125
59 92 128
59 93 127
59 92 121
59 92 123
59 93 132
60 94 128
60 94 137
58 90 118
60 94 139
57 88 123
59 93 126
60 94 145
59 92 132
59 92 125
58 91 125
58 90 113
58 91 126
57 89 113
58 90 124
58 90 124
59 92 122
58 90 128
56 87 116
56 86 105
59 91 125
56 87 114
57 87 120
57 88 113
57 89 130
57 88 121
57 88 115
52 80 92
56 85 117
55 85 111
54 83 112
56 85 114
56 86 115
51 77 88
56 85 114
52 79 95
49 75 90
53 79 89
56 82 101
50 76 87
55 79 89
66 85 81
64 83 86
65 81 83
75 90 82
87 97 76
89 97 77
94 101 85
103 108 85
98 103 74
102 107 84
104 107 73
106 109 79
118 118 70
126 124 80
116 115 73
135 131 79
131 128 78
129 126 77
148 142 81
159 152 92
148 143 87
160 153 91
159 152 95
156 150 91
166 158 99
164 157 94
172 164 101
170 162 103
169 162 98
180 171 106
181 171 108
176 168 106
185 175 110
184 174 112
185 175 112
186 177 114
187 177 114
185 176 114
185 176 114
184 176 114
182 175 114
182 175 114
181 174 114
180 174 114
181 174 114
180 174 114
179 173 114
177 173 114
177 173 114
177 172 114
175 172 114
175 172 114
176 172 114
176 172 114
175 172 114
174 171 114
173 171 114
174 171 114
173 170 114
173 171 114
173 170 114
172 170 114
172 170 114
171 170 114
171 170 114
170 169 114
171 170 114
170 169 114
170 169 114
169 169 114
170 169 114
170 169 114
169 169 114
168 168 114
168 168 114
170 169 114
168 168 114
168 168 114
168 169 114
169 169 114
168 168 114
168 168 114
169 169 114
169 169 114
169 169 114
169 169 114
169 169 114
168 168 114
170 169 114
170 169 114
169 169 114
170 169 114
171 170 114
171 170 114
171 170 114
172 170 114
172 170 114
171 170 114
173 171 114
172 170 114
173 171 114
174 171 114
174 171 114
175 171 114
175 172 114
176 172 114
176 172 114
175 172 114
178 173 114
179 173 114
177 172 114
180 174 114
180 174 114
181 174 114
181 174 114
182 175 114
183 175 114
184 176 114
182 175 113
185 176 113
183 175 112
185 175 109
184 175 110
184 174 106
182 174 106
182 173 101
183 173 102
184 174 103
181 172 99
183 175 98
180 172 93
175 170 84
178 172 90
178 174 86
178 175 85
177 178 75
176 176 75
179 176 83
175 178 69
176 180 68
177 179 71
175 178 70
175 181 62
177 182 65
177 185 65
173 184 54
176 183 63
173 184 51
174 185 48
172 184 49
166 182 32
172 186 37
173 191 32
169 185 28
171 187 32
169 188 22
168 188 16
170 190 0
169 190 0
167 188 0
171 193 0
170 192 0
170 193 0
170 193 0
167 189 0
169 193 0
170 192 0
169 193 0
170 192 0
173 196 0
171 195 0
171 194 0
172 196 0
169 191 0
170 194 0
172 195 0
169 191 0
170 194 0
174 197 0
171 195 0
174 197 0
172 196 0
172 195 0
171 195 0
170 194 0
171 196 0
171 194 0
171 193 0
172 195 0
174 197 0
172 195 0
174 196 0
172 195 0
171 195 0
171 195 0
168 191 0
173 196 0
170 194 0
171 194 0
173 196 0
171 194 0
171 195 0
168 192 0
174 197 0
170 194 0
171 195 0
173 196 0
170 193 0
171 194 0
168 191 0
170 194 0
170 194 0
170 194 0
167 191 0
171 195 0
171 194 0
167 190 0
169 192 0
169 192 0
171 195 0
170 193 0
170 194 0
172 195 0
169 192 0
167 191 0
167 191 0
169 192 0
172 195 0
171 195 0
169 192 0
170 194 0
172 195 0
168 191 0
168 192 0
169 192 0
169 193 0
166 189 0
172 195 0
168 192 0
169 192 0
168 192 0
166 190 0
167 191 0
166 190 0
170 194 0
169 192 0
167 190 0
170 193 0
167 191 0
166 189 0
168 191 0
165 188 0
170 192 0
163 186 0
164 186 0
164 187 0
163 187 0
165 189 0
166 189 0
164 187 0
165 188 0
167 190 0
164 188 0
161 185 0
162 186 0
167 190 0
161 185 0
160 183 0
159 183 0
161 185 0
161 184 0
163 186 0
159 183 0
165 188 0
167 190 0
161 184 0
164 187 0
159 182 0
164 187 0
161 182 0
160 183 0
159 183 0
160 183 0
161 184 0
159 183 0
159 183 0
159 182 0
159 183 0
167 190 0
151 173 0
162 185 0
149 173 0
158 181 0
156 178 0
154 177 0
156 178 0
155 177 0
154 177 0
157 180 0
162 183 0
160 182 0
157 179 0
152 174 0
153 176 0
152 173 0
156 178 0
151 172 0
145 168 0
154 177 0
149 171 0
141 163 0
145 168 0
150 172 0
144 166 0
152 174 0
148 170 0
146 169 0
149 170 0
140 161 0
145 166 0
144 165 0
140 163 0
141 163 0
133 154 0
144 165 0
141 162 0
145 165 0
132 153 0
139 160 0
138 159 0
139 159 18
126 147 40
116 138 65
74 102 95
56 88 108
56 89 107
55 87 110
57 89 105
57 91 120
58 91 125
59 92 117
57 90 108
60 94 131
59 93 129
59 93 130
60 94 131
59 92 125
58 92 133
59 92 120
58 91 124
58 92 124
57 90 117
58 91 116
59 94 126
59 93 126
59 92 121
57 90 124
59 93 120
59 93 113
57 90 116
58 92 119
58 91 122
57 90 123
58 91 120
57 89 117
60 93 130
57 89 122
58 91 112
59 93 131
57 89 120
59 92 128
57 89 115
57 89 115
58 91 120
59 91 121
58 91 123
57 89 120
58 89 120
56 86 108
56 87 110
57 88 112
57 87 116
56 86 115
57 87 116
57 87 114
56 87 109
56 87 120
53 81 99
56 86 114
54 83 104
53 81 104
54 82 106
50 76 86
53 82 104
55 83 102
52 78 103
52 76 78
54 78 77
58 82 90
65 83 75
58 82 86
69 85 74
76 87 64
68 83 67
96 103 84
86 95 75
85 94 67
86 92 67
101 106 71
103 107 63
103 105 68
125 123 77
110 112 77
114 114 68
128 125 74
132 129 71
128 125 73
144 138 85
142 137 81
143 138 81
146 141 84
159 152 91
154 147 89
161 154 93
167 159 100
170 162 99
163 156 97
158 152 93
174 166 101
182 172 105
176 167 106
181 171 110
184 174 110
183 174 110
188 177 113
186 177 113
186 177 114
185 176 114
185 176 114
182 175 114
183 175 114
181 174 114
181 174 114
181 174 114
180 174 114
180 174 114
179 174 114
178 173 114
178 173 114
179 173 114
177 173 114
176 172 114
175 172 114
175 172 114
175 171 114
175 171 114
175 171 114
173 171 114
173 171 114
172 170 114
172 170 114
172 170 114
172 170 114
172 170 114
171 170 114
170 169 114
170 169 114
170 169 114
170 169 114
169 169 114
170 169 114
170 169 114
170 169 114
170 169 114
169 169 114
169 169 114
169 169 114
169 169 114
170 169 114
168 168 114
170 169 114
169 169 114
170 169 114
169 169 114
169 169 114
169 169 114
170 169 114
169 169 114
170 169 114
171 170 114
171 170 114
171 170 114
170 169 114
171 170 114
172 170 114
171 170 114
171 170 114
174 171 114
172 170 114
174 171 114
173 171 114
173 171 114
174 171 114
175 172 114
176 172 114
176 172 114
176 172 114
177 172 114
180 174 114
179 173 114
179 173 114
177 173 114
180 174 114
181 174 114
182 175 114
183 175 114
184 176 114
184 176 114
185 176 113
185 176 113
184 175 109
185 176 110
184 175 108
184 175 109
183 173 100
181 173 101
182 173 103
181 172 97
178 171 94
180 173 96
182 173 97
179 172 93
180 174 87
179 176 84
178 172 86
179 175 86
179 175 82
177 176 79
176 178 74
179 177 80
170 174 61
173 179 61
177 180 70
174 179 63
177 182 64
173 182 54
174 183 57
174 185 47
171 183 42
172 187 41
174 188 41
167 182 37
161 178 30
169 187 16
167 185 30
172 191 25
172 191 16
170 188 19
169 189 19
170 191 0
171 192 0
170 192 0
168 191 0
168 189 0
172 195 0
171 194 0
170 193 0
170 193 0
170 194 0
171 193 0
171 194 0
171 195 0
169 192 0
173 196 0
170 193 0
172 195 0
169 192 0
173 196 0
171 194 0
173 196 0
171 195 0
172 197 0
172 196 0
173 197 0
171 194 0
172 196 0
170 193 0
172 195 0
172 196 0
173 196 0
168 191 0
172 196 0
171 194 0
170 194 0
172 195 0
171 194 0
170 195 0
172 195 0
170 193 0
170 194 0
174 198 0
170 193 0
172 196 0
170 194 0
171 193 0
171 194 0
172 195 0
172 195 0
170 193 0
170 194 0
169 193 0
169 193 0
168 193 0
169 192 0
168 192 0
172 196 0
169 193 0
169 192 0
169 192 0
170 194 0
168 193 0
168 192 0
168 192 0
167 190 0
169 192 0
172 194 0
171 194 0
170 193 0
169 193 0
170 193 0
167 190 0
169 192 0
167 191 0
167 191 0
171 194 0
170 194 0
169 193 0
163 187 0
163 187 0
162 185 0
170 194 0
167 191 0
166 189 0
168 193 0
166 190 0
170 193 0
168 192 0
165 189 0
172 195 0
169 193 0
171 194 0
162 185 0
169 191 0
168 192 0
166 190 0
166 189 0
162 186 0
163 186 0
165 189 0
168 191 0
167 190 0
163 186 0
164 188 0
161 185 0
164 187 0
162 185 0
164 187 0
163 187 0
164 188 0
163 186 0
167 190 0
161 183 0
162 185 0
163 186 0
164 187 0
164 188 0
162 184 0
158 181 0
163 186 0
163 186 0
161 185 0
158 181 0
161 183 0
161 184 0
163 186 0
153 176 0
155 179 0
157 180 0
160 181 0
160 182 0
155 177 0
161 184 0
158 180 0
153 176 0
153 176 0
156 178 0
153 176 0
156 179 0
151 172 0
155 178 0
153 177 0
155 178 0
148 170 0
155 177 0
148 171 0
154 175 0
149 172 0
157 180 0
148 170 0
153 175 0
147 168 0
155 176 0
139 162 0
143 165 0
142 164 0
144 166 0
149 170 0
144 167 0
136 158 0
137 157 0
142 163 0
137 159 0
138 159 0
143 165 0
135 156 0
143 164 0
138 158 0
135 156 0
136 157 0
137 158 0
133 154 0
128 148 18
131 152 40
118 139 65
74 101 95
57 90 117
55 87 90
57 90 105
57 90 115
58 91 107
57 90 111
58 91 120
58 92 121
58 92 126
58 92 118
57 90 108
58 91 122
58 91 122
57 89 121
59 93 126
59 93 130
60 94 124
60 95 137
59 92 122
58 92 131
59 93 127
57 90 118
59 93 125
57 90 118
60 94 136
59 91 127
57 89 114
59 92 127
59 93 124
58 89 117
57 90 123
59 92 128
59 92 132
57 89 115
58 91 126
58 90 119
58 90 115
57 89 124
58 90 118
57 88 123
56 88 109
57 89 124
56 86 113
57 89 129
56 88 119
56 87 118
57 88 125
57 87 110
57 89 119
56 85 106
55 85 113
56 85 110
54 83 100
55 85 111
57 86 115
53 81 102
55 84 117
53 82 101
54 82 97
56 86 116
53 81 106
52 77 85
57 79 87
57 78 68
61 83 94
70 86 85
69 84 70
68 84 80
80 92 76
81 91 63
84 93 80
89 97 73
98 104 77
94 99 59
111 112 70
112 113 60
115 114 69
116 116 80
117 116 67
131 128 80
132 129 73
132 129 81
139 134 77
144 139 79
135 132 80
146 141 82
159 152 91
160 153 95
155 149 86
168 160 96
168 160 96
169 161 98
178 168 105
171 163 100
181 171 104
182 172 109
181 172 106
187 177 109
184 174 111
186 176 113
186 176 113
186 176 113
186 177 114
185 176 114
186 177 114
185 176 114
183 175 114
183 175 114
182 175 114
181 174 114
179 173 114
181 174 114
178 173 114
178 173 114
178 173 114
178 173 114
176 172 114
176 172 114
176 172 114
176 172 114
175 171 114
175 171 114
174 171 114
174 171 114
173 171 114
173 171 114
173 171 114
172 170 114
171 170 114
172 170 114
172 170 114
171 170 114
171 170 114
171 170 114
171 170 114
169 169 114
171 170 114
170 169 114
170 169 114
170 169 114
170 169 114
170 169 114
170 169 114
171 170 114
169 169 114
169 169 114
170 169 114
170 169 114
169 169 114
169 169 114
170 169 114
169 169 114
171 170 114
171 170 114
169 169 114
170 169 114
170 169 114
171 170 114
171 170 114
172 170 114
172 170 114
173 170 114
174 171 114
173 170 114
175 171 114
174 171 114
174 171 114
176 172 114
176 172 114
176 172 114
176 172 114
177 172 114
177 172 114
177 172 114
179 174 114
179 173 114
180 174 114
180 174 114
181 174 114
183 175 114
183 175 114
183 175 114
184 176 114
184 176 113
185 176 113
184 175 112
186 176 112
184 175 110
184 175 108
182 174 104
181 173 104
183 173 103
181 172 99
180 171 97
179 172 93
181 173 96
183 176 95
181 175 87
179 174 86
179 176 84
178 176 82
178 178 78
182 180 85
174 177 68
173 174 66
172 175 64
173 178 57
171 175 61
174 177 64
173 182 52
175 183 59
170 181 48
171 180 49
167 182 37
174 183 51
174 188 41
173 185 45
174 187 41
170 187 25
172 191 25
173 190 25
169 186 19
170 189 22
170 190 0
169 191 11
169 191 0
171 192 0
173 194 0
169 191 0
172 194 0
170 192 0
170 193 0
169 193 0
173 195 0
169 191 0
168 190 0
171 193 0
170 193 0
171 195 0
171 194 0
171 193 0
171 193 0
174 196 0
172 195 0
171 194 0
173 196 0
174 197 0
174 197 0
171 194 0
173 196 0
173 196 0
174 198 0
170 194 0
174 197 0
172 196 0
171 194 0
166 191 0
171 195 0
171 195 0
170 194 0
170 193 0
171 195 0
171 194 0
170 194 0
170 194 0
173 196 0
173 196 0
172 195 0
172 195 0
172 195 0
172 195 0
172 195 0
171 194 0
170 194 0
172 196 0
169 192 0
171 194 0
174 197 0
170 193 0
170 194 0
167 191 0
170 193 0
170 194 0
170 194 0
170 194 0
171 195 0
167 191 0
167 191 0
170 194 0
169 192 0
168 192 0
169 194 0
166 190 0
171 194 0
170 193 0
168 191 0
168 191 0
160 184 0
165 188 0
167 191 0
166 190 0
170 194 0
168 192 0
166 191 0
168 191 0
170 193 0
169 192 0
168 192 0
168 192 0
168 192 0
166 189 0
169 193 0
167 190 0
168 190 0
170 193 0
166 189 0
169 192 0
166 189 0
163 187 0
163 186 0
168 191 0
165 188 0
159 182 0
163 186 0
166 189 0
167 191 0
169 192 0
167 190 0
160 183 0
170 193 0
162 184 0
168 191 0
167 190 0
164 187 0
161 184 0
159 181 0
165 187 0
160 184 0
161 184 0
159 182 0
169 192 0
160 183 0
164 188 0
167 190 0
166 189 0
161 183 0
160 183 0
163 186 0
160 183 0
161 184 0
155 180 0
167 190 0
156 180 0
160 182 0
154 176 0
160 183 0
152 175 0
154 177 0
159 181 0
161 184 0
154 177 0
154 176 0
154 177 0
159 182 0
160 182 0
159 181 0
157 180 0
157 179 0
153 175 0
155 178 0
156 179 0
150 172 0
156 178 0
152 174 0
151 173 0
152 175 0
150 172 0
148 170 0
147 169 0
146 168 0
152 175 0
142 164 0
147 168 0
139 160 0
152 174 0
146 168 0
141 161 0
145 165 0
136 157 0
135 156 0
139 160 0
130 150 0
143 164 0
133 153 0
132 152 0
138 158 0
124 146 0
136 157 25
124 145 44
102 125 67
74 100 80
56 88 111
55 87 103
57 91 122
55 87 107
56 88 105
56 90 108
58 91 113
59 93 115
58 92 114
56 89 113
57 90 117
58 92 121
57 90 107
59 93 129
58 91 121
59 92 123
59 92 128
57 90 117
57 89 116
59 93 126
59 92 120
58 90 122
58 91 124
58 91 123
58 90 120
57 89 113
57 90 110
57 90 127
58 90 121
58 92 132
57 89 123
57 90 121
58 91 125
57 89 116
57 89 119
57 89 121
57 89 122
58 92 123
57 89 119
57 89 120
57 88 110
57 89 119
58 90 118
57 88 117
56 87 112
56 88 113
55 85 109
54 84 103
55 84 106
56 87 115
55 84 103
57 89 122
55 83 103
54 83 105
56 85 109
54 81 94
53 81 95
52 78 74
51 78 94
54 81 105
56 78 88
55 79 83
58 83 100
73 91 77
67 87 93
65 79 70
61 79 77
68 83 76
74 86 67
87 96 61
93 102 72
101 106 69
94 99 64
105 109 78
108 111 69
110 111 71
107 110 71
112 114 65
124 123 75
135 132 75
119 117 72
147 142 82
147 141 81
156 148 88
153 147 87
154 148 86
164 156 91
167 159 93
163 156 92
169 161 92
169 160 96
161 155 91
173 164 101
177 167 102
182 172 105
183 173 106
183 174 108
184 175 108
187 177 112
188 178 113
188 177 113
187 177 114
185 176 114
184 176 114
185 176 114
184 176 114
184 176 114
182 175 114
182 175 114
179 173 114
181 174 114
179 174 114
177 173 114
178 173 114
177 172 114
178 173 114
177 172 114
176 172 114
175 171 114
177 172 114
176 172 114
175 171 114
173 171 114
174 171 114
174 171 114
173 171 114
174 171 114
172 170 114
173 170 114
170 169 114
172 170 114
170 169 114
171 170 114
170 169 114
170 169 114
171 170 114
171 170 114
170 169 114
169 169 114
171 170 114
170 169 114
170 169 114
170 169 114
170 169 114
170 169 114
171 170 114
169 169 114
171 170 114
171 169 114
171 170 114
170 169 114
169 169 114
171 170 114
172 170 114
171 170 114
172 170 114
172 170 114
172 170 114
172 170 114
173 170 114
173 170 114
173 171 114
174 171 114
175 171 114
174 171 114
176 172 114
175 172 114
176 172 114
177 173 114
177 172 114
178 173 114
178 173 114
178 173 114
179 173 114
181 174 114
182 175 114
180 174 114
181 174 114
182 175 114
183 175 114
184 176 114
183 175 114
184 176 113
185 176 113
186 176 111
185 175 109
184 174 108
184 175 109
183 174 103
182 173 103
184 174 102
185 174 103
181 172 98
183 174 101
181 173 93
179 173 92
177 171 90
177 171 84
178 174 86
175 173 80
176 173 79
173 176 68
177 179 67
174 176 70
177 179 72
171 178 58
174 178 66
175 179 63
172 179 57
172 181 49
174 185 52
172 186 41
172 182 49
175 185 47
171 184 42
172 184 45
168 184 30
167 182 39
172 188 30
168 186 25
172 192 19
170 191 11
168 189 16
169 191 11
169 190 0
169 191 0
173 195 0
167 190 0
169 191 0
171 193 0
169 192 0
170 193 0
171 194 0
171 194 0
171 194 0
172 195 0
171 193 0
173 197 0
170 194 0
170 194 0
170 193 0
173 195 0
171 195 0
169 193 0
173 197 0
172 195 0
174 197 0
174 198 0
170 194 0
174 197 0
171 195 0
170 194 0
173 197 0
172 196 0
170 194 0
170 193 0
172 194 0
171 194 0
171 195 0
171 195 0
169 193 0
171 195 0
172 195 0
169 193 0
172 195 0
174 197 0
170 193 0
170 193 0
171 195 0
172 195 0
171 194 0
166 190 0
170 193 0
171 195 0
170 193 0
172 195 0
170 194 0
173 197 0
168 191 0
171 194 0
170 194 0
169 192 0
170 193 0
168 192 0
168 193 0
172 195 0
165 188 0
172 195 0
167 190 0
170 193 0
174 197 0
169 192 0
170 194 0
169 192 0
167 191 0
168 191 0
172 195 0
168 192 0
170 193 0
169 193 0
169 193 0
164 186 0
167 190 0
168 192 0
171 194 0
172 195 0
170 194 0
169 193 0
168 192 0
167 189 0
164 189 0
166 189 0
166 189 0
164 188 0
167 191 0
168 192 0
162 186 0
172 195 0
167 191 0
170 193 0
165 188 0
162 185 0
162 186 0
163 186 0
165 188 0
165 188 0
163 187 0
167 191 0
165 188 0
165 188 0
162 186 0
165 188 0
161 183 0
158 182 0
165 188 0
164 186 0
165 187 0
166 189 0
158 180 0
167 191 0
163 186 0
162 184 0
161 184 0
165 188 0
159 183 0
160 183 0
161 185 0
161 185 0
165 188 0
155 179 0
159 182 0
160 183 0
152 174 0
160 182 0
165 188 0
157 180 0
156 179 0
156 179 0
158 180 0
154 177 0
159 181 0
156 179 0
149 171 0
154 177 0
155 177 0
156 179 0
153 176 0
156 178 0
150 174 0
152 174 0
147 168 0
154 176 0
151 173 0
145 168 0
147 168 0
147 169 0
143 164 0
146 167 0
141 163 0
149 171 0
146 168 0
141 163 0
141 162 0
145 166 0
141 162 0
148 170 0
148 170 0
134 154 0
147 168 0
142 164 0
144 165 0
133 154 0
131 152 0
132 153 0
124 144 0
128 148 0
131 150 0
126 146 40
116 137 44
115 137 70
80 104 80
58 91 103
55 87 105
56 89 103
55 87 107
55 88 102
56 89 107
58 91 118
55 87 102
55 88 108
57 91 113
59 93 122
56 89 111
58 92 114
58 91 117
57 90 115
58 91 121
59 92 121
59 92 121
58 92 129
58 92 124
57 90 116
58 92 120
57 90 108
58 90 125
57 89 110
56 88 113
59 92 129
58 91 122
58 89 117
57 89 119
59 91 129
57 88 110
56 87 108
57 89 113
58 90 122
55 87 105
57 88 118
57 87 111
58 89 123
56 87 108
57 89 116
57 88 123
57 88 113
56 86 118
57 87 112
56 87 116
54 82 107
54 84 102
56 86 112
55 82 107
56 86 119
54 83 102
54 82 97
55 84 96
56 86 115
56 85 112
55 83 117
54 81 103
55 81 93
53 78 87
54 77 77
64 82 80
70 89 82
65 85 85
61 80 70
74 86 73
78 92 74
84 94 70
79 90 66
82 93 71
97 104 66
103 106 77
111 112 60
111 111 61
110 111 61
118 118 69
117 117 66
137 133 79
141 137 82
127 124 67
134 130 70
145 141 86
142 138 75
157 151 88
165 157 93
161 154 92
158 152 90
164 156 93
168 161 96
173 164 99
171 163 95
179 169 102
180 170 105
176 168 100
184 174 107
184 174 106
186 176 109
187 177 112
186 176 112
188 177 113
186 177 114
186 177 114
185 176 114
185 176 114
182 175 114
182 175 114
182 175 114
182 175 114
182 175 114
180 174 114
179 174 114
179 173 114
178 173 114
179 173 114
177 173 114
177 172 114
177 172 114
176 172 114
176 172 114
177 172 114
175 171 114
176 172 114
174 171 114
174 171 114
173 171 114
173 171 114
172 170 114
174 171 114
172 170 114
172 170 114
171 170 114
172 170 114
171 170 114
171 170 114
171 170 114
171 170 114
171 170 114
171 170 114
171 170 114
171 169 114
171 170 114
171 170 114
170 169 114
171 170 114
170 169 114
172 170 114
170 169 114
171 169 114
171 170 114
171 170 114
171 170 114
172 170 114
172 170 114
172 170 114
173 171 114
172 170 114
173 171 114
173 171 114
175 171 114
172 170 114
174 171 114
174 171 114
175 171 114
175 171 114
175 172 114
175 172 114
177 173 114
177 172 114
178 173 114
177 173 114
178 173 114
179 173 114
180 174 114
180 174 114
181 174 114
180 174 114
182 175 114
184 176 114
183 175 114
186 176 114
183 175 114
186 176 114
185 176 113
184 175 111
185 175 110
185 175 106
185 175 108
184 174 106
184 174 104
182 173 102
183 173 100
178 170 93
181 172 93
180 173 93
181 176 92
177 172 84
176 172 83
179 175 82
178 175 84
178 176 81
174 175 73
177 177 76
179 178 82
176 178 68
174 177 67
173 175 69
173 179 58
169 175 56
170 182 45
174 182 53
172 185 39
172 185 47
171 182 49
171 184 39
171 184 36
171 185 36
171 184 44
172 185 37
169 188 25
172 190 19
169 188 19
169 189 11
169 190 0
167 188 0
172 192 0
169 191 0
171 192 0
170 193 0
169 190 0
172 193 0
171 193 0
172 194 0
174 196 0
171 193 0
171 194 0
170 193 0
171 194 0
170 193 0
173 196 0
170 193 0
170 192 0
172 196 0
172 195 0
168 192 0
171 195 0
172 196 0
173 196 0
170 194 0
170 194 0
170 193 0
169 194 0
170 193 0
173 197 0
171 195 0
172 196 0
171 195 0
174 197 0
167 191 0
170 193 0
170 194 0
171 195 0
173 196 0
170 194 0
169 193 0
174 196 0
171 195 0
169 194 0
175 198 0
172 195 0
171 194 0
171 194 0
170 194 0
168 192 0
172 195 0
171 195 0
169 194 0
171 194 0
170 193 0
169 193 0
172 196 0
174 197 0
170 193 0
170 194 0
169 192 0
170 194 0
169 193 0
170 194 0
169 193 0
169 192 0
168 190 0
170 194 0
170 194 0
172 194 0
169 192 0
171 194 0
169 191 0
169 192 0
167 191 0
170 193 0
168 191 0
168 191 0
167 190 0
167 190 0
168 192 0
169 192 0
170 194 0
165 189 0
167 191 0
168 191 0
168 191 0
169 192 0
167 190 0
170 193 0
164 187 0
172 194 0
169 193 0
164 187 0
169 192 0
167 190 0
167 191 0
168 191 0
162 186 0
161 185 0
166 190 0
165 188 0
167 191 0
166 188 0
168 191 0
163 186 0
164 188 0
161 184 0
162 185 0
162 186 0
165 187 0
166 190 0
163 187 0
160 183 0
163 186 0
159 182 0
160 184 0
163 185 0
165 188 0
162 185 0
164 185 0
164 187 0
162 185 0
162 185 0
160 183 0
159 183 0
162 184 0
153 177 0
155 178 0
163 185 0
149 173 0
152 175 0
155 177 0
150 172 0
163 185 0
153 176 0
153 176 0
156 178 0
155 177 0
160 182 0
155 177 0
152 174 0
151 174 0
152 174 0
158 180 0
153 176 0
152 175 0
152 174 0
154 176 0
149 171 0
151 173 0
152 175 0
150 171 0
154 175 0
145 167 0
150 172 0
147 168 0
139 162 0
134 154 0
157 179 0
150 171 0
141 163 0
135 157 0
146 167 0
136 156 0
134 154 0
140 161 0
146 167 0
139 159 0
132 152 0
124 144 0
136 156 0
137 157 0
124 143 0
127 147 18
119 140 44
110 132 65
73 100 82
59 91 100
57 90 113
56 88 108
55 87 107
55 87 99
55 87 94
59 92 120
57 89 103
57 91 115
58 91 113
58 91 115
57 90 113
57 90 110
59 92 120
58 91 117
58 91 116
59 93 121
59 92 119
59 93 126
58 92 125
56 88 115
57 89 113
58 91 115
58 91 117
59 91 120
57 89 116
59 93 123
56 88 119
57 88 115
56 88 112
58 90 123
58 90 124
58 90 116
56 87 108
57 89 115
57 90 116
57 88 116
57 90 118
55 86 110
57 88 125
58 89 111
54 83 103
57 88 123
57 88 110
54 81 103
57 88 111
54 82 100
55 85 111
55 84 104
53 83 91
54 83 94
53 80 85
53 81 95
54 83 106
52 77 90
51 79 95
54 83 99
54 79 92
52 77 80
63 83 83
61 80 73
58 76 70
64 82 70
70 86 75
77 91 75
76 88 68
82 93 64
88 96 56
92 100 71
94 100 72
102 106 63
104 108 65
115 116 69
123 122 71
123 122 72
129 127 73
127 124 73
125 123 71
136 132 71
141 136 71
143 138 78
148 143 82
153 147 84
147 142 80
160 153 85
166 158 95
159 153 91
166 159 92
170 162 91
173 164 96
184 174 103
176 168 98
184 173 106
180 171 100
183 173 106
186 176 109
188 178 112
185 175 109
187 177 112
186 177 114
186 177 114
186 177 114
184 176 114
184 176 114
183 175 114
184 176 114
182 175 114
182 175 114
182 175 114
181 174 114
181 174 114
178 173 114
179 173 114
178 173 114
178 173 114
178 173 114
176 172 114
179 173 114
176 172 114
173 171 114
175 171 114
174 171 114
176 172 114
175 171 114
174 171 114
173 171 114
173 171 114
174 171 114
173 171 114
173 170 114
172 170 114
172 170 114
171 170 114
172 170 114
172 170 114
172 170 114
171 170 114
172 170 114
172 170 114
171 169 114
171 170 114
171 169 114
172 170 114
171 170 114
171 170 114
170 169 114
172 170 114
171 170 114
172 170 114
172 170 114
172 170 114
172 170 114
172 170 114
173 170 114
173 171 114
173 171 114
172 170 114
174 171 114
175 172 114
174 171 114
174 171 114
175 172 114
175 172 114
177 172 114
177 173 114
176 172 114
177 172 114
178 173 114
179 173 114
179 174 114
180 174 114
180 174 114
180 174 114
181 174 114
183 175 114
183 175 114
183 175 114
185 176 114
184 176 114
187 177 114
185 176 113
186 177 113
183 175 109
184 175 109
181 173 103
182 173 103
183 174 104
183 173 101
182 172 99
183 173 98
183 173 98
184 174 100
177 169 89
178 173 90
182 175 93
178 172 85
179 175 83
176 173 81
174 175 71
181 178 87
178 179 73
179 178 76
175 174 75
177 178 76
176 180 67
175 178 65
175 178 66
171 180 54
176 184 59
173 183 51
173 184 47
169 184 34
171 183 34
172 184 42
173 188 37
169 182 25
170 189 11
170 187 28
167 184 19
171 189 22
167 188 11
172 192 0
171 194 0
166 188 0
170 191 0
170 192 0
172 195 0
170 192 0
168 191 0
172 193 0
170 193 0
170 192 0
170 193 0
169 191 0
170 192 0
169 191 0
171 194 0
171 194 0
173 195 0
170 193 0
173 197 0
169 192 0
174 198 0
172 195 0
173 196 0
174 196 0
173 196 0
170 193 0
174 197 0
173 197 0
170 194 0
169 192 0
173 196 0
171 194 0
169 193 0
172 195 0
171 195 0
169 193 0
172 196 0
171 195 0
171 195 0
169 193 0
172 196 0
173 197 0
169 193 0
170 193 0
172 196 0
170 193 0
170 195 0
170 194 0
170 194 0
169 193 0
166 190 0
170 193 0
174 197 0
172 195 0
168 192 0
168 191 0
174 197 0
170 194 0
167 191 0
170 193 0
167 191 0
171 194 0
169 193 0
172 195 0
173 196 0
170 194 0
168 192 0
167 191 0
171 194 0
167 191 0
167 190 0
169 193 0
167 191 0
169 192 0
165 189 0
171 195 0
168 191 0
165 189 0
172 195 0
171 194 0
166 190 0
173 195 0
164 186 0
167 190 0
168 190 0
164 188 0
166 189 0
167 190 0
167 191 0
165 188 0
162 186 0
163 186 0
164 187 0
165 188 0
168 190 0
170 193 0
156 179 0
165 187 0
170 193 0
170 193 0
165 188 0
165 189 0
166 189 0
162 186 0
166 189 0
168 192 0
164 188 0
164 187 0
165 188 0
164 188 0
160 185 0
164 187 0
163 186 0
163 186 0
157 180 0
166 189 0
167 190 0
163 186 0
159 181 0
160 183 0
159 182 0
165 188 0
159 182 0
162 184 0
160 183 0
164 188 0
158 182 0
158 180 0
159 181 0
161 184 0
156 179 0
147 169 0
155 178 0
159 182 0
155 177 0
154 177 0
158 181 0
156 180 0
152 174 0
158 181 0
148 170 0
154 176 0
157 180 0
154 177 0
150 173 0
148 171 0
144 166 0
157 179 0
158 181 0
153 175 0
145 168 0
141 164 0
149 171 0
151 173 0
153 174 0
141 163 0
148 169 0
143 165 0
142 163 0
142 163 0
139 159 0
133 153 0
144 165 0
138 158 0
149 171 0
144 165 0
143 164 0
134 155 0
126 147 0
135 156 0
137 158 0
136 155 0
134 155 0
124 144 0
127 147 0
122 142 31
116 137 47
115 136 62
83 107 78
59 88 82
53 85 99
58 91 120
57 90 111
54 85 95
57 90 117
57 90 120
57 89 102
56 88 99
56 89 107
59 92 122
57 91 113
58 92 120
57 90 113
56 89 102
57 90 116
55 87 99
57 90 108
57 91 107
58 90 122
57 90 112
58 91 121
58 91 124
57 89 113
56 88 109
55 86 111
59 92 121
58 91 120
57 89 118
55 87 110
57 89 113
58 90 113
57 89 120
54 86 103
55 85 102
56 86 99
57 87 112
57 88 117
54 84 101
57 89 110
58 90 117
53 82 97
56 86 110
56 87 115
56 87 110
56 86 108
54 83 97
55 84 101
55 85 108
55 84 97
55 84 109
54 82 106
52 77 84
54 82 93
52 79 98
52 77 86
54 80 84
61 81 77
53 75 73
64 82 75
66 84 81
64 83 81
71 86 72
67 82 68
85 95 68
76 88 61
78 87 49
79 89 63
98 104 70
104 107 65
113 115 56
120 121 60
113 114 67
124 123 70
114 113 58
123 121 68
126 125 65
136 132 66
147 142 78
145 142 72
152 146 78
156 150 83
152 147 83
169 161 94
155 149 81
170 162 89
170 162 90
178 169 98
175 166 93
174 165 95
179 170 98
184 173 103
185 175 108
186 176 106
186 176 109
186 176 110
185 175 108
188 177 111
187 177 113
187 177 114
186 176 114
184 176 114
186 176 114
185 176 114
184 176 114
183 175 114
182 175 114
180 174 114
181 174 114
180 174 114
179 174 114
179 173 114
178 173 114
178 173 114
179 173 114
179 173 114
176 172 114
178 173 114
177 172 114
176 172 114
173 171 114
175 171 114
174 171 114
175 171 114
174 171 114
174 171 114
171 170 114
174 171 114
174 171 114
172 170 114
173 170 114
173 171 114
171 170 114
173 170 114
172 170 114
172 170 114
172 170 114
171 170 114
172 170 114
171 170 114
171 170 114
172 170 114
171 170 114
171 170 114
173 171 114
172 170 114
172 170 114
173 171 114
173 170 114
172 170 114
173 171 114
174 171 114
174 171 114
173 171 114
173 171 114
174 171 114
174 171 114
175 171 114
176 172 114
174 171 114
175 172 114
176 172 114
176 172 114
176 172 114
178 173 114
178 173 114
179 173 114
179 174 114
180 174 114
179 174 114
180 174 114
182 175 114
182 175 114
182 175 114
183 175 114
184 176 114
183 175 114
185 176 114
185 176 113
185 176 112
187 177 113
185 175 110
186 176 109
186 176 108
184 175 106
186 175 106
182 173 103
183 173 102
180 171 97
179 171 95
182 173 99
181 172 96
182 173 95
181 174 92
178 172 84
179 174 84
177 174 80
175 172 78
182 179 87
177 178 75
175 177 71
177 180 69
177 178 71
174 178 64
175 180 65
172 179 54
171 180 52
169 182 47
170 179 52
170 183 41
173 185 45
171 186 39
171 184 44
168 186 25
169 184 32
172 188 32
170 187 28
167 185 22
168 188 11
169 189 0
169 189 0
168 190 0
169 190 0
170 193 0
171 194 0
169 192 0
171 192 0
169 192 0
171 193 0
174 196 0
169 191 0
172 194 0
173 195 0
171 192 0
170 192 0
170 192 0
171 194 0
172 194 0
174 197 0
171 195 0
173 197 0
172 196 0
171 195 0
172 196 0
172 195 0
172 195 0
170 193 0
172 195 0
172 196 0
168 191 0
171 195 0
172 195 0
174 197 0
171 195 0
172 196 0
171 194 0
174 197 0
171 195 0
174 197 0
170 194 0
170 194 0
172 195 0
171 195 0
172 195 0
169 193 0
171 195 0
168 193 0
169 192 0
170 193 0
168 191 0
167 191 0
170 194 0
170 193 0
168 192 0
172 195 0
172 196 0
169 193 0
168 191 0
171 195 0
169 193 0
170 193 0
172 195 0
171 194 0
169 194 0
170 194 0
170 193 0
168 192 0
170 193 0
163 187 0
164 187 0
171 194 0
167 191 0
164 188 0
165 188 0
169 193 0
168 192 0
167 190 0
164 188 0
169 192 0
168 191 0
170 193 0
169 191 0
167 190 0
167 189 0
170 194 0
167 190 0
170 193 0
168 191 0
171 194 0
171 195 0
166 191 0
165 188 0
166 190 0
166 190 0
167 191 0
166 190 0
167 191 0
168 191 0
166 189 0
168 191 0
162 186 0
163 186 0
166 189 0
167 190 0
168 191 0
162 185 0
166 190 0
166 188 0
165 189 0
161 184 0
153 177 0
168 191 0
158 181 0
165 188 0
162 186 0
162 184 0
160 184 0
163 186 0
163 186 0
156 178 0
164 187 0
166 189 0
162 185 0
156 180 0
157 180 0
157 180 0
155 178 0
158 180 0
158 181 0
158 181 0
155 178 0
157 180 0
155 178 0
155 179 0
160 182 0
158 181 0
157 180 0
149 171 0
152 174 0
151 174 0
159 181 0
156 178 0
158 181 0
156 179 0
155 177 0
157 179 0
153 175 0
155 177 0
142 165 0
153 175 0
145 168 0
140 162 0
152 175 0
149 172 0
152 174 0
148 170 0
149 169 0
142 163 0
139 161 0
149 172 0
142 165 0
134 156 0
141 162 0
134 155 0
142 163 0
125 146 0
138 158 0
131 153 0
129 148 0
141 162 0
127 146 0
132 153 0
143 163 0
131 150 0
131 151 0
122 141 0
129 148 0
121 143 0
123 143 36
111 131 47
86 108 76
59 90 97
57 90 111
55 88 110
55 88 107
56 89 110
57 89 113
57 90 111
58 91 116
56 89 105
56 88 100
57 89 108
57 89 117
56 88 103
58 91 119
56 88 108
57 89 111
56 88 110
57 90 118
56 89 112
58 90 116
57 89 107
56 88 96
58 90 117
56 87 108
56 87 105
58 91 121
58 90 117
58 91 118
57 90 115
55 87 110
57 88 118
56 88 112
56 87 113
54 84 94
55 86 104
55 87 103
57 88 112
57 88 111
56 87 111
57 87 114
55 86 100
56 87 108
55 85 108
55 85 106
53 81 99
53 81 105
56 86 110
54 82 98
52 79 96
51 77 83
53 80 93
51 78 89
52 78 80
52 78 90
54 78 81
59 81 85
57 80 81
56 80 93
57 78 72
74 89 71
70 87 81
71 86 77
70 87 86
82 92 56
70 82 55
81 90 66
101 106 70
91 96 53
102 107 62
106 109 62
113 115 55
111 113 49
118 119 63
131 128 66
133 130 65
136 133 69
142 137 71
146 142 70
151 145 76
153 146 85
156 150 80
153 148 82
160 153 87
166 158 87
165 158 84
165 158 90
171 162 91
179 170 97
175 167 93
181 172 100
181 172 99
180 171 98
184 174 105
182 173 102
186 176 108
187 176 110
188 177 112
187 177 113
187 177 113
186 176 114
186 177 114
185 176 114
185 176 114
183 175 114
182 175 114
184 176 114
182 175 114
182 175 114
182 175 114
181 174 114
179 173 114
179 174 114
180 174 114
179 173 114
177 173 114
179 173 114
177 173 114
177 172 114
178 173 114
177 173 114
177 172 114
175 171 114
176 172 114
175 171 114
174 171 114
174 171 114
173 171 114
173 171 114
174 171 114
174 171 114
173 170 114
174 171 114
173 171 114
172 170 114
172 170 114
172 170 114
173 170 114
172 170 114
172 170 114
172 170 114
173 170 114
172 170 114
174 171 114
172 170 114
173 170 114
172 170 114
173 171 114
172 170 114
173 171 114
174 171 114
173 171 114
174 171 114
174 171 114
175 171 114
173 170 114
175 171 114
175 172 114
175 172 114
174 171 114
175 172 114
178 173 114
177 172 114
178 173 114
178 173 114
179 173 114
178 173 114
178 173 114
180 174 114
179 173 114
182 175 114
181 174 114
182 175 114
185 176 114
185 176 114
184 176 114
184 176 114
185 176 114
184 176 114
187 177 112
186 176 112
186 176 110
182 174 106
183 174 106
183 174 104
184 174 104
182 173 101
181 172 97
181 172 97
180 172 95
180 172 93
179 171 92
180 171 93
179 173 88
179 174 88
176 173 77
176 173 83
176 171 79
174 171 73
174 174 69
177 178 75
172 178 59
174 176 65
175 180 60
175 179 62
171 181 51
175 181 59
177 181 61
171 184 39
171 181 44
167 183 30
167 179 39
170 185 34
169 184 36
171 184 41
169 183 30
167 184 19
167 185 11
167 186 16
169 189 0
170 190 0
173 193 0
167 188 0
169 190 0
170 193 0
169 192 0
168 190 0
173 195 0
169 192 0
170 192 0
172 194 0
171 193 0
172 193 0
171 193 0
170 193 0
169 193 0
173 195 0
173 196 0
173 197 0
172 196 0
173 197 0
169 192 0
171 195 0
170 194 0
171 195 0
169 192 0
172 195 0
171 194 0
170 195 0
173 196 0
170 194 0
170 193 0
170 195 0
169 193 0
173 196 0
170 195 0
174 197 0
172 195 0
170 194 0
172 196 0
172 196 0
170 194 0
164 189 0
170 194 0
168 192 0
172 196 0
168 191 0
170 194 0
170 194 0
172 195 0
172 195 0
168 191 0
170 194 0
172 196 0
169 194 0
170 194 0
168 192 0
170 193 0
169 192 0
170 193 0
170 193 0
172 195 0
169 193 0
166 190 0
171 194 0
167 191 0
171 195 0
169 192 0
169 192 0
165 189 0
169 193 0
170 193 0
169 193 0
168 192 0
172 195 0
168 192 0
169 193 0
172 195 0
170 193 0
167 190 0
165 188 0
168 192 0
166 190 0
169 193 0
164 187 0
159 182 0
167 191 0
166 190 0
165 188 0
168 191 0
169 193 0
167 191 0
165 188 0
168 190 0
160 183 0
164 187 0
172 196 0
157 179 0
165 189 0
166 190 0
169 192 0
163 187 0
167 190 0
167 191 0
166 189 0
163 187 0
161 185 0
165 188 0
166 190 0
161 184 0
164 187 0
165 188 0
169 192 0
165 187 0
163 185 0
164 187 0
162 186 0
157 180 0
160 183 0
162 185 0
164 187 0
157 180 0
163 187 0
155 178 0
160 183 0
159 182 0
158 182 0
164 188 0
158 180 0
160 184 0
154 176 0
152 176 0
158 181 0
163 187 0
156 179 0
157 180 0
152 175 0
158 181 0
158 181 0
150 172 0
154 177 0
154 176 0
157 179 0
160 183 0
144 166 0
154 175 0
156 178 0
158 180 0
152 175 0
153 176 0
152 174 0
149 171 0
143 165 0
150 173 0
152 173 0
142 165 0
146 166 0
147 169 0
141 163 0
139 160 0
143 165 0
143 164 0
141 161 0
140 161 0
147 167 0
133 154 0
127 147 0
126 147 0
133 153 0
136 157 0
131 152 0
139 160 0
126 147 0
132 153 0
134 154 0
127 147 0
114 134 0
131 151 0
128 147 0
110 129 36
113 134 51
95 118 62
76 101 78
58 89 107
56 89 111
55 87 102
56 88 108
56 89 107
54 86 108
55 88 103
58 91 110
57 90 110
57 90 116
58 91 115
55 87 103
57 90 103
55 86 105
55 87 111
57 89 115
56 89 101
58 90 112
57 89 113
57 90 120
57 89 103
58 91 111
57 88 118
56 88 113
59 91 124
57 89 117
56 88 108
57 89 105
55 87 103
56 87 109
56 88 104
56 88 113
55 85 111
57 89 116
57 88 111
55 87 113
54 84 105
55 85 100
56 87 106
54 83 96
52 80 87
53 81 100
53 82 95
54 82 100
54 82 86
55 86 102
54 83 99
53 82 92
53 82 102
52 79 99
52 79 95
51 77 88
51 76 81
55 80 95
59 83 95
57 79 66
60 82 91
63 80 59
71 84 53
66 84 74
63 81 67
69 84 64
87 96 52
89 97 61
92 99 57
107 110 59
111 113 58
106 107 51
116 117 60
117 117 71
121 121 64
122 121 61
135 132 60
147 143 65
150 145 74
151 147 75
149 143 78
156 150 80
161 154 81
155 149 80
162 155 87
166 159 89
170 162 92
172 164 90
177 169 95
177 168 95
178 169 96
183 173 100
180 170 100
186 176 106
185 175 105
186 176 108
185 175 109
186 176 108
185 175 108
185 175 110
187 177 113
186 177 114
186 177 114
186 177 114
184 176 114
184 176 114
183 175 114
182 175 114
182 175 114
184 175 114
182 175 114
180 174 114
180 174 114
181 174 114
179 173 114
179 174 114
177 172 114
178 173 114
178 173 114
176 172 114
175 172 114
176 172 114
177 172 114
177 172 114
174 171 114
175 172 114
176 172 114
175 172 114
175 171 114
173 171 114
175 171 114
174 171 114
174 171 114
173 171 114
173 171 114
174 171 114
173 171 114
174 171 114
172 170 114
172 170 114
173 171 114
172 170 114
173 171 114
173 171 114
174 171 114
172 170 114
175 171 114
173 171 114
172 170 114
172 170 114
173 171 114
173 170 114
176 172 114
174 171 114
175 171 114
176 172 114
175 171 114
176 172 114
176 172 114
176 172 114
176 172 114
177 172 114
177 173 114
178 173 114
178 173 114
178 173 114
178 173 114
179 174 114
179 173 114
180 174 114
181 174 114
180 174 114
181 175 114
182 175 114
183 175 114
182 175 114
185 176 114
184 176 114
185 176 113
186 177 114
187 177 113
186 176 111
185 175 108
184 174 106
184 175 106
184 175 106
184 175 105
185 174 102
185 175 103
181 171 99
177 168 87
182 173 100
178 169 90
178 172 86
176 170 84
177 172 80
178 173 86
176 172 77
179 176 83
174 174 69
178 177 78
179 176 80
172 172 67
178 180 75
175 177 68
177 178 70
174 181 60
172 179 60
174 183 52
172 181 51
172 179 53
169 180 47
168 184 28
170 183 36
171 188 34
172 188 36
169 185 16
169 186 19
170 189 19
170 189 11
167 187 0
167 189 0
169 188 0
171 192 0
169 192 0
172 194 0
171 194 0
170 192 0
171 193 0
170 192 0
169 192 0
171 193 0
169 191 0
170 193 0
170 193 0
172 195 0
168 191 0
171 194 0
169 192 0
173 196 0
172 195 0
173 196 0
171 194 0
173 196 0
173 197 0
173 196 0
170 194 0
173 197 0
173 196 0
172 197 0
174 197 0
168 192 0
171 195 0
172 195 0
170 194 0
168 192 0
170 193 0
168 192 0
174 197 0
172 196 0
170 194 0
171 194 0
173 196 0
172 196 0
174 197 0
168 192 0
171 195 0
174 197 0
175 198 0
171 194 0
168 191 0
171 195 0
167 191 0
170 193 0
172 195 0
169 192 0
170 194 0
169 192 0
169 192 0
172 196 0
168 192 0
168 191 0
170 193 0
170 194 0
173 197 0
168 191 0
167 191 0
170 194 0
169 193 0
168 191 0
168 191 0
166 190 0
167 192 0
169 193 0
169 192 0
171 194 0
167 191 0
168 191 0
171 193 0
172 195 0
170 194 0
166 189 0
166 189 0
167 191 0
169 193 0
165 188 0
166 189 0
166 189 0
170 193 0
169 192 0
170 193 0
164 188 0
166 190 0
165 189 0
162 185 0
167 190 0
165 188 0
167 191 0
165 188 0
165 189 0
165 188 0
166 189 0
159 182 0
164 186 0
167 190 0
166 189 0
167 191 0
167 190 0
166 190 0
168 192 0
159 182 0
164 188 0
162 185 0
163 185 0
165 188 0
157 180 0
156 179 0
158 181 0
162 185 0
160 183 0
165 187 0
162 184 0
164 187 0
158 181 0
160 183 0
162 186 0
152 175 0
159 182 0
159 182 0
161 184 0
153 177 0
163 187 0
159 181 0
159 182 0
156 178 0
160 182 0
161 183 0
155 177 0
158 182 0
154 176 0
153 175 0
152 175 0
151 174 0
153 176 0
157 179 0
148 170 0
151 174 0
153 175 0
139 161 0
146 167 0
144 166 0
154 175 0
153 175 0
150 172 0
150 172 0
147 169 0
147 169 0
140 162 0
144 165 0
138 159 0
145 167 0
149 171 0
127 148 0
145 166 0
133 155 0
134 155 0
129 150 0
140 161 0
141 161 0
133 153 0
139 160 0
140 161 0
144 166 0
145 165 0
121 141 0
134 154 0
123 143 0
127 146 0
130 149 0
114 133 0
106 124 0
123 141 18
117 137 44
114 134 57
77 102 84
61 91 100
53 84 88
54 85 97
56 88 108
56 88 105
55 88 102
55 87 104
56 89 113
59 92 117
56 89 99
56 88 110
56 89 99
57 89 104
56 87 97
56 89 110
56 88 110
55 86 104
57 89 109
57 90 110
55 86 105
56 87 108
57 89 110
56 88 100
56 88 111
55 86 105
56 88 106
57 89 112
55 87 103
57 89 120
56 87 109
57 90 115
55 86 105
54 84 102
56 85 115
57 89 124
54 83 98
56 86 102
55 85 108
56 86 102
54 83 95
54 85 105
54 84 90
54 83 89
54 84 102
55 83 100
50 77 88
52 80 87
53 81 95
53 80 89
51 78 90
52 78 71
54 79 89
58 83 96
58 78 75
57 77 73
64 82 67
68 83 64
74 89 64
76 89 61
76 90 70
66 82 62
95 101 47
93 100 62
99 105 64
101 105 58
102 105 49
114 115 50
113 114 56
111 114 58
129 127 68
133 133 56
135 132 64
132 130 64
142 140 65
149 144 73
157 150 75
148 143 76
160 152 85
162 154 84
165 158 87
160 154 81
176 167 88
164 157 85
174 165 91
173 165 92
175 167 91
179 170 96
182 173 99
185 175 104
185 174 102
185 175 104
186 175 106
185 175 108
185 175 109
185 176 109
186 176 113
186 176 112
186 176 112
185 176 114
187 177 114
184 176 114
185 176 114
183 175 114
183 175 114
182 175 114
182 175 114
182 175 114
180 174 114
181 174 114
179 174 114
179 173 114
180 174 114
178 173 114
180 174 114
177 172 114
177 172 114
177 173 114
176 172 114
178 173 114
175 172 114
177 173 114
176 172 114
176 172 114
174 171 114
174 171 114
174 171 114
174 171 114
176 172 114
174 171 114
176 172 114
173 171 114
174 171 114
174 171 114
174 171 114
174 171 114
174 171 114
174 171 114
172 170 114
173 171 114
172 170 114
173 171 114
175 172 114
173 171 114
176 172 114
173 171 114
174 171 114
175 172 114
175 172 114
175 171 114
175 171 114
175 172 114
176 172 114
176 172 114
177 173 114
176 172 114
176 172 114
176 172 114
178 173 114
179 173 114
178 173 114
178 173 114
179 173 114
180 174 114
179 173 114
181 174 114
182 175 114
182 175 114
183 175 114
182 175 114
184 176 114
184 175 114
183 175 114
187 177 114
186 177 114
186 176 113
185 176 111
186 176 110
185 175 108
187 176 108
184 175 105
183 173 103
184 174 104
185 175 105
182 173 98
184 174 100
180 172 97
181 171 93
182 172 92
181 172 92
178 172 86
176 171 81
178 172 82
178 174 84
175 172 76
177 174 78
176 173 69
173 175 69
174 176 63
175 178 66
172 178 57
171 175 57
173 178 60
169 177 48
171 181 45
169 181 45
169 181 39
169 182 39
169 182 37
172 189 30
173 185 39
173 188 34
167 183 25
166 184 19
170 187 28
169 187 19
167 187 11
168 188 0
170 192 0
170 193 0
168 188 0
170 191 0
170 193 0
170 192 0
170 192 0
171 194 0
172 194 0
173 196 0
171 193 0
172 194 0
169 192 0
171 193 0
172 194 0
170 193 0
171 192 0
170 193 0
174 197 0
169 193 0
174 197 0
174 196 0
171 195 0
171 194 0
171 194 0
170 193 0
171 195 0
168 192 0
169 192 0
172 195 0
167 191 0
173 197 0
172 195 0
169 192 0
169 192 0
172 195 0
173 196 0
168 192 0
174 197 0
171 195 0
171 194 0
173 197 0
169 192 0
172 196 0
172 194 0
168 192 0
168 191 0
174 196 0
172 195 0
171 195 0
168 192 0
168 192 0
169 192 0
167 191 0
171 195 0
170 193 0
170 194 0
173 197 0
168 192 0
170 194 0
167 190 0
166 190 0
171 195 0
170 193 0
169 193 0
166 190 0
169 192 0
171 194 0
168 191 0
170 193 0
170 193 0
166 190 0
169 192 0
167 191 0
162 185 0
171 194 0
170 194 0
166 190 0
165 188 0
165 189 0
169 193 0
170 193 0
169 192 0
169 193 0
165 188 0
168 191 0
168 191 0
162 185 0
169 192 0
165 189 0
165 189 0
167 191 0
169 192 0
161 185 0
170 193 0
166 190 0
163 188 0
168 191 0
168 191 0
166 188 0
167 190 0
161 185 0
163 186 0
159 182 0
167 190 0
156 179 0
162 185 0
162 185 0
168 192 0
166 189 0
162 185 0
161 184 0
164 188 0
163 186 0
162 187 0
163 187 0
160 182 0
160 184 0
165 188 0
164 188 0
159 183 0
155 179 0
157 180 0
161 184 0
165 188 0
161 184 0
159 182 0
162 185 0
163 187 0
159 181 0
165 188 0
155 177 0
158 180 0
161 183 0
156 178 0
161 185 0
158 181 0
149 171 0
158 181 0
150 173 0
157 180 0
158 180 0
153 175 0
146 168 0
152 174 0
156 178 0
151 173 0
150 172 0
149 171 0
137 158 0
155 176 0
140 163 0
149 170 0
150 171 0
157 179 0
144 164 0
149 172 0
139 161 0
142 164 0
150 171 0
131 153 0
135 157 0
141 161 0
137 158 0
134 154 0
131 152 0
142 163 0
129 151 0
134 154 0
138 157 0
136 156 0
127 147 0
126 147 0
126 146 0
124 144 0
119 137 0
138 157 0
126 146 0
140 159 0
123 141 0
114 134 25
114 133 40
112 131 57
85 108 65
59 86 80
55 87 100
53 83 82
56 88 99
55 87 94
57 89 108
56 88 97
55 87 105
56 89 103
56 88 97
55 87 88
57 90 114
56 88 102
54 86 98
56 87 98
54 86 89
56 87 100
54 85 99
57 89 117
56 88 103
57 90 112
57 89 114
56 88 109
57 89 119
55 86 105
57 88 108
56 87 101
56 88 115
55 85 103
56 87 117
54 84 106
52 81 93
56 87 108
54 85 96
52 80 103
53 82 91
53 82 89
55 85 103
55 83 92
53 82 99
53 81 92
52 79 93
53 81 100
51 78 78
53 83 95
50 77 82
52 78 86
52 79 94
52 79 76
52 78 85
62 83 82
55 76 68
54 78 76
62 80 70
58 77 67
75 88 48
66 85 71
75 88 51
75 87 52
73 85 49
92 100 53
96 103 51
105 109 51
100 104 45
111 112 47
116 116 52
121 121 54
132 130 65
135 135 60
133 132 56
146 144 66
139 135 67
141 137 67
146 142 67
145 141 67
153 147 79
149 144 73
158 152 81
155 150 78
169 161 86
167 159 83
167 160 81
173 166 85
176 167 91
176 168 87
180 171 97
181 171 95
183 173 99
184 174 100
187 176 107
185 175 105
187 176 107
184 174 106
188 177 111
186 176 110
187 176 110
186 177 113
187 177 113
186 177 114
184 176 113
185 176 114
184 176 114
184 176 114
183 175 114
182 175 114
182 175 114
182 175 114
182 175 114
181 174 114
179 174 114
181 174 114
181 174 114
179 174 114
179 173 114
178 173 114
179 173 114
178 173 114
179 173 114
176 172 114
176 172 114
176 172 114
175 172 114
174 171 114
175 171 114
175 171 114
176 172 114
174 171 114
175 171 114
173 170 114
174 171 114
174 171 114
174 171 114
174 171 114
175 171 114
175 172 114
174 171 114
175 171 114
174 171 114
173 171 114
174 171 114
175 172 114
175 171 114
175 172 114
174 171 114
174 171 114
176 172 114
175 171 114
175 172 114
176 172 114
175 172 114
177 173 114
177 172 114
177 172 114
177 172 114
178 173 114
178 173 114
179 173 114
178 173 114
180 174 114
179 173 114
179 174 114
180 174 114
182 175 114
181 174 114
181 174 114
183 175 114
184 176 114
183 175 114
185 176 114
186 177 114
184 176 114
186 177 114
188 177 114
185 176 112
185 176 110
186 176 110
186 176 109
185 175 107
184 174 106
184 174 104
185 175 105
181 172 97
183 173 101
185 174 104
180 171 95
180 172 97
178 170 89
180 173 93
178 172 86
175 169 83
179 174 86
174 172 72
176 176 69
177 175 80
173 170 75
176 175 72
175 176 72
174 176 69
174 177 61
175 180 62
177 182 65
173 179 54
172 177 56
173 182 53
170 183 41
171 183 34
170 183 30
172 184 39
167 183 30
169 184 32
171 185 34
169 188 11
168 184 16
168 186 16
166 185 11
166 189 0
168 190 0
169 191 0
168 190 0
168 190 0
171 194 0
173 195 0
167 190 0
171 193 0
169 192 0
169 192 0
168 190 0
172 195 0
172 193 0
167 190 0
172 195 0
170 193 0
172 194 0
172 195 0
173 197 0
171 195 0
174 196 0
171 194 0
170 193 0
171 195 0
170 193 0
173 197 0
172 196 0
172 195 0
172 196 0
174 197 0
171 195 0
172 196 0
174 197 0
173 197 0
169 193 0
172 194 0
168 191 0
169 193 0
172 195 0
171 194 0
169 193 0
173 197 0
169 192 0
168 192 0
170 193 0
173 196 0
172 196 0
170 193 0
173 197 0
169 193 0
173 196 0
171 195 0
171 193 0
170 194 0
170 193 0
165 189 0
170 193 0
172 195 0
168 192 0
169 194 0
171 194 0
170 194 0
169 192 0
169 193 0
161 184 0
170 194 0
169 193 0
169 193 0
170 192 0
170 193 0
166 190 0
171 193 0
168 192 0
166 189 0
169 194 0
163 186 0
167 191 0
172 195 0
168 190 0
172 194 0
167 190 0
167 191 0
170 193 0
171 195 0
167 191 0
169 192 0
168 192 0
168 191 0
161 184 0
168 191 0
165 188 0
165 188 0
165 188 0
170 193 0
165 188 0
169 193 0
168 191 0
169 192 0
159 183 0
168 191 0
166 189 0
163 186 0
163 186 0
162 186 0
158 181 0
163 186 0
167 191 0
165 188 0
162 185 0
162 185 0
170 192 0
160 184 0
165 188 0
162 184 0
163 186 0
154 177 0
165 188 0
161 184 0
154 178 0
162 185 0
160 184 0
157 180 0
166 189 0
161 184 0
161 184 0
158 181 0
160 183 0
164 187 0
159 182 0
158 180 0
163 186 0
157 179 0
152 174 0
151 174 0
154 176 0
162 184 0
150 173 0
165 187 0
154 177 0
159 181 0
150 174 0
155 177 0
157 180 0
148 171 0
151 173 0
145 167 0
152 174 0
150 173 0
151 174 0
153 174 0
150 172 0
142 164 0
147 168 0
147 168 0
140 162 0
146 169 0
143 166 0
141 162 0
142 164 0
146 168 0
139 160 0
136 157 0
142 163 0
145 167 0
131 152 0
135 156 0
124 145 0
135 155 0
137 158 0
135 155 0
136 158 0
140 160 0
130 149 0
129 149 0
132 152 0
125 145 0
132 150 0
131 151 0
119 137 0
114 132 0
125 142 0
116 134 0
104 121 47
118 137 40
98 118 54
75 98 70
62 91 95
55 86 95
54 86 92
54 85 92
55 87 97
56 88 99
53 84 81
54 86 107
53 84 99
56 87 120
55 86 102
56 89 103
54 85 101
56 88 107
56 88 107
55 86 93
53 83 95
56 88 109
55 86 107
57 89 116
55 86 107
56 87 101
54 84 100
55 86 99
54 84 95
55 86 101
53 83 95
54 84 91
54 84 105
56 86 108
57 87 115
54 84 91
53 82 84
52 82 98
54 83 103
53 82 91
54 83 103
52 80 85
53 81 94
53 82 99
54 82 93
54 82 97
51 78 79
51 79 85
52 79 94
50 77 75
52 79 95
55 79 80
55 79 75
51 77 84
56 79 74
64 81 68
60 80 74
69 84 74
62 79 65
73 88 64
86 96 61
78 89 40
88 96 55
85 92 40
98 103 36
108 112 46
104 108 48
111 114 36
118 120 53
115 115 49
130 131 52
130 131 53
143 140 66
145 143 63
141 138 63
145 140 73
149 144 66
151 146 69
159 153 74
161 155 75
172 163 86
162 155 79
170 162 86
170 162 89
174 166 91
175 167 90
181 171 95
182 172 98
181 171 95
180 171 96
184 174 101
183 173 102
183 173 103
185 175 108
186 176 108
185 175 110
187 176 107
185 176 110
185 176 112
187 177 114
187 177 113
186 177 113
185 176 114
186 176 114
184 176 114
184 176 114
185 176 114
183 175 114
181 174 114
182 175 114
181 174 114
180 174 114
181 174 114
180 174 114
180 174 114
179 173 114
179 173 114
180 174 114
178 173 114
178 173 114
178 173 114
176 172 114
175 172 114
177 172 114
177 172 114
177 172 114
176 172 114
177 172 114
175 172 114
176 172 114
176 172 114
175 172 114
174 171 114
175 172 114
174 171 114
174 171 114
174 171 114
175 171 114
175 171 114
175 172 114
177 172 114
175 171 114
175 171 114
177 172 114
175 171 114
175 171 114
176 172 114
176 172 114
174 171 114
176 172 114
176 172 114
177 172 114
176 172 114
178 173 114
176 172 114
178 173 114
178 173 114
177 172 114
179 173 114
179 174 114
180 174 114
180 174 114
181 174 114
181 174 114
183 175 114
182 175 114
184 176 114
183 175 114
183 175 114
184 175 114
186 176 114
183 175 114
186 177 114
188 178 114
186 176 113
188 177 114
185 176 112
186 176 111
186 176 110
185 175 106
186 175 106
185 175 108
185 174 101
183 173 99
182 173 100
177 168 86
178 170 90
179 171 90
179 171 91
179 170 87
177 169 84
174 168 79
176 170 79
175 173 79
178 173 80
174 174 69
177 176 75
174 176 66
176 177 73
170 175 54
171 174 53
175 179 61
171 179 52
171 180 47
169 176 51
173 183 45
168 177 39
169 181 42
172 184 41
170 184 36
168 184 30
170 185 32
169 183 28
169 186 30
173 192 16
169 187 19
169 188 0
171 191 0
172 193 0
167 185 0
166 187 0
170 191 0
170 191 0
172 192 0
170 193 0
169 191 0
170 192 0
169 191 0
171 193 0
171 192 0
171 193 0
170 193 0
168 190 0
170 192 0
173 196 0
171 194 0
169 193 0
172 195 0
172 195 0
174 196 0
173 197 0
171 195 0
171 194 0
171 195 0
174 197 0
171 195 0
172 195 0
174 197 0
171 194 0
170 194 0
170 194 0
168 192 0
170 193 0
172 195 0
171 195 0
171 195 0
172 196 0
171 195 0
169 192 0
171 195 0
172 196 0
173 197 0
174 197 0
169 193 0
170 192 0
170 194 0
172 195 0
170 194 0
168 191 0
167 191 0
168 191 0
172 196 0
173 196 0
171 194 0
165 188 0
166 189 0
168 192 0
170 193 0
168 192 0
172 195 0
168 192 0
171 195 0
168 192 0
171 195 0
168 193 0
169 192 0
170 192 0
170 193 0
161 186 0
167 191 0
167 191 0
169 191 0
170 193 0
168 191 0
172 195 0
167 191 0
167 190 0
167 190 0
170 193 0
172 196 0
165 189 0
167 191 0
167 190 0
166 191 0
169 192 0
168 192 0
169 192 0
167 190 0
165 189 0
164 188 0
165 188 0
162 185 0
166 190 0
162 185 0
165 188 0
167 190 0
165 188 0
158 181 0
168 191 0
165 187 0
168 191 0
159 183 0
167 191 0
167 189 0
161 185 0
165 188 0
163 187 0
163 186 0
167 190 0
165 188 0
162 185 0
165 189 0
159 182 0
160 183 0
162 185 0
160 183 0
158 182 0
162 185 0
161 183 0
162 185 0
158 181 0
161 184 0
156 179 0
161 183 0
160 182 0
157 180 0
160 184 0
163 185 0
159 183 0
159 182 0
156 179 0
154 177 0
155 178 0
160 183 0
154 176 0
152 174 0
147 171 0
155 176 0
155 179 0
153 175 0
148 170 0
151 174 0
152 174 0
155 177 0
154 176 0
153 174 0
150 172 0
149 170 0
159 181 0
146 169 0
138 160 0
151 174 0
143 165 0
147 169 0
149 171 0
144 164 0
137 157 0
147 169 0
143 165 0
138 160 0
143 164 0
133 154 0
142 162 0
131 152 0
139 160 0
138 158 0
128 149 0
123 143 0
130 150 0
139 158 0
127 146 0
141 162 0
128 148 0
124 143 0
127 147 0
113 132 0
126 145 0
121 139 0
118 136 0
124 143 0
121 138 0
101 120 0
113 132 18
98 117 47
99 118 51
79 102 62
54 84 78
54 85 92
55 87 94
52 81 86
54 85 90
52 83 92
53 84 102
53 84 96
55 87 108
57 89 107
56 87 110
56 88 103
54 85 84
57 90 114
56 88 111
53 84 83
53 85 90
55 86 104
55 86 113
56 87 101
55 85 105
53 84 89
56 87 111
55 85 108
57 88 112
56 88 105
55 85 101
54 85 96
55 85 110
55 85 104
54 83 102
53 82 95
54 83 100
53 83 95
56 86 109
52 80 84
53 81 99
52 80 91
51 78 91
51 79 85
53 81 97
50 78 78
51 79 83
53 80 93
51 78 69
54 80 82
49 74 76
58 80 81
57 79 66
55 77 71
65 82 53
66 84 64
70 83 60
80 91 48
88 97 54
85 93 44
88 96 57
90 98 49
100 106 49
97 105 39
127 127 56
119 121 43
123 125 43
122 124 51
129 132 45
128 129 47
146 143 63
141 139 62
154 150 66
141 138 59
156 150 67
155 149 71
156 150 76
164 156 77
156 150 75
167 160 79
165 158 78
168 161 86
171 164 84
180 170 91
173 165 82
179 170 93
178 169 90
181 172 98
180 171 96
183 173 105
183 174 103
185 175 105
184 175 106
185 175 108
184 174 105
185 175 109
186 176 109
187 177 112
185 176 111
186 176 112
185 176 114
185 176 114
184 176 113
184 176 114
184 176 114
182 175 114
184 176 114
182 175 114
184 176 114
182 175 114
181 174 114
179 173 114
179 173 114
179 173 114
180 174 114
178 173 114
179 173 114
180 174 114
177 173 114
178 173 114
177 172 114
178 173 114
178 173 114
176 172 114
177 172 114
177 172 114
177 172 114
176 172 114
175 172 114
175 171 114
176 172 114
175 171 114
177 172 114
176 172 114
176 172 114
176 172 114
174 171 114
176 172 114
175 172 114
177 172 114
177 172 114
175 172 114
176 172 114
176 172 114
176 172 114
176 172 114
178 173 114
178 173 114
177 173 114
178 173 114
177 173 114
179 173 114
178 173 114
178 173 114
181 174 114
179 173 114
179 174 114
180 174 114
180 174 114
180 174 114
181 174 114
182 175 114
181 174 114
181 174 114
184 176 114
184 176 114
184 176 114
186 177 114
184 176 114
186 177 114
187 177 114
187 177 112
187 177 113
185 175 109
186 176 111
187 176 109
185 175 109
185 175 104
182 173 98
183 174 103
184 174 104
185 174 102
181 171 96
180 171 95
178 169 89
177 169 87
176 168 85
178 169 86
176 171 80
178 173 84
180 173 86
175 171 75
175 172 76
176 175 74
175 173 72
171 169 69
173 174 64
173 177 60
171 178 56
173 178 60
172 176 57
171 180 48
174 178 63
171 180 45
173 185 42
172 182 47
169 181 34
166 181 34
171 184 41
170 185 28
168 187 16
169 188 22
168 183 16
170 189 11
169 186 0
167 186 0
170 188 0
170 191 0
172 193 0
169 191 0
172 194 0
174 196 0
166 188 0
172 193 0
169 191 0
171 194 0
171 193 0
173 196 0
171 193 0
170 193 0
168 191 0
173 195 0
173 194 0
169 191 0
169 193 0
170 194 0
170 194 0
171 194 0
171 194 0
171 194 0
171 194 0
173 196 0
172 196 0
169 193 0
171 194 0
172 195 0
173 196 0
173 197 0
170 194 0
168 192 0
169 192 0
171 194 0
171 196 0
170 194 0
174 197 0
169 192 0
171 194 0
176 198 0
170 193 0
168 192 0
174 197 0
172 196 0
169 193 0
169 193 0
170 194 0
170 194 0
171 195 0
168 192 0
170 193 0
172 196 0
169 193 0
173 197 0
172 195 0
165 189 0
171 194 0
171 194 0
170 194 0
169 194 0
164 187 0
169 192 0
170 193 0
171 195 0
170 194 0
169 193 0
165 188 0
171 194 0
169 192 0
172 194 0
166 190 0
169 192 0
168 191 0
170 194 0
168 192 0
167 190 0
166 190 0
169 192 0
166 190 0
165 189 0
167 190 0
171 193 0
164 188 0
168 191 0
165 189 0
170 193 0
167 191 0
166 189 0
169 191 0
167 191 0
167 191 0
167 190 0
165 189 0
164 188 0
162 184 0
163 186 0
165 189 0
167 190 0
162 185 0
164 188 0
168 191 0
170 193 0
163 186 0
160 184 0
162 185 0
164 187 0
167 190 0
167 189 0
166 188 0
160 183 0
164 188 0
165 188 0
165 188 0
162 184 0
166 189 0
163 186 0
167 190 0
162 185 0
164 187 0
162 186 0
163 186 0
160 182 0
162 184 0
162 185 0
161 183 0
166 189 0
162 185 0
161 185 0
161 184 0
157 179 0
155 178 0
157 180 0
154 177 0
156 178 0
150 172 0
151 173 0
154 177 0
149 171 0
153 176 0
154 177 0
153 177 0
144 166 0
151 173 0
150 173 0
145 168 0
150 172 0
155 179 0
151 174 0
149 171 0
145 167 0
150 171 0
144 165 0
143 164 0
149 170 0
138 159 0
149 172 0
141 163 0
149 170 0
143 164 0
142 163 0
132 152 0
140 161 0
143 165 0
136 156 0
135 156 0
135 156 0
125 145 0
131 152 0
139 160 0
126 147 0
129 150 0
132 151 0
123 144 0
122 142 0
120 139 0
125 144 0
112 130 0
120 138 0
114 132 0
128 146 0
106 125 0
109 125 0
113 131 0
111 129 25
101 120 36
97 115 47
91 111 62
75 99 67
57 86 89
53 84 78
53 84 94
53 83 94
53 83 89
52 82 95
55 86 99
53 83 97
53 84 94
55 87 90
55 87 99
54 86 80
54 86 95
55 86 97
54 84 98
56 87 105
53 84 92
55 86 114
54 85 106
54 85 104
54 86 107
56 87 103
53 83 101
55 86 99
54 85 107
55 86 109
55 84 102
55 85 93
52 81 87
52 81 85
51 79 82
52 80 86
51 79 91
55 84 106
52 79 91
50 77 69
50 77 91
52 79 75
51 79 78
50 76 78
51 77 90
48 74 71
54 80 91
51 76 63
48 72 61
55 76 66
64 83 56
66 81 62
60 80 63
75 89 51
83 92 52
83 94 52
79 91 61
76 87 46
90 97 37
98 106 40
102 105 41
115 121 37
126 129 32
125 130 39
126 129 35
131 134 39
140 139 55
134 133 57
133 133 56
137 134 60
143 139 63
148 143 68
147 142 66
155 149 70
155 149 72
160 153 76
161 155 69
169 160 81
169 162 81
177 168 92
176 168 86
175 166 85
180 171 94
178 169 90
179 170 91
181 172 97
181 171 95
182 173 100
183 174 104
184 174 101
183 173 102
184 174 104
185 175 107
186 176 108
185 175 108
186 176 112
185 175 109
187 177 112
184 175 111
185 176 113
185 176 113
185 176 114
185 176 114
182 175 114
184 176 114
183 175 114
184 176 114
182 175 114
182 175 114
182 175 114
180 174 114
181 174 114
181 174 114
180 174 114
180 174 114
179 174 114
179 173 114
178 173 114
177 173 114
178 173 114
177 173 114
177 172 114
177 172 114
176 172 114
176 172 114
178 173 114
176 172 114
177 172 114
178 173 114
177 172 114
176 172 114
176 172 114
176 172 114
177 173 114
176 172 114
176 172 114
177 172 114
176 172 114
177 172 114
177 173 114
176 172 114
177 172 114
176 172 114
178 173 114
176 172 114
176 172 114
178 173 114
178 173 114
179 173 114
177 172 114
178 173 114
179 173 114
179 174 114
181 174 114
179 173 114
181 174 114
180 174 114
182 175 114
182 175 114
181 174 114
183 175 114
182 175 114
183 175 114
183 175 114
184 176 114
184 176 114
184 176 114
186 177 114
186 177 113
186 176 112
188 177 112
185 176 111
185 175 108
184 174 108
185 175 107
183 174 104
184 174 104
183 174 101
182 172 97
181 172 97
179 170 91
176 168 86
182 172 97
174 167 83
179 171 90
180 171 87
176 168 86
174 169 80
177 173 80
176 173 78
170 169 65
176 174 76
172 174 63
174 171 74
172 174 63
176 178 68
173 177 63
175 178 63
170 178 54
172 175 61
169 178 48
168 178 44
169 180 42
171 182 42
168 182 25
171 184 39
170 184 34
166 181 16
169 183 34
169 185 22
165 181 16
167 187 0
170 191 0
169 191 0
170 190 0
171 192 0
170 191 0
169 192 0
170 191 0
169 192 0
169 192 0
169 193 0
169 192 0
171 193 0
170 193 0
171 192 0
172 195 0
170 193 0
169 191 0
168 190 0
169 192 0
172 195 0
170 193 0
172 196 0
172 195 0
170 193 0
174 197 0
170 194 0
169 193 0
172 195 0
171 194 0
174 196 0
173 196 0
171 195 0
171 195 0
171 194 0
174 197 0
172 194 0
171 194 0
170 194 0
170 194 0
170 193 0
172 196 0
171 195 0
168 191 0
169 192 0
172 195 0
174 197 0
171 195 0
170 193 0
172 196 0
167 191 0
170 194 0
173 196 0
174 198 0
169 193 0
167 191 0
172 196 0
169 192 0
168 193 0
169 192 0
170 193 0
171 194 0
170 193 0
173 196 0
168 192 0
168 190 0
169 192 0
169 192 0
168 192 0
170 193 0
167 191 0
170 193 0
171 195 0
169 193 0
167 191 0
169 192 0
169 192 0
167 190 0
171 194 0
165 188 0
166 190 0
165 188 0
168 192 0
166 190 0
170 194 0
163 186 0
167 191 0
170 193 0
164 188 0
167 191 0
166 190 0
164 188 0
166 189 0
165 188 0
166 190 0
167 190 0
165 188 0
164 186 0
159 182 0
169 192 0
166 190 0
166 189 0
166 189 0
166 190 0
163 187 0
161 184 0
161 184 0
166 189 0
164 188 0
171 194 0
163 187 0
167 191 0
159 183 0
166 189 0
167 189 0
157 179 0
162 187 0
157 180 0
161 185 0
160 185 0
159 182 0
166 189 0
158 181 0
162 185 0
162 185 0
156 179 0
159 181 0
163 186 0
163 186 0
161 184 0
159 181 0
156 179 0
160 183 0
161 185 0
161 184 0
162 185 0
155 178 0
159 181 0
160 182 0
160 183 0
152 175 0
155 178 0
154 175 0
155 177 0
147 170 0
154 176 0
146 169 0
149 170 0
149 171 0
147 169 0
152 175 0
149 172 0
152 174 0
147 169 0
143 165 0
142 164 0
151 172 0
149 171 0
151 172 0
144 166 0
149 171 0
141 162 0
136 157 0
143 165 0
137 159 0
144 165 0
134 155 0
140 161 0
140 160 0
133 154 0
134 154 0
120 141 0
138 158 0
131 150 0
122 142 0
136 155 0
131 150 0
136 156 0
129 148 0
133 152 0
127 146 0
106 124 0
107 125 0
112 131 0
127 146 0
115 133 0
122 141 0
117 134 0
105 123 0
105 122 0
112 130 0
97 114 31
77 95 47
88 109 65
58 84 67
57 87 100
51 82 78
52 82 88
54 85 103
56 87 107
57 89 106
52 83 86
53 85 78
53 83 92
53 83 98
51 81 77
54 86 89
55 86 105
54 84 91
52 81 95
54 86 99
55 86 98
55 86 93
53 84 99
54 85 90
55 86 104
53 82 101
54 84 92
53 82 82
55 86 97
52 81 100
53 81 86
51 80 79
53 81 81
52 82 87
51 79 82
51 78 82
51 78 83
51 79 80
54 82 101
52 79 89
53 81 98
51 79 81
49 76 70
52 80 80
53 79 72
55 77 66
50 75 62
58 78 70
52 73 64
67 83 78
71 88 64
63 78 48
68 83 61
80 91 50
83 94 45
85 94 38
102 109 39
101 107 33
115 118 28
116 123 23
134 136 36
126 127 42
125 128 35
125 128 37
137 137 49
136 137 45
135 135 46
147 143 64
147 144 51
150 145 66
150 145 66
152 146 71
159 152 74
157 151 72
169 161 77
163 157 75
167 160 80
175 166 87
175 166 85
180 170 94
177 168 90
175 166 85
178 169 89
180 171 94
180 171 95
181 171 99
183 173 101
185 175 106
182 173 101
185 175 106
184 174 104
182 173 102
184 175 107
184 175 108
184 175 109
187 177 111
185 176 110
185 176 113
186 176 112
185 176 112
186 176 114
185 176 114
184 176 114
183 175 114
182 175 114
182 175 114
183 175 114
182 175 114
182 175 114
182 175 114
180 174 114
180 174 114
180 174 114
178 173 114
180 174 114
180 174 114
179 173 114
180 174 114
178 173 114
176 172 114
179 173 114
177 172 114
177 173 114
178 173 114
177 173 114
178 173 114
178 173 114
177 172 114
177 173 114
176 172 114
178 173 114
178 173 114
177 172 114
177 172 114
176 172 114
177 172 114
178 173 114
178 173 114
178 173 114
178 173 114
177 173 114
179 173 114
179 173 114
179 173 114
177 172 114
178 173 114
179 174 114
179 174 114
178 173 114
181 174 114
181 174 114
180 174 114
181 174 114
181 174 114
181 174 114
181 174 114
183 175 114
183 175 114
184 176 114
184 176 114
186 177 114
185 176 114
184 176 114
184 176 114
186 177 113
186 176 113
186 176 112
187 177 112
188 177 113
186 176 108
186 176 110
186 176 107
186 176 108
184 174 104
184 174 103
180 171 96
181 171 96
176 168 84
181 171 93
180 171 95
180 171 95
181 172 91
181 171 93
177 168 86
175 168 83
174 170 76
176 172 76
173 169 74
175 173 70
171 170 67
173 170 69
177 176 73
172 177 59
173 177 58
174 176 65
173 179 60
172 176 56
175 181 58
171 178 51
172 180 48
167 178 42
168 180 37
170 182 41
169 186 25
167 180 32
167 182 22
168 185 19
169 185 19
169 184 22
166 185 0
170 189 11
168 188 0
168 187 0
170 192 0
171 191 0
168 189 0
170 192 0
172 195 0
171 193 0
168 191 0
173 195 0
172 193 0
171 193 0
170 193 0
170 193 0
172 195 0
170 192 0
171 194 0
171 194 0
171 194 0
175 198 0
173 196 0
171 195 0
173 196 0
172 196 0
174 196 0
173 196 0
171 195 0
167 191 0
172 196 0
170 194 0
171 194 0
171 194 0
170 194 0
172 196 0
172 196 0
169 193 0
173 197 0
171 195 0
171 195 0
172 196 0
170 194 0
172 195 0
171 195 0
171 195 0
172 196 0
173 196 0
171 195 0
170 194 0
171 195 0
170 194 0
169 193 0
167 191 0
172 195 0
171 195 0
168 192 0
173 196 0
171 195 0
170 194 0
170 193 0
169 193 0
169 192 0
171 194 0
170 193 0
166 190 0
170 194 0
168 191 0
165 189 0
166 189 0
172 196 0
171 195 0
166 190 0
166 190 0
171 194 0
169 191 0
169 193 0
168 191 0
166 189 0
168 192 0
165 189 0
167 191 0
167 189 0
166 190 0
165 188 0
170 193 0
165 189 0
167 191 0
164 188 0
170 192 0
171 193 0
163 186 0
162 185 0
167 190 0
167 190 0
168 191 0
166 189 0
170 193 0
166 190 0
163 186 0
167 190 0
165 188 0
165 189 0
168 192 0
168 191 0
163 185 0
165 189 0
167 190 0
170 193 0
163 187 0
167 190 0
165 188 0
163 186 0
158 179 0
162 184 0
155 179 0
161 184 0
163 187 0
166 189 0
162 186 0
163 187 0
167 189 0
161 185 0
163 187 0
159 183 0
162 186 0
159 182 0
160 183 0
154 177 0
158 179 0
160 183 0
154 178 0
161 185 0
159 183 0
159 181 0
152 175 0
153 176 0
156 179 0
153 176 0
162 184 0
156 178 0
155 178 0
159 181 0
154 176 0
152 174 0
154 177 0
152 175 0
156 178 0
155 177 0
148 170 0
143 165 0
147 169 0
152 174 0
144 166 0
149 170 0
143 165 0
137 160 0
146 168 0
148 170 0
138 160 0
146 168 0
143 164 0
142 163 0
144 166 0
141 163 0
137 158 0
139 159 0
143 163 0
134 155 0
143 164 0
142 164 0
128 149 0
142 163 0
135 155 0
143 164 0
125 146 0
125 145 0
120 140 0
128 147 0
124 143 0
127 147 0
114 132 0
113 134 0
109 127 0
120 139 0
116 135 0
108 126 0
114 131 0
119 138 0
112 130 0
113 132 0
99 115 0
99 117 0
96 115 31
93 112 51
83 103 54
69 93 76
59 87 88
51 80 79
52 83 84
52 82 90
54 84 99
51 81 86
52 81 96
53 84 88
53 84 90
54 84 106
52 81 96
54 84 91
54 84 101
54 85 102
52 82 90
51 81 78
52 81 84
55 87 98
54 84 87
52 80 92
52 81 91
53 82 93
53 82 109
52 81 85
52 80 90
52 81 88
52 81 88
55 85 104
53 82 80
52 81 94
51 78 92
52 79 83
53 80 90
51 79 83
50 77 78
49 75 70
48 73 72
50 76 67
48 75 71
49 74 69
53 77 60
49 69 65
62 79 50
60 76 43
62 79 63
63 79 55
66 80 44
72 83 35
95 103 26
105 113 23
104 110 21
114 118 22
119 123 25
124 127 34
123 123 43
131 131 35
130 131 42
127 128 42
142 140 53
136 135 46
144 140 56
142 138 57
149 145 62
153 149 60
148 143 56
151 145 71
156 150 61
162 156 67
161 155 66
172 163 84
170 162 78
171 163 84
175 166 85
174 166 82
172 164 79
180 170 92
177 168 86
179 170 90
184 173 100
182 172 96
184 174 101
183 173 98
184 174 102
185 175 104
182 173 103
185 175 108
184 174 106
185 175 106
184 175 108
184 175 109
184 175 109
183 175 110
183 175 110
186 176 113
185 176 113
184 176 114
185 176 112
185 176 114
183 175 114
183 175 114
183 175 114
183 175 114
182 175 114
182 175 114
181 174 114
180 174 114
181 174 114
181 174 114
180 174 114
180 174 114
182 175 114
180 174 114
179 174 114
180 174 114
179 173 114
180 174 114
178 173 114
179 173 114
178 173 114
179 173 114
177 172 114
178 173 114
178 173 114
179 173 114
178 173 114
179 173 114
179 173 114
178 173 114
178 173 114
177 173 114
177 172 114
178 173 114
179 173 114
180 174 114
178 173 114
179 173 114
179 174 114
179 173 114
180 174 114
179 173 114
179 173 114
180 174 114
180 174 114
178 173 114
179 174 114
182 175 114
181 174 114
181 174 114
182 175 114
182 175 114
182 175 114
182 175 114
185 176 114
184 176 114
185 176 114
185 176 114
187 177 114
186 177 113
187 177 112
187 177 113
186 176 112
188 177 110
186 176 109
184 174 106
187 176 108
184 174 105
184 174 106
184 174 102
182 172 97
183 173 101
183 173 101
183 173 99
178 170 94
180 171 91
178 169 92
179 170 91
175 167 80
177 169 85
177 170 82
173 170 74
175 170 79
174 169 78
175 174 69
171 169 63
171 173 64
171 171 64
172 174 64
173 175 60
168 176 36
169 175 49
167 176 42
171 179 47
169 179 44
168 178 44
170 180 41
167 178 34
169 180 37
171 184 39
169 183 30
169 183 30
168 185 19
169 186 25
170 187 22
170 189 11
171 191 0
168 186 0
168 189 0
170 192 0
169 192 0
171 191 0
172 195 0
168 191 0
169 190 0
172 194 0
170 192 0
171 193 0
168 190 0
172 195 0
173 194 0
167 188 0
175 198 0
169 191 0
169 191 0
169 191 0
171 194 0
172 195 0
170 195 0
172 195 0
171 194 0
169 193 0
172 194 0
173 196 0
170 193 0
168 192 0
171 195 0
170 194 0
169 193 0
171 194 0
173 196 0
172 196 0
172 195 0
170 193 0
172 196 0
172 195 0
173 195 0
173 196 0
170 194 0
170 193 0
170 194 0
170 193 0
170 193 0
171 194 0
170 193 0
166 190 0
171 194 0
170 194 0
169 193 0
167 191 0
172 195 0
171 194 0
168 191 0
167 191 0
170 193 0
172 195 0
169 193 0
171 195 0
169 193 0
165 188 0
171 195 0
171 194 0
169 192 0
168 191 0
170 194 0
167 190 0
173 196 0
167 191 0
170 193 0
167 190 0
172 195 0
167 190 0
166 190 0
169 193 0
168 192 0
167 191 0
168 192 0
172 194 0
167 190 0
169 193 0
172 195 0
171 194 0
164 188 0
160 182 0
167 191 0
164 187 0
168 191 0
164 188 0
169 193 0
168 191 0
172 195 0
165 188 0
167 190 0
162 184 0
165 188 0
163 187 0
164 187 0
163 186 0
172 195 0
162 184 0
163 187 0
165 188 0
162 185 0
169 192 0
166 188 0
169 193 0
159 182 0
165 189 0
161 184 0
163 186 0
166 189 0
165 187 0
162 185 0
164 187 0
162 185 0
158 181 0
155 179 0
158 181 0
162 185 0
164 186 0
165 187 0
159 182 0
152 176 0
162 185 0
161 184 0
161 185 0
163 185 0
160 183 0
160 182 0
157 180 0
157 181 0
164 186 0
161 184 0
158 181 0
157 180 0
156 179 0
154 177 0
154 176 0
154 176 0
160 182 0
156 176 0
154 177 0
153 176 0
145 168 0
152 175 0
146 168 0
152 175 0
149 171 0
145 167 0
161 181 0
144 166 0
138 159 0
145 167 0
146 168 0
142 164 0
142 164 0
152 172 0
150 172 0
138 159 0
139 160 0
140 161 0
143 165 0
139 160 0
129 150 0
143 163 0
140 161 0
140 160 0
125 145 0
145 165 0
135 156 0
138 158 0
136 156 0
138 158 0
121 142 0
127 148 0
120 139 0
128 147 0
122 140 0
123 142 0
126 146 0
117 136 0
111 128 0
119 137 0
120 138 0
113 131 0
104 122 0
124 142 0
112 128 0
105 121 0
105 123 18
101 118 31
82 100 18
84 103 57
84 104 75
66 89 80
53 80 74
49 78 70
54 85 94
54 86 99
53 82 84
55 85 96
53 83 90
52 83 90
57 89 110
53 83 94
50 78 76
52 82 88
52 81 92
52 81 90
55 84 105
52 82 94
53 82 89
52 82 86
47 74 73
52 81 92
52 81 83
52 81 82
53 82 98
52 81 91
52 81 77
51 80 91
47 74 67
50 76 78
49 75 81
50 78 84
49 75 73
48 74 72
48 75 80
51 78 82
50 75 52
54 77 64
53 77 71
52 73 61
57 76 53
60 76 61
67 83 51
74 90 70
76 86 26
97 103 26
98 103 30
111 120 18
96 103 26
112 117 0
120 127 22
115 120 28
130 133 21
126 129 34
122 127 28
130 132 25
126 127 39
143 141 49
138 139 39
135 133 50
142 140 51
142 139 47
155 150 65
149 144 57
149 144 65
157 151 68
158 152 62
164 157 70
164 158 64
169 161 79
173 165 78
171 163 81
174 166 83
176 167 87
182 172 95
181 171 97
176 167 84
179 170 93
181 172 96
179 170 95
180 171 97
183 173 102
185 174 105
182 172 99
186 175 107
186 175 106
184 175 108
184 174 107
184 174 107
185 176 111
186 176 112
186 176 111
185 176 113
186 176 112
185 176 111
185 176 113
184 176 113
185 176 113
184 175 114
184 176 114
183 175 114
183 175 114
183 175 114
183 175 114
182 175 114
181 174 114
181 174 114
181 174 114
180 174 114
181 174 114
180 174 114
181 174 114
181 174 114
179 174 114
179 173 114
181 174 114
180 174 114
180 174 114
178 173 114
177 172 114
178 173 114
178 173 114
179 173 114
180 174 114
179 173 114
178 173 114
178 173 114
179 173 114
179 173 114
178 173 114
179 174 114
179 173 114
179 173 114
180 174 114
179 173 114
179 173 114
178 173 114
180 174 114
181 174 114
180 174 114
180 174 114
181 175 114
182 175 114
182 175 114
182 175 114
181 174 114
182 175 114
185 176 114
183 175 114
185 176 114
184 176 114
184 176 114
184 176 114
186 176 114
187 177 114
188 177 114
186 177 113
187 177 112
187 177 113
187 177 111
186 176 111
185 175 109
186 176 107
186 176 108
187 177 109
183 174 104
182 173 99
180 171 96
179 171 93
182 173 98
179 170 93
181 172 97
181 172 96
178 169 90
177 168 84
181 172 93
175 167 82
178 171 87
179 174 81
174 171 74
174 173 72
175 173 74
173 170 71
175 174 70
171 173 59
174 174 65
171 171 58
173 175 58
170 175 53
172 178 53
169 178 49
172 177 49
170 179 42
171 178 48
172 183 44
167 182 25
168 183 28
169 187 22
168 185 22
173 188 30
172 190 25
168 183 16
167 185 0
168 187 0
170 190 0
167 189 0
168 187 0
168 188 0
170 192 0
169 190 0
168 191 0
166 189 0
170 192 0
167 190 0
170 192 0
170 192 0
172 195 0
172 193 0
174 196 0
172 195 0
171 194 0
171 194 0
172 195 0
172 195 0
170 194 0
170 194 0
172 195 0
172 196 0
171 194 0
173 196 0
173 197 0
169 193 0
173 196 0
171 194 0
172 196 0
172 195 0
173 196 0
172 196 0
172 195 0
168 191 0
169 194 0
171 194 0
172 195 0
173 196 0
172 196 0
169 193 0
173 196 0
170 193 0
170 193 0
170 194 0
168 192 0
168 192 0
173 196 0
171 194 0
170 194 0
172 195 0
171 195 0
169 193 0
168 191 0
168 192 0
170 194 0
164 188 0
167 190 0
168 191 0
169 193 0
170 193 0
167 190 0
161 185 0
163 186 0
169 193 0
173 196 0
168 192 0
168 192 0
170 193 0
168 192 0
172 195 0
171 194 0
170 193 0
165 188 0
168 191 0
167 191 0
169 193 0
171 194 0
163 187 0
165 189 0
167 191 0
166 189 0
169 192 0
166 189 0
171 194 0
170 194 0
170 193 0
170 193 0
167 191 0
168 191 0
166 189 0
170 194 0
169 192 0
170 193 0
163 186 0
168 191 0
167 191 0
163 187 0
169 193 0
164 188 0
168 192 0
165 189 0
165 189 0
161 185 0
166 190 0
165 188 0
166 188 0
163 186 0
167 189 0
164 187 0
162 186 0
163 186 0
160 184 0
166 189 0
169 192 0
162 185 0
163 187 0
160 183 0
163 186 0
159 182 0
164 188 0
164 187 0
153 176 0
162 185 0
160 183 0
159 183 0
159 183 0
163 186 0
159 181 0
159 181 0
159 182 0
155 177 0
151 172 0
164 186 0
160 182 0
156 178 0
155 179 0
155 179 0
154 176 0
156 178 0
158 181 0
154 177 0
147 169 0
155 176 0
154 176 0
158 180 0
148 171 0
150 172 0
151 172 0
147 169 0
150 171 0
147 169 0
144 167 0
150 172 0
145 168 0
149 171 0
143 165 0
140 160 0
147 168 0
144 165 0
145 166 0
137 157 0
143 162 0
141 163 0
143 163 0
144 166 0
131 151 0
147 167 0
131 153 0
130 152 0
133 152 0
138 158 0
125 145 0
130 148 0
132 150 0
123 142 0
127 147 0
124 144 0
131 152 0
126 145 0
133 152 0
122 139 0
130 148 0
118 137 0
103 121 0
111 129 0
96 114 0
109 125 0
109 127 0
107 125 0
115 131 0
99 114 0
97 113 18
91 106 25
93 110 40
92 109 31
85 102 44
68 88 62
74 96 79
70 94 74
57 85 82
53 83 97
50 80 92
52 81 81
48 76 78
52 82 84
51 80 76
53 84 92
52 82 94
52 83 88
51 80 97
52 81 86
53 82 93
51 80 85
54 83 88
54 84 89
51 80 85
52 80 91
46 74 65
51 79 84
51 79 81
52 81 98
49 76 84
48 74 81
49 76 79
50 77 82
51 78 82
48 73 61
47 72 71
47 72 58
45 69 66
48 73 61
44 68 63
52 75 78
56 77 70
67 82 48
86 99 49
89 101 33
100 108 28
85 94 21
99 107 21
109 117 14
102 108 11
103 109 14
114 121 18
116 123 22
114 117 30
119 124 22
126 130 30
128 131 34
134 135 35
122 123 42
139 138 46
139 136 49
139 138 47
140 138 53
135 131 56
145 139 50
146 141 60
156 150 63
155 150 62
158 151 66
161 154 69
165 158 73
167 160 67
168 161 69
173 165 77
174 166 78
175 167 82
177 168 85
179 170 90
179 170 89
174 166 85
179 170 91
179 170 91
184 174 104
182 172 99
183 173 101
185 174 102
182 172 100
183 173 102
185 175 108
181 173 102
184 175 108
184 175 108
186 176 111
186 176 109
187 177 111
184 176 112
184 175 110
185 176 113
185 176 112
184 175 112
184 175 112
185 176 114
184 175 114
184 175 113
183 175 114
183 175 114
182 175 114
183 175 114
183 175 114
183 175 114
183 175 114
182 175 114
180 174 114
181 174 114
180 174 114
181 174 114
179 173 114
182 175 114
180 174 114
181 174 114
180 174 114
179 173 114
180 174 114
179 174 114
180 174 114
180 174 114
179 173 114
179 173 114
179 173 114
180 174 114
179 173 114
179 174 114
181 174 114
179 173 114
181 174 114
181 174 114
178 173 114
180 174 114
180 174 114
182 175 114
181 174 114
182 175 114
181 174 114
182 175 114
182 175 114
183 175 114
183 175 114
184 176 114
184 176 114
183 175 114
183 175 114
185 176 114
184 176 114
185 176 114
186 177 114
187 177 114
185 176 112
185 176 113
185 176 112
185 176 112
185 175 109
188 177 112
183 174 106
185 175 104
184 175 106
184 174 103
183 173 99
184 174 104
184 174 101
181 172 98
184 174 104
183 173 101
179 170 91
178 169 89
179 170 91
178 168 86
176 167 80
179 171 90
177 170 86
181 173 87
173 168 74
175 172 75
173 171 71
171 170 64
172 171 64
174 175 68
170 173 57
172 172 62
171 172 64
175 176 62
171 177 54
173 180 52
173 179 52
168 173 53
173 181 52
168 178 37
165 177 28
169 182 30
170 184 32
167 182 22
166 178 22
170 186 19
166 181 16
169 187 11
169 188 0
166 185 0
166 186 0
172 191 0
167 187 0
167 186 0
170 191 0
173 195 0
169 191 0
172 194 0
168 191 0
171 192 0
168 190 0
169 192 0
170 192 0
173 195 0
171 194 0
171 195 0
171 193 0
170 192 0
173 195 0
173 196 0
173 196 0
172 196 0
171 194 0
171 195 0
172 196 0
172 196 0
172 195 0
170 193 0
174 197 0
173 196 0
174 197 0
170 194 0
170 194 0
172 196 0
175 198 0
172 196 0
174 197 0
171 195 0
172 195 0
165 189 0
168 192 0
173 196 0
170 193 0
173 196 0
173 196 0
170 193 0
169 193 0
169 193 0
171 194 0
169 193 0
169 192 0
170 194 0
169 193 0
169 194 0
169 193 0
167 191 0
171 194 0
170 193 0
170 193 0
173 196 0
167 190 0
170 192 0
168 192 0
169 193 0
165 189 0
167 191 0
169 193 0
168 191 0
166 190 0
171 194 0
168 191 0
169 192 0
167 190 0
167 191 0
169 193 0
167 190 0
168 191 0
164 188 0
167 190 0
169 192 0
169 192 0
168 192 0
168 191 0
162 185 0
169 192 0
170 193 0
167 191 0
164 188 0
169 192 0
171 194 0
166 190 0
163 187 0
167 190 0
168 191 0
170 193 0
172 195 0
168 191 0
163 186 0
161 184 0
163 186 0
166 190 0
164 188 0
161 184 0
167 190 0
162 187 0
168 191 0
165 188 0
165 187 0
164 188 0
162 185 0
168 191 0
161 185 0
158 181 0
161 184 0
166 188 0
155 178 0
162 186 0
169 192 0
162 185 0
164 186 0
161 184 0
160 183 0
158 181 0
156 180 0
160 181 0
156 179 0
161 183 0
162 186 0
155 178 0
158 179 0
165 187 0
154 175 0
154 177 0
157 180 0
160 182 0
160 183 0
157 180 0
161 184 0
149 172 0
155 178 0
158 181 0
150 173 0
156 180 0
148 170 0
145 167 0
150 173 0
159 182 0
149 171 0
146 167 0
150 172 0
146 168 0
150 172 0
147 168 0
142 164 0
145 167 0
153 175 0
150 172 0
146 168 0
147 169 0
145 167 0
145 166 0
138 158 0
138 159 0
145 165 0
145 167 0
137 157 0
143 164 0
123 144 0
144 163 0
136 158 0
131 151 0
141 161 0
129 149 0
140 162 0
136 155 0
130 150 0
124 144 0
135 154 0
125 145 0
127 146 0
126 145 0
124 143 0
113 131 0
111 130 0
119 138 0
121 138 0
124 142 0
110 127 0
113 130 0
105 121 0
100 117 0
113 129 0
97 112 0
109 125 0
99 115 0
93 108 0
113 128 0
87 104 31
79 96 25
83 100 44
87 104 40
81 99 40
69 88 62
72 93 65
61 84 70
60 86 80
51 80 78
50 78 83
51 79 84
51 81 73
50 79 75
51 80 83
50 78 68
52 82 79
51 80 87
50 78 79
48 75 75
49 77 80
50 79 79
50 77 80
52 80 89
49 76 74
47 74 65
47 73 61
50 78 68
49 76 70
46 71 67
48 75 83
45 69 54
49 75 77
49 76 85
58 79 66
56 79 75
65 82 58
66 82 52
62 76 44
81 90 37
92 102 37
100 109 19
94 102 0
105 112 18
97 104 8
103 111 0
112 119 0
115 120 8
112 119 0
121 127 14
122 125 16
122 128 34
128 132 28
122 126 33
124 125 31
125 127 33
136 136 45
126 127 36
143 140 46
141 138 42
147 144 53
149 144 59
144 140 57
159 153 64
159 152 62
161 156 61
162 156 63
168 160 70
167 160 70
170 163 75
174 166 80
171 162 77
179 169 92
179 169 89
177 168 87
179 170 90
178 169 88
180 170 93
179 170 90
180 171 94
181 172 97
179 170 92
184 174 101
182 173 101
185 175 105
185 175 105
183 174 106
184 174 107
184 175 108
187 176 110
183 174 107
187 177 111
185 175 110
185 176 111
185 176 111
186 176 111
183 175 110
183 175 110
184 176 113
183 175 113
184 176 113
183 175 114
185 176 113
183 175 114
184 176 114
184 176 114
182 175 114
182 175 114
183 175 114
181 174 114
180 174 114
180 174 114
182 175 114
181 174 114
181 174 114
180 174 114
181 174 114
181 174 114
180 174 114
181 174 114
180 174 114
183 175 114
180 174 114
180 174 114
180 174 114
181 174 114
181 174 114
179 173 114
180 174 114
181 174 114
181 174 114
181 174 114
180 174 114
180 174 114
181 174 114
182 175 114
182 175 114
182 175 114
181 175 114
181 175 114
183 175 114
183 175 114
184 176 114
185 176 114
183 175 114
183 175 114
185 176 114
183 175 114
185 176 114
186 177 114
186 177 113
186 176 114
183 175 112
186 176 113
186 176 112
186 176 111
185 176 110
186 176 110
186 176 109
186 176 108
184 174 106
184 174 103
184 174 103
185 175 104
185 175 104
182 172 97
182 172 94
182 172 97
181 171 94
181 171 95
179 170 90
178 169 88
176 168 84
178 169 85
176 168 81
178 170 84
176 169 83
178 170 80
176 170 74
179 172 81
172 171 67
171 172 63
173 174 68
171 172 62
170 172 61
170 173 58
173 178 57
174 182 56
171 175 58
172 181 48
168 177 42
171 180 41
171 183 39
169 179 37
169 182 28
164 178 34
167 181 22
167 183 11
170 187 22
165 184 0
171 189 11
167 184 0
167 184 0
169 189 0
169 188 0
169 187 0
169 190 0
167 188 0
168 193 0
169 191 0
169 191 0
169 192 0
171 193 0
172 193 0
171 193 0
169 191 0
171 194 0
171 194 0
172 195 0
169 191 0
168 190 0
170 192 0
172 196 0
170 194 0
169 194 0
174 196 0
172 196 0
171 195 0
173 197 0
172 195 0
171 195 0
169 193 0
171 194 0
172 195 0
169 193 0
171 195 0
169 192 0
171 195 0
171 194 0
172 195 0
169 193 0
170 193 0
172 195 0
172 196 0
171 194 0
172 196 0
171 195 0
165 188 0
170 194 0
169 193 0
171 194 0
172 195 0
170 193 0
170 195 0
171 194 0
168 192 0
169 193 0
170 193 0
167 190 0
168 192 0
173 195 0
165 189 0
165 189 0
169 192 0
171 194 0
171 194 0
171 194 0
169 192 0
168 192 0
170 194 0
170 193 0
169 192 0
163 187 0
172 195 0
170 193 0
166 191 0
170 193 0
171 194 0
168 192 0
167 191 0
165 189 0
169 193 0
168 192 0
173 196 0
170 193 0
167 191 0
164 188 0
164 186 0
169 192 0
167 191 0
166 189 0
168 192 0
168 192 0
166 189 0
169 192 0
165 189 0
167 191 0
170 193 0
167 190 0
168 192 0
167 191 0
160 183 0
171 194 0
167 190 0
163 186 0
168 191 0
162 185 0
164 188 0
164 187 0
164 188 0
160 183 0
169 192 0
162 184 0
163 186 0
164 187 0
163 186 0
161 183 0
160 184 0
161 184 0
162 185 0
160 182 0
162 185 0
156 179 0
161 184 0
163 187 0
161 185 0
161 185 0
157 179 0
156 180 0
164 187 0
162 185 0
163 186 0
156 179 0
156 178 0
164 187 0
161 184 0
152 175 0
163 186 0
157 180 0
158 180 0
153 177 0
157 180 0
155 178 0
154 177 0
156 179 0
153 175 0
147 170 0
147 169 0
150 171 0
152 175 0
149 172 0
142 164 0
145 167 0
154 177 0
155 178 0
154 175 0
149 171 0
138 160 0
148 169 0
146 168 0
143 165 0
141 163 0
153 175 0
148 171 0
145 167 0
135 156 0
136 157 0
140 161 0
140 161 0
139 158 0
130 152 0
143 164 0
146 167 0
138 159 0
144 166 0
143 165 0
141 161 0
129 150 0
126 146 0
129 149 0
124 142 0
134 153 0
120 140 0
116 135 0
128 147 0
130 149 0
108 126 0
118 137 0
116 133 0
109 127 0
108 126 0
107 124 0
112 130 0
107 123 0
108 124 0
116 133 0
108 125 0
105 122 0
106 121 0
92 106 0
104 119 0
101 117 0
89 105 18
102 117 25
87 102 0
82 97 25
77 93 36
69 86 31
90 106 47
80 97 51
65 85 72
51 75 65
51 73 51
54 80 78
45 71 62
47 73 67
49 78 81
49 77 79
52 81 87
51 79 72
50 78 73
50 79 82
48 75 72
49 76 78
47 74 72
47 73 63
47 74 79
47 71 77
56 82 65
51 73 55
44 64 57
65 80 54
64 81 42
69 84 51
64 79 37
76 87 41
89 101 31
91 102 19
86 95 0
94 104 28
101 111 8
98 106 8
89 98 12
100 108 0
98 104 8
108 113 0
106 115 14
110 113 11
116 123 8
114 119 8
112 118 8
120 122 19
129 134 22
126 128 28
128 131 31
127 128 28
132 131 32
141 141 45
134 133 38
139 136 44
153 148 53
141 139 42
147 142 57
156 150 59
163 157 61
160 153 64
163 156 68
172 164 75
166 159 69
173 165 77
170 163 71
174 165 80
172 164 78
172 165 77
176 168 87
173 165 81
177 168 86
181 172 95
181 171 96
181 171 95
184 174 100
181 172 99
179 171 95
180 171 97
184 174 101
183 173 101
184 174 103
180 171 97
185 175 106
182 173 103
184 175 106
182 173 106
185 175 110
184 175 108
183 175 109
184 175 110
184 175 110
186 176 112
184 175 109
185 176 113
183 175 112
183 175 113
184 176 113
184 176 114
184 176 114
183 175 113
182 175 114
183 175 113
184 176 114
183 175 114
183 175 114
181 174 114
181 174 114
181 174 114
181 174 114
183 175 114
182 175 114
182 175 114
183 175 114
182 175 114
181 174 114
182 175 114
182 175 114
181 174 114
181 174 114
181 174 114
179 174 114
182 175 114
181 174 114
181 174 114
181 174 114
181 174 114
181 174 114
182 175 114
182 175 114
182 175 114
183 175 114
183 175 114
184 176 114
183 175 114
183 175 114
183 175 114
183 175 114
182 175 114
184 176 114
183 175 113
184 176 114
185 176 114
185 176 114
184 175 113
187 177 113
185 176 113
186 176 112
187 177 112
186 176 108
184 175 108
186 176 109
187 177 111
187 176 108
184 175 106
184 174 106
180 171 98
183 173 101
182 172 99
184 173 100
184 174 101
180 171 96
181 171 94
185 174 99
180 171 93
177 168 86
180 170 90
177 168 86
176 168 84
175 166 77
176 168 80
175 169 78
172 167 70
180 174 84
171 168 68
172 166 69
169 168 58
170 170 62
167 167 54
169 172 59
171 173 58
170 172 57
173 179 56
170 177 48
170 177 45
170 180 48
168 181 32
168 182 25
170 182 37
162 178 16
166 183 11
170 184 22
169 186 19
167 182 22
166 185 0
164 183 0
167 187 0
172 191 0
165 184 0
170 190 0
168 190 0
169 190 0
173 194 0
172 193 0
171 192 0
171 193 0
173 195 0
172 194 0
171 193 0
168 192 0
172 195 0
173 195 0
170 192 0
170 192 0
172 195 0
171 194 0
170 193 0
172 195 0
171 194 0
170 193 0
169 193 0
170 192 0
172 196 0
173 196 0
168 191 0
170 194 0
170 194 0
172 196 0
169 193 0
171 195 0
171 194 0
170 194 0
173 196 0
170 193 0
171 194 0
171 194 0
170 195 0
171 195 0
173 196 0
174 196 0
172 196 0
171 194 0
173 196 0
170 193 0
173 197 0
170 193 0
171 194 0
170 194 0
171 194 0
169 194 0
170 194 0
171 195 0
170 194 0
171 194 0
168 191 0
169 193 0
171 195 0
170 194 0
170 194 0
166 189 0
168 192 0
169 193 0
173 197 0
167 191 0
167 190 0
166 189 0
168 192 0
169 192 0
171 193 0
165 189 0
173 196 0
167 190 0
167 191 0
169 192 0
167 191 0
170 193 0
169 192 0
168 192 0
175 197 0
168 192 0
170 193 0
168 191 0
167 191 0
167 191 0
164 187 0
166 190 0
163 186 0
170 194 0
164 188 0
168 191 0
165 189 0
171 193 0
165 190 0
166 188 0
167 191 0
163 186 0
163 186 0
164 187 0
167 190 0
166 189 0
162 186 0
162 185 0
166 189 0
167 191 0
161 184 0
162 186 0
168 191 0
163 187 0
166 190 0
161 185 0
164 187 0
162 186 0
166 187 0
162 186 0
160 182 0
162 186 0
162 186 0
156 179 0
163 186 0
157 180 0
164 188 0
158 180 0
157 181 0
160 183 0
164 187 0
160 183 0
156 179 0
153 175 0
163 186 0
165 188 0
163 185 0
156 179 0
149 172 0
159 183 0
152 175 0
158 181 0
153 175 0
157 180 0
144 166 0
160 183 0
152 174 0
150 173 0
151 174 0
152 175 0
151 174 0
160 182 0
152 174 0
142 164 0
148 171 0
147 169 0
153 175 0
149 170 0
154 175 0
148 168 0
146 168 0
145 166 0
137 157 0
149 171 0
146 167 0
150 171 0
146 169 0
139 160 0
136 157 0
143 164 0
140 161 0
143 164 0
137 158 0
136 157 0
142 163 0
145 166 0
138 158 0
137 158 0
134 155 0
124 145 0
127 148 0
128 147 0
118 137 0
132 152 0
124 144 0
124 144 0
121 138 0
114 131 0
123 141 0
119 137 0
123 141 0
117 133 0
108 125 0
104 121 0
103 120 0
107 124 0
104 120 0
110 128 0
107 124 0
109 126 0
99 116 0
92 108 0
90 105 0
101 117 0
101 117 0
103 118 0
98 113 0
83 99 18
93 107 25
79 93 36
72 86 18
87 101 31
79 94 25
70 83 31
68 83 57
92 108 57
78 94 62
74 90 54
62 77 44
69 87 51
59 78 60
58 78 58
59 78 62
56 75 41
68 84 40
62 77 31
52 70 49
67 83 47
57 74 42
74 88 44
64 80 44
72 84 37
83 95 19
74 85 31
80 90 36
66 78 25
83 93 32
79 89 0
92 102 0
82 91 0
83 92 0
103 113 0
91 100 0
97 105 0
114 122 8
115 122 8
101 109 11
123 130 8
121 127 0
115 121 8
116 120 14
113 118 11
118 122 16
124 128 24
134 137 30
135 136 38
121 123 22
135 133 42
140 139 42
146 144 45
147 142 56
142 139 42
145 140 56
141 139 37
155 150 56
155 150 60
159 153 62
164 157 66
160 154 63
164 158 65
168 161 75
173 165 82
172 164 75
166 160 66
175 166 81
176 167 84
173 165 82
176 167 84
180 170 90
180 170 91
177 169 90
178 170 89
178 169 90
181 172 97
181 172 97
180 172 98
182 173 100
184 174 104
183 173 104
185 174 104
183 174 104
184 174 106
183 174 105
181 173 103
183 174 106
186 176 109
186 176 109
183 174 108
184 175 109
184 176 112
185 176 112
183 175 110
184 175 110
184 175 110
184 175 112
185 176 113
185 176 112
182 175 113
182 175 113
184 176 113
181 174 113
183 175 114
183 175 114
183 175 114
182 174 113
183 175 114
181 174 114
183 175 114
183 175 114
184 176 114
181 174 114
181 174 114
182 175 114
183 175 114
184 176 114
181 174 114
181 174 114
181 174 114
182 175 114
179 174 114
182 175 114
181 174 114
182 175 114
182 175 114
181 175 114
183 175 114
183 175 114
182 175 114
183 175 114
184 176 114
184 176 114
184 176 114
185 176 114
185 176 114
186 177 114
185 176 114
185 176 114
185 176 113
185 176 113
186 177 113
187 177 114
185 176 112
184 175 110
185 175 109
185 176 112
185 175 108
186 176 109
187 177 111
186 176 108
186 176 109
185 175 107
184 174 101
182 172 100
183 173 98
184 174 101
184 173 99
179 171 95
181 172 95
181 172 96
178 169 89
178 169 87
178 169 87
180 170 87
176 168 84
176 167 81
173 165 78
177 170 84
174 167 76
174 168 73
172 167 70
173 168 71
179 174 81
171 170 64
172 174 59
170 173 56
169 172 54
172 175 59
167 170 51
171 175 52
171 180 42
171 177 53
168 178 42
169 179 36
167 180 28
166 176 25
168 181 22
169 183 22
167 184 16
166 182 11
167 183 0
166 183 11
167 184 0
166 184 0
169 187 0
169 189 0
169 189 0
168 188 0
169 190 0
165 188 0
171 194 0
171 193 0
170 192 0
173 195 0
172 193 0
172 194 0
169 191 0
171 193 0
169 192 0
171 192 0
172 194 0
170 192 0
173 195 0
171 193 0
171 195 0
170 194 0
172 195 0
170 193 0
172 196 0
171 194 0
171 196 0
172 195 0
171 195 0
170 193 0
169 193 0
170 194 0
173 197 0
173 196 0
170 195 0
175 198 0
173 196 0
166 190 0
173 196 0
170 193 0
168 192 0
173 195 0
173 196 0
171 194 0
171 193 0
169 193 0
170 194 0
168 191 0
169 191 0
173 197 0
171 195 0
172 197 0
167 191 0
172 196 0
170 194 0
172 195 0
171 195 0
173 196 0
170 193 0
168 192 0
172 195 0
167 191 0
168 192 0
171 195 0
169 193 0
171 194 0
167 191 0
168 192 0
171 195 0
173 195 0
168 191 0
169 194 0
170 192 0
169 193 0
167 189 0
169 192 0
171 194 0
169 192 0
169 192 0
171 194 0
167 191 0
170 193 0
170 193 0
167 190 0
165 188 0
165 187 0
167 191 0
169 193 0
169 193 0
169 193 0
168 191 0
167 191 0
167 190 0
168 192 0
166 190 0
168 192 0
164 187 0
167 191 0
168 191 0
166 190 0
166 189 0
163 187 0
167 190 0
168 191 0
168 191 0
167 189 0
161 184 0
163 186 0
167 190 0
165 188 0
165 187 0
161 185 0
159 182 0
164 188 0
164 186 0
157 179 0
164 187 0
164 188 0
163 185 0
157 180 0
163 186 0
157 182 0
157 181 0
160 184 0
163 185 0
163 187 0
158 180 0
162 184 0
157 180 0
162 185 0
159 183 0
157 180 0
156 179 0
152 176 0
157 179 0
152 175 0
155 176 0
157 180 0
163 186 0
156 179 0
160 183 0
154 176 0
158 181 0
157 181 0
159 181 0
150 173 0
151 174 0
139 161 0
153 176 0
148 171 0
142 164 0
152 174 0
147 169 0
148 169 0
152 175 0
141 165 0
144 165 0
151 173 0
150 171 0
149 170 0
147 168 0
145 166 0
153 174 0
135 156 0
137 158 0
131 151 0
143 165 0
148 170 0
140 162 0
135 156 0
136 157 0
130 151 0
137 159 0
143 163 0
134 155 0
142 162 0
137 157 0
126 147 0
130 150 0
127 148 0
124 145 0
126 145 0
119 135 0
124 142 0
124 143 0
130 149 0
118 137 0
108 127 0
120 138 0
117 135 0
123 141 0
108 126 0
130 146 0
108 126 0
105 124 0
111 128 0
100 117 0
94 110 0
105 120 0
109 125 0
100 115 0
103 119 0
104 119 0
100 116 0
98 113 0
90 104 0
87 101 0
97 111 0
73 86 0
80 95 0
81 95 40
94 107 36
94 108 36
74 87 8
82 96 36
68 81 31
95 108 36
70 81 25
86 99 44
71 84 40
75 86 31
85 96 25
76 87 31
87 98 18
67 80 18
66 79 18
78 90 18
74 87 25
87 99 25
82 94 25
84 94 18
103 115 19
90 102 0
95 105 0
90 101 0
94 104 0
88 96 0
97 106 0
89 99 0
105 114 0
104 112 0
102 109 3
108 116 0
108 118 0
110 117 8
116 124 8
113 119 0
115 122 0
127 130 0
124 127 16
126 130 16
132 135 16
132 133 30
138 139 33
137 138 35
138 138 22
152 150 44
146 143 48
150 145 56
152 147 50
157 150 63
156 150 56
153 147 54
159 153 57
159 152 66
166 159 69
160 154 60
163 156 65
167 160 70
170 163 74
170 162 74
172 164 75
173 165 78
175 167 80
177 168 86
176 167 84
177 169 87
179 170 90
180 170 90
174 167 84
179 170 95
179 170 93
184 173 101
182 173 101
182 172 99
181 172 98
183 174 103
182 173 103
184 175 106
183 174 103
187 176 110
184 175 107
184 175 108
184 175 107
183 174 106
185 176 112
184 175 108
184 175 109
184 175 111
183 174 109
185 176 112
184 175 112
182 174 109
185 176 112
182 175 112
184 175 113
183 175 113
184 176 113
184 175 112
184 176 113
181 174 113
183 175 114
183 175 113
183 175 114
183 175 114
183 175 113
183 175 114
184 176 114
181 174 114
183 175 114
183 175 114
183 175 114
182 175 114
182 175 114
183 175 114
181 174 114
182 175 114
182 175 114
183 175 114
184 176 113
184 176 114
181 175 114
182 175 114
183 175 114
184 176 114
183 175 114
184 176 113
184 176 114
184 175 113
186 177 114
186 177 114
186 177 114
186 177 114
184 175 112
186 176 113
185 176 112
187 177 113
187 177 113
185 176 110
188 177 112
187 177 111
186 176 112
184 175 108
183 174 104
187 177 109
183 174 103
185 175 106
184 174 104
185 175 104
183 173 101
183 173 102
181 172 96
180 171 97
183 173 97
179 170 92
180 171 92
183 172 95
179 170 92
177 169 85
178 169 87
177 169 87
177 169 87
175 167 77
175 167 80
172 168 70
169 166 63
170 167 63
174 169 75
172 169 67
173 169 69
171 171 62
171 172 62
167 170 53
172 175 58
170 176 54
170 179 42
171 177 48
171 181 48
169 175 47
167 177 36
165 178 22
170 182 41
168 180 32
168 182 25
167 181 25
169 183 22
169 185 16
166 183 16
167 186 0
169 187 0
168 187 0
170 191 0
171 191 0
171 192 0
170 191 0
169 190 0
172 194 0
171 193 0
167 189 0
170 192 0
170 192 0
171 193 0
172 195 0
170 193 0
173 195 0
169 191 0
173 196 0
171 192 0
172 194 0
169 191 0
170 194 0
172 195 0
174 197 0
171 194 0
171 195 0
169 193 0
172 195 0
171 195 0
169 194 0
173 196 0
171 195 0
172 195 0
172 195 0
171 195 0
169 192 0
166 190 0
171 194 0
171 194 0
171 194 0
166 190 0
172 195 0
172 195 0
171 195 0
171 195 0
171 195 0
173 196 0
171 195 0
169 192 0
173 196 0
170 193 0
170 194 0
167 190 0
168 192 0
169 193 0
170 193 0
170 194 0
167 191 0
168 192 0
166 190 0
172 195 0
171 194 0
168 192 0
171 194 0
171 194 0
171 195 0
167 191 0
167 190 0
172 194 0
169 193 0
165 188 0
171 195 0
172 195 0
171 195 0
168 192 0
165 189 0
170 193 0
171 194 0
169 193 0
169 192 0
166 189 0
172 195 0
167 191 0
165 189 0
165 188 0
169 192 0
166 190 0
166 189 0
171 195 0
169 192 0
166 190 0
161 185 0
166 189 0
166 189 0
167 191 0
165 189 0
166 189 0
167 191 0
168 192 0
164 188 0
165 188 0
169 192 0
163 187 0
161 185 0
166 189 0
163 186 0
169 192 0
162 185 0
161 184 0
162 184 0
158 182 0
165 189 0
165 188 0
168 191 0
164 187 0
169 191 0
164 187 0
161 184 0
157 181 0
163 187 0
163 186 0
160 183 0
159 182 0
163 186 0
160 184 0
164 187 0
160 183 0
160 183 0
159 182 0
157 179 0
159 182 0
160 182 0
157 179 0
160 183 0
157 180 0
155 177 0
162 185 0
158 180 0
155 179 0
157 179 0
157 179 0
154 178 0
154 178 0
157 179 0
156 178 0
159 181 0
151 174 0
151 173 0
151 172 0
152 174 0
158 181 0
159 180 0
153 174 0
146 169 0
145 167 0
143 165 0
149 171 0
153 176 0
138 160 0
148 169 0
142 164 0
150 172 0
143 164 0
142 164 0
138 160 0
131 152 0
133 154 0
137 158 0
138 159 0
141 161 0
136 156 0
137 158 0
131 152 0
126 147 0
126 146 0
131 150 0
131 150 0
119 139 0
128 147 0
127 145 0
133 154 0
127 147 0
122 141 0
120 139 0
126 146 0
126 145 0
126 145 0
122 140 0
117 136 0
118 136 0
126 143 0
120 139 0
111 129 0
115 133 0
122 139 0
126 142 0
112 131 0
103 119 0
112 129 0
97 113 0
106 121 0
116 131 0
102 117 0
94 110 0
98 112 0
101 117 0
101 117 0
87 101 0
89 103 0
90 104 0
103 116 0
95 107 0
91 105 0
88 100 0
88 100 0
86 99 0
82 94 0
102 116 0
88 98 8
80 92 0
77 87 0
74 85 0
84 95 18
76 85 0
82 94 0
69 79 0
79 90 0
84 95 0
90 100 0
82 92 0
89 100 0
88 99 0
93 102 0
97 108 0
88 100 0
82 91 0
100 110 0
78 89 0
104 114 0
101 111 0
99 108 0
101 111 0
103 111 0
109 117 0
108 116 8
108 115 0
121 128 0
120 125 8
121 126 0
125 131 8
124 126 14
133 136 16
131 134 0
133 136 11
128 130 26
134 133 34
135 133 36
138 136 37
134 132 35
146 144 42
147 141 54
145 140 45
153 148 45
148 143 51
156 151 59
159 152 59
165 158 66
166 159 68
165 158 64
168 161 73
170 162 75
170 163 71
173 165 80
172 164 77
175 166 83
174 166 80
175 167 84
177 168 87
179 170 88
179 170 90
175 167 86
175 167 84
180 171 93
181 172 95
181 172 97
182 172 100
182 173 101
184 174 103
183 173 102
182 173 101
183 174 103
184 175 106
183 174 104
183 174 104
182 173 103
183 174 109
183 174 106
185 175 109
184 175 110
184 175 108
185 176 111
184 175 112
182 174 111
183 175 109
187 177 113
182 174 111
182 174 110
183 175 110
183 175 110
184 175 112
183 175 112
183 175 114
183 175 113
182 174 113
185 176 113
182 175 113
183 175 113
181 174 111
182 174 113
183 175 113
184 176 114
183 175 114
183 175 114
183 175 114
182 175 113
183 175 113
183 175 113
183 175 113
183 175 114
185 176 114
184 176 114
182 175 113
183 175 113
184 176 113
184 176 114
183 175 113
186 176 113
183 175 113
185 176 113
184 175 113
184 175 112
184 175 113
188 177 113
185 176 114
184 175 113
186 176 113
186 176 112
185 175 110
187 176 110
183 174 109
186 176 111
184 175 107
184 175 108
186 176 108
187 176 110
185 175 106
186 175 106
183 173 103
185 175 104
180 171 94
182 173 99
185 175 104
183 173 96
182 172 97
182 172 97
179 170 93
178 169 89
177 169 87
179 170 90
178 169 89
176 167 84
180 170 90
176 168 84
174 167 78
175 168 77
174 168 74
172 169 70
172 168 69
170 165 64
174 172 66
173 171 65
170 169 62
168 171 48
170 167 62
171 175 57
167 171 51
172 178 49
169 174 52
169 176 51
168 179 32
169 179 41
166 177 36
170 184 28
166 181 22
166 181 19
169 186 19
169 185 22
165 180 19
168 185 11
168 185 0
170 188 0
169 189 0
167 185 0
167 186 0
170 190 0
171 193 0
170 192 0
167 188 0
170 190 0
169 190 0
169 191 0
170 191 0
170 192 0
172 193 0
169 191 0
170 193 0
172 193 0
170 192 0
172 194 0
170 192 0
170 192 0
172 195 0
170 195 0
170 193 0
173 197 0
173 196 0
171 194 0
174 197 0
167 190 0
172 195 0
173 196 0
169 193 0
169 193 0
169 192 0
174 198 0
170 194 0
172 195 0
171 195 0
171 195 0
170 193 0
169 193 0
169 192 0
171 194 0
170 193 0
170 194 0
170 194 0
173 196 0
171 195 0
169 193 0
172 196 0
172 196 0
169 192 0
171 195 0
169 193 0
169 192 0
171 195 0
168 192 0
167 191 0
173 196 0
169 193 0
169 193 0
173 196 0
172 194 0
172 195 0
169 193 0
171 195 0
172 194 0
165 189 0
170 194 0
169 192 0
167 191 0
172 196 0
165 188 0
168 192 0
165 189 0
169 192 0
168 191 0
167 190 0
171 194 0
169 192 0
169 192 0
170 193 0
166 189 0
166 189 0
167 191 0
170 192 0
167 190 0
169 192 0
163 186 0
169 192 0
166 190 0
164 187 0
166 189 0
165 189 0
162 186 0
163 186 0
168 192 0
166 189 0
165 188 0
162 186 0
169 192 0
167 191 0
164 188 0
161 185 0
162 185 0
166 188 0
165 188 0
167 191 0
163 186 0
165 188 0
164 188 0
160 183 0
167 190 0
166 189 0
161 185 0
169 193 0
165 188 0
158 181 0
161 185 0
161 184 0
155 177 0
160 184 0
162 186 0
162 184 0
165 188 0
158 181 0
161 185 0
159 182 0
165 188 0
160 183 0
160 183 0
153 176 0
148 169 0
154 177 0
158 181 0
157 179 0
156 179 0
156 179 0
157 181 0
152 174 0
155 178 0
158 181 0
158 181 0
152 176 0
153 176 0
157 179 0
146 169 0
145 168 0
143 166 0
152 174 0
149 171 0
157 179 0
148 171 0
155 177 0
140 162 0
156 178 0
149 170 0
140 160 0
148 170 0
146 168 0
148 169 0
146 168 0
149 170 0
144 166 0
142 163 0
142 164 0
146 167 0
145 165 0
143 163 0
147 167 0
133 155 0
135 156 0
139 160 0
136 156 0
143 163 0
129 147 0
132 153 0
135 156 0
128 147 0
126 146 0
122 141 0
131 150 0
126 145 0
125 145 0
134 154 0
129 147 0
124 143 0
115 133 0
120 139 0
116 135 0
120 138 0
115 132 0
113 129 0
110 129 0
123 141 0
116 134 0
110 128 0
112 129 0
120 137 0
109 126 0
105 120 0
107 123 0
89 105 0
113 127 0
98 113 0
111 125 0
105 120 0
95 108 0
101 117 0
95 108 0
97 113 0
93 107 0
87 98 0
90 103 0
77 89 0
89 102 0
89 102 0
84 97 0
90 103 0
90 103 0
102 113 0
74 86 0
95 107 0
80 91 0
91 104 0
87 98 0
83 94 0
93 104 0
92 104 0
89 102 0
78 88 0
89 97 0
86 98 0
87 97 0
94 104 0
93 105 0
94 105 0
92 103 0
94 104 0
94 102 0
93 102 0
101 111 0
103 109 0
105 112 0
105 112 0
105 112 0
117 123 0
114 120 0
120 127 0
126 134 0
114 117 11
124 126 11
126 129 14
131 132 21
129 130 25
143 141 42
142 140 35
146 142 49
140 139 38
142 140 39
146 141 41
156 151 52
153 147 51
156 150 57
159 154 54
163 156 63
168 160 68
164 158 64
168 161 70
166 160 68
167 161 64
175 166 83
170 163 73
176 168 83
169 162 73
172 164 80
177 168 88
173 165 80
178 169 87
177 168 84
180 171 93
179 170 90
175 167 84
180 171 93
180 171 97
181 171 95
182 172 99
184 174 102
186 175 106
180 171 99
182 173 101
182 173 100
183 174 104
183 174 104
183 173 103
183 174 107
185 175 108
182 174 106
184 174 105
185 175 109
185 176 110
184 174 106
185 176 112
182 174 109
185 175 109
182 174 108
182 174 112
184 175 111
183 175 112
185 176 114
184 176 113
184 175 112
183 175 111
182 175 113
183 175 113
183 175 110
181 174 109
183 175 111
184 176 114
183 175 113
183 175 113
183 175 114
185 176 113
185 176 112
183 175 112
184 176 114
184 176 113
183 175 113
185 176 113
183 175 113
182 175 113
184 176 114
183 175 112
183 175 113
184 176 113
185 176 113
183 175 113
184 175 112
184 175 112
185 176 112
186 176 112
185 176 111
183 175 110
184 175 110
186 177 113
183 174 109
186 176 110
185 176 111
184 175 108
184 175 107
188 177 111
184 175 107
184 174 103
185 175 107
183 174 105
184 174 103
182 172 99
183 173 103
183 173 100
187 176 105
185 175 103
183 173 99
180 171 92
183 173 98
178 170 90
185 174 99
179 170 90
178 169 89
177 168 86
176 167 85
176 167 83
178 169 86
177 168 80
175 168 80
172 167 69
171 167 67
171 167 69
171 168 68
173 168 69
168 165 64
172 174 62
170 170 60
170 170 56
170 172 51
170 175 52
171 176 53
171 178 45
171 175 48
168 177 37
168 181 34
169 180 39
164 177 22
169 179 34
166 181 19
168 184 22
168 185 16
166 181 19
167 185 11
168 185 11
166 183 11
166 185 0
171 191 0
167 186 0
165 185 0
169 191 0
170 191 0
171 193 0
173 193 0
172 193 0
170 191 0
172 193 0
171 193 0
171 193 0
173 195 0
171 193 0
171 193 0
167 188 0
170 191 0
172 195 0
173 195 0
170 192 0
174 197 0
170 194 0
171 194 0
171 194 0
170 193 0
172 196 0
171 195 0
171 195 0
172 195 0
170 194 0
172 195 0
170 193 0
168 191 0
170 193 0
170 193 0
170 194 0
171 196 0
168 192 0
169 193 0
170 194 0
173 196 0
170 193 0
171 194 0
171 194 0
169 193 0
173 196 0
173 196 0
170 194 0
172 196 0
168 192 0
171 193 0
173 196 0
172 195 0
168 191 0
169 193 0
171 195 0
172 196 0
172 195 0
173 196 0
169 192 0
167 191 0
166 189 0
170 193 0
168 191 0
167 190 0
171 194 0
173 196 0
169 192 0
173 195 0
169 192 0
169 193 0
173 197 0
171 195 0
168 192 0
168 191 0
166 189 0
168 191 0
164 188 0
165 189 0
170 193 0
168 191 0
166 190 0
170 193 0
166 189 0
165 189 0
168 191 0
165 189 0
165 189 0
169 192 0
167 192 0
169 193 0
167 190 0
167 191 0
164 187 0
161 185 0
168 192 0
164 187 0
168 192 0
168 191 0
168 191 0
166 189 0
167 190 0
166 190 0
167 191 0
163 187 0
166 190 0
163 187 0
162 185 0
160 183 0
168 192 0
168 191 0
158 181 0
161 185 0
164 188 0
159 183 0
162 184 0
159 180 0
164 187 0
161 185 0
166 189 0
162 185 0
163 185 0
163 187 0
155 178 0
156 179 0
157 180 0
163 185 0
153 177 0
160 182 0
154 177 0
162 185 0
155 178 0
157 180 0
158 181 0
157 180 0
163 186 0
156 179 0
160 183 0
160 183 0
160 182 0
161 183 0
150 172 0
150 172 0
157 179 0
153 176 0
156 178 0
152 175 0
154 176 0
153 175 0
156 178 0
157 179 0
150 172 0
153 176 0
145 167 0
143 165 0
152 174 0
145 167 0
141 163 0
141 163 0
152 174 0
143 165 0
144 165 0
153 175 0
143 165 0
143 163 0
146 168 0
139 160 0
146 167 0
154 175 0
135 157 0
141 161 0
149 170 0
127 148 0
135 155 0
135 156 0
136 156 0
130 149 0
118 136 0
134 153 0
131 150 0
129 149 0
127 147 0
133 151 0
127 147 0
117 136 0
127 146 0
125 144 0
118 136 0
115 132 0
121 137 0
115 135 0
108 126 0
113 131 0
104 119 0
119 137 0
111 128 0
115 132 0
114 129 0
101 117 0
109 124 0
108 125 0
112 128 0
103 118 0
99 114 0
100 115 0
104 119 0
82 96 0
86 100 0
104 117 0
91 106 0
95 110 0
93 107 0
100 113 0
96 108 0
89 104 0
96 110 0
95 107 0
93 106 0
78 89 0
88 100 0
90 102 0
91 102 0
93 108 0
90 102 0
89 101 0
95 107 0
92 105 0
98 109 0
87 99 0
83 91 0
89 100 0
79 91 0
84 96 0
96 108 0
96 106 0
108 117 0
105 113 0
109 119 0
96 104 0
102 112 0
110 120 0
101 112 0
109 115 0
123 131 0
108 115 0
115 121 0
118 122 0
114 120 0
117 120 0
127 130 16
123 126 11
127 129 28
126 128 28
129 131 19
137 137 28
133 133 32
133 132 30
138 134 32
143 141 34
147 144 39
152 148 47
147 143 44
151 145 60
159 153 58
163 157 62
162 155 57
163 157 62
164 158 62
170 162 68
170 161 72
166 159 70
167 160 69
169 162 74
165 159 71
175 166 84
172 164 75
176 168 81
174 166 80
178 169 89
179 170 91
178 169 90
177 169 87
177 169 90
181 171 96
180 170 94
178 170 90
177 169 89
180 171 93
183 173 101
183 173 102
181 172 101
184 174 104
184 174 103
182 173 103
182 173 103
182 173 104
182 173 104
185 175 106
183 175 109
184 175 108
184 175 109
184 174 104
183 174 108
184 175 109
183 175 110
184 175 109
183 175 111
185 176 111
183 174 109
183 175 110
184 175 112
183 174 108
183 175 111
183 175 110
182 174 110
183 175 114
184 175 113
181 174 110
183 175 112
183 175 110
182 174 110
185 176 112
184 175 110
183 175 112
184 175 113
184 176 113
184 176 113
184 176 113
183 175 111
183 175 111
184 175 112
184 175 111
183 175 112
185 176 111
185 175 110
183 175 112
186 176 113
185 176 111
184 175 109
184 175 109
185 175 110
184 175 112
184 175 109
185 175 110
185 176 110
187 176 109
185 175 108
186 176 109
186 176 108
182 174 105
184 174 106
183 173 100
182 173 101
181 172 99
183 173 103
181 172 99
183 173 101
181 171 95
182 172 97
182 172 97
183 173 98
178 169 91
179 170 90
176 168 84
181 171 91
179 170 89
177 168 84
181 171 91
177 168 85
176 167 81
175 167 77
169 162 68
172 166 75
170 166 67
170 165 71
166 161 61
176 169 74
168 165 60
169 166 63
169 169 59
170 168 65
166 170 48
167 170 48
171 171 57
170 175 44
168 175 45
170 177 42
172 178 53
168 179 32
165 177 30
168 179 37
166 179 28
165 178 22
163 174 32
164 179 0
165 180 16
167 183 16
167 183 11
167 186 0
166 184 0
164 183 0
167 188 0
168 188 0
172 191 0
170 189 0
169 191 0
173 195 0
170 192 0
170 192 0
172 194 0
171 193 0
169 193 0
171 193 0
169 191 0
170 191 0
172 194 0
171 193 0
171 191 0
173 195 0
172 193 0
173 197 0
171 194 0
172 195 0
174 197 0
168 193 0
171 195 0
172 195 0
168 192 0
169 193 0
172 195 0
174 197 0
170 193 0
173 196 0
172 196 0
172 195 0
170 194 0
166 190 0
172 196 0
169 192 0
171 194 0
172 195 0
170 194 0
167 191 0
167 191 0
173 197 0
174 197 0
172 195 0
170 193 0
171 195 0
165 190 0
169 192 0
169 194 0
170 194 0
172 195 0
172 195 0
169 193 0
171 195 0
170 194 0
172 196 0
171 194 0
169 192 0
172 195 0
171 195 0
166 190 0
168 192 0
172 195 0
171 193 0
169 193 0
167 192 0
169 192 0
171 194 0
169 192 0
173 196 0
168 191 0
170 193 0
168 192 0
169 192 0
167 189 0
169 191 0
166 190 0
169 192 0
171 194 0
169 192 0
163 186 0
167 190 0
174 197 0
166 189 0
165 188 0
170 193 0
165 189 0
161 185 0
164 187 0
167 190 0
166 189 0
165 189 0
160 183 0
169 191 0
168 190 0
163 187 0
164 187 0
168 192 0
159 183 0
167 190 0
164 188 0
165 187 0
162 185 0
162 186 0
167 191 0
159 183 0
162 185 0
163 186 0
161 185 0
169 192 0
164 188 0
169 191 0
166 189 0
167 191 0
160 182 0
165 188 0
163 187 0
162 184 0
165 187 0
155 178 0
161 184 0
160 184 0
160 183 0
162 185 0
154 177 0
159 182 0
158 181 0
157 180 0
159 181 0
157 179 0
158 181 0
159 182 0
160 183 0
159 182 0
145 168 0
159 182 0
156 179 0
149 171 0
150 172 0
157 180 0
153 175 0
157 179 0
153 175 0
149 171 0
152 172 0
160 183 0
147 168 0
144 165 0
153 176 0
150 173 0
146 168 0
148 170 0
146 168 0
144 165 0
144 167 0
149 172 0
144 165 0
149 170 0
144 166 0
144 165 0
145 167 0
156 177 0
151 174 0
142 163 0
140 162 0
136 157 0
137 158 0
138 159 0
141 162 0
139 160 0
140 159 0
131 151 0
124 144 0
139 159 0
128 147 0
129 149 0
137 158 0
121 140 0
126 145 0
121 140 0
131 150 0
131 151 0
126 146 0
122 139 0
118 137 0
126 145 0
121 139 0
113 131 0
112 131 0
119 137 0
108 125 0
111 128 0
116 133 0
122 139 0
108 125 0
107 123 0
110 126 0
113 130 0
112 127 0
112 127 0
110 125 0
102 118 0
98 112 0
109 123 0
100 113 0
92 105 0
96 111 0
92 105 0
95 111 0
107 121 0
95 109 0
91 104 0
88 102 0
84 98 0
92 105 0
97 109 0
92 105 0
94 107 0
85 98 0
95 106 0
93 107 0
101 113 0
96 110 0
87 98 0
94 107 0
97 110 0
94 105 0
87 100 0
101 113 0
97 108 0
99 111 0
85 93 0
91 99 0
90 98 0
110 121 0
105 116 0
95 102 0
99 108 0
91 100 0
107 114 0
106 112 0
113 121 0
107 113 0
108 113 0
126 132 0
119 127 0
120 125 11
126 130 0
140 143 19
135 137 22
128 129 25
133 135 28
134 132 32
147 146 37
145 143 30
148 145 47
146 142 42
138 135 39
149 144 49
153 148 51
151 147 45
158 152 59
158 152 53
155 150 54
162 156 65
165 159 59
167 160 70
171 163 75
167 160 66
172 164 75
170 163 71
174 166 80
173 165 76
175 167 81
173 166 81
178 168 87
176 168 87
177 168 84
179 169 91
179 170 94
180 171 93
179 170 91
182 172 97
180 171 96
181 172 97
181 172 97
182 172 97
181 172 97
183 173 101
178 170 93
179 171 99
184 173 101
181 173 104
181 172 101
182 173 104
184 175 109
183 174 105
182 174 106
183 174 108
182 174 105
184 174 106
182 174 105
184 175 109
184 175 108
184 175 110
183 174 109
182 174 109
184 175 110
183 175 111
184 175 110
183 175 110
184 176 112
183 174 109
183 175 112
184 175 112
181 173 108
184 175 112
184 175 113
182 174 110
185 176 113
183 175 112
183 175 112
184 175 111
184 175 108
183 175 110
182 174 110
184 175 111
185 176 111
184 175 110
183 175 111
182 174 109
185 176 110
182 174 108
184 175 111
183 175 109
183 174 106
184 175 108
185 175 110
185 176 110
185 175 108
185 175 108
185 175 106
185 175 109
184 174 105
184 174 104
185 175 106
185 175 106
184 174 104
183 174 101
183 174 103
183 173 101
184 174 104
183 174 104
184 174 99
181 172 97
184 174 101
182 173 99
180 171 91
177 168 86
180 170 90
179 170 92
177 168 87
177 168 82
177 169 85
176 167 83
175 167 82
174 166 80
175 167 78
175 166 78
170 165 68
170 165 67
170 165 64
172 167 70
172 167 65
173 170 66
169 167 58
172 170 64
170 170 60
165 169 48
169 172 57
169 175 51
170 171 54
167 173 45
167 179 32
167 175 34
166 177 28
162 172 25
166 176 41
167 181 30
165 179 19
167 182 25
166 180 25
166 180 11
167 185 11
166 180 0
167 185 0
167 182 0
169 190 0
165 184 0
171 191 0
165 183 0
170 191 0
172 195 0
172 194 0
169 190 0
169 191 0
171 194 0
172 194 0
172 193 0
172 193 0
167 189 0
167 189 0
172 194 0
170 191 0
169 191 0
171 193 0
171 194 0
170 193 0
169 194 0
173 196 0
173 197 0
171 196 0
171 194 0
170 194 0
173 196 0
172 195 0
167 190 0
171 195 0
173 196 0
173 196 0
172 196 0
173 197 0
172 195 0
170 193 0
170 194 0
173 196 0
170 194 0
170 194 0
170 194 0
172 195 0
168 191 0
173 196 0
166 189 0
172 196 0
171 194 0
173 196 0
173 197 0
168 192 0
170 194 0
168 192 0
170 195 0
169 192 0
172 195 0
169 192 0
170 193 0
166 190 0
170 194 0
169 192 0
166 190 0
170 194 0
170 193 0
170 193 0
166 189 0
167 190 0
168 191 0
170 194 0
169 192 0
169 192 0
171 195 0
170 193 0
172 196 0
171 194 0
169 192 0
169 192 0
167 191 0
168 192 0
164 188 0
166 190 0
168 192 0
166 189 0
165 188 0
169 192 0
168 192 0
171 195 0
171 194 0
171 195 0
171 194 0
169 192 0
167 190 0
168 192 0
168 191 0
169 192 0
163 185 0
165 188 0
164 188 0
163 187 0
170 194 0
162 185 0
167 191 0
165 189 0
162 184 0
166 189 0
166 190 0
161 185 0
163 187 0
167 190 0
162 185 0
165 188 0
165 188 0
166 189 0
165 188 0
164 187 0
158 181 0
161 184 0
166 189 0
157 179 0
160 182 0
162 184 0
163 187 0
166 190 0
165 188 0
167 190 0
158 180 0
161 183 0
162 186 0
161 184 0
154 177 0
163 186 0
156 178 0
161 185 0
163 187 0
153 175 0
146 169 0
157 180 0
153 175 0
158 181 0
161 183 0
160 183 0
155 178 0
152 175 0
150 173 0
148 170 0
158 180 0
148 170 0
152 174 0
149 172 0
152 174 0
150 172 0
149 170 0
152 174 0
149 170 0
148 171 0
155 177 0
158 180 0
147 168 0
141 164 0
152 175 0
148 169 0
142 164 0
148 170 0
139 161 0
146 167 0
141 163 0
140 161 0
149 170 0
137 158 0
136 156 0
146 166 0
144 165 0
143 163 0
134 155 0
130 151 0
138 156 0
136 156 0
138 159 0
128 148 0
129 148 0
136 154 0
129 149 0
130 149 0
129 147 0
121 139 0
134 152 0
126 144 0
128 149 0
124 143 0
118 136 0
118 136 0
129 147 0
118 136 0
116 134 0
109 127 0
114 131 0
107 124 0
119 136 0
104 121 0
102 117 0
123 140 0
95 111 0
103 118 0
88 103 0
110 125 0
108 125 0
113 128 0
95 108 0
100 115 0
96 109 0
99 115 0
83 96 0
95 109 0
96 110 0
100 114 0
99 114 0
91 104 0
90 104 0
105 117 0
103 117 0
99 111 0
105 118 0
103 116 0
102 116 0
89 102 0
93 107 0
99 111 0
85 95 0
96 110 0
98 110 0
99 110 0
90 103 0
103 114 0
101 111 0
98 109 0
100 111 0
98 110 0
88 98 0
93 104 0
114 124 0
106 116 0
109 118 0
104 113 0
113 120 0
101 108 0
119 125 0
128 135 0
125 130 0
119 124 0
119 124 0
122 125 0
132 135 0
127 129 11
126 125 25
135 136 32
133 132 28
138 137 30
136 136 28
139 138 30
143 141 34
148 144 34
146 143 47
144 141 32
162 156 53
157 152 57
161 155 64
158 152 54
161 154 63
163 156 66
168 161 66
168 160 69
164 157 60
171 163 74
172 164 73
172 164 73
172 164 78
174 166 78
172 164 74
175 167 82
175 167 81
175 166 83
174 166 84
176 168 87
179 170 92
181 171 94
179 170 93
176 168 88
179 170 93
180 171 95
182 173 100
182 173 100
181 172 97
181 172 99
181 172 99
180 172 100
182 173 101
183 173 102
184 174 104
184 175 106
184 174 105
183 174 105
183 174 105
183 174 106
182 173 103
183 174 106
185 176 111
184 175 109
182 173 105
184 175 109
183 175 110
184 175 108
185 175 110
185 175 110
183 174 107
184 175 111
184 175 109
182 174 106
185 176 109
183 175 110
183 175 110
183 175 109
186 176 113
182 174 109
182 174 110
185 176 112
182 173 106
185 175 109
186 176 112
184 175 110
182 174 109
183 174 109
184 175 112
183 175 110
182 174 107
182 174 111
185 176 109
186 176 111
184 175 110
183 174 108
185 176 111
186 176 111
183 174 106
184 174 106
184 175 109
184 174 103
184 175 106
183 173 102
186 176 109
186 175 106
185 175 106
182 173 100
180 171 97
185 175 105
184 174 101
183 173 100
182 172 97
181 172 94
181 172 97
182 172 97
182 172 98
179 170 91
175 167 85
181 171 90
179 169 91
179 170 90
177 169 86
175 166 81
175 166 80
173 165 75
175 167 79
174 167 77
174 166 74
176 168 80
170 166 64
169 165 60
174 168 71
174 168 71
172 170 60
171 169 57
169 169 54
170 171 51
169 173 49
169 173 51
172 175 57
168 173 37
166 173 36
165 174 32
164 171 28
167 178 32
169 181 32
168 178 30
165 178 28
164 176 25
168 183 22
169 187 0
169 187 22
169 186 0
167 184 0
165 184 0
166 185 0
167 186 0
169 186 0
165 185 0
170 190 0
168 188 0
171 192 0
169 190 0
168 191 0
168 190 0
172 195 0
169 189 0
170 191 0
170 191 0
168 189 0
172 194 0
172 194 0
172 195 0
173 195 0
171 192 0
169 190 0
170 194 0
170 193 0
171 194 0
170 194 0
172 196 0
172 195 0
171 195 0
171 193 0
173 196 0
174 196 0
173 196 0
172 196 0
170 194 0
174 196 0
173 196 0
171 195 0
172 196 0
173 197 0
169 192 0
172 196 0
168 192 0
169 193 0
167 192 0
173 196 0
172 195 0
171 194 0
171 195 0
171 193 0
173 196 0
168 192 0
171 195 0
169 193 0
170 194 0
170 194 0
173 196 0
169 192 0
172 195 0
166 190 0
170 193 0
168 192 0
167 191 0
170 194 0
168 191 0
169 192 0
169 193 0
171 194 0
171 194 0
170 193 0
166 190 0
169 192 0
166 188 0
169 192 0
170 194 0
172 196 0
170 193 0
167 189 0
173 196 0
171 193 0
168 191 0
169 193 0
169 192 0
170 193 0
168 191 0
167 189 0
170 193 0
166 190 0
163 188 0
167 189 0
167 191 0
168 191 0
168 192 0
171 194 0
166 190 0
166 189 0
159 182 0
171 195 0
166 189 0
166 190 0
165 188 0
164 187 0
163 186 0
170 192 0
167 190 0
169 192 0
166 190 0
167 191 0
163 186 0
166 189 0
162 186 0
165 188 0
167 189 0
167 190 0
161 183 0
164 187 0
163 186 0
164 188 0
161 184 0
159 182 0
161 185 0
165 187 0
160 184 0
160 182 0
164 187 0
161 185 0
161 184 0
164 187 0
162 185 0
158 180 0
161 185 0
157 180 0
159 182 0
161 184 0
159 181 0
162 184 0
161 185 0
149 172 0
149 171 0
160 182 0
156 179 0
158 181 0
153 175 0
151 173 0
161 183 0
158 181 0
155 178 0
153 175 0
153 176 0
157 180 0
146 168 0
153 176 0
155 177 0
153 175 0
143 164 0
153 175 0
152 174 0
150 173 0
138 161 0
141 161 0
151 172 0
140 163 0
149 170 0
150 172 0
145 168 0
141 162 0
134 155 0
128 149 0
146 168 0
151 172 0
139 159 0
142 163 0
143 165 0
139 160 0
138 158 0
135 155 0
142 163 0
131 152 0
137 157 0
129 149 0
131 150 0
130 150 0
128 147 0
112 132 0
128 147 0
129 147 0
117 136 0
131 150 0
118 137 0
127 145 0
116 136 0
129 147 0
119 138 0
120 138 0
118 135 0
113 129 0
120 137 0
131 150 0
115 131 0
124 141 0
111 129 0
113 130 0
119 136 0
113 128 0
103 120 0
113 129 0
103 119 0
96 111 0
102 119 0
106 123 0
101 115 0
106 121 0
101 115 0
89 102 0
113 128 0
99 114 0
96 110 0
102 116 0
93 106 0
97 113 0
95 108 0
94 107 0
97 110 0
92 103 0
107 118 0
104 118 0
110 122 0
99 111 0
107 119 0
101 114 0
103 116 0
75 88 0
89 100 0
103 116 0
101 114 0
101 114 0
114 125 0
97 109 0
109 121 0
101 114 0
96 107 0
107 115 0
106 112 0
114 122 0
113 120 0
106 114 0
110 116 0
114 122 0
118 122 0
122 127 0
122 125 0
115 119 0
121 124 0
125 127 16
134 137 11
128 130 11
127 126 11
140 141 22
137 136 32
137 136 28
140 140 22
141 138 32
148 145 39
155 150 48
152 148 37
143 139 44
159 153 53
153 149 48
154 149 53
163 157 62
162 156 63
161 155 57
161 156 57
170 162 74
165 159 59
167 161 65
169 162 70
170 163 74
173 165 75
173 165 80
173 165 77
173 165 80
172 164 75
174 166 81
178 169 90
180 170 91
176 168 87
175 167 82
179 170 92
180 171 93
182 172 96
179 171 95
179 171 97
180 171 97
180 171 95
183 173 99
182 173 99
181 172 99
181 172 101
182 173 104
182 173 101
181 172 99
184 174 104
182 173 103
181 172 103
181 172 101
182 173 104
182 173 104
180 172 104
184 175 107
184 175 108
185 176 110
185 175 108
183 175 109
184 175 107
183 174 106
182 174 109
183 174 108
183 174 109
183 174 107
185 176 110
183 174 108
183 174 108
183 174 108
183 174 108
182 174 108
183 174 108
184 175 109
185 176 109
182 173 106
183 174 107
181 173 108
185 176 110
183 174 108
183 174 107
182 173 106
184 175 109
186 176 110
185 175 109
185 175 109
183 174 106
183 174 107
184 175 107
185 175 107
184 174 106
184 174 104
182 174 105
184 174 106
181 172 99
186 175 108
184 174 103
185 175 104
182 173 101
185 175 107
183 173 101
181 172 100
181 172 98
182 172 97
181 171 95
180 171 93
183 173 97
178 169 89
180 171 93
179 170 90
177 168 85
178 169 87
179 170 88
176 167 81
175 167 80
175 166 79
177 167 84
172 164 71
173 165 75
170 163 69
171 165 71
174 169 73
172 166 70
173 169 72
169 165 63
169 167 58
168 167 58
166 166 47
165 169 47
175 176 60
172 173 56
170 174 53
168 173 49
168 174 41
169 175 49
167 177 30
166 175 37
164 176 25
165 175 25
169 182 34
165 178 16
166 181 11
168 183 19
163 179 0
165 181 0
169 190 0
166 184 0
171 190 0
170 188 0
164 183 0
168 187 0
169 190 0
168 190 0
169 189 0
169 191 0
172 194 0
169 191 0
166 186 0
169 193 0
171 193 0
174 194 0
171 191 0
167 190 0
171 192 0
172 194 0
171 195 0
168 191 0
172 193 0
169 192 0
171 194 0
170 194 0
166 190 0
169 193 0
172 196 0
173 196 0
170 194 0
171 194 0
171 194 0
171 195 0
172 195 0
173 196 0
169 193 0
171 194 0
168 192 0
174 197 0
172 194 0
171 194 0
171 195 0
170 193 0
173 196 0
170 194 0
173 197 0
171 194 0
170 194 0
171 195 0
170 192 0
171 194 0
173 196 0
171 195 0
169 194 0
170 194 0
168 192 0
172 196 0
169 192 0
171 195 0
168 192 0
171 194 0
171 194 0
169 193 0
169 193 0
167 192 0
167 189 0
168 192 0
168 191 0
167 191 0
170 193 0
168 192 0
167 190 0
167 190 0
168 192 0
167 191 0
168 192 0
169 192 0
167 191 0
171 194 0
170 193 0
169 193 0
169 192 0
165 187 0
168 191 0
164 186 0
167 189 0
167 191 0
165 188 0
169 192 0
164 187 0
164 188 0
168 191 0
168 191 0
166 188 0
168 191 0
166 189 0
167 190 0
166 189 0
171 195 0
165 189 0
164 187 0
166 189 0
164 187 0
167 191 0
167 191 0
161 184 0
161 184 0
163 187 0
169 192 0
161 185 0
159 182 0
160 183 0
161 185 0
163 186 0
169 193 0
165 187 0
164 187 0
166 188 0
162 185 0
163 186 0
161 184 0
158 181 0
165 188 0
163 187 0
157 181 0
162 185 0
157 180 0
160 183 0
160 181 0
156 179 0
163 187 0
160 183 0
158 182 0
160 183 0
157 181 0
156 178 0
151 173 0
154 177 0
155 177 0
160 183 0
154 177 0
153 175 0
156 178 0
155 179 0
157 179 0
161 183 0
146 167 0
153 174 0
161 184 0
157 179 0
149 172 0
151 173 0
151 173 0
152 175 0
148 171 0
152 175 0
151 175 0
148 170 0
149 171 0
154 176 0
147 170 0
156 178 0
146 168 0
143 165 0
142 165 0
145 166 0
142 163 0
144 167 0
148 171 0
141 162 0
149 170 0
135 156 0
145 165 0
142 163 0
147 168 0
139 161 0
132 153 0
134 155 0
131 151 0
139 159 0
140 161 0
137 158 0
132 152 0
135 155 0
132 151 0
141 161 0
131 151 0
122 141 0
128 148 0
125 143 0
135 153 0
126 145 0
116 134 0
115 133 0
110 128 0
130 148 0
123 141 0
130 150 0
111 127 0
115 132 0
116 135 0
114 130 0
103 121 0
102 118 0
109 125 0
119 135 0
108 126 0
115 130 0
100 116 0
111 128 0
113 127 0
112 128 0
103 115 0
105 120 0
104 119 0
112 128 0
96 109 0
113 128 0
98 111 0
96 108 0
93 105 0
87 100 0
100 111 0
100 114 0
99 112 0
108 121 0
83 96 0
94 108 0
109 123 0
90 103 0
102 114 0
106 116 0
98 108 0
110 121 0
118 131 0
103 116 0
102 115 0
106 119 0
114 125 0
106 116 0
98 107 0
100 111 0
98 108 0
108 115 0
120 131 0
111 116 0
113 120 0
121 126 0
112 119 0
127 135 0
113 118 0
125 130 0
127 132 0
122 124 11
129 131 0
129 131 19
134 136 0
135 135 16
134 133 22
137 135 30
146 143 39
143 140 36
148 144 39
145 140 45
152 147 49
154 148 53
154 149 37
156 150 52
159 152 56
163 157 59
163 156 59
160 154 57
168 161 70
166 158 66
167 161 70
169 162 72
172 163 74
169 161 75
174 166 80
173 165 79
174 166 79
172 164 74
176 167 82
175 167 80
181 171 93
178 169 87
180 170 91
180 170 93
177 169 87
178 170 90
177 168 90
178 169 90
181 171 95
182 172 96
181 172 99
179 171 95
180 171 97
183 173 101
179 171 97
185 175 105
181 172 99
181 172 99
181 172 101
182 173 104
182 173 102
179 171 99
179 171 98
182 173 103
184 174 104
181 173 103
183 174 104
185 175 108
185 176 109
184 174 104
182 173 103
183 174 107
182 173 105
183 174 106
182 174 107
183 174 106
183 174 105
183 175 109
184 175 109
183 174 107
185 176 111
183 174 108
184 175 108
184 175 106
185 176 110
184 175 107
185 175 107
183 174 107
180 172 101
183 174 107
184 175 108
184 175 106
183 174 106
183 174 104
185 175 106
183 174 106
181 173 102
184 174 104
183 174 103
182 174 106
185 175 106
183 174 104
185 175 108
186 176 107
184 174 105
184 175 106
181 172 99
185 174 103
179 171 95
181 172 97
182 173 99
181 171 95
181 171 95
178 169 88
180 171 93
180 171 93
179 170 91
182 172 95
181 172 95
180 170 90
179 170 89
179 170 88
182 171 93
174 166 77
173 165 75
172 165 73
174 166 80
174 166 78
169 162 67
170 164 67
173 167 70
174 168 75
170 164 67
170 166 64
168 166 57
165 163 52
172 171 65
166 168 44
167 167 52
171 175 53
165 170 39
167 173 41
168 175 34
166 170 41
166 171 42
163 172 28
166 174 34
168 179 32
165 179 25
165 178 28
167 183 19
166 180 16
167 182 11
163 178 0
167 183 0
165 183 0
167 184 0
164 183 0
169 191 0
169 190 0
168 187 0
168 189 0
166 188 0
169 190 0
166 187 0
167 188 0
168 188 0
169 190 0
171 192 0
171 193 0
167 190 0
169 191 0
173 195 0
170 192 0
169 190 0
171 194 0
173 194 0
169 191 0
172 195 0
173 196 0
171 194 0
169 192 0
172 196 0
169 193 0
171 196 0
170 193 0
171 195 0
173 195 0
173 197 0
172 196 0
172 195 0
167 192 0
172 195 0
174 197 0
171 194 0
171 194 0
168 192 0
172 196 0
169 192 0
172 195 0
172 196 0
168 191 0
169 192 0
173 195 0
170 194 0
172 196 0
168 192 0
172 196 0
168 192 0
172 195 0
170 193 0
167 191 0
171 195 0
169 192 0
170 193 0
170 192 0
167 189 0
169 193 0
172 194 0
169 193 0
167 191 0
168 191 0
170 193 0
168 191 0
171 196 0
168 192 0
171 194 0
167 191 0
165 189 0
168 191 0
168 192 0
166 190 0
170 193 0
171 194 0
167 190 0
168 192 0
168 192 0
168 191 0
172 195 0
166 189 0
167 189 0
170 193 0
166 191 0
166 190 0
167 191 0
169 191 0
167 191 0
164 188 0
169 192 0
169 193 0
168 191 0
162 185 0
166 191 0
164 187 0
166 189 0
158 182 0
164 188 0
168 192 0
167 191 0
167 190 0
168 191 0
165 188 0
167 190 0
166 188 0
167 191 0
167 191 0
166 189 0
166 189 0
166 189 0
162 186 0
160 184 0
161 184 0
167 189 0
165 188 0
161 185 0
161 182 0
162 185 0
160 183 0
164 187 0
160 183 0
163 186 0
165 188 0
158 181 0
156 179 0
161 184 0
162 185 0
159 182 0
161 185 0
159 183 0
165 188 0
161 184 0
162 185 0
151 173 0
156 179 0
156 179 0
157 180 0
158 181 0
157 181 0
158 181 0
161 183 0
160 183 0
156 179 0
153 176 0
148 170 0
156 179 0
149 170 0
154 176 0
147 169 0
150 173 0
153 175 0
147 169 0
143 165 0
155 177 0
148 169 0
146 168 0
151 173 0
141 163 0
152 175 0
151 172 0
149 171 0
145 167 0
132 155 0
144 163 0
144 165 0
145 166 0
139 160 0
146 167 0
138 158 0
143 165 0
140 161 0
135 155 0
142 162 0
139 159 0
131 151 0
143 162 0
147 168 0
136 157 0
127 147 0
131 151 0
141 160 0
136 157 0
122 141 0
132 151 0
124 143 0
126 145 0
120 139 0
124 142 0
127 146 0
127 146 0
125 143 0
120 138 0
129 147 0
119 135 0
120 138 0
112 129 0
118 136 0
123 141 0
117 132 0
108 126 0
113 131 0
123 139 0
112 127 0
106 121 0
98 114 0
109 124 0
111 126 0
101 119 0
111 127 0
108 124 0
112 127 0
95 111 0
100 115 0
114 128 0
99 114 0
94 110 0
108 124 0
101 115 0
111 124 0
108 122 0
93 106 0
94 107 0
100 113 0
100 114 0
98 113 0
96 109 0
108 121 0
120 133 0
102 116 0
108 120 0
104 117 0
108 122 0
106 120 0
101 114 0
104 116 0
101 112 0
97 108 0
111 124 0
102 111 0
113 122 0
117 124 0
118 128 0
122 128 0
115 123 0
116 123 0
119 126 0
118 124 0
116 122 0
123 127 0
119 124 0
131 134 0
129 131 0
132 135 16
126 127 19
130 133 11
135 136 22
139 138 25
144 141 34
148 145 32
142 138 36
146 141 32
152 147 44
153 149 41
158 152 54
162 155 54
158 153 49
162 155 60
153 148 49
162 156 63
164 158 60
161 156 59
167 159 71
167 160 65
171 163 70
167 160 64
170 163 71
171 163 72
174 165 77
171 164 72
172 165 78
175 167 80
174 166 80
177 169 86
176 168 85
173 166 82
174 165 84
179 170 92
175 167 80
176 169 89
181 171 93
177 169 90
179 170 92
184 173 100
181 172 97
179 171 96
179 170 96
182 172 99
180 171 97
181 173 101
180 171 99
179 171 98
183 174 106
181 172 101
182 173 99
182 172 99
182 172 100
183 173 103
181 172 99
181 173 103
182 173 101
183 174 104
183 174 104
182 173 104
184 175 108
185 175 105
184 175 106
182 174 108
185 175 106
183 174 106
184 175 109
183 174 106
181 172 102
185 175 107
182 174 107
184 175 106
186 176 109
182 174 106
184 175 108
181 173 104
182 173 105
183 174 106
183 174 106
183 174 104
180 172 103
186 176 108
182 173 103
185 175 107
183 174 105
185 175 106
183 174 104
183 174 104
183 173 102
183 174 103
185 174 102
181 172 99
183 173 102
181 172 101
183 173 101
185 175 103
181 172 96
181 171 95
179 169 89
181 171 95
178 170 90
182 171 93
179 170 92
182 172 95
179 170 91
176 168 85
176 168 82
179 169 89
175 167 80
177 168 85
175 167 81
179 169 86
175 167 77
174 165 76
174 166 75
174 167 75
175 167 79
174 166 80
171 165 67
170 163 65
169 164 62
165 162 60
166 164 47
168 167 58
170 166 64
165 167 48
164 165 44
165 167 47
164 166 45
168 172 42
164 171 36
167 172 44
166 174 32
167 177 37
166 177 30
169 180 32
167 180 25
165 180 19
169 182 19
168 181 16
169 186 11
166 181 0
167 183 0
169 188 0
167 185 0
166 186 0
171 190 0
167 185 0
168 187 0
172 194 0
166 187 0
172 192 0
170 192 0
170 192 0
170 191 0
169 190 0
169 190 0
169 191 0
169 191 0
172 194 0
170 192 0
173 194 0
171 193 0
172 194 0
173 194 0
171 191 0
170 194 0
172 195 0
173 196 0
171 195 0
171 195 0
172 194 0
171 195 0
172 195 0
171 195 0
173 196 0
172 196 0
171 194 0
170 194 0
173 196 0
170 193 0
171 196 0
171 195 0
168 192 0
170 194 0
168 191 0
174 197 0
169 192 0
171 195 0
170 194 0
169 192 0
171 194 0
169 192 0
171 194 0
170 194 0
173 196 0
171 194 0
173 196 0
173 196 0
172 195 0
170 194 0
170 192 0
173 197 0
170 194 0
171 195 0
170 194 0
171 195 0
172 196 0
169 192 0
168 192 0
168 192 0
170 194 0
168 191 0
168 190 0
170 194 0
168 192 0
170 194 0
170 192 0
168 192 0
170 193 0
170 194 0
168 192 0
167 191 0
168 192 0
165 189 0
170 194 0
166 189 0
170 195 0
170 193 0
167 192 0
167 191 0
166 189 0
172 195 0
163 186 0
168 192 0
165 189 0
170 193 0
167 191 0
169 191 0
163 187 0
169 192 0
167 190 0
164 187 0
166 189 0
165 189 0
167 189 0
168 192 0
171 195 0
167 190 0
167 191 0
162 185 0
167 190 0
164 188 0
167 189 0
166 188 0
160 183 0
165 188 0
160 184 0
165 188 0
169 193 0
165 188 0
165 188 0
166 188 0
165 188 0
161 184 0
164 189 0
163 188 0
161 184 0
167 191 0
160 184 0
167 190 0
158 181 0
164 188 0
157 180 0
162 184 0
158 181 0
160 184 0
161 185 0
155 178 0
162 185 0
157 178 0
158 181 0
158 181 0
158 181 0
159 182 0
154 178 0
159 181 0
161 184 0
158 180 0
155 177 0
153 175 0
155 176 0
158 180 0
155 178 0
152 175 0
154 177 0
150 172 0
153 176 0
148 171 0
149 172 0
152 173 0
157 179 0
148 169 0
149 170 0
143 165 0
145 166 0
148 169 0
149 170 0
145 166 0
134 156 0
139 162 0
148 168 0
145 166 0
146 167 0
145 165 0
138 160 0
140 162 0
134 154 0
141 162 0
141 162 0
141 163 0
141 161 0
139 159 0
134 155 0
126 147 0
137 157 0
134 153 0
134 154 0
133 153 0
140 160 0
125 145 0
134 154 0
129 149 0
131 150 0
128 148 0
120 138 0
123 141 0
132 151 0
128 147 0
122 139 0
122 141 0
121 139 0
130 148 0
123 142 0
123 140 0
121 138 0
123 140 0
116 135 0
112 129 0
116 133 0
107 120 0
122 139 0
122 141 0
119 137 0
100 115 0
106 121 0
116 131 0
120 135 0
111 124 0
99 114 0
109 125 0
107 122 0
107 122 0
106 122 0
107 122 0
101 116 0
96 110 0
95 107 0
93 106 0
96 109 0
96 109 0
103 117 0
103 115 0
96 108 0
104 118 0
95 108 0
96 109 0
102 113 0
103 116 0
103 114 0
105 119 0
106 115 0
110 121 0
118 130 0
111 123 0
113 125 0
116 127 0
98 108 0
109 119 0
110 118 0
114 123 0
117 125 0
120 128 0
112 118 0
125 130 0
127 134 0
124 127 0
137 142 0
124 128 0
126 128 0
133 134 16
128 128 19
133 132 25
143 143 22
139 138 28
137 135 32
146 143 32
149 145 36
144 140 42
155 149 48
156 151 42
155 149 56
157 152 53
158 153 49
161 155 54
159 154 53
165 158 64
165 158 62
166 159 61
167 160 66
165 159 62
170 163 66
170 162 72
173 165 74
172 164 77
170 163 74
172 165 78
174 166 82
171 163 75
175 166 82
178 169 91
178 169 84
177 168 85
176 168 82
176 168 88
176 167 83
175 166 87
178 170 91
180 171 95
178 170 94
182 172 99
178 169 90
180 171 95
178 169 90
181 172 97
180 171 97
183 173 102
179 171 99
183 173 101
179 171 96
184 174 101
181 172 100
180 172 100
182 173 101
179 171 97
182 173 103
182 173 103
182 173 103
179 171 97
182 173 102
183 174 105
182 174 107
183 174 104
184 175 107
181 172 102
182 173 103
180 172 104
180 172 101
180 171 101
182 173 105
183 174 108
184 175 106
182 174 106
179 172 103
184 174 104
181 173 104
183 174 105
179 171 100
183 173 103
183 174 106
184 174 104
182 173 103
185 175 105
181 173 104
184 174 105
184 174 104
179 171 96
183 174 103
183 174 105
182 172 97
184 174 102
185 175 106
180 172 98
180 171 95
182 172 99
184 174 101
179 170 95
182 172 97
180 171 93
180 170 90
183 172 96
179 170 93
181 171 95
180 171 92
178 169 87
176 168 85
178 169 87
178 169 86
175 166 80
179 169 87
175 166 78
174 166 76
174 165 75
174 166 76
168 162 66
168 161 66
170 163 66
171 165 68
170 164 65
175 169 73
173 169 62
172 168 66
168 166 56
167 166 56
169 169 56
164 165 49
168 170 48
166 169 42
166 169 44
166 170 37
166 170 44
168 174 36
166 175 39
167 177 30
162 177 11
167 179 28
164 175 19
167 181 19
164 178 16
163 179 11
164 178 0
162 175 0
165 183 0
168 186 0
165 184 0
169 189 0
170 191 0
168 185 0
171 193 0
169 189 0
172 193 0
171 192 0
166 186 0
168 191 0
168 189 0
172 194 0
170 191 0
170 192 0
171 192 0
172 194 0
170 191 0
168 190 0
172 194 0
170 192 0
170 193 0
171 193 0
169 193 0
173 197 0
173 196 0
169 193 0
171 193 0
173 196 0
173 196 0
172 196 0
171 194 0
171 195 0
170 194 0
170 194 0
171 195 0
173 197 0
171 195 0
171 194 0
173 196 0
173 197 0
172 195 0
172 195 0
171 194 0
168 191 0
170 194 0
172 196 0
174 196 0
169 193 0
170 193 0
171 194 0
170 194 0
168 191 0
172 195 0
170 194 0
171 195 0
169 193 0
172 196 0
171 194 0
169 192 0
169 192 0
168 191 0
170 194 0
169 193 0
169 193 0
173 196 0
165 187 0
168 192 0
170 194 0
171 195 0
173 196 0
168 192 0
164 188 0
165 189 0
168 191 0
170 194 0
170 193 0
173 196 0
162 186 0
170 193 0
165 189 0
163 187 0
167 191 0
168 191 0
166 189 0
169 193 0
167 191 0
166 189 0
165 188 0
168 191 0
165 188 0
167 190 0
166 190 0
169 192 0
169 192 0
166 190 0
171 194 0
167 189 0
164 188 0
165 188 0
167 189 0
167 189 0
169 192 0
163 185 0
166 189 0
165 188 0
168 191 0
164 188 0
166 189 0
163 187 0
167 190 0
166 190 0
163 186 0
162 186 0
159 182 0
164 187 0
158 180 0
169 192 0
167 190 0
162 184 0
167 191 0
169 192 0
158 180 0
159 183 0
164 188 0
160 184 0
163 185 0
160 184 0
158 182 0
168 191 0
161 184 0
160 182 0
160 181 0
162 185 0
157 180 0
155 178 0
157 180 0
160 183 0
153 175 0
156 178 0
155 177 0
155 177 0
155 178 0
159 181 0
158 183 0
159 181 0
157 180 0
157 180 0
148 170 0
157 179 0
149 171 0
158 180 0
150 171 0
158 179 0
148 169 0
146 168 0
156 177 0
156 177 0
157 180 0
148 170 0
143 166 0
156 178 0
149 170 0
149 171 0
150 172 0
147 169 0
148 169 0
146 168 0
149 169 0
142 163 0
149 170 0
146 168 0
148 169 0
144 165 0
137 157 0
136 156 0
142 162 0
136 156 0
138 159 0
135 157 0
131 150 0
133 153 0
144 165 0
129 146 0
141 162 0
136 156 0
125 146 0
129 149 0
132 151 0
128 146 0
128 147 0
127 146 0
125 143 0
118 136 0
119 136 0
131 150 0
114 131 0
123 139 0
127 146 0
130 148 0
112 129 0
110 127 0
112 130 0
121 138 0
121 140 0
119 134 0
125 142 0
115 130 0
115 131 0
112 128 0
118 133 0
107 121 0
115 131 0
114 129 0
111 126 0
104 121 0
101 116 0
119 135 0
104 120 0
102 118 0
105 120 0
101 115 0
108 121 0
116 131 0
103 116 0
94 108 0
109 122 0
109 122 0
106 118 0
99 113 0
94 106 0
106 119 0
109 121 0
103 116 0
100 113 0
110 121 0
105 117 0
100 112 0
105 119 0
97 109 0
116 125 0
105 116 0
117 127 0
110 121 0
120 131 0
115 122 0
110 119 0
121 128 0
120 129 0
121 128 0
124 130 0
127 132 0
124 129 0
131 134 0
132 135 0
120 125 0
132 134 0
138 136 16
128 129 16
134 135 19
136 136 22
141 139 28
147 146 30
143 139 32
146 142 34
146 142 37
152 147 45
148 144 44
157 151 47
153 148 45
157 151 52
158 152 52
165 158 61
164 158 58
164 158 57
163 157 61
166 159 60
171 163 71
169 161 67
168 161 68
170 163 74
169 161 71
172 164 75
171 164 75
171 164 73
177 168 87
177 168 86
177 168 86
176 168 85
179 169 90
174 166 82
175 167 84
174 166 83
176 167 86
178 169 87
178 169 90
176 168 87
178 169 91
181 171 96
177 168 86
180 171 95
178 170 90
182 173 99
179 170 94
183 173 99
178 170 90
181 172 96
180 172 99
183 173 103
181 172 101
182 173 103
180 171 97
182 172 99
184 174 104
182 173 101
180 171 97
181 173 103
181 172 101
185 175 107
179 171 99
182 173 104
182 173 103
182 173 103
179 171 99
181 173 102
182 173 104
182 173 103
181 172 102
183 174 104
180 172 101
181 173 103
182 173 102
184 175 106
184 175 107
179 171 97
183 174 104
180 171 97
183 174 104
182 173 102
181 173 101
183 174 102
183 173 101
182 173 101
183 174 104
180 171 98
180 171 99
185 175 105
179 171 96
184 174 103
181 171 97
178 170 91
180 172 97
184 174 100
178 169 89
179 170 93
182 172 97
176 168 87
179 170 89
177 168 84
177 169 88
179 170 90
176 168 84
181 171 93
171 164 73
177 168 83
176 167 80
177 168 82
171 164 69
177 168 84
174 166 77
173 165 74
174 165 74
174 166 74
169 162 64
170 164 61
169 164 61
170 165 65
169 165 59
171 169 54
168 163 57
164 164 45
168 167 56
165 167 47
167 169 37
164 166 39
168 174 41
168 174 45
164 170 36
166 174 37
166 177 34
163 175 25
166 176 30
168 178 30
165 176 22
163 175 16
165 181 0
163 177 0
165 180 11
167 182 0
165 181 0
169 188 0
170 189 0
169 189 0
171 191 0
170 190 0
169 191 0
169 190 0
170 191 0
171 191 0
168 188 0
170 192 0
171 192 0
171 191 0
168 191 0
170 191 0
170 192 0
172 194 0
167 189 0
169 190 0
169 189 0
171 193 0
169 191 0
172 193 0
173 196 0
173 196 0
172 195 0
171 195 0
171 194 0
174 196 0
173 197 0
169 192 0
167 191 0
169 193 0
173 195 0
173 196 0
172 196 0
170 193 0
172 196 0
171 195 0
168 192 0
171 194 0
172 195 0
170 193 0
171 194 0
170 194 0
170 193 0
170 194 0
171 194 0
171 194 0
172 195 0
169 192 0
170 193 0
169 193 0
169 193 0
170 194 0
171 195 0
173 196 0
169 192 0
171 195 0
171 195 0
170 193 0
172 195 0
171 195 0
169 191 0
170 193 0
175 197 0
169 193 0
171 196 0
169 194 0
172 195 0
171 194 0
172 195 0
168 191 0
167 191 0
169 193 0
167 190 0
166 190 0
170 194 0
168 191 0
165 188 0
170 193 0
167 190 0
168 192 0
168 192 0
169 194 0
170 192 0
171 193 0
168 192 0
171 194 0
172 195 0
164 188 0
169 192 0
166 188 0
168 192 0
157 181 0
166 190 0
168 192 0
168 191 0
164 188 0
161 185 0
167 189 0
172 195 0
167 190 0
162 186 0
165 189 0
166 190 0
165 188 0
163 186 0
165 188 0
167 190 0
162 186 0
168 190 0
168 191 0
168 191 0
168 190 0
166 189 0
169 192 0
167 189 0
168 191 0
160 183 0
166 189 0
158 181 0
161 184 0
164 186 0
161 185 0
163 186 0
159 183 0
150 173 0
159 181 0
160 183 0
162 185 0
157 180 0
169 192 0
157 180 0
157 179 0
165 188 0
159 182 0
154 177 0
161 184 0
161 183 0
161 183 0
160 182 0
159 182 0
161 183 0
158 181 0
154 177 0
160 183 0
161 183 0
148 169 0
159 182 0
155 178 0
153 176 0
152 173 0
150 173 0
154 176 0
156 178 0
139 161 0
148 169 0
151 172 0
146 168 0
149 171 0
151 174 0
151 172 0
146 167 0
149 170 0
154 175 0
148 168 0
151 172 0
136 158 0
136 158 0
144 166 0
145 166 0
143 163 0
146 168 0
142 163 0
125 146 0
137 158 0
142 162 0
135 155 0
138 158 0
134 155 0
136 157 0
138 159 0
134 153 0
131 151 0
134 154 0
144 164 0
147 167 0
132 151 0
131 151 0
123 142 0
121 139 0
130 151 0
135 154 0
118 138 0
127 145 0
128 146 0
122 141 0
127 146 0
135 153 0
131 149 0
131 150 0
125 142 0
117 134 0
123 141 0
110 129 0
115 134 0
118 133 0
118 136 0
111 127 0
128 146 0
119 137 0
107 125 0
112 128 0
119 134 0
114 129 0
102 117 0
112 127 0
121 134 0
105 118 0
105 119 0
119 134 0
111 125 0
115 132 0
118 132 0
105 119 0
117 131 0
105 119 0
101 116 0
109 123 0
111 124 0
97 112 0
117 131 0
123 137 0
105 118 0
115 129 0
96 108 0
109 122 0
97 108 0
108 120 0
106 116 0
114 125 0
107 120 0
103 113 0
117 129 0
113 123 0
113 122 0
125 138 0
123 132 0
124 132 0
102 109 0
119 124 0
125 129 0
122 128 0
127 130 0
138 144 0
138 140 0
133 135 0
131 133 11
137 138 0
138 139 11
141 140 22
145 142 28
146 142 34
149 146 37
148 144 37
146 143 42
146 142 39
150 145 41
156 151 44
152 148 47
155 149 51
160 154 54
159 152 56
164 158 59
163 157 64
165 158 65
172 163 75
171 163 69
167 160 64
171 164 76
168 161 67
168 161 71
168 161 72
171 164 71
170 163 70
174 166 79
175 167 82
176 168 85
172 164 74
177 168 86
176 168 84
175 167 82
177 169 87
176 168 87
174 167 82
178 169 90
178 170 90
177 169 88
178 169 91
180 171 93
181 172 97
179 170 94
179 171 95
180 171 97
179 171 95
180 171 97
181 172 97
181 172 97
179 171 95
180 171 95
182 173 100
179 171 95
179 170 93
182 173 102
181 172 99
180 172 99
181 172 100
182 173 102
181 172 101
181 172 100
179 171 98
181 172 98
181 172 97
179 171 95
181 173 103
182 173 103
182 173 103
181 172 98
181 172 99
181 172 100
180 172 100
183 173 101
183 173 103
181 172 101
179 170 96
181 172 100
183 174 103
183 173 101
182 173 101
183 173 102
182 173 101
179 171 97
182 172 97
182 172 99
181 171 97
179 170 95
184 174 101
182 173 100
176 168 84
178 169 89
180 170 91
177 169 87
184 173 97
180 171 93
175 167 82
176 168 87
177 169 87
180 170 90
177 168 86
179 170 89
177 168 84
176 167 81
177 168 83
175 167 79
176 167 81
175 167 79
174 166 79
171 164 68
174 165 75
171 163 72
170 163 69
167 161 61
173 164 74
170 163 67
167 164 58
165 162 56
169 164 64
168 166 60
167 167 51
168 169 51
165 167 41
166 170 51
161 160 41
167 170 42
164 169 39
165 168 42
164 170 37
164 171 32
168 178 34
166 178 25
166 175 25
165 179 25
164 175 11
164 176 11
165 180 0
164 181 0
164 182 0
168 186 0
165 180 0
167 183 0
166 183 0
169 190 0
170 191 0
171 190 0
169 190 0
168 187 0
168 186 0
169 190 0
168 189 0
171 193 0
168 187 0
174 195 0
168 191 0
172 192 0
169 191 0
170 192 0
168 189 0
171 193 0
173 196 0
172 193 0
172 194 0
170 193 0
173 196 0
175 198 0
171 195 0
172 195 0
168 192 0
172 195 0
172 196 0
174 197 0
165 188 0
172 195 0
172 196 0
172 195 0
173 196 0
173 196 0
170 195 0
172 196 0
174 196 0
173 196 0
169 192 0
170 193 0
173 196 0
171 194 0
168 191 0
169 193 0
170 194 0
170 193 0
171 194 0
167 190 0
171 194 0
167 191 0
169 193 0
169 193 0
171 193 0
171 195 0
172 196 0
167 191 0
171 195 0
171 195 0
169 192 0
169 192 0
171 194 0
170 193 0
170 194 0
168 192 0
172 195 0
172 195 0
164 188 0
170 194 0
170 194 0
168 192 0
168 191 0
168 191 0
169 192 0
169 192 0
166 188 0
169 193 0
167 190 0
167 192 0
171 195 0
169 192 0
169 192 0
167 191 0
167 190 0
171 194 0
166 191 0
167 191 0
165 189 0
169 193 0
165 188 0
166 189 0
171 195 0
169 193 0
165 188 0
165 188 0
171 194 0
168 191 0
164 188 0
169 192 0
166 189 0
170 193 0
166 189 0
165 188 0
168 192 0
162 184 0
163 186 0
172 195 0
162 185 0
165 188 0
161 185 0
164 187 0
164 187 0
168 192 0
162 185 0
162 183 0
164 188 0
165 189 0
161 184 0
163 186 0
162 186 0
160 183 0
165 187 0
169 192 0
160 183 0
167 191 0
158 182 0
160 183 0
161 184 0
158 180 0
156 179 0
159 182 0
162 184 0
156 178 0
157 178 0
155 178 0
164 185 0
164 187 0
162 185 0
158 182 0
157 179 0
158 181 0
159 181 0
152 174 0
155 178 0
153 176 0
156 178 0
148 170 0
151 173 0
147 169 0
158 181 0
155 178 0
156 179 0
154 176 0
147 170 0
145 167 0
146 168 0
150 173 0
142 163 0
148 170 0
154 176 0
149 170 0
154 176 0
143 164 0
147 168 0
144 166 0
145 167 0
149 170 0
139 160 0
141 162 0
143 164 0
139 160 0
149 170 0
145 167 0
148 170 0
143 164 0
145 165 0
140 161 0
135 156 0
137 157 0
136 157 0
136 158 0
131 151 0
134 154 0
130 148 0
134 153 0
120 140 0
131 150 0
130 149 0
135 154 0
132 150 0
122 140 0
122 142 0
128 147 0
124 143 0
125 145 0
122 138 0
120 139 0
117 135 0
134 153 0
129 146 0
116 133 0
122 139 0
122 139 0
127 144 0
126 143 0
118 137 0
130 147 0
120 137 0
118 135 0
130 146 0
121 139 0
114 128 0
105 121 0
117 133 0
121 136 0
113 128 0
107 121 0
125 141 0
107 122 0
102 118 0
119 133 0
111 125 0
125 139 0
116 132 0
111 125 0
104 118 0
100 114 0
109 124 0
109 124 0
121 136 0
117 134 0
103 117 0
113 125 0
111 125 0
112 124 0
107 119 0
112 126 0
111 122 0
119 131 0
113 124 0
112 122 0
106 115 0
113 121 0
117 126 0
113 122 0
112 118 0
125 132 0
112 120 0
121 129 0
117 123 0
128 134 0
125 128 0
136 140 0
135 138 0
128 131 0
136 138 0
134 134 0
127 128 11
139 139 19
144 143 28
135 134 25
142 139 25
143 140 30
148 143 36
137 134 22
149 145 37
153 148 41
154 149 48
158 153 47
155 150 52
158 152 52
159 153 57
158 153 45
163 156 62
163 157 60
161 156 53
170 162 69
172 164 70
169 163 71
167 160 65
172 164 75
171 162 68
172 164 74
165 159 57
171 164 75
177 168 82
174 166 79
176 167 84
176 168 81
175 167 84
177 167 85
175 167 80
175 167 80
174 165 80
175 167 83
182 172 95
176 168 83
179 170 94
176 168 88
177 169 90
178 169 94
176 168 88
178 170 94
176 168 89
181 172 97
182 172 97
176 168 89
180 171 95
180 171 95
183 173 99
179 170 93
182 172 99
180 172 99
182 173 101
179 171 97
179 170 95
178 169 94
181 172 101
180 171 96
182 173 99
178 170 93
183 173 101
177 169 94
181 172 99
181 173 103
181 172 101
179 171 96
180 171 98
183 174 104
184 174 101
181 172 99
182 173 101
180 171 97
183 173 101
180 171 95
181 172 99
179 170 95
181 172 99
181 172 97
181 172 97
181 172 97
179 170 92
179 171 93
180 171 93
183 173 97
177 169 88
181 172 95
180 171 95
180 171 94
180 171 93
180 171 93
178 169 87
177 169 88
177 168 86
178 169 90
179 170 88
177 168 86
175 166 83
175 167 84
175 166 78
176 168 85
175 166 78
178 168 84
176 167 79
174 165 75
171 163 73
170 163 70
172 165 75
172 164 71
170 163 65
169 162 66
168 163 62
170 165 64
170 166 62
168 163 58
164 163 49
170 167 57
170 169 61
166 163 56
168 168 48
166 166 45
166 170 45
165 169 36
168 174 39
166 168 47
166 173 34
169 179 36
163 172 28
162 170 25
168 179 30
164 178 19
166 180 11
161 175 16
168 185 0
166 181 0
164 181 0
168 186 0
166 185 0
165 181 0
171 189 0
166 185 0
167 185 0
169 189 0
169 188 0
172 192 0
170 190 0
168 190 0
167 188 0
170 192 0
170 192 0
169 190 0
168 189 0
170 191 0
169 191 0
169 191 0
169 189 0
170 192 0
170 192 0
172 193 0
170 191 0
171 193 0
175 198 0
172 195 0
171 194 0
172 195 0
171 195 0
173 196 0
172 195 0
172 195 0
175 198 0
171 194 0
173 197 0
169 193 0
171 195 0
170 193 0
171 195 0
172 196 0
172 196 0
169 192 0
170 194 0
171 194 0
171 193 0
170 194 0
170 194 0
172 195 0
172 195 0
170 193 0
173 197 0
170 194 0
169 193 0
171 195 0
172 196 0
170 194 0
171 194 0
169 192 0
172 195 0
169 193 0
171 195 0
172 195 0
171 194 0
168 192 0
170 193 0
170 193 0
170 193 0
168 191 0
168 192 0
168 193 0
169 192 0
167 190 0
167 191 0
170 193 0
166 189 0
169 193 0
168 191 0
168 192 0
170 193 0
169 193 0
168 192 0
173 196 0
170 193 0
170 194 0
167 190 0
167 190 0
168 191 0
168 192 0
167 191 0
167 190 0
169 192 0
171 195 0
168 191 0
168 192 0
165 189 0
168 191 0
169 191 0
164 187 0
166 190 0
165 188 0
167 190 0
166 189 0
166 190 0
166 189 0
164 186 0
167 191 0
168 191 0
168 190 0
164 187 0
166 190 0
165 188 0
166 189 0
163 187 0
164 187 0
162 185 0
167 191 0
162 186 0
164 187 0
164 187 0
157 181 0
162 185 0
170 193 0
168 191 0
164 187 0
155 178 0
156 179 0
162 185 0
154 177 0
162 185 0
163 187 0
164 186 0
160 183 0
164 186 0
161 182 0
162 185 0
155 179 0
158 182 0
163 186 0
158 180 0
161 184 0
158 180 0
161 183 0
159 182 0
153 174 0
155 178 0
158 180 0
159 182 0
152 175 0
157 179 0
160 182 0
156 179 0
152 176 0
152 174 0
152 175 0
150 172 0
159 182 0
146 167 0
155 176 0
154 176 0
156 178 0
147 167 0
154 175 0
154 174 0
150 173 0
146 168 0
158 180 0
141 164 0
144 165 0
145 167 0
147 167 0
145 166 0
147 168 0
141 162 0
145 167 0
145 166 0
140 162 0
149 171 0
140 163 0
136 156 0
146 167 0
137 158 0
135 155 0
132 153 0
130 150 0
148 169 0
139 159 0
133 153 0
129 149 0
129 148 0
140 161 0
133 153 0
129 150 0
127 147 0
130 149 0
123 142 0
132 151 0
128 144 0
126 145 0
132 150 0
116 134 0
136 155 0
135 153 0
124 142 0
113 131 0
121 139 0
131 149 0
111 128 0
122 139 0
113 132 0
124 141 0
116 134 0
113 130 0
113 129 0
108 123 0
111 127 0
114 128 0
103 121 0
112 127 0
111 126 0
116 133 0
113 129 0
112 129 0
99 115 0
120 134 0
103 118 0
110 124 0
108 123 0
112 126 0
116 131 0
121 134 0
117 130 0
109 124 0
107 120 0
114 128 0
106 120 0
112 126 0
109 122 0
113 126 0
98 111 0
108 122 0
110 124 0
115 129 0
115 126 0
120 134 0
117 127 0
116 127 0
118 125 0
119 129 0
122 130 0
124 130 0
128 137 0
124 129 0
117 123 0
123 129 0
124 128 0
129 134 0
133 138 0
124 127 0
125 127 0
124 126 0
131 133 0
134 134 16
139 139 11
141 140 28
145 142 19
143 140 0
143 141 22
150 146 34
151 147 34
148 144 34
147 143 39
157 153 39
153 148 47
156 150 48
156 151 42
159 153 56
163 156 59
154 149 51
166 159 61
167 160 60
166 159 66
166 159 59
171 163 69
166 159 65
171 163 73
171 164 70
169 162 71
171 163 73
170 163 71
173 165 77
169 163 70
170 162 75
172 165 78
175 166 85
170 163 75
175 167 84
177 168 84
180 171 91
175 167 83
175 168 87
175 167 84
177 169 88
181 171 92
180 171 92
179 170 90
181 172 97
177 169 87
179 170 91
179 170 97
182 173 99
178 169 91
178 170 91
179 170 93
178 170 93
179 170 92
181 172 97
184 174 102
178 170 92
184 173 100
181 172 98
180 171 96
179 170 95
181 172 100
181 172 99
180 171 97
180 171 95
179 171 96
181 172 99
180 171 97
182 173 104
183 173 97
183 173 101
182 172 99
181 172 96
179 171 98
182 173 100
180 171 97
180 171 96
179 171 95
179 171 95
181 171 95
182 172 97
181 172 97
180 171 97
180 171 94
179 170 91
178 170 92
180 171 92
181 172 97
179 171 94
179 170 92
181 171 95
176 168 86
179 170 90
179 170 89
180 171 93
178 169 87
179 170 88
172 164 79
176 168 84
175 167 83
174 167 81
177 168 83
175 167 80
174 166 80
174 166 77
171 163 67
176 167 77
172 165 72
170 163 71
167 161 62
169 162 64
169 162 64
165 160 54
168 163 59
165 162 56
171 166 68
168 164 60
166 162 57
168 166 54
168 167 52
169 165 57
169 172 48
169 168 51
164 168 41
166 171 32
166 170 42
164 172 19
165 173 28
165 174 28
167 179 25
164 175 19
166 178 19
162 174 16
168 178 22
167 180 19
165 181 0
165 182 0
162 176 0
168 187 0
166 182 0
165 181 0
165 181 0
167 185 0
166 186 0
171 191 0
170 189 0
170 191 0
170 190 0
168 188 0
169 192 0
172 194 0
169 190 0
169 190 0
167 187 0
171 193 0
170 191 0
172 193 0
171 191 0
173 195 0
172 192 0
171 193 0
168 190 0
171 194 0
170 194 0
169 193 0
175 198 0
173 196 0
169 192 0
172 195 0
169 192 0
174 197 0
171 195 0
173 197 0
172 195 0
172 195 0
172 195 0
174 198 0
172 196 0
173 196 0
171 194 0
175 197 0
172 195 0
171 194 0
169 192 0
169 193 0
169 192 0
173 196 0
172 195 0
170 193 0
170 194 0
173 197 0
170 193 0
168 192 0
170 193 0
172 196 0
173 196 0
170 194 0
172 196 0
167 191 0
168 191 0
168 191 0
169 194 0
171 194 0
170 194 0
168 191 0
169 193 0
168 192 0
170 195 0
169 192 0
170 193 0
172 195 0
167 190 0
169 193 0
168 192 0
167 191 0
165 189 0
165 188 0
170 192 0
169 192 0
169 192 0
170 193 0
169 192 0
171 194 0
168 192 0
171 194 0
167 190 0
167 190 0
169 193 0
166 189 0
167 190 0
167 190 0
168 192 0
169 192 0
169 192 0
161 184 0
169 193 0
170 192 0
167 190 0
164 186 0
162 185 0
167 190 0
171 194 0
165 188 0
160 184 0
167 189 0
168 191 0
162 185 0
165 188 0
164 188 0
164 187 0
166 189 0
165 187 0
164 187 0
163 187 0
162 185 0
166 189 0
163 187 0
164 188 0
167 189 0
161 184 0
167 190 0
166 189 0
159 182 0
162 185 0
164 187 0
163 186 0
157 180 0
161 185 0
163 186 0
163 185 0
160 184 0
162 185 0
162 185 0
157 180 0
161 184 0
159 183 0
162 185 0
152 175 0
157 179 0
154 178 0
161 182 0
152 174 0
161 183 0
151 173 0
156 178 0
155 178 0
158 181 0
149 173 0
150 172 0
152 175 0
156 177 0
155 178 0
154 178 0
150 173 0
151 174 0
156 179 0
153 175 0
154 177 0
151 173 0
152 174 0
148 170 0
149 170 0
150 172 0
146 167 0
153 175 0
148 170 0
150 172 0
160 182 0
152 174 0
148 169 0
149 171 0
146 168 0
145 166 0
144 165 0
152 172 0
141 163 0
142 164 0
138 158 0
145 165 0
147 168 0
140 161 0
142 163 0
138 159 0
140 161 0
136 156 0
137 155 0
125 145 0
134 154 0
131 149 0
128 147 0
137 156 0
129 149 0
140 161 0
132 151 0
137 156 0
131 151 0
129 148 0
126 146 0
124 143 0
128 147 0
114 133 0
122 140 0
122 139 0
120 138 0
123 142 0
126 143 0
121 139 0
122 139 0
131 150 0
127 144 0
113 130 0
119 134 0
122 139 0
127 142 0
113 130 0
122 138 0
132 148 0
113 130 0
104 122 0
109 126 0
123 141 0
114 128 0
105 122 0
115 130 0
119 134 0
110 125 0
126 141 0
114 129 0
107 119 0
107 122 0
123 139 0
110 120 0
118 132 0
116 131 0
118 131 0
107 119 0
104 117 0
115 129 0
117 131 0
110 125 0
124 138 0
110 124 0
113 124 0
109 120 0
119 128 0
120 132 0
125 133 0
127 135 0
116 124 0
121 127 0
128 135 0
125 132 0
131 136 0
125 129 0
128 130 0
125 128 0
126 131 0
125 128 0
130 130 0
136 136 0
133 135 0
138 137 11
146 145 25
138 135 0
140 137 30
144 141 30
144 141 25
149 146 39
151 147 32
148 144 30
159 153 45
158 152 51
157 152 45
155 150 45
159 154 45
160 154 57
167 159 65
163 157 54
166 159 59
163 156 59
165 158 62
167 160 62
166 160 62
168 161 70
168 161 62
171 163 72
169 162 69
172 164 73
169 162 66
174 165 77
174 166 80
171 163 78
176 168 87
174 166 77
175 167 84
174 166 83
176 167 88
177 168 86
174 166 80
175 167 83
176 168 85
175 167 84
181 171 93
177 169 88
179 170 93
183 172 98
179 170 92
178 169 90
177 169 92
173 166 82
181 172 97
182 172 97
179 170 92
182 172 99
180 171 95
184 174 102
179 170 92
175 167 85
180 171 96
180 171 95
180 171 95
180 171 93
178 170 93
180 171 95
177 169 93
183 173 101
178 170 93
179 170 95
183 174 103
178 170 96
181 172 98
179 170 93
180 171 94
180 171 95
179 170 93
181 171 95
181 172 97
181 171 95
180 171 97
181 172 97
182 172 99
180 171 93
178 169 90
177 169 90
180 171 94
180 170 92
180 170 93
180 170 90
179 170 91
175 167 83
179 169 89
176 168 84
177 168 85
176 168 85
178 169 88
174 167 82
178 169 87
175 166 83
179 170 89
176 167 79
176 168 83
177 168 84
174 166 78
171 163 71
171 164 73
168 162 66
171 163 72
171 164 71
173 164 75
171 163 70
167 161 60
171 164 66
169 161 64
167 162 61
169 163 65
168 163 62
166 163 47
163 164 39
165 163 52
168 167 45
168 170 45
166 166 48
167 171 47
163 167 41
167 169 42
164 171 32
160 164 28
162 169 32
165 173 22
166 175 28
163 171 19
162 173 16
165 175 22
166 180 16
164 176 0
166 182 0
165 178 0
165 181 0
167 181 0
168 187 0
167 186 0
166 185 0
166 184 0
169 189 0
167 186 0
170 189 0
167 188 0
168 189 0
166 186 0
171 193 0
170 189 0
169 192 0
168 191 0
169 191 0
169 190 0
170 192 0
168 191 0
172 193 0
170 191 0
171 192 0
171 192 0
169 191 0
172 193 0
169 192 0
168 192 0
174 197 0
173 197 0
170 193 0
173 197 0
173 196 0
173 197 0
171 195 0
172 196 0
171 194 0
170 193 0
172 196 0
170 194 0
172 196 0
174 197 0
170 194 0
171 195 0
172 195 0
170 195 0
169 192 0
169 193 0
171 195 0
173 197 0
173 196 0
170 193 0
171 195 0
172 195 0
170 194 0
169 193 0
172 195 0
172 195 0
172 196 0
167 191 0
170 193 0
170 193 0
173 196 0
171 194 0
169 192 0
170 193 0
167 191 0
173 196 0
171 194 0
169 193 0
167 191 0
170 194 0
169 193 0
168 191 0
171 194 0
170 194 0
168 192 0
168 192 0
171 194 0
170 194 0
170 192 0
168 192 0
167 190 0
170 193 0
171 194 0
173 197 0
168 191 0
168 191 0
166 190 0
169 192 0
170 193 0
163 186 0
166 189 0
167 190 0
167 191 0
167 191 0
167 190 0
167 190 0
163 187 0
166 191 0
167 191 0
170 193 0
165 188 0
165 188 0
165 189 0
168 192 0
165 188 0
166 190 0
167 191 0
168 192 0
165 188 0
167 190 0
162 186 0
163 187 0
165 189 0
164 187 0
163 186 0
162 185 0
163 186 0
163 186 0
165 187 0
167 190 0
163 186 0
162 184 0
164 188 0
160 182 0
158 182 0
161 184 0
162 185 0
165 187 0
157 180 0
165 187 0
164 187 0
163 185 0
162 185 0
160 182 0
158 181 0
156 180 0
162 185 0
156 179 0
162 184 0
163 186 0
158 181 0
158 180 0
164 188 0
157 180 0
164 187 0
157 178 0
160 182 0
154 177 0
157 180 0
156 179 0
157 180 0
156 179 0
161 183 0
162 183 0
157 180 0
155 178 0
147 170 0
147 168 0
154 177 0
152 174 0
148 171 0
146 169 0
148 168 0
151 174 0
152 173 0
148 169 0
152 174 0
144 166 0
151 172 0
143 166 0
159 182 0
152 174 0
149 170 0
156 177 0
146 166 0
134 155 0
150 172 0
143 165 0
146 168 0
155 176 0
143 163 0
138 159 0
141 161 0
142 164 0
132 152 0
141 161 0
131 150 0
136 157 0
143 161 0
129 150 0
139 160 0
131 150 0
140 161 0
129 148 0
130 150 0
135 154 0
133 152 0
121 139 0
124 142 0
128 146 0
136 155 0
119 136 0
126 144 0
133 150 0
127 145 0
118 137 0
119 135 0
127 146 0
130 150 0
129 146 0
119 137 0
115 131 0
123 140 0
119 136 0
122 137 0
118 134 0
118 135 0
117 132 0
118 134 0
115 131 0
107 124 0
116 131 0
112 128 0
116 130 0
111 126 0
104 118 0
121 137 0
118 132 0
118 133 0
108 121 0
120 136 0
113 127 0
116 129 0
113 127 0
121 133 0
112 124 0
105 118 0
112 126 0
114 128 0
114 128 0
109 121 0
118 134 0
123 137 0
107 120 0
110 121 0
118 128 0
114 124 0
111 120 0
108 114 0
114 123 0
126 135 0
117 124 0
113 118 0
124 130 0
127 133 0
130 136 0
132 135 0
128 133 0
129 133 0
133 135 0
126 128 0
134 135 11
139 140 0
142 142 11
145 145 22
138 138 25
145 142 22
140 138 25
147 143 25
159 153 47
151 146 34
159 154 44
152 146 32
155 149 51
155 151 42
164 157 56
162 155 56
163 157 57
161 156 47
159 153 52
163 157 59
164 158 59
168 161 64
164 158 59
169 162 68
168 161 66
166 159 65
167 161 65
167 160 60
171 163 73
173 165 76
170 163 74
170 163 74
171 164 75
174 166 80
175 167 80
174 166 77
175 167 83
173 165 78
176 168 84
175 166 84
176 168 87
177 169 87
175 167 86
179 170 92
178 169 90
174 167 82
175 167 85
176 168 86
174 167 85
178 170 91
183 173 97
179 170 95
177 168 88
179 170 90
177 168 87
179 170 93
181 171 95
180 171 95
178 170 93
182 172 99
177 169 90
181 171 96
180 170 91
179 170 93
176 169 90
179 170 93
182 173 99
182 172 96
178 170 93
179 170 91
175 168 87
178 170 92
181 172 97
180 171 95
180 171 96
180 171 97
179 171 95
182 172 97
176 168 84
182 172 97
183 172 97
179 170 91
179 170 92
178 169 88
181 171 93
177 168 86
180 171 93
178 169 90
176 168 84
178 169 87
181 171 91
176 168 84
177 168 84
176 168 85
173 165 75
174 166 78
174 166 76
173 165 76
181 171 90
172 164 72
175 167 79
172 164 72
174 165 76
170 164 70
172 164 73
173 165 72
175 166 77
169 162 64
173 164 72
172 164 70
169 162 63
167 159 64
166 160 56
167 162 57
164 161 51
167 165 53
163 161 49
165 163 49
163 161 49
165 166 41
166 167 44
166 169 37
162 165 34
165 171 36
164 170 32
167 177 32
167 173 32
166 172 34
166 176 30
163 173 22
167 180 22
162 175 0
165 179 11
164 175 11
165 178 0
167 182 0
165 181 0
166 182 0
167 180 0
168 183 0
167 185 0
165 184 0
168 185 0
169 188 0
166 185 0
168 189 0
170 190 0
171 191 0
170 189 0
168 190 0
172 193 0
171 192 0
173 193 0
169 192 0
171 192 0
169 192 0
169 191 0
171 192 0
172 194 0
168 190 0
171 192 0
168 191 0
173 195 0
169 194 0
173 196 0
173 197 0
174 198 0
170 194 0
169 193 0
174 197 0
167 192 0
169 192 0
171 194 0
173 196 0
172 196 0
171 194 0
170 194 0
170 193 0
170 193 0
167 191 0
171 194 0
171 194 0
170 194 0
172 196 0
173 196 0
171 194 0
168 191 0
172 195 0
171 195 0
171 195 0
169 192 0
170 193 0
171 194 0
170 193 0
170 194 0
169 192 0
168 192 0
168 193 0
171 195 0
173 196 0
171 195 0
170 194 0
171 194 0
172 195 0
171 193 0
170 193 0
166 189 0
168 191 0
170 193 0
171 195 0
170 193 0
170 193 0
169 192 0
171 194 0
173 196 0
165 188 0
168 192 0
169 193 0
171 194 0
171 194 0
166 190 0
167 190 0
169 192 0
162 185 0
165 188 0
167 191 0
167 190 0
166 191 0
170 193 0
167 191 0
161 185 0
169 193 0
167 190 0
167 191 0
169 193 0
164 188 0
165 188 0
167 190 0
167 191 0
163 186 0
168 192 0
168 192 0
167 191 0
165 188 0
167 190 0
160 183 0
164 187 0
166 188 0
160 184 0
164 187 0
167 189 0
168 191 0
163 186 0
166 189 0
166 189 0
167 190 0
168 191 0
161 183 0
161 185 0
165 189 0
163 186 0
162 185 0
156 179 0
165 188 0
165 188 0
166 189 0
165 186 0
167 190 0
163 185 0
162 186 0
165 188 0
164 186 0
157 180 0
163 185 0
163 186 0
161 184 0
162 184 0
160 183 0
151 174 0
160 181 0
156 179 0
158 181 0
158 181 0
157 180 0
157 179 0
154 177 0
151 175 0
156 179 0
156 179 0
156 179 0
153 176 0
158 180 0
154 175 0
150 170 0
150 171 0
156 178 0
158 181 0
155 177 0
142 163 0
148 170 0
148 170 0
152 174 0
149 171 0
153 174 0
151 173 0
154 177 0
150 172 0
148 169 0
152 175 0
144 165 0
145 166 0
143 165 0
146 167 0
142 165 0
138 158 0
144 165 0
145 167 0
149 170 0
144 166 0
137 158 0
145 166 0
146 168 0
144 165 0
146 167 0
132 153 0
144 165 0
131 152 0
139 160 0
139 159 0
136 156 0
141 163 0
135 155 0
128 146 0
132 153 0
128 146 0
128 149 0
145 164 0
133 152 0
137 155 0
120 137 0
132 150 0
128 148 0
124 142 0
119 137 0
130 147 0
128 145 0
120 137 0
127 145 0
123 139 0
120 135 0
125 142 0
123 140 0
116 134 0
109 126 0
118 136 0
116 134 0
113 129 0
119 134 0
120 135 0
112 129 0
122 139 0
130 146 0
127 142 0
114 129 0
116 131 0
111 128 0
125 139 0
111 125 0
112 126 0
122 137 0
115 129 0
124 137 0
114 127 0
119 134 0
130 144 0
115 130 0
115 128 0
124 139 0
111 124 0
110 122 0
127 139 0
111 126 0
124 138 0
108 121 0
109 122 0
132 144 0
125 136 0
120 130 0
114 124 0
119 127 0
121 130 0
128 133 0
127 132 0
125 132 0
121 127 0
130 135 0
127 132 0
135 137 0
133 137 0
134 135 0
132 132 0
141 140 16
133 134 11
134 133 11
143 141 0
153 149 28
142 140 25
147 143 22
152 147 34
155 150 44
150 146 34
150 145 37
153 148 34
156 151 44
157 152 42
158 153 41
159 154 44
159 153 48
162 156 57
164 157 59
164 158 57
165 159 59
165 158 60
165 158 60
160 155 52
168 161 66
169 161 72
168 161 65
168 161 66
170 163 72
167 161 64
169 162 68
172 164 76
172 164 74
171 164 74
171 163 73
173 165 80
175 167 80
176 167 82
175 166 82
177 168 83
174 166 79
174 167 81
175 167 83
179 170 91
178 169 88
174 166 80
176 168 84
180 171 94
178 169 89
175 167 83
178 169 89
178 170 91
181 172 97
178 169 90
180 171 95
182 172 97
175 167 87
176 168 86
176 167 87
176 168 87
177 169 88
178 170 91
177 169 90
174 167 84
180 171 95
182 172 95
180 171 95
181 171 96
177 169 88
177 169 89
179 170 92
178 169 90
179 170 91
180 171 94
181 171 94
177 169 89
179 170 93
180 171 93
175 167 83
180 170 93
181 172 98
177 169 85
175 167 82
177 168 88
178 169 88
179 170 91
175 167 82
173 165 76
177 168 84
173 166 80
175 167 82
174 167 80
175 167 81
178 169 84
174 166 79
174 166 78
174 166 81
175 166 75
172 165 76
172 164 73
171 164 68
172 165 70
174 165 75
165 159 59
172 163 73
166 159 57
169 161 65
170 162 66
170 162 62
169 162 63
167 161 59
167 162 58
170 164 62
167 164 56
168 164 57
164 160 45
159 159 36
166 164 48
164 163 51
167 166 53
166 168 39
161 166 32
166 171 37
163 171 28
166 174 36
165 172 34
164 175 28
163 173 22
164 175 19
165 180 11
162 173 16
161 173 11
165 182 0
166 177 0
165 180 0
165 180 0
165 180 0
168 187 0
167 185 0
167 186 0
165 181 0
170 187 0
171 190 0
162 181 0
166 186 0
168 186 0
170 191 0
169 189 0
170 191 0
169 190 0
171 192 0
171 194 0
170 192 0
169 189 0
170 190 0
168 190 0
169 190 0
171 192 0
169 191 0
171 193 0
168 189 0
169 191 0
171 194 0
173 196 0
172 196 0
171 195 0
169 193 0
169 192 0
172 195 0
171 195 0
174 197 0
172 196 0
172 195 0
168 191 0
174 197 0
171 194 0
169 193 0
173 196 0
171 195 0
169 192 0
167 190 0
169 192 0
172 194 0
170 194 0
168 190 0
172 195 0
171 194 0
172 194 0
165 189 0
167 191 0
171 194 0
168 191 0
169 192 0
171 195 0
172 196 0
169 193 0
170 192 0
167 191 0
173 196 0
170 194 0
167 192 0
169 193 0
169 192 0
171 194 0
170 193 0
169 194 0
171 194 0
172 196 0
171 194 0
170 193 0
170 193 0
168 190 0
168 192 0
167 191 0
172 195 0
169 192 0
167 190 0
168 192 0
171 195 0
168 191 0
168 191 0
169 193 0
169 192 0
169 193 0
169 193 0
170 194 0
166 190 0
169 192 0
168 190 0
168 191 0
167 191 0
170 194 0
163 186 0
167 190 0
165 188 0
168 191 0
162 186 0
166 189 0
166 188 0
167 191 0
165 190 0
169 192 0
165 188 0
162 185 0
164 187 0
164 188 0
164 187 0
162 186 0
166 189 0
169 192 0
167 191 0
164 187 0
167 190 0
163 187 0
164 186 0
166 189 0
162 185 0
163 187 0
168 191 0
168 191 0
166 189 0
163 187 0
159 182 0
164 188 0
161 185 0
163 186 0
160 184 0
165 187 0
164 187 0
163 186 0
164 187 0
150 171 0
163 187 0
160 182 0
160 183 0
160 183 0
163 186 0
162 183 0
160 182 0
158 181 0
160 183 0
159 183 0
161 183 0
154 177 0
155 177 0
159 182 0
153 174 0
153 175 0
156 178 0
156 179 0
150 172 0
154 176 0
158 180 0
149 171 0
155 177 0
150 173 0
153 176 0
151 172 0
154 176 0
148 169 0
153 176 0
150 172 0
155 178 0
146 168 0
149 171 0
145 168 0
150 171 0
150 170 0
145 167 0
149 172 0
147 168 0
145 167 0
146 168 0
143 164 0
143 164 0
147 167 0
146 167 0
143 163 0
145 165 0
144 166 0
139 159 0
144 166 0
144 164 0
142 161 0
133 154 0
143 164 0
145 165 0
142 161 0
134 155 0
135 155 0
125 144 0
143 163 0
138 158 0
126 147 0
132 153 0
130 147 0
132 150 0
138 157 0
136 156 0
119 135 0
125 144 0
139 157 0
127 145 0
133 151 0
128 145 0
136 154 0
125 142 0
116 135 0
139 156 0
132 148 0
116 133 0
117 136 0
126 142 0
126 144 0
115 132 0
135 153 0
127 142 0
129 144 0
113 129 0
118 134 0
112 125 0
124 140 0
126 142 0
119 133 0
121 135 0
120 137 0
124 139 0
117 131 0
120 135 0
120 136 0
113 126 0
109 124 0
127 142 0
127 141 0
119 133 0
127 140 0
127 142 0
106 120 0
121 135 0
124 136 0
113 127 0
120 132 0
121 133 0
109 120 0
124 135 0
120 128 0
122 130 0
115 124 0
125 133 0
117 124 0
129 138 0
126 133 0
127 132 0
120 126 0
134 139 0
138 142 0
124 126 0
123 127 0
132 135 0
132 134 0
139 141 0
136 135 0
142 141 16
135 135 16
142 141 19
135 132 16
148 144 36
146 143 22
148 143 42
152 148 37
150 146 36
151 148 32
155 150 44
158 152 48
161 155 47
157 151 45
158 153 42
162 155 59
158 154 42
165 158 57
163 157 56
161 156 47
167 160 64
166 161 61
164 158 59
166 159 62
171 163 70
167 160 61
168 161 64
172 164 74
170 162 67
169 163 69
171 164 74
171 163 75
172 164 72
175 167 80
174 166 80
169 162 72
174 166 80
172 164 75
176 167 83
174 166 82
175 166 81
177 168 87
174 166 82
171 165 77
176 168 86
176 168 82
175 167 87
175 167 82
177 169 87
176 168 88
175 167 84
179 170 90
179 170 88
177 168 87
176 168 87
177 169 87
182 172 95
178 169 90
174 167 85
182 172 97
179 170 93
179 171 93
181 171 95
179 170 89
178 169 89
179 169 93
179 170 91
180 171 93
180 171 95
180 171 93
177 168 86
178 169 91
178 170 90
177 169 86
176 168 86
182 172 93
179 169 92
175 167 81
179 170 90
177 168 87
178 169 90
179 170 90
179 169 89
176 168 83
179 170 90
178 169 84
177 168 84
177 168 85
179 169 88
178 169 84
174 166 78
174 166 77
178 169 84
171 164 71
173 166 76
174 166 76
172 164 72
173 165 74
168 162 67
174 166 74
168 162 64
169 162 68
169 162 64
168 161 66
165 159 57
170 162 64
166 159 59
166 160 53
166 160 53
165 160 57
166 161 56
166 162 54
164 162 49
160 156 44
170 168 53
161 162 41
163 163 39
165 166 44
161 163 37
163 166 37
167 172 36
165 173 25
166 173 28
162 168 32
165 173 28
164 173 16
164 173 16
162 175 0
162 174 0
161 173 11
167 181 0
168 185 0
166 182 0
170 187 0
168 185 0
164 180 0
168 186 0
169 187 0
164 182 0
168 186 0
166 186 0
169 187 0
171 191 0
169 188 0
170 190 0
170 192 0
171 190 0
171 194 0
169 188 0
169 188 0
164 184 0
171 193 0
169 190 0
169 191 0
174 196 0
171 192 0
170 192 0
170 192 0
167 187 0
171 192 0
172 196 0
172 195 0
172 195 0
174 197 0
175 198 0
170 193 0
172 195 0
167 191 0
169 193 0
170 193 0
172 196 0
167 192 0
171 195 0
174 197 0
174 198 0
173 196 0
172 195 0
169 193 0
173 196 0
169 193 0
173 196 0
169 193 0
172 195 0
167 191 0
170 194 0
167 190 0
172 195 0
170 194 0
170 193 0
172 195 0
171 195 0
170 193 0
170 193 0
169 192 0
169 192 0
171 194 0
172 196 0
174 197 0
167 191 0
168 191 0
168 192 0
170 192 0
168 192 0
168 192 0
164 187 0
170 193 0
171 195 0
171 194 0
168 193 0
170 193 0
172 196 0
168 192 0
168 192 0
170 193 0
169 192 0
169 193 0
167 190 0
166 189 0
169 193 0
168 191 0
169 193 0
166 189 0
169 192 0
168 191 0
165 189 0
165 189 0
167 191 0
168 192 0
166 190 0
165 189 0
167 191 0
169 193 0
164 186 0
164 188 0
165 189 0
169 192 0
167 190 0
166 190 0
169 192 0
169 193 0
162 186 0
164 188 0
168 192 0
170 194 0
163 186 0
170 193 0
167 191 0
169 191 0
166 189 0
166 189 0
170 193 0
163 186 0
162 186 0
166 189 0
161 184 0
158 181 0
163 186 0
167 191 0
160 182 0
164 187 0
164 187 0
168 190 0
165 187 0
159 182 0
159 183 0
165 188 0
160 184 0
165 187 0
160 183 0
159 182 0
162 185 0
161 185 0
163 185 0
151 175 0
162 184 0
159 183 0
154 178 0
161 184 0
154 177 0
158 182 0
156 178 0
153 177 0
156 180 0
151 174 0
158 181 0
154 176 0
159 182 0
160 182 0
158 181 0
151 173 0
153 176 0
159 182 0
151 173 0
146 169 0
156 177 0
143 166 0
151 174 0
154 177 0
150 172 0
146 167 0
150 172 0
149 170 0
152 172 0
152 175 0
151 173 0
145 167 0
148 170 0
146 167 0
151 171 0
145 167 0
147 168 0
138 159 0
139 161 0
147 167 0
150 172 0
143 162 0
142 163 0
148 170 0
152 172 0
138 158 0
138 159 0
144 165 0
143 163 0
140 159 0
148 167 0
143 163 0
135 153 0
141 160 0
140 161 0
133 153 0
139 159 0
129 150 0
130 150 0
135 155 0
138 158 0
133 152 0
127 146 0
133 152 0
127 146 0
138 157 0
122 141 0
131 149 0
131 149 0
129 147 0
135 151 0
125 144 0
123 141 0
127 144 0
128 145 0
115 131 0
121 138 0
120 137 0
119 136 0
124 141 0
123 140 0
120 139 0
132 148 0
125 140 0
120 136 0
123 138 0
136 152 0
116 131 0
120 137 0
124 140 0
129 145 0
125 142 0
131 145 0
122 138 0
124 140 0
124 138 0
106 123 0
122 137 0
127 141 0
114 127 0
124 137 0
114 124 0
113 126 0
113 128 0
121 134 0
117 131 0
118 132 0
122 132 0
112 122 0
122 132 0
124 134 0
123 134 0
117 125 0
129 135 0
128 133 0
131 138 0
130 135 0
131 136 0
135 140 0
143 148 0
129 133 0
130 132 0
136 140 0
138 139 0
138 138 0
136 137 0
139 141 0
138 137 19
139 138 22
140 137 19
141 138 11
149 146 32
152 147 36
147 143 19
145 141 30
154 148 36
150 147 34
152 149 30
158 152 48
160 154 54
159 154 41
158 153 44
159 153 47
159 154 47
164 158 58
159 154 39
165 159 59
166 159 60
162 156 49
169 162 67
168 161 68
166 159 63
168 161 67
168 160 68
166 159 62
167 161 66
169 162 68
169 162 65
172 164 75
173 165 78
171 163 76
172 164 74
174 166 80
171 164 75
174 165 75
176 167 83
176 167 80
171 164 73
176 167 84
175 166 83
178 169 87
177 168 88
178 169 90
174 166 82
177 168 88
175 167 84
176 168 83
172 165 76
177 169 88
175 167 84
176 168 85
176 168 86
180 171 93
177 169 87
176 168 85
176 168 87
178 169 92
179 170 88
179 169 87
182 172 96
179 170 90
175 167 84
177 169 89
178 169 87
181 172 95
177 168 86
178 169 87
176 168 85
177 168 84
177 168 85
179 170 90
181 172 95
179 169 89
177 168 87
175 167 81
176 167 84
177 168 87
178 169 87
176 168 86
173 165 75
176 168 84
174 166 78
173 165 78
171 164 71
176 167 84
177 168 83
174 166 77
179 170 89
169 162 66
171 163 69
172 165 77
174 166 76
169 162 65
174 165 75
168 161 65
166 159 59
169 162 63
168 161 61
170 162 63
168 160 63
165 159 56
169 162 59
174 166 75
165 158 52
167 162 59
164 160 52
163 160 45
166 161 52
161 158 45
164 163 39
165 165 44
164 165 45
165 166 42
161 164 34
162 166 36
164 168 34
162 165 30
163 170 25
161 169 11
160 169 16
161 171 16
165 175 28
163 175 16
163 175 0
162 177 11
162 173 0
164 179 0
163 177 0
163 176 0
166 180 0
165 181 0
168 182 0
165 183 0
169 187 0
169 187 0
167 185 0
168 186 0
172 192 0
173 193 0
171 192 0
170 190 0
169 191 0
174 194 0
171 193 0
171 192 0
170 192 0
167 188 0
169 189 0
169 189 0
169 190 0
169 189 0
173 194 0
171 192 0
167 190 0
172 194 0
172 194 0
174 197 0
172 195 0
173 197 0
171 195 0
173 196 0
173 195 0
171 195 0
170 193 0
167 190 0
170 195 0
172 196 0
167 190 0
173 197 0
170 194 0
174 197 0
173 196 0
168 192 0
171 195 0
170 194 0
170 194 0
171 194 0
172 195 0
173 196 0
172 195 0
168 191 0
171 195 0
171 194 0
168 191 0
170 194 0
168 192 0
168 192 0
172 196 0
169 193 0
170 193 0
171 195 0
172 195 0
170 193 0
170 192 0
168 192 0
170 193 0
166 190 0
169 192 0
172 196 0
168 192 0
170 193 0
170 194 0
168 191 0
171 195 0
169 193 0
167 191 0
169 193 0
169 193 0
170 194 0
167 191 0
169 193 0
167 191 0
169 192 0
170 193 0
165 189 0
170 194 0
172 196 0
168 192 0
169 192 0
170 192 0
168 192 0
170 193 0
167 190 0
164 187 0
166 189 0
168 191 0
168 191 0
167 190 0
167 191 0
163 186 0
170 194 0
172 194 0
162 186 0
167 190 0
166 189 0
166 190 0
165 188 0
166 189 0
169 193 0
167 191 0
165 189 0
161 186 0
163 186 0
163 186 0
168 190 0
166 190 0
168 192 0
168 191 0
166 189 0
161 185 0
166 190 0
166 189 0
166 188 0
161 185 0
163 186 0
163 187 0
163 186 0
164 188 0
159 180 0
165 189 0
166 189 0
158 182 0
162 185 0
165 187 0
165 189 0
163 186 0
161 184 0
161 185 0
165 187 0
163 186 0
155 179 0
158 181 0
153 177 0
166 189 0
159 181 0
159 182 0
149 173 0
150 173 0
160 182 0
155 177 0
161 183 0
156 179 0
158 181 0
164 186 0
159 181 0
155 177 0
150 172 0
155 176 0
158 180 0
148 170 0
153 174 0
155 178 0
144 167 0
153 176 0
150 170 0
148 170 0
154 176 0
156 178 0
151 172 0
150 171 0
146 168 0
146 167 0
148 169 0
152 173 0
150 172 0
144 165 0
149 169 0
153 173 0
146 168 0
150 170 0
145 166 0
150 172 0
149 170 0
145 166 0
144 164 0
141 161 0
135 155 0
137 158 0
144 167 0
134 154 0
148 168 0
138 158 0
136 155 0
138 159 0
141 161 0
144 165 0
139 159 0
136 155 0
138 158 0
140 161 0
140 160 0
131 152 0
133 151 0
136 156 0
137 155 0
128 147 0
133 150 0
127 146 0
139 157 0
132 149 0
132 150 0
138 157 0
124 141 0
128 145 0
138 156 0
137 154 0
125 142 0
127 147 0
129 146 0
125 143 0
121 138 0
123 138 0
124 139 0
128 143 0
122 141 0
130 147 0
132 149 0
117 132 0
126 143 0
122 138 0
123 140 0
122 139 0
119 132 0
112 126 0
110 125 0
109 124 0
120 136 0
126 141 0
118 131 0
118 133 0
129 144 0
121 133 0
119 132 0
121 134 0
111 124 0
129 143 0
122 132 0
124 137 0
115 126 0
126 135 0
112 121 0
130 142 0
127 136 0
122 129 0
122 130 0
119 126 0
127 134 0
127 131 0
129 134 0
125 129 0
127 130 0
134 137 0
138 140 0
126 128 0
145 146 0
140 138 0
137 135 0
137 136 0
146 144 16
142 140 11
147 143 25
145 142 28
149 144 37
147 143 28
145 142 22
150 146 41
154 149 37
152 148 34
154 150 42
156 151 41
158 154 41
161 155 47
164 157 56
161 156 48
156 151 42
160 154 48
162 157 54
163 157 53
162 157 52
164 158 60
165 158 56
166 159 62
169 162 66
172 164 70
166 159 61
163 157 48
172 165 74
169 162 65
170 162 66
169 163 71
173 165 80
173 165 78
172 164 72
173 164 74
172 164 76
172 164 75
174 166 78
176 168 84
176 167 80
177 168 84
174 166 79
175 167 83
173 166 81
175 167 80
172 164 78
177 168 85
171 164 73
176 168 89
174 166 82
177 168 87
176 168 85
173 165 78
174 166 79
178 170 90
179 170 89
175 166 81
175 167 83
176 168 84
173 165 78
173 165 77
176 168 86
178 169 88
177 168 87
177 168 87
173 166 80
178 169 87
178 169 89
176 168 85
178 169 89
175 167 83
175 167 83
177 168 84
177 168 84
179 169 87
175 167 84
179 170 90
174 166 79
176 167 83
174 166 76
181 171 89
180 170 89
175 166 80
174 166 77
176 168 82
175 167 82
172 164 75
171 164 72
174 166 76
174 166 77
173 165 74
171 162 71
172 164 70
171 163 71
171 163 72
169 162 65
168 160 64
169 162 65
169 161 66
166 160 56
170 163 65
166 158 57
168 162 60
171 164 63
165 160 52
166 161 54
168 164 56
161 158 39
162 158 44
168 165 54
163 161 37
162 160 42
166 167 42
164 169 37
166 169 41
164 170 28
166 171 34
162 168 22
168 174 34
160 166 25
163 174 25
162 170 16
161 171 16
162 174 16
163 174 0
161 173 0
164 178 0
169 183 0
167 185 0
165 178 0
165 180 0
167 184 0
167 184 0
167 186 0
167 185 0
168 186 0
169 188 0
172 193 0
168 185 0
171 191 0
166 186 0
168 188 0
171 191 0
171 191 0
172 192 0
172 194 0
168 189 0
169 192 0
169 190 0
170 192 0
167 186 0
168 190 0
170 192 0
171 192 0
172 193 0
170 191 0
168 189 0
171 194 0
171 195 0
166 190 0
172 196 0
171 195 0
172 196 0
174 197 0
171 194 0
172 196 0
170 192 0
170 194 0
170 194 0
168 191 0
172 195 0
172 195 0
172 195 0
171 196 0
172 195 0
173 196 0
172 194 0
172 196 0
171 195 0
171 193 0
171 194 0
171 195 0
172 195 0
171 194 0
171 194 0
172 195 0
169 192 0
170 193 0
172 195 0
169 193 0
169 193 0
167 191 0
172 195 0
170 193 0
170 194 0
164 187 0
169 193 0
170 194 0
169 192 0
172 195 0
171 194 0
171 193 0
169 193 0
170 193 0
172 196 0
171 194 0
169 191 0
171 195 0
170 193 0
170 193 0
170 193 0
167 191 0
169 193 0
174 196 0
166 189 0
173 196 0
167 190 0
169 192 0
163 187 0
171 195 0
167 190 0
166 189 0
166 190 0
168 192 0
168 192 0
170 194 0
166 189 0
171 195 0
168 191 0
168 191 0
168 192 0
169 192 0
170 193 0
168 191 0
163 186 0
165 188 0
164 188 0
166 190 0
162 186 0
165 189 0
169 192 0
163 186 0
167 190 0
163 187 0
164 187 0
163 186 0
165 189 0
164 188 0
166 190 0
163 185 0
166 189 0
161 184 0
165 187 0
164 187 0
167 190 0
166 190 0
164 187 0
163 186 0
156 179 0
167 189 0
161 184 0
166 190 0
164 187 0
158 181 0
159 182 0
159 181 0
162 185 0
164 186 0
160 184 0
163 186 0
163 186 0
155 177 0
158 182 0
157 180 0
155 179 0
162 185 0
165 188 0
159 182 0
159 183 0
152 175 0
154 176 0
158 181 0
159 181 0
159 181 0
157 179 0
160 183 0
157 180 0
152 175 0
155 178 0
148 172 0
151 171 0
153 175 0
158 180 0
155 177 0
164 187 0
149 170 0
153 175 0
152 175 0
149 171 0
155 178 0
151 173 0
148 169 0
147 168 0
154 176 0
156 178 0
147 169 0
147 169 0
144 166 0
152 174 0
152 172 0
150 171 0
140 162 0
145 165 0
146 167 0
151 170 0
140 161 0
141 163 0
147 168 0
144 165 0
135 157 0
137 158 0
135 155 0
131 152 0
143 164 0
135 155 0
138 157 0
134 155 0
134 154 0
147 168 0
136 155 0
136 155 0
131 150 0
128 148 0
134 154 0
124 143 0
143 163 0
138 156 0
124 144 0
132 150 0
132 151 0
131 150 0
131 150 0
134 153 0
125 143 0
132 150 0
128 144 0
138 156 0
135 153 0
121 140 0
121 138 0
126 144 0
129 144 0
128 144 0
122 139 0
129 145 0
128 145 0
124 140 0
116 131 0
134 151 0
128 146 0
121 135 0
121 136 0
123 138 0
130 144 0
138 152 0
126 144 0
121 136 0
122 137 0
124 141 0
127 140 0
124 139 0
130 146 0
118 133 0
112 127 0
126 141 0
115 127 0
122 134 0
132 146 0
121 135 0
120 130 0
124 134 0
124 134 0
120 130 0
127 135 0
126 139 0
132 142 0
125 133 0
132 138 0
130 134 0
134 140 0
135 139 0
129 132 0
135 135 0
135 135 0
127 131 0
134 134 0
138 138 0
127 127 0
134 135 0
133 131 0
144 142 11
142 141 11
145 143 28
152 146 34
154 149 25
145 141 22
146 142 28
150 146 32
154 149 37
154 150 32
155 151 39
148 145 36
156 152 36
158 152 44
159 153 44
165 158 58
161 154 51
162 156 51
163 157 58
166 160 58
165 159 58
164 158 54
163 157 58
166 160 61
168 160 68
168 160 61
167 160 67
169 161 64
172 164 73
171 163 69
170 163 68
170 162 68
171 163 67
172 164 74
170 163 71
170 163 72
173 164 79
171 163 71
177 168 87
176 167 83
172 164 76
172 165 77
176 167 81
174 166 79
176 167 80
175 167 82
173 165 76
177 168 85
176 168 84
174 166 80
173 166 79
177 168 85
176 168 84
174 166 83
174 166 80
175 167 83
175 167 81
177 169 87
176 167 84
176 167 83
175 167 83
176 168 84
175 167 85
177 168 87
175 166 81
178 169 90
180 170 90
174 166 80
175 167 81
177 169 87
175 167 84
171 164 77
177 168 83
173 165 78
174 166 80
177 168 83
174 167 80
173 165 79
177 168 84
174 166 79
169 163 67
173 165 77
172 165 75
174 166 75
170 162 69
172 165 74
172 164 75
177 168 83
172 163 69
173 165 75
171 164 69
174 165 75
173 165 73
166 160 59
170 162 68
169 162 68
167 160 60
168 161 61
171 164 69
165 159 54
166 159 58
166 160 56
167 159 57
167 160 59
162 157 42
164 160 45
161 158 48
166 165 49
163 161 42
165 164 45
159 161 30
162 161 42
162 162 36
163 165 37
163 164 34
164 169 30
166 168 39
162 168 22
163 169 22
163 171 22
163 171 22
163 172 19
162 172 19
165 177 11
162 174 0
166 177 0
166 177 0
164 177 0
166 179 0
166 181 0
166 182 0
165 182 0
167 185 0
166 183 0
165 183 0
169 187 0
165 183 0
167 185 0
171 192 0
169 191 0
167 189 0
170 193 0
170 191 0
170 189 0
170 191 0
169 190 0
173 194 0
172 192 0
168 189 0
170 192 0
167 188 0
170 191 0
169 190 0
172 193 0
172 194 0
170 193 0
170 192 0
173 196 0
171 195 0
171 195 0
173 196 0
171 194 0
174 197 0
169 193 0
172 195 0
171 195 0
172 195 0
169 193 0
172 195 0
172 195 0
172 195 0
169 193 0
171 194 0
171 195 0
169 192 0
168 191 0
171 194 0
170 194 0
168 192 0
170 194 0
170 194 0
172 195 0
170 193 0
170 194 0
172 196 0
168 191 0
172 195 0
170 194 0
168 192 0
170 192 0
170 193 0
173 196 0
169 192 0
170 193 0
168 192 0
169 193 0
170 193 0
170 194 0
169 192 0
171 195 0
170 193 0
170 193 0
168 192 0
170 193 0
166 191 0
165 189 0
169 193 0
167 191 0
167 190 0
172 195 0
168 192 0
171 194 0
170 193 0
171 194 0
166 190 0
167 191 0
166 188 0
169 193 0
169 192 0
167 190 0
168 192 0
169 193 0
168 190 0
171 194 0
170 194 0
166 188 0
166 190 0
167 191 0
168 192 0
165 189 0
168 191 0
168 190 0
165 188 0
163 186 0
167 189 0
166 188 0
169 192 0
166 190 0
165 188 0
169 192 0
158 181 0
165 188 0
165 188 0
165 188 0
171 193 0
167 190 0
159 182 0
162 185 0
168 192 0
167 190 0
162 184 0
164 187 0
163 186 0
156 180 0
161 185 0
168 191 0
160 183 0
160 183 0
160 183 0
161 186 0
162 186 0
165 188 0
159 182 0
166 189 0
166 189 0
161 184 0
162 184 0
161 184 0
158 180 0
161 184 0
156 179 0
163 184 0
163 186 0
162 184 0
156 178 0
154 176 0
159 182 0
161 184 0
159 182 0
159 182 0
157 180 0
157 179 0
154 176 0
154 176 0
158 181 0
153 176 0
153 176 0
151 174 0
159 182 0
150 172 0
148 171 0
155 179 0
153 175 0
148 170 0
150 171 0
150 173 0
147 169 0
153 176 0
147 169 0
149 169 0
147 166 0
153 175 0
145 166 0
152 173 0
140 162 0
146 167 0
156 178 0
150 171 0
149 171 0
151 172 0
151 173 0
148 168 0
144 165 0
147 165 0
151 172 0
151 172 0
146 166 0
136 157 0
143 163 0
139 158 0
147 168 0
140 159 0
144 165 0
143 164 0
135 154 0
135 156 0
135 154 0
137 156 0
141 161 0
140 159 0
133 151 0
132 153 0
131 149 0
131 149 0
138 158 0
137 155 0
132 151 0
131 148 0
143 161 0
131 150 0
125 145 0
140 159 0
133 152 0
123 141 0
128 146 0
129 147 0
134 152 0
130 148 0
132 150 0
130 147 0
121 138 0
134 149 0
131 149 0
122 140 0
127 142 0
121 138 0
128 144 0
114 130 0
126 141 0
118 133 0
123 140 0
129 144 0
129 146 0
129 145 0
122 135 0
114 129 0
125 141 0
126 141 0
117 132 0
127 144 0
125 137 0
130 145 0
127 142 0
120 135 0
127 141 0
123 137 0
120 132 0
126 140 0
117 130 0
134 146 0
126 137 0
133 143 0
124 135 0
125 135 0
126 138 0
121 130 0
128 135 0
129 136 0
121 131 0
133 138 0
120 123 0
129 134 0
133 136 0
136 140 0
138 142 0
134 134 0
132 133 0
137 136 0
135 135 0
137 137 0
140 139 0
146 143 16
149 146 22
145 142 16
151 147 19
149 146 16
149 145 32
152 147 39
151 147 32
157 152 39
155 150 25
152 148 32
149 146 30
160 154 48
156 152 44
153 149 30
161 154 53
160 153 48
165 158 54
161 155 49
162 156 54
166 159 60
166 160 59
164 158 56
165 159 56
167 160 64
168 161 60
162 157 49
171 163 71
167 160 59
168 161 66
171 163 68
168 161 69
171 163 74
169 162 69
172 164 75
175 167 80
171 163 74
172 164 75
171 164 72
172 165 76
175 167 81
177 168 84
173 165 75
174 166 80
172 165 75
172 165 76
170 163 74
169 162 72
174 166 80
172 164 80
178 168 84
172 164 73
173 165 80
174 166 84
176 167 87
175 167 82
175 167 83
173 165 78
176 168 84
174 166 80
172 165 78
173 165 75
173 165 77
180 170 90
176 168 85
176 167 81
174 166 78
175 167 80
178 169 86
176 167 84
175 167 81
175 167 78
174 166 80
171 164 75
175 166 80
175 166 81
172 164 74
174 166 76
171 164 75
175 166 79
173 165 75
172 164 70
173 165 75
173 165 75
174 165 78
172 164 71
169 162 67
169 161 67
169 162 67
170 163 65
170 162 68
171 163 68
164 159 56
173 164 74
166 159 58
168 161 59
169 161 62
168 161 60
169 161 60
166 159 59
163 156 52
163 157 47
166 162 51
166 159 53
164 159 44
166 163 53
165 161 49
163 163 42
163 161 41
163 163 39
164 163 41
164 166 32
164 165 41
163 165 28
160 163 25
166 173 30
159 167 0
161 167 19
163 170 16
161 173 0
166 178 16
165 174 11
166 179 11
163 175 0
165 177 0
163 177 0
168 182 0
163 177 0
165 180 0
168 185 0
167 185 0
168 186 0
167 184 0
168 186 0
169 189 0
166 184 0
167 184 0
169 190 0
174 194 0
167 188 0
172 193 0
171 192 0
168 189 0
170 190 0
171 192 0
170 191 0
166 188 0
171 191 0
172 191 0
171 192 0
170 190 0
169 189 0
169 191 0
169 189 0
170 191 0
172 193 0
170 194 0
170 193 0
171 194 0
172 196 0
169 193 0
172 196 0
171 195 0
170 193 0
172 196 0
173 196 0
172 195 0
171 195 0
170 194 0
171 194 0
172 196 0
171 194 0
172 195 0
170 194 0
171 195 0
170 194 0
170 194 0
174 197 0
170 194 0
170 193 0
171 194 0
168 191 0
168 192 0
168 192 0
170 194 0
170 193 0
171 193 0
172 195 0
170 193 0
168 192 0
171 194 0
169 193 0
169 193 0
170 193 0
168 192 0
167 191 0
170 193 0
169 192 0
168 192 0
171 194 0
172 195 0
171 194 0
168 191 0
169 192 0
165 188 0
172 196 0
166 190 0
169 192 0
164 187 0
169 192 0
173 196 0
166 189 0
171 194 0
171 195 0
169 192 0
167 191 0
168 191 0
171 194 0
169 193 0
168 192 0
166 189 0
166 189 0
169 193 0
165 188 0
168 192 0
168 191 0
170 193 0
168 192 0
165 188 0
167 190 0
161 185 0
163 187 0
165 188 0
170 193 0
167 190 0
163 187 0
166 191 0
166 189 0
168 192 0
167 189 0
166 190 0
172 195 0
168 191 0
167 191 0
168 191 0
167 190 0
162 185 0
169 192 0
165 188 0
169 191 0
168 192 0
162 184 0
165 188 0
161 185 0
166 189 0
162 186 0
161 185 0
167 189 0
158 181 0
164 187 0
162 185 0
165 189 0
161 184 0
161 184 0
166 187 0
160 182 0
159 182 0
159 182 0
156 179 0
157 180 0
160 183 0
159 182 0
159 182 0
162 183 0
153 176 0
159 181 0
160 183 0
157 180 0
157 179 0
160 182 0
163 187 0
158 180 0
161 183 0
158 180 0
157 179 0
154 177 0
158 179 0
157 179 0
156 178 0
163 185 0
161 182 0
155 178 0
157 179 0
156 178 0
151 173 0
155 178 0
157 179 0
153 175 0
159 181 0
152 174 0
147 169 0
153 175 0
157 178 0
151 173 0
157 179 0
143 164 0
140 162 0
144 165 0
152 174 0
140 161 0
144 163 0
140 162 0
148 168 0
145 167 0
144 165 0
150 171 0
151 172 0
140 161 0
137 156 0
149 170 0
145 165 0
137 157 0
145 166 0
147 167 0
141 161 0
138 159 0
139 160 0
138 157 0
139 158 0
137 156 0
134 154 0
141 161 0
127 147 0
135 153 0
130 148 0
136 153 0
124 142 0
134 151 0
130 148 0
137 154 0
135 155 0
136 154 0
141 158 0
124 143 0
128 145 0
125 143 0
137 155 0
119 136 0
136 154 0
130 148 0
136 153 0
127 144 0
130 148 0
114 132 0
130 147 0
117 133 0
137 154 0
127 143 0
132 148 0
118 133 0
130 145 0
125 141 0
124 141 0
126 142 0
125 139 0
125 141 0
129 145 0
128 143 0
119 136 0
119 134 0
130 144 0
130 144 0
119 132 0
127 139 0
112 125 0
118 132 0
130 146 0
133 148 0
116 125 0
126 138 0
130 140 0
141 151 0
135 145 0
120 128 0
117 124 0
124 134 0
126 134 0
133 139 0
127 134 0
125 129 0
138 142 0
128 133 0
126 129 0
142 144 0
139 139 0
141 140 0
138 137 0
135 134 0
139 137 0
137 137 11
143 138 0
144 141 0
145 141 16
144 140 22
148 145 22
149 143 32
151 147 30
152 146 32
147 144 22
151 147 30
154 150 30
154 150 32
155 150 41
157 151 47
157 152 41
159 153 42
157 152 47
162 155 48
153 149 34
159 153 37
162 157 56
164 158 49
164 157 59
162 156 49
165 159 58
167 160 61
164 159 56
164 158 59
165 158 63
166 160 63
170 162 67
166 160 61
166 160 61
170 163 71
172 164 76
169 162 70
172 164 71
169 162 63
170 163 71
172 165 78
170 163 71
171 163 74
174 165 75
170 162 75
175 167 82
173 165 77
171 164 72
172 165 73
172 164 77
171 163 75
176 168 84
172 164 77
176 167 85
173 165 78
172 164 73
174 166 79
176 167 84
172 165 75
171 164 73
176 167 83
171 164 76
173 165 74
174 166 80
174 166 80
175 167 84
173 165 78
175 166 80
174 166 80
174 166 79
174 166 79
179 169 89
176 167 82
174 166 77
171 164 75
175 166 75
173 165 75
176 167 81
171 163 70
173 164 74
170 162 69
170 163 69
176 167 82
174 165 74
169 161 66
170 163 66
170 163 70
175 166 75
170 162 66
170 162 67
173 165 71
169 162 63
171 163 65
170 162 66
167 159 61
168 160 59
167 160 56
168 161 59
168 161 61
161 156 48
166 160 54
167 159 58
162 157 51
166 161 47
162 157 47
164 160 51
162 158 41
161 159 39
167 165 48
161 161 39
161 162 34
163 163 39
164 165 36
161 166 30
163 166 34
164 170 30
162 169 22
163 168 30
160 165 25
163 170 19
165 175 11
162 174 0
161 171 0
165 177 0
165 178 0
159 170 0
166 180 0
163 178 0
168 184 0
165 182 0
167 184 0
166 183 0
165 181 0
167 184 0
168 184 0
167 187 0
164 181 0
169 187 0
167 186 0
170 190 0
171 190 0
171 191 0
171 192 0
170 191 0
171 192 0
169 190 0
167 190 0
169 190 0
171 191 0
167 186 0
166 187 0
169 190 0
170 190 0
170 192 0
172 193 0
170 192 0
171 192 0
172 196 0
172 195 0
174 196 0
170 193 0
169 193 0
172 196 0
170 193 0
172 196 0
171 193 0
171 195 0
171 194 0
170 193 0
171 195 0
175 197 0
172 197 0
171 195 0
167 191 0
172 196 0
169 192 0
167 191 0
171 194 0
171 195 0
169 192 0
168 192 0
169 193 0
169 193 0
170 193 0
170 193 0
172 195 0
169 193 0
168 192 0
171 194 0
170 192 0
168 191 0
169 192 0
170 194 0
171 195 0
170 193 0
170 193 0
165 188 0
168 192 0
171 194 0
169 193 0
168 191 0
170 194 0
170 194 0
172 195 0
171 195 0
170 194 0
171 193 0
171 194 0
169 192 0
169 193 0
170 193 0
169 192 0
167 190 0
166 190 0
167 191 0
170 194 0
171 194 0
163 186 0
169 192 0
169 193 0
170 193 0
167 191 0
167 190 0
168 191 0
170 193 0
167 190 0
169 192 0
165 189 0
166 189 0
166 189 0
168 190 0
169 193 0
165 189 0
167 190 0
164 189 0
165 189 0
165 190 0
166 188 0
159 182 0
165 188 0
165 190 0
165 189 0
167 190 0
164 187 0
167 190 0
163 186 0
163 187 0
167 190 0
162 185 0
163 187 0
166 189 0
160 183 0
160 182 0
163 185 0
166 188 0
165 188 0
167 190 0
163 187 0
163 184 0
165 189 0
160 183 0
165 188 0
161 184 0
160 184 0
156 179 0
159 182 0
160 184 0
165 187 0
159 182 0
157 181 0
162 184 0
160 183 0
163 186 0
159 181 0
161 183 0
165 187 0
158 181 0
161 183 0
161 182 0
160 182 0
153 175 0
156 178 0
162 184 0
150 172 0
155 176 0
162 184 0
156 179 0
155 178 0
154 177 0
153 174 0
153 175 0
156 179 0
154 177 0
155 178 0
156 178 0
150 172 0
152 175 0
151 174 0
151 172 0
155 176 0
146 168 0
140 163 0
152 174 0
150 172 0
146 168 0
156 179 0
142 163 0
152 174 0
151 172 0
146 167 0
144 165 0
152 174 0
152 173 0
151 172 0
143 163 0
154 175 0
144 165 0
141 161 0
141 162 0
144 164 0
141 162 0
141 162 0
138 157 0
138 158 0
137 157 0
144 165 0
148 168 0
140 160 0
139 161 0
144 162 0
132 152 0
140 157 0
147 168 0
139 158 0
132 152 0
134 153 0
139 158 0
135 154 0
140 160 0
136 156 0
135 154 0
139 157 0
132 149 0
129 148 0
137 155 0
127 145 0
131 149 0
137 155 0
131 148 0
127 144 0
139 157 0
131 148 0
133 149 0
133 151 0
124 141 0
127 144 0
126 142 0
121 139 0
130 147 0
126 142 0
116 132 0
129 145 0
129 145 0
127 144 0
123 138 0
132 149 0
127 143 0
123 137 0
132 147 0
120 136 0
135 152 0
128 142 0
115 128 0
122 138 0
125 141 0
125 141 0
126 140 0
123 133 0
127 141 0
118 128 0
124 136 0
128 140 0
126 137 0
136 146 0
129 139 0
132 143 0
129 135 0
131 139 0
132 138 0
120 125 0
130 138 0
141 146 0
130 134 0
126 129 0
133 138 0
135 136 0
139 143 0
144 145 0
137 138 0
139 139 0
141 139 0
138 137 0
144 141 16
145 143 19
143 139 11
151 147 25
147 143 28
151 147 30
148 141 28
150 145 25
151 146 28
149 144 32
153 147 34
154 149 37
154 148 41
157 153 42
158 153 45
156 150 36
157 151 47
160 154 47
162 155 53
163 156 51
162 157 52
157 153 41
162 156 49
163 157 54
168 160 59
168 160 61
168 160 64
165 159 58
170 162 71
168 161 64
168 161 61
164 158 58
168 161 65
170 163 67
174 165 76
170 162 69
170 163 69
174 165 76
173 164 78
171 163 68
170 163 70
171 163 73
174 166 78
170 162 71
171 164 75
171 163 68
170 163 70
171 163 70
172 165 73
173 165 75
171 164 73
171 164 74
173 166 77
174 165 76
173 166 76
174 166 80
169 162 72
170 163 74
172 164 76
176 167 82
171 164 75
174 166 79
171 164 74
173 165 75
175 166 80
175 166 82
176 168 84
174 166 78
177 168 84
168 162 63
176 167 82
175 166 79
173 165 75
175 166 77
171 164 71
171 164 71
173 164 75
172 164 74
168 160 67
172 164 69
172 164 73
170 161 67
170 163 67
169 162 63
169 162 66
166 160 60
168 162 64
167 161 59
168 161 63
167 161 59
166 160 56
168 160 64
164 158 52
166 159 58
169 161 61
165 159 56
166 158 59
165 159 48
163 157 49
162 158 42
165 159 52
160 156 41
161 159 37
164 162 44
162 161 41
162 159 42
166 164 44
166 166 47
163 165 32
162 164 36
161 163 25
161 159 41
162 165 30
163 170 25
161 167 16
163 167 25
163 170 25
163 173 11
160 167 16
162 173 11
162 171 0
166 177 0
161 174 0
165 179 0
164 178 0
166 182 0
164 179 0
161 177 0
167 185 0
167 181 0
169 188 0
165 182 0
166 183 0
167 185 0
170 191 0
166 186 0
169 187 0
168 186 0
168 189 0
170 190 0
171 191 0
167 188 0
169 190 0
167 189 0
169 190 0
168 189 0
168 190 0
170 191 0
166 188 0
168 189 0
171 192 0
173 193 0
169 192 0
172 192 0
172 194 0
175 198 0
175 198 0
172 195 0
169 193 0
172 196 0
169 192 0
173 197 0
170 194 0
168 191 0
174 197 0
171 194 0
170 192 0
172 196 0
170 194 0
171 195 0
173 197 0
168 192 0
172 195 0
172 195 0
170 194 0
174 197 0
170 194 0
171 194 0
169 194 0
171 194 0
172 195 0
173 197 0
169 193 0
169 193 0
169 193 0
169 193 0
172 195 0
171 194 0
168 192 0
171 194 0
166 190 0
173 196 0
169 193 0
171 194 0
168 191 0
170 194 0
170 194 0
171 195 0
170 192 0
169 193 0
168 192 0
171 195 0
166 189 0
168 192 0
167 190 0
171 194 0
164 188 0
170 193 0
170 193 0
168 191 0
169 193 0
169 193 0
168 192 0
170 193 0
168 191 0
169 191 0
166 189 0
167 190 0
168 190 0
171 193 0
167 190 0
164 187 0
167 191 0
168 190 0
171 193 0
165 188 0
166 189 0
166 189 0
165 188 0
169 192 0
169 192 0
167 191 0
167 191 0
165 188 0
173 196 0
170 192 0
168 190 0
167 190 0
168 190 0
167 191 0
161 184 0
165 188 0
168 190 0
161 184 0
165 188 0
161 185 0
165 189 0
167 190 0
165 189 0
158 182 0
164 187 0
166 189 0
165 188 0
163 187 0
161 184 0
162 185 0
168 192 0
166 190 0
162 185 0
162 185 0
162 185 0
163 185 0
162 185 0
165 189 0
159 182 0
165 188 0
168 189 0
162 185 0
156 178 0
160 183 0
163 187 0
157 179 0
162 184 0
159 182 0
154 176 0
158 180 0
156 178 0
160 183 0
155 178 0
160 183 0
159 181 0
152 175 0
152 175 0
158 181 0
163 185 0
157 178 0
160 183 0
161 183 0
157 179 0
161 183 0
149 171 0
158 179 0
154 176 0
151 171 0
159 181 0
153 175 0
157 180 0
150 173 0
156 177 0
152 174 0
153 174 0
150 172 0
149 171 0
148 169 0
143 166 0
142 164 0
151 173 0
148 169 0
145 165 0
154 177 0
146 167 0
145 165 0
145 166 0
144 165 0
143 163 0
150 172 0
147 168 0
148 169 0
145 166 0
143 162 0
140 160 0
139 158 0
147 167 0
148 167 0
143 163 0
137 156 0
142 162 0
145 165 0
147 166 0
135 155 0
134 153 0
128 148 0
140 158 0
137 157 0
136 156 0
142 161 0
137 155 0
138 157 0
132 151 0
136 154 0
145 165 0
139 159 0
140 157 0
130 145 0
131 150 0
136 153 0
123 140 0
132 149 0
131 150 0
133 152 0
137 155 0
124 141 0
137 155 0
129 147 0
125 142 0
135 152 0
128 146 0
122 137 0
135 150 0
131 147 0
125 140 0
129 145 0
135 153 0
127 143 0
140 153 0
119 133 0
130 146 0
128 143 0
121 135 0
129 145 0
126 139 0
127 139 0
131 146 0
124 139 0
129 141 0
121 133 0
129 141 0
129 141 0
120 132 0
133 145 0
117 129 0
124 133 0
128 136 0
129 139 0
128 135 0
130 137 0
125 129 0
129 136 0
137 142 0
139 143 0
135 140 0
141 146 0
135 138 0
130 132 0
138 140 0
138 137 0
137 137 0
134 133 0
140 139 0
140 139 0
144 142 0
141 139 0
140 139 0
148 145 11
142 139 19
148 143 22
149 144 22
152 147 34
151 145 28
152 149 22
155 149 32
155 151 22
150 145 39
156 152 42
156 150 42
156 151 44
158 153 37
161 154 47
157 152 36
160 154 47
159 154 48
162 155 52
162 155 48
164 158 51
161 155 53
165 158 60
164 158 58
170 161 68
167 159 64
166 159 59
166 159 63
168 161 66
166 160 62
165 158 62
168 161 64
166 160 58
170 163 67
165 159 60
168 162 67
171 163 70
168 161 62
174 165 78
172 164 73
171 163 68
167 160 63
172 164 73
172 165 72
171 163 73
171 164 74
171 163 69
166 159 63
171 164 74
172 164 72
172 164 75
171 164 72
173 165 75
174 165 77
168 161 63
172 164 73
171 163 73
172 164 75
168 162 67
174 165 76
174 166 76
170 162 68
171 164 71
172 164 73
173 165 75
174 166 78
175 167 80
172 165 74
175 166 79
170 163 68
173 165 71
174 165 75
173 165 75
171 163 72
169 162 67
171 163 70
171 163 70
166 160 59
169 162 66
171 163 66
170 163 67
168 162 62
165 158 58
167 159 62
168 161 57
165 159 56
169 161 61
166 160 58
167 161 61
168 160 61
164 158 52
165 158 51
164 157 51
163 156 54
167 160 58
165 158 53
165 159 52
165 160 51
162 159 39
162 160 41
162 159 41
163 162 37
165 164 39
161 161 28
165 165 41
163 165 36
164 167 34
160 165 16
161 164 28
158 161 11
163 171 30
163 171 22
162 169 11
159 165 0
160 169 11
162 169 0
163 173 0
164 175 0
162 175 0
165 179 0
167 181 0
161 173 0
166 181 0
166 182 0
167 185 0
166 182 0
167 185 0
164 179 0
167 184 0
167 185 0
166 183 0
168 187 0
172 193 0
169 191 0
166 184 0
171 190 0
171 190 0
168 187 0
170 192 0
170 191 0
169 190 0
173 191 0
169 189 0
168 189 0
171 192 0
168 188 0
169 191 0
171 193 0
171 192 0
168 190 0
168 190 0
172 193 0
168 192 0
173 197 0
171 194 0
173 196 0
173 196 0
172 196 0
173 196 0
171 196 0
168 191 0
173 196 0
169 193 0
169 192 0
169 192 0
172 195 0
173 196 0
174 196 0
170 193 0
172 195 0
169 193 0
171 195 0
165 188 0
169 193 0
172 196 0
170 194 0
169 193 0
169 192 0
170 193 0
170 194 0
172 196 0
169 193 0
172 195 0
169 192 0
165 189 0
171 194 0
172 195 0
169 193 0
168 191 0
170 194 0
166 190 0
169 194 0
166 190 0
169 192 0
169 193 0
170 193 0
172 195 0
172 195 0
170 194 0
169 193 0
169 192 0
169 192 0
165 188 0
170 193 0
168 192 0
166 189 0
165 188 0
170 193 0
170 193 0
168 191 0
170 193 0
170 194 0
165 188 0
171 194 0
172 194 0
163 186 0
172 194 0
166 189 0
169 193 0
167 190 0
167 190 0
167 190 0
167 191 0
170 193 0
165 189 0
169 193 0
167 189 0
167 191 0
169 191 0
164 188 0
165 189 0
166 189 0
164 188 0
165 187 0
168 191 0
163 186 0
167 190 0
163 186 0
161 184 0
166 189 0
160 184 0
167 191 0
166 190 0
164 188 0
164 187 0
164 188 0
167 188 0
168 192 0
163 185 0
163 186 0
161 183 0
165 188 0
164 187 0
157 181 0
163 186 0
168 191 0
161 183 0
166 189 0
165 187 0
159 182 0
164 186 0
161 183 0
158 181 0
161 185 0
160 183 0
161 184 0
161 185 0
166 188 0
166 188 0
162 184 0
158 182 0
161 184 0
151 174 0
156 180 0
159 181 0
153 176 0
158 180 0
158 181 0
160 182 0
160 185 0
156 179 0
158 181 0
161 184 0
151 173 0
152 175 0
160 182 0
156 178 0
160 182 0
154 176 0
153 174 0
153 176 0
151 172 0
143 165 0
156 178 0
154 177 0
152 173 0
147 170 0
156 179 0
149 171 0
147 170 0
153 176 0
150 171 0
160 181 0
150 171 0
149 172 0
143 164 0
148 168 0
151 173 0
134 155 0
146 167 0
151 173 0
150 171 0
142 163 0
145 166 0
145 164 0
147 168 0
148 168 0
146 165 0
145 166 0
143 163 0
148 168 0
143 162 0
147 166 0
138 159 0
145 164 0
134 152 0
141 162 0
145 165 0
135 154 0
139 158 0
142 161 0
135 153 0
138 158 0
140 160 0
131 150 0
145 163 0
131 148 0
131 150 0
141 161 0
143 163 0
132 150 0
139 157 0
132 149 0
121 138 0
132 148 0
135 153 0
129 149 0
133 151 0
124 140 0
131 149 0
131 150 0
129 145 0
141 158 0
134 151 0
136 152 0
129 145 0
126 142 0
126 142 0
136 151 0
134 149 0
144 161 0
139 156 0
132 149 0
124 140 0
137 151 0
136 153 0
135 151 0
119 135 0
127 144 0
119 133 0
130 145 0
136 152 0
131 146 0
127 139 0
132 142 0
126 139 0
129 139 0
133 144 0
126 136 0
122 131 0
130 139 0
124 130 0
125 132 0
133 140 0
129 135 0
133 136 0
135 141 0
128 132 0
132 137 0
132 135 0
140 143 0
135 138 0
131 132 0
143 145 0
146 147 0
129 128 0
141 139 0
144 140 0
143 140 0
142 140 0
146 144 11
143 139 16
147 144 19
149 145 16
147 143 19
153 149 19
149 146 19
150 146 28
154 150 32
154 150 34
157 151 41
159 153 41
155 150 36
159 153 36
158 153 36
157 152 41
157 152 44
164 157 56
160 154 49
159 153 48
163 156 48
158 153 41
162 157 47
163 156 53
168 161 61
161 155 53
169 161 66
165 159 59
167 160 65
166 160 59
165 159 58
171 162 69
166 160 62
167 160 57
165 159 61
167 160 63
166 160 61
169 162 67
172 165 74
166 159 61
166 160 60
174 165 74
169 162 65
168 161 69
167 160 62
170 163 68
171 163 71
174 165 75
171 163 67
167 161 60
172 164 75
174 165 78
168 161 65
170 163 72
170 163 71
172 164 75
170 163 70
172 165 74
171 164 71
173 165 75
171 164 71
173 165 77
169 163 65
168 161 63
174 166 76
167 161 60
169 162 65
168 161 65
175 166 80
174 165 75
172 164 69
174 166 74
172 164 73
168 160 63
175 166 78
167 160 58
171 163 69
169 162 62
169 161 64
168 161 61
168 160 64
170 162 64
170 162 66
165 158 54
166 159 56
165 157 59
165 158 54
166 160 56
169 161 62
168 160 58
167 159 56
167 159 59
164 157 49
165 159 52
164 158 54
166 160 56
163 158 45
166 160 51
162 159 37
161 159 32
161 157 41
162 158 44
161 162 37
162 164 37
160 160 19
163 164 34
160 162 25
160 164 28
162 164 22
158 165 22
163 168 30
159 167 11
161 168 11
163 171 11
166 176 0
164 174 0
163 173 0
163 175 0
165 176 0
163 176 0
158 171 0
168 183 0
167 184 0
169 186 0
166 182 0
164 180 0
163 179 0
168 183 0
168 187 0
168 187 0
168 186 0
169 189 0
168 187 0
171 188 0
167 187 0
167 186 0
170 190 0
170 190 0
170 190 0
170 190 0
166 187 0
170 190 0
168 188 0
171 192 0
171 188 0
167 187 0
171 191 0
172 193 0
169 189 0
171 192 0
171 193 0
170 192 0
172 195 0
169 192 0
173 197 0
168 192 0
169 193 0
172 195 0
168 192 0
171 193 0
172 195 0
168 192 0
171 195 0
171 194 0
168 192 0
169 192 0
172 196 0
173 195 0
170 193 0
172 195 0
171 195 0
169 193 0
171 195 0
171 194 0
169 192 0
170 194 0
172 195 0
172 196 0
167 191 0
171 194 0
170 193 0
170 193 0
167 191 0
170 194 0
171 194 0
170 193 0
168 193 0
171 195 0
168 191 0
169 192 0
168 192 0
167 192 0
169 191 0
168 192 0
172 195 0
171 195 0
169 193 0
169 192 0
172 194 0
171 194 0
166 189 0
169 192 0
172 196 0
165 188 0
167 191 0
169 192 0
164 188 0
170 194 0
169 192 0
169 192 0
172 195 0
173 196 0
168 192 0
167 191 0
169 192 0
169 194 0
163 187 0
168 192 0
166 189 0
170 192 0
168 192 0
166 189 0
169 192 0
167 191 0
167 190 0
162 186 0
166 189 0
160 183 0
167 190 0
167 190 0
169 192 0
163 186 0
164 188 0
165 189 0
164 187 0
169 192 0
168 190 0
168 192 0
165 189 0
171 195 0
168 191 0
165 189 0
167 190 0
162 184 0
163 186 0
166 189 0
167 191 0
168 190 0
165 189 0
162 186 0
164 187 0
166 190 0
160 183 0
161 184 0
166 188 0
160 182 0
165 186 0
164 187 0
161 183 0
168 191 0
163 185 0
163 186 0
165 189 0
163 186 0
166 188 0
160 183 0
164 187 0
157 181 0
161 184 0
160 183 0
160 182 0
159 182 0
164 187 0
154 176 0
161 184 0
158 180 0
161 184 0
160 183 0
156 178 0
154 175 0
153 178 0
160 183 0
154 176 0
156 179 0
160 183 0
159 180 0
156 178 0
150 172 0
159 181 0
159 180 0
155 177 0
156 179 0
147 168 0
154 176 0
150 172 0
155 176 0
143 164 0
150 171 0
154 176 0
153 176 0
149 171 0
146 168 0
146 168 0
152 174 0
152 173 0
154 176 0
145 168 0
151 173 0
148 170 0
147 170 0
149 170 0
153 174 0
151 172 0
152 172 0
147 168 0
151 172 0
149 169 0
144 164 0
141 162 0
142 164 0
142 162 0
143 162 0
142 162 0
135 154 0
141 162 0
126 146 0
133 153 0
135 153 0
141 162 0
143 162 0
136 156 0
146 165 0
143 161 0
137 158 0
138 156 0
124 144 0
139 158 0
138 155 0
140 158 0
140 159 0
128 146 0
147 167 0
139 157 0
132 152 0
126 146 0
134 152 0
125 143 0
139 158 0
138 155 0
134 150 0
129 148 0
134 149 0
129 145 0
132 149 0
121 136 0
135 153 0
129 145 0
131 147 0
138 155 0
135 151 0
132 147 0
138 155 0
129 144 0
128 144 0
131 143 0
135 150 0
126 142 0
132 149 0
129 143 0
139 153 0
133 148 0
139 153 0
130 143 0
122 134 0
129 142 0
139 150 0
131 144 0
127 136 0
117 126 0
125 134 0
131 142 0
131 139 0
135 143 0
130 138 0
117 124 0
130 137 0
126 132 0
133 138 0
136 140 0
135 139 0
127 132 0
136 136 0
134 134 0
136 136 0
142 143 0
134 135 0
139 137 0
137 134 0
148 145 0
141 140 0
140 139 0
142 140 0
142 140 11
142 140 0
147 143 11
147 145 22
147 143 25
149 145 22
147 143 34
154 150 36
154 150 34
156 151 39
158 153 44
155 151 37
156 151 39
157 152 30
153 148 22
155 150 37
162 156 51
162 156 48
161 156 44
156 151 44
161 155 49
160 155 45
163 158 53
163 157 53
165 159 59
162 156 56
163 157 51
165 158 58
168 161 61
163 156 59
168 161 65
163 157 56
170 162 66
168 160 67
169 162 66
170 162 66
169 161 69
168 161 62
168 161 67
167 159 57
170 162 67
169 161 65
172 163 72
171 164 70
172 164 73
169 161 66
170 163 73
168 161 62
168 162 63
171 163 72
172 164 73
173 165 76
174 165 80
168 161 64
172 164 73
172 164 73
171 163 69
172 164 77
168 161 63
168 161 64
171 163 73
174 165 78
172 164 75
171 163 68
168 161 61
164 158 57
167 160 58
167 160 63
169 162 63
169 161 65
169 162 67
171 163 71
171 163 70
166 160 58
168 161 63
169 162 65
165 158 57
170 163 64
170 162 65
169 162 63
169 161 66
170 161 64
162 156 47
167 160 58
167 160 59
166 159 56
159 153 36
166 158 57
165 158 49
165 158 59
162 156 48
167 159 59
166 159 57
162 157 47
160 155 37
161 159 41
163 157 45
161 159 36
161 159 39
159 158 36
161 159 37
161 161 30
161 161 32
159 162 25
161 164 16
164 167 30
161 162 22
161 166 11
161 167 16
161 169 16
163 172 11
163 170 11
162 171 0
162 171 0
164 174 0
164 177 0
163 176 0
163 178 0
166 180 0
162 175 0
166 181 0
169 186 0
169 185 0
168 186 0
168 185 0
167 184 0
169 185 0
170 188 0
169 188 0
168 186 0
168 189 0
167 188 0
166 185 0
169 188 0
170 191 0
167 189 0
168 189 0
169 187 0
171 192 0
170 190 0
168 187 0
165 189 0
169 189 0
171 191 0
169 189 0
170 190 0
169 191 0
171 193 0
169 190 0
170 193 0
172 195 0
172 195 0
170 193 0
169 192 0
172 195 0
173 195 0
172 196 0
174 197 0
171 195 0
170 194 0
173 196 0
170 194 0
171 195 0
170 194 0
172 195 0
166 189 0
173 197 0
170 194 0
168 192 0
169 192 0
171 194 0
173 195 0
171 194 0
170 193 0
168 192 0
169 194 0
167 190 0
172 195 0
171 194 0
172 196 0
172 195 0
167 191 0
173 196 0
168 191 0
171 195 0
168 192 0
168 191 0
173 197 0
169 192 0
172 195 0
169 192 0
167 191 0
169 192 0
172 195 0
172 195 0
165 188 0
170 194 0
172 195 0
166 190 0
173 197 0
171 195 0
167 191 0
170 193 0
169 192 0
172 195 0
167 190 0
164 188 0
171 194 0
167 191 0
169 193 0
161 185 0
170 193 0
168 190 0
171 194 0
168 191 0
169 192 0
165 189 0
168 191 0
165 190 0
167 190 0
172 194 0
168 190 0
170 195 0
168 192 0
167 191 0
170 193 0
166 189 0
167 191 0
171 195 0
169 192 0
162 187 0
165 189 0
165 188 0
162 185 0
170 193 0
164 187 0
165 188 0
167 191 0
165 188 0
161 183 0
167 190 0
165 189 0
168 192 0
165 188 0
165 188 0
166 188 0
171 195 0
165 188 0
166 189 0
161 184 0
164 187 0
165 188 0
166 188 0
165 188 0
161 185 0
166 189 0
162 185 0
160 183 0
166 188 0
167 189 0
167 191 0
163 186 0
154 177 0
161 184 0
163 185 0
156 178 0
160 184 0
163 185 0
159 181 0
160 182 0
158 181 0
163 185 0
157 179 0
152 175 0
153 176 0
160 183 0
161 183 0
159 182 0
160 183 0
151 174 0
153 175 0
155 178 0
157 179 0
156 178 0
152 174 0
155 177 0
155 177 0
157 181 0
154 176 0
155 178 0
157 179 0
155 177 0
159 182 0
155 176 0
152 174 0
152 173 0
153 175 0
151 174 0
154 175 0
155 176 0
150 172 0
148 170 0
152 175 0
155 177 0
153 174 0
147 168 0
149 171 0
151 172 0
154 175 0
146 169 0
143 165 0
146 168 0
142 161 0
149 169 0
143 164 0
148 170 0
137 157 0
140 161 0
150 171 0
151 171 0
132 153 0
133 154 0
140 162 0
137 157 0
146 164 0
136 154 0
145 166 0
145 165 0
147 166 0
139 160 0
137 155 0
140 159 0
139 157 0
135 154 0
136 155 0
137 155 0
140 159 0
128 146 0
140 158 0
139 156 0
144 163 0
145 164 0
142 161 0
133 153 0
133 152 0
134 152 0
136 152 0
133 150 0
139 158 0
135 150 0
138 155 0
131 147 0
131 148 0
126 141 0
127 142 0
139 156 0
135 150 0
138 157 0
131 149 0
128 143 0
143 161 0
136 154 0
134 149 0
135 150 0
126 141 0
138 152 0
120 137 0
135 146 0
131 147 0
124 136 0
129 142 0
127 140 0
130 141 0
131 143 0
128 138 0
132 145 0
135 147 0
122 132 0
140 149 0
122 129 0
127 134 0
133 138 0
135 140 0
128 135 0
135 139 0
130 136 0
135 139 0
135 140 0
126 128 0
138 141 0
138 142 0
136 137 0
134 135 0
139 139 0
140 139 0
144 144 0
143 140 0
140 139 0
144 142 0
136 134 0
141 138 11
147 144 11
145 141 16
147 143 11
152 147 28
151 147 22
150 145 25
152 148 28
149 145 16
151 147 30
154 150 32
156 151 32
157 152 30
152 148 30
155 150 34
161 153 47
162 155 48
161 155 48
158 153 41
155 150 39
161 155 49
161 155 44
163 156 51
163 157 53
161 154 48
165 159 53
166 160 60
159 153 51
165 159 56
163 158 57
168 161 60
170 161 64
164 157 57
169 161 66
164 159 51
167 160 61
168 162 62
171 164 71
167 160 65
164 159 54
166 160 61
165 159 56
167 160 59
170 162 70
168 161 64
168 161 67
170 163 66
168 161 64
168 161 65
171 163 70
168 161 63
173 165 75
171 163 68
166 160 60
171 163 68
170 162 71
170 162 66
168 161 64
169 162 68
169 162 66
170 162 69
170 162 68
169 162 65
170 163 66
170 162 69
169 162 65
168 161 63
167 160 59
169 162 69
166 159 59
167 161 61
166 159 56
164 158 52
167 160 62
171 163 67
169 161 60
165 158 58
162 155 48
165 159 56
164 158 56
165 159 54
167 160 60
164 158 53
168 160 60
165 158 52
166 159 52
159 154 37
161 156 47
164 157 51
164 159 49
161 157 44
164 159 49
161 154 41
164 158 51
161 157 44
161 156 41
163 158 39
163 162 41
162 159 34
160 160 28
162 162 32
161 165 22
160 165 22
162 163 34
162 166 22
159 162 22
158 163 11
160 168 0
161 167 11
161 168 0
163 171 0
161 171 0
161 171 0
163 174 0
165 175 0
163 174 0
165 178 0
162 173 0
165 179 0
163 177 0
168 183 0
167 184 0
166 183 0
162 178 0
168 187 0
169 185 0
168 185 0
167 184 0
167 187 0
168 187 0
168 188 0
167 187 0
167 187 0
170 191 0
169 191 0
170 190 0
167 186 0
170 189 0
172 192 0
167 189 0
167 186 0
172 193 0
170 191 0
169 190 0
171 191 0
168 190 0
169 189 0
172 192 0
172 192 0
168 192 0
170 194 0
172 195 0
170 194 0
170 193 0
169 193 0
168 193 0
172 195 0
172 194 0
175 198 0
173 196 0
172 195 0
171 195 0
175 198 0
171 194 0
172 195 0
168 192 0
172 195 0
172 196 0
168 192 0
169 192 0
171 195 0
170 193 0
174 198 0
172 194 0
174 197 0
166 189 0
170 194 0
171 194 0
170 194 0
171 195 0
168 191 0
173 197 0
171 195 0
172 196 0
168 191 0
169 192 0
168 192 0
168 191 0
170 194 0
171 194 0
170 193 0
170 194 0
171 194 0
166 190 0
171 194 0
172 194 0
168 191 0
171 194 0
170 194 0
168 191 0
168 191 0
171 194 0
172 195 0
169 192 0
170 194 0
169 193 0
167 191 0
168 190 0
168 191 0
165 188 0
167 190 0
163 187 0
167 190 0
169 192 0
165 189 0
168 191 0
172 194 0
161 185 0
170 193 0
162 185 0
172 194 0
168 191 0
169 192 0
166 189 0
167 190 0
169 191 0
165 188 0
166 190 0
169 192 0
166 189 0
169 192 0
169 192 0
166 190 0
165 188 0
165 189 0
164 187 0
165 188 0
162 185 0
167 191 0
165 189 0
164 188 0
165 189 0
162 185 0
162 186 0
171 194 0
163 186 0
167 191 0
161 184 0
163 186 0
167 190 0
163 186 0
164 187 0
163 187 0
166 189 0
158 181 0
163 186 0
160 183 0
157 180 0
162 184 0
163 185 0
163 185 0
162 185 0
165 188 0
162 186 0
160 183 0
158 181 0
159 181 0
163 184 0
159 182 0
155 177 0
159 182 0
165 187 0
160 183 0
159 182 0
158 181 0
161 184 0
158 179 0
163 186 0
150 172 0
157 180 0
156 179 0
153 175 0
155 177 0
155 177 0
153 176 0
160 183 0
160 183 0
152 173 0
157 179 0
155 176 0
150 173 0
152 174 0
162 185 0
149 171 0
162 185 0
158 181 0
150 171 0
151 171 0
157 179 0
151 171 0
154 176 0
150 170 0
146 166 0
158 180 0
158 180 0
149 170 0
150 173 0
148 169 0
146 168 0
145 168 0
150 171 0
149 169 0
140 160 0
147 168 0
151 171 0
148 168 0
152 173 0
142 161 0
142 161 0
143 163 0
138 158 0
144 163 0
146 168 0
145 162 0
147 168 0
145 166 0
144 164 0
142 162 0
136 156 0
143 163 0
131 150 0
138 158 0
148 167 0
143 164 0
142 160 0
142 161 0
141 158 0
140 158 0
139 156 0
134 154 0
138 156 0
135 152 0
134 152 0
130 148 0
143 162 0
134 152 0
134 151 0
137 155 0
135 151 0
138 155 0
139 155 0
142 159 0
140 158 0
128 144 0
135 150 0
138 154 0
129 145 0
116 132 0
135 150 0
146 163 0
135 152 0
139 156 0
130 144 0
130 144 0
128 143 0
121 136 0
133 147 0
126 140 0
128 143 0
128 142 0
132 146 0
139 153 0
130 143 0
136 147 0
126 140 0
132 145 0
136 146 0
133 143 0
134 144 0
140 148 0
120 129 0
136 145 0
132 138 0
133 139 0
134 140 0
138 145 0
137 142 0
140 144 0
141 143 0
136 138 0
146 149 0
137 137 0
136 139 0
140 139 0
137 137 0
137 136 0
140 136 0
141 138 0
140 140 0
142 139 0
141 138 0
143 140 16
151 146 11
150 145 19
148 144 16
150 145 19
146 142 19
152 149 22
152 147 22
152 148 22
153 148 28
154 149 34
159 154 45
154 150 34
154 149 32
156 151 36
160 155 42
157 151 42
158 153 44
160 154 41
159 153 42
158 152 42
158 152 45
160 154 42
159 152 39
160 154 48
164 158 49
167 160 61
163 158 56
163 157 49
162 155 45
165 159 53
164 158 54
166 160 62
165 158 57
166 159 59
167 160 62
168 160 62
166 159 58
166 160 58
167 160 63
166 159 60
163 157 52
169 162 65
167 161 66
165 159 59
168 161 65
166 160 59
169 161 68
169 162 67
168 160 59
169 162 63
167 160 63
169 161 64
170 162 70
171 162 72
166 160 60
167 160 61
169 162 66
169 161 65
169 161 63
169 161 64
167 160 63
168 161 65
166 159 58
170 163 65
169 162 65
167 160 59
169 162 66
164 158 51
170 162 66
169 161 62
164 158 57
167 159 58
167 160 57
167 160 59
165 159 57
168 160 62
167 159 58
167 160 58
166 159 56
162 156 45
165 158 49
165 158 53
163 157 51
162 155 47
165 158 49
159 153 42
163 157 51
160 154 42
163 157 47
161 155 36
161 157 36
161 157 41
159 155 36
162 159 39
161 159 34
162 160 37
163 163 28
163 164 34
161 160 32
163 166 28
160 163 11
162 166 22
162 166 22
162 167 0
159 163 11
160 165 19
159 164 0
161 168 0
163 175 0
162 172 0
162 171 0
162 171 0
165 174 0
163 175 0
163 173 0
163 174 0
166 180 0
167 182 0
163 175 0
170 188 0
165 182 0
167 184 0
168 185 0
169 186 0
167 184 0
167 184 0
171 190 0
167 185 0
166 185 0
168 188 0
170 191 0
170 190 0
170 190 0
170 190 0
173 194 0
170 191 0
168 187 0
170 190 0
171 192 0
173 194 0
167 187 0
170 191 0
171 192 0
170 190 0
170 189 0
170 191 0
170 191 0
172 193 0
171 194 0
170 193 0
173 197 0
172 196 0
172 196 0
172 196 0
172 195 0
172 196 0
172 196 0
170 195 0
172 196 0
172 194 0
172 196 0
169 192 0
170 194 0
172 195 0
172 194 0
169 193 0
173 195 0
171 195 0
171 195 0
170 193 0
166 190 0
171 195 0
171 194 0
172 195 0
169 193 0
171 194 0
175 198 0
170 193 0
174 197 0
170 193 0
173 195 0
167 190 0
169 194 0
169 193 0
170 193 0
171 195 0
169 192 0
168 192 0
168 192 0
171 195 0
169 193 0
169 194 0
170 194 0
170 194 0
172 195 0
170 193 0
170 192 0
171 194 0
167 191 0
168 191 0
168 192 0
167 190 0
163 188 0
171 195 0
167 189 0
166 190 0
169 193 0
169 192 0
171 194 0
171 194 0
168 192 0
169 192 0
169 193 0
165 188 0
171 194 0
168 192 0
169 192 0
167 190 0
168 191 0
164 187 0
166 189 0
165 188 0
166 190 0
167 190 0
169 192 0
164 187 0
166 189 0
169 192 0
170 192 0
169 193 0
168 190 0
169 193 0
170 193 0
162 185 0
169 192 0
164 188 0
161 183 0
171 195 0
169 192 0
167 190 0
166 189 0
157 181 0
166 189 0
163 187 0
165 187 0
160 183 0
165 189 0
161 184 0
167 190 0
162 185 0
160 184 0
163 186 0
161 184 0
162 184 0
164 188 0
163 186 0
168 190 0
166 190 0
160 183 0
161 184 0
164 187 0
165 188 0
165 187 0
164 186 0
162 184 0
166 189 0
165 187 0
162 185 0
158 180 0
153 175 0
168 191 0
154 177 0
162 183 0
162 185 0
159 182 0
159 181 0
161 182 0
159 182 0
159 182 0
158 181 0
157 178 0
156 179 0
152 174 0
151 174 0
160 182 0
157 178 0
146 168 0
152 174 0
154 175 0
159 181 0
161 184 0
147 169 0
152 174 0
151 173 0
153 174 0
153 175 0
155 175 0
156 177 0
154 176 0
152 173 0
155 178 0
152 174 0
151 173 0
155 176 0
151 171 0
144 166 0
153 175 0
146 167 0
148 170 0
148 168 0
145 167 0
148 169 0
148 170 0
143 163 0
142 162 0
150 170 0
146 167 0
144 164 0
146 167 0
144 164 0
138 157 0
148 170 0
140 159 0
137 155 0
148 169 0
146 167 0
145 164 0
149 169 0
145 165 0
146 165 0
137 157 0
140 160 0
135 152 0
141 159 0
144 162 0
144 162 0
139 157 0
143 161 0
134 151 0
129 144 0
136 154 0
144 164 0
137 154 0
145 163 0
137 156 0
134 151 0
132 150 0
138 154 0
130 147 0
138 155 0
135 151 0
135 150 0
140 159 0
138 155 0
140 158 0
134 150 0
128 146 0
129 144 0
137 152 0
135 147 0
127 142 0
139 155 0
131 147 0
143 159 0
137 152 0
133 150 0
137 153 0
133 147 0
121 134 0
130 142 0
133 146 0
129 141 0
133 145 0
136 146 0
129 140 0
124 133 0
131 141 0
126 135 0
134 145 0
133 141 0
131 139 0
133 141 0
131 140 0
131 136 0
142 147 0
128 132 0
137 143 0
129 131 0
137 138 0
138 140 0
133 135 0
141 143 0
141 142 0
132 131 0
138 138 0
142 139 0
142 140 0
146 142 0
141 136 0
143 140 0
138 135 0
142 139 0
146 142 0
145 139 16
151 145 22
154 149 30
146 141 19
153 149 22
152 148 25
155 149 36
155 150 32
154 149 30
150 145 36
156 151 32
156 151 37
155 151 39
153 148 28
160 154 47
156 151 32
158 152 41
154 150 28
159 154 44
160 154 45
166 159 58
158 151 48
163 157 53
161 155 45
157 152 42
166 159 61
160 154 42
164 158 52
164 157 54
165 157 60
161 155 49
162 157 49
167 161 64
169 161 62
167 161 63
169 162 61
164 158 54
166 160 56
168 161 61
169 161 63
167 160 60
166 160 59
168 161 66
171 163 67
168 161 61
167 159 57
171 163 67
167 160 58
170 162 69
167 161 62
165 159 58
166 159 59
171 162 68
168 161 62
168 161 64
168 161 63
169 161 66
170 162 68
164 158 54
167 160 59
166 160 56
169 162 62
169 162 62
173 165 74
165 159 49
167 160 61
165 158 56
163 157 53
165 158 56
165 158 51
164 158 52
165 160 56
166 159 54
163 157 49
165 158 54
165 158 51
162 156 49
164 158 52
161 156 48
162 155 48
162 156 47
164 157 48
160 154 44
158 153 39
164 158 49
164 157 51
164 160 47
162 159 42
162 158 39
162 160 36
161 159 36
165 163 41
156 156 25
160 162 25
162 164 25
159 162 19
161 163 28
156 158 16
163 165 25
162 165 11
163 170 0
159 164 11
163 170 0
159 166 0
160 165 0
161 172 0
163 172 0
164 178 0
163 177 0
163 173 0
164 175 0
164 176 0
162 176 0
167 184 0
165 180 0
168 185 0
166 182 0
165 180 0
164 180 0
168 183 0
167 184 0
170 189 0
168 189 0
170 188 0
169 186 0
170 191 0
169 189 0
169 189 0
169 189 0
166 187 0
169 189 0
173 192 0
171 194 0
169 190 0
168 188 0
169 189 0
169 188 0
171 193 0
170 192 0
171 193 0
173 194 0
168 189 0
170 192 0
167 188 0
172 193 0
173 196 0
172 196 0
173 196 0
171 195 0
173 196 0
170 192 0
173 197 0
171 194 0
174 197 0
175 198 0
171 195 0
172 195 0
172 195 0
171 195 0
165 189 0
168 192 0
171 194 0
171 194 0
171 195 0
170 193 0
170 194 0
169 193 0
173 197 0
174 197 0
170 193 0
170 193 0
171 195 0
170 194 0
168 192 0
169 192 0
171 193 0
170 193 0
169 193 0
171 195 0
172 195 0
169 193 0
172 195 0
169 193 0
169 192 0
171 194 0
173 196 0
173 195 0
166 188 0
172 195 0
170 194 0
168 191 0
169 193 0
170 194 0
169 192 0
171 194 0
167 191 0
168 191 0
168 192 0
170 192 0
167 190 0
170 192 0
169 193 0
171 195 0
167 191 0
170 194 0
168 191 0
166 189 0
171 194 0
161 184 0
167 190 0
172 195 0
170 192 0
171 194 0
172 195 0
169 192 0
168 190 0
171 194 0
166 189 0
171 194 0
170 193 0
167 190 0
169 192 0
166 189 0
168 192 0
170 194 0
168 191 0
167 190 0
167 191 0
170 193 0
165 189 0
164 186 0
165 188 0
167 190 0
164 186 0
160 183 0
165 188 0
167 190 0
168 191 0
164 187 0
165 187 0
163 187 0
164 187 0
168 192 0
163 185 0
166 189 0
165 189 0
163 185 0
162 185 0
165 188 0
162 185 0
162 185 0
170 192 0
161 184 0
155 177 0
167 190 0
166 188 0
159 182 0
163 184 0
157 180 0
155 177 0
163 186 0
164 187 0
162 185 0
166 190 0
162 184 0
161 183 0
159 182 0
160 183 0
160 183 0
159 183 0
156 178 0
161 184 0
158 180 0
157 180 0
159 182 0
158 180 0
163 185 0
160 182 0
152 174 0
152 175 0
158 181 0
160 182 0
156 179 0
155 177 0
159 180 0
151 174 0
154 177 0
151 174 0
157 179 0
155 177 0
156 177 0
156 178 0
156 178 0
157 179 0
157 178 0
154 175 0
154 176 0
154 175 0
148 169 0
149 172 0
149 170 0
154 175 0
151 172 0
148 168 0
150 171 0
149 171 0
147 169 0
154 176 0
147 167 0
149 171 0
147 167 0
148 168 0
149 169 0
150 171 0
144 165 0
144 165 0
145 164 0
135 156 0
146 166 0
146 166 0
151 171 0
139 157 0
146 165 0
141 161 0
147 167 0
132 151 0
139 159 0
146 164 0
145 164 0
143 163 0
137 155 0
138 158 0
134 153 0
139 159 0
149 167 0
140 160 0
136 154 0
147 163 0
138 156 0
144 161 0
133 150 0
141 158 0
141 160 0
139 156 0
145 162 0
142 161 0
138 157 0
137 153 0
139 155 0
144 162 0
139 155 0
128 145 0
126 141 0
137 151 0
134 149 0
136 153 0
126 141 0
137 153 0
134 149 0
134 148 0
141 155 0
131 146 0
133 146 0
129 142 0
138 153 0
124 138 0
134 148 0
115 129 0
125 134 0
130 140 0
139 150 0
132 142 0
138 148 0
132 143 0
140 150 0
128 135 0
134 142 0
133 143 0
132 140 0
124 132 0
136 144 0
139 141 0
133 136 0
134 137 0
142 145 0
132 134 0
137 139 0
146 148 0
136 137 0
142 142 0
137 136 0
140 139 0
140 139 0
143 141 0
148 145 0
141 137 0
139 136 0
147 144 11
144 139 0
145 140 0
142 137 0
142 138 11
148 144 16
149 143 0
149 145 22
150 145 19
154 149 30
154 148 32
156 151 28
156 152 30
155 149 34
151 147 28
159 154 41
154 150 30
159 154 39
162 156 47
160 155 42
155 150 32
159 153 41
158 154 34
161 154 48
160 155 45
163 156 54
159 153 49
160 155 44
159 154 44
163 157 51
162 156 56
163 158 51
160 154 42
164 157 52
160 156 49
164 158 57
164 158 57
162 156 49
168 160 64
164 157 53
162 156 52
165 159 57
167 160 59
164 158 51
166 159 57
164 158 53
168 161 64
165 158 53
167 159 63
169 161 64
170 162 66
170 162 65
167 160 62
168 161 61
169 162 65
169 161 64
165 159 60
169 161 63
166 159 57
164 158 57
164 158 53
166 159 59
167 159 58
164 157 52
162 156 51
167 160 58
165 159 57
165 158 54
162 157 49
167 160 60
169 162 63
167 160 61
168 161 62
163 157 51
166 159 53
165 158 54
163 158 45
165 159 53
165 159 47
163 156 47
161 155 45
162 156 45
160 155 39
162 156 47
159 152 42
158 152 30
159 154 37
156 153 25
157 152 30
165 160 48
162 159 34
159 157 28
158 155 25
156 153 25
160 158 32
159 160 25
157 159 11
162 161 34
159 160 25
158 160 16
158 160 19
158 164 16
159 165 0
161 168 0
161 167 11
158 165 0
162 170 0
163 175 0
164 172 0
159 167 0
165 175 0
164 171 0
164 176 0
167 180 0
167 180 0
164 174 0
167 180 0
164 178 0
168 184 0
164 179 0
166 184 0
166 184 0
170 187 0
167 185 0
169 187 0
170 188 0
169 189 0
168 187 0
167 187 0
168 187 0
169 188 0
167 187 0
169 190 0
171 190 0
172 192 0
172 192 0
173 194 0
170 190 0
168 187 0
170 192 0
172 194 0
171 192 0
171 191 0
173 195 0
171 193 0
170 190 0
173 195 0
171 193 0
174 198 0
172 195 0
171 195 0
168 191 0
172 195 0
172 196 0
171 194 0
172 195 0
169 192 0
169 192 0
169 193 0
168 192 0
171 195 0
171 195 0
172 195 0
170 194 0
169 192 0
172 195 0
171 194 0
171 194 0
171 194 0
171 193 0
173 196 0
170 193 0
171 194 0
172 195 0
174 196 0
169 192 0
169 193 0
171 194 0
171 194 0
169 193 0
166 190 0
170 194 0
170 193 0
166 190 0
169 193 0
170 193 0
174 197 0
166 189 0
173 196 0
167 190 0
168 192 0
170 193 0
170 194 0
169 193 0
173 195 0
170 194 0
167 190 0
171 193 0
170 194 0
172 195 0
165 189 0
168 190 0
172 195 0
168 192 0
168 192 0
171 194 0
166 190 0
172 195 0
166 190 0
168 191 0
167 190 0
171 195 0
169 192 0
164 186 0
170 193 0
165 188 0
168 191 0
172 195 0
167 191 0
166 189 0
166 190 0
167 191 0
165 189 0
166 188 0
165 188 0
168 191 0
167 190 0
166 189 0
164 188 0
163 186 0
169 193 0
165 189 0
165 187 0
162 184 0
166 189 0
165 187 0
165 188 0
170 193 0
165 188 0
167 190 0
168 191 0
160 184 0
165 187 0
168 191 0
166 189 0
167 191 0
163 186 0
159 181 0
165 188 0
165 188 0
161 184 0
161 184 0
165 188 0
163 187 0
163 186 0
161 183 0
161 184 0
162 185 0
159 182 0
161 184 0
161 185 0
165 189 0
156 180 0
160 182 0
155 177 0
163 186 0
159 181 0
164 187 0
164 189 0
164 187 0
160 183 0
155 177 0
157 180 0
156 178 0
153 175 0
155 178 0
162 184 0
157 180 0
149 171 0
160 182 0
157 178 0
157 180 0
156 179 0
154 176 0
160 182 0
154 176 0
154 176 0
153 175 0
159 181 0
158 181 0
153 175 0
155 178 0
152 175 0
147 167 0
154 176 0
162 184 0
157 179 0
155 177 0
153 174 0
157 178 0
150 170 0
153 174 0
151 173 0
149 170 0
153 172 0
150 172 0
148 169 0
149 172 0
148 168 0
148 169 0
144 163 0
148 171 0
152 172 0
152 174 0
150 171 0
146 168 0
148 168 0
146 167 0
149 169 0
146 166 0
139 160 0
141 163 0
140 160 0
139 158 0
143 164 0
139 159 0
132 149 0
149 170 0
143 164 0
153 173 0
147 165 0
144 164 0
135 153 0
141 159 0
142 161 0
142 161 0
137 156 0
149 168 0
145 165 0
151 170 0
146 165 0
145 164 0
132 151 0
131 148 0
132 151 0
146 166 0
138 154 0
142 160 0
138 156 0
139 154 0
140 158 0
140 158 0
136 151 0
139 155 0
130 147 0
130 147 0
139 152 0
134 151 0
132 148 0
141 159 0
123 136 0
127 142 0
133 150 0
130 145 0
134 150 0
131 145 0
140 154 0
130 146 0
130 146 0
136 151 0
140 154 0
129 142 0
136 147 0
130 143 0
138 151 0
124 134 0
134 145 0
127 136 0
129 137 0
129 137 0
136 142 0
128 131 0
137 143 0
123 129 0
134 143 0
129 133 0
142 143 0
135 138 0
140 141 0
143 146 0
139 142 0
126 130 0
140 140 0
135 133 0
141 141 0
134 132 0
138 134 0
147 145 0
142 139 0
145 142 0
145 142 0
140 137 0
147 144 0
146 141 0
149 146 0
153 147 16
146 142 16
146 141 11
153 146 22
151 146 25
148 144 19
148 144 19
152 147 32
151 148 25
153 148 34
158 154 37
155 149 30
158 153 39
155 150 37
156 152 30
160 154 41
162 155 45
159 153 37
157 152 37
152 148 32
159 154 37
157 152 36
161 155 47
162 156 47
161 154 49
160 154 41
164 158 52
165 158 58
166 158 59
162 156 51
168 161 64
169 162 65
159 155 39
164 158 56
165 158 53
162 156 53
165 159 56
166 159 58
164 158 52
166 159 59
164 157 54
165 159 57
167 160 59
163 157 51
165 158 60
166 160 59
165 159 60
168 161 64
169 162 62
166 158 57
168 162 64
166 159 57
161 155 45
168 160 59
167 161 59
162 155 48
165 158 53
169 162 61
166 159 57
165 158 56
167 160 61
166 159 54
164 157 49
161 156 44
161 156 42
165 159 53
166 159 57
169 162 62
161 155 45
162 157 48
162 155 51
162 156 45
165 158 54
162 156 44
161 155 45
164 157 49
164 157 49
161 154 41
165 157 52
160 154 39
161 155 41
159 153 34
161 155 39
159 154 36
160 156 32
157 155 30
158 154 32
156 154 22
161 163 22
156 155 19
160 161 28
158 159 11
161 162 22
160 160 19
159 164 11
159 164 0
161 164 0
157 161 0
159 168 0
161 169 0
159 165 0
158 166 0
162 170 0
161 171 0
165 175 0
165 179 0
161 172 0
162 176 0
164 176 0
165 174 0
164 177 0
167 183 0
167 180 0
165 179 0
163 179 0
166 181 0
167 184 0
169 187 0
167 185 0
168 188 0
171 189 0
172 191 0
170 188 0
167 186 0
170 190 0
172 192 0
171 191 0
168 187 0
172 191 0
171 190 0
168 186 0
170 191 0
170 191 0
168 189 0
169 189 0
168 189 0
166 186 0
172 193 0
172 192 0
169 190 0
169 190 0
169 191 0
172 194 0
169 192 0
173 195 0
170 193 0
170 193 0
171 195 0
169 193 0
170 194 0
173 196 0
170 194 0
170 194 0
174 197 0
170 193 0
173 197 0
174 197 0
170 193 0
172 195 0
172 195 0
174 197 0
172 196 0
172 195 0
167 191 0
170 194 0
169 193 0
172 194 0
170 194 0
172 196 0
169 193 0
172 196 0
172 196 0
173 196 0
173 196 0
171 193 0
172 195 0
170 194 0
173 196 0
172 195 0
172 195 0
171 195 0
171 195 0
172 195 0
169 192 0
170 193 0
166 189 0
169 194 0
169 192 0
166 191 0
167 191 0
171 194 0
168 192 0
170 194 0
168 192 0
171 194 0
170 193 0
170 194 0
165 188 0
167 189 0
165 188 0
166 190 0
171 194 0
167 190 0
170 194 0
170 194 0
168 191 0
166 190 0
171 193 0
169 192 0
165 188 0
170 194 0
169 192 0
162 184 0
167 190 0
169 192 0
170 192 0
168 192 0
170 194 0
169 193 0
170 193 0
160 185 0
168 191 0
162 185 0
168 191 0
166 190 0
165 189 0
164 187 0
166 189 0
166 188 0
167 190 0
169 193 0
167 190 0
164 186 0
165 189 0
164 188 0
166 189 0
168 190 0
164 187 0
166 189 0
170 194 0
160 184 0
166 190 0
166 189 0
162 185 0
167 190 0
168 190 0
164 187 0
163 186 0
158 181 0
162 185 0
161 184 0
159 182 0
155 178 0
163 185 0
157 180 0
167 189 0
162 186 0
163 185 0
164 188 0
162 185 0
161 183 0
165 187 0
165 188 0
160 183 0
158 181 0
163 186 0
162 185 0
156 178 0
163 185 0
162 184 0
158 181 0
162 184 0
163 186 0
159 181 0
163 185 0
162 186 0
157 179 0
160 182 0
158 181 0
154 176 0
160 182 0
158 181 0
160 182 0
155 177 0
160 182 0
153 175 0
149 171 0
142 163 0
160 182 0
153 175 0
159 181 0
158 179 0
150 172 0
157 180 0
159 180 0
155 178 0
148 170 0
151 172 0
154 174 0
150 170 0
156 177 0
155 175 0
153 175 0
154 176 0
150 172 0
157 178 0
149 171 0
154 174 0
148 170 0
146 166 0
151 172 0
144 164 0
154 177 0
153 174 0
148 169 0
153 172 0
147 167 0
133 154 0
142 162 0
141 160 0
149 170 0
148 169 0
137 158 0
147 166 0
147 166 0
141 163 0
140 160 0
144 162 0
144 163 0
148 165 0
140 159 0
148 167 0
132 150 0
139 159 0
139 158 0
147 167 0
143 162 0
146 165 0
146 165 0
138 156 0
134 153 0
139 157 0
136 150 0
143 160 0
138 154 0
135 152 0
140 157 0
125 140 0
138 156 0
140 157 0
133 147 0
140 157 0
130 147 0
143 159 0
140 157 0
127 143 0
141 158 0
139 151 0
140 156 0
123 136 0
139 152 0
136 152 0
138 152 0
142 156 0
130 144 0
137 151 0
130 143 0
135 150 0
133 147 0
138 145 0
136 149 0
130 141 0
129 141 0
138 147 0
134 140 0
129 140 0
135 140 0
129 137 0
126 131 0
136 143 0
125 133 0
138 141 0
135 139 0
136 140 0
134 136 0
138 137 0
133 134 0
139 139 0
142 142 0
133 134 0
135 132 0
140 136 0
144 141 0
141 136 0
145 141 0
144 141 0
144 140 0
147 143 0
149 144 0
145 140 0
145 141 0
147 144 0
147 143 19
154 149 16
149 144 0
153 148 22
152 146 25
153 148 28
149 143 28
151 147 19
155 151 34
155 150 28
153 148 30
152 146 25
158 152 34
156 152 37
160 155 37
160 155 37
157 152 34
161 155 42
160 154 42
159 153 39
161 155 45
160 155 47
164 156 54
163 155 54
165 158 53
160 155 48
159 154 39
161 155 48
160 154 41
161 156 47
163 157 53
161 155 47
163 156 53
166 159 56
163 156 51
162 157 49
165 158 53
162 156 52
166 159 58
163 156 52
166 159 57
165 159 54
160 155 47
163 158 48
163 155 48
162 155 44
165 158 57
165 158 54
161 155 49
164 158 54
165 158 58
161 156 42
166 159 53
164 157 53
160 155 41
163 158 51
165 159 56
160 154 39
163 157 47
163 157 47
163 157 49
164 158 56
163 157 47
160 155 42
163 156 48
159 153 39
162 156 48
164 158 49
161 155 44
162 154 48
165 158 51
167 159 60
160 154 39
163 156 45
163 157 48
158 151 39
160 154 44
160 155 42
162 156 41
159 153 36
160 156 37
154 151 22
161 158 39
163 162 41
159 155 32
161 159 32
159 158 22
159 159 28
159 157 22
157 158 11
161 163 22
156 158 0
159 162 0
160 163 11
160 163 11
160 166 0
160 167 0
160 167 0
158 164 0
162 171 0
165 174 0
163 173 0
160 169 0
162 172 0
165 174 0
165 177 0
164 177 0
165 178 0
163 175 0
167 180 0
163 176 0
167 183 0
167 182 0
169 187 0
168 184 0
170 191 0
171 191 0
169 188 0
166 185 0
171 191 0
172 192 0
165 182 0
170 187 0
169 187 0
167 187 0
170 190 0
171 192 0
169 189 0
172 192 0
169 191 0
171 193 0
168 188 0
169 190 0
168 188 0
170 191 0
168 189 0
172 193 0
172 194 0
170 190 0
171 193 0
170 191 0
172 195 0
170 194 0
173 196 0
171 194 0
171 193 0
172 195 0
173 197 0
171 194 0
169 193 0
173 196 0
169 192 0
170 193 0
172 195 0
168 192 0
172 196 0
171 194 0
170 194 0
171 196 0
171 193 0
171 195 0
170 194 0
171 194 0
174 197 0
172 196 0
171 194 0
173 196 0
172 195 0
168 192 0
168 192 0
170 194 0
172 194 0
168 192 0
172 196 0
172 195 0
168 192 0
169 194 0
168 191 0
170 194 0
168 191 0
169 192 0
170 193 0
170 194 0
168 191 0
172 196 0
172 195 0
172 196 0
168 190 0
169 193 0
172 194 0
167 191 0
168 192 0
170 194 0
169 193 0
167 192 0
168 191 0
171 194 0
168 191 0
169 193 0
170 194 0
169 192 0
168 190 0
166 190 0
170 193 0
169 192 0
168 191 0
166 190 0
169 193 0
169 192 0
167 189 0
168 191 0
167 189 0
167 190 0
165 187 0
165 187 0
168 191 0
168 191 0
166 190 0
167 191 0
168 191 0
166 190 0
163 186 0
167 190 0
166 189 0
165 188 0
167 191 0
165 190 0
168 191 0
169 192 0
163 187 0
167 190 0
167 190 0
163 186 0
163 187 0
169 191 0
165 187 0
164 187 0
166 189 0
170 193 0
165 189 0
166 188 0
162 187 0
161 184 0
162 186 0
169 192 0
163 186 0
162 185 0
164 186 0
160 182 0
163 186 0
162 183 0
165 187 0
159 182 0
163 187 0
159 180 0
154 177 0
156 179 0
163 185 0
160 181 0
164 188 0
167 189 0
159 181 0
160 182 0
162 185 0
162 186 0
162 185 0
162 185 0
159 180 0
160 182 0
160 183 0
160 183 0
159 182 0
151 172 0
160 182 0
161 183 0
157 180 0
156 178 0
163 186 0
163 186 0
158 180 0
149 171 0
151 173 0
148 170 0
163 187 0
160 183 0
160 183 0
152 174 0
156 178 0
161 183 0
152 174 0
150 171 0
155 178 0
154 175 0
148 170 0
160 182 0
154 176 0
152 174 0
148 169 0
158 178 0
154 176 0
146 167 0
153 173 0
154 176 0
158 179 0
144 165 0
154 174 0
144 164 0
146 168 0
153 174 0
154 176 0
145 165 0
152 173 0
152 171 0
152 171 0
144 165 0
139 158 0
153 173 0
147 168 0
146 166 0
146 165 0
146 167 0
145 165 0
136 155 0
141 160 0
139 158 0
142 163 0
144 164 0
137 156 0
145 163 0
137 156 0
143 162 0
138 157 0
142 160 0
127 146 0
143 161 0
145 164 0
143 161 0
145 163 0
139 155 0
144 162 0
132 150 0
139 158 0
142 160 0
140 158 0
137 155 0
138 155 0
136 153 0
132 149 0
134 151 0
146 164 0
137 153 0
134 150 0
132 146 0
132 149 0
139 156 0
140 157 0
133 149 0
137 154 0
143 157 0
143 159 0
125 138 0
141 154 0
127 141 0
137 150 0
139 153 0
128 142 0
136 147 0
128 140 0
132 144 0
135 147 0
139 152 0
137 144 0
134 145 0
131 140 0
134 143 0
132 138 0
143 149 0
133 140 0
140 146 0
136 139 0
145 151 0
137 141 0
132 135 0
141 142 0
139 140 0
132 135 0
143 143 0
134 134 0
133 132 0
136 135 0
136 134 0
139 137 0
138 134 0
141 137 0
143 138 0
141 136 0
144 140 0
143 139 0
147 141 0
150 145 11
150 144 11
147 143 0
152 147 11
147 144 0
153 146 30
154 149 25
151 146 28
155 150 25
155 150 25
155 150 30
151 145 25
156 151 28
157 151 36
153 149 28
156 150 36
158 153 28
159 153 42
158 152 37
157 152 34
155 150 28
163 155 45
159 152 41
161 155 47
162 155 45
161 156 44
158 152 32
159 154 41
162 156 47
159 153 37
160 155 45
163 157 45
161 155 45
165 158 56
164 157 52
160 155 44
163 156 52
163 157 53
162 155 48
161 155 49
165 158 53
159 155 42
166 159 57
162 155 49
165 159 58
166 159 59
162 156 52
165 158 52
165 157 57
164 158 52
161 156 44
166 158 56
164 158 51
161 156 49
167 160 58
163 157 52
164 157 56
162 156 48
159 154 39
165 159 54
163 157 49
160 156 41
162 156 42
161 155 45
161 155 47
163 157 49
160 153 45
162 156 45
160 154 42
163 156 49
158 153 32
164 157 51
159 154 34
161 154 45
162 155 44
162 156 44
159 153 34
162 155 44
160 153 39
162 157 41
158 154 30
155 149 28
158 154 28
157 154 22
161 159 30
160 158 28
158 155 28
156 154 11
163 163 30
158 158 19
158 156 19
160 163 11
159 162 11
157 162 11
158 164 0
157 164 0
160 168 0
162 172 0
161 166 0
161 169 0
160 167 0
162 168 0
158 169 0
164 177 0
161 172 0
159 171 0
164 176 0
163 175 0
166 180 0
165 178 0
164 179 0
165 181 0
168 184 0
168 184 0
165 182 0
168 185 0
169 188 0
167 184 0
167 185 0
168 188 0
169 189 0
170 189 0
170 189 0
170 191 0
171 190 0
169 187 0
169 188 0
170 191 0
168 186 0
172 192 0
167 186 0
169 187 0
171 192 0
168 188 0
169 189 0
169 190 0
169 190 0
170 190 0
171 192 0
172 194 0
171 191 0
171 190 0
170 193 0
172 195 0
173 196 0
172 195 0
173 196 0
174 197 0
172 195 0
173 197 0
169 191 0
172 194 0
172 195 0
170 195 0
171 195 0
170 193 0
170 194 0
173 196 0
171 195 0
172 197 0
170 194 0
172 196 0
170 194 0
169 192 0
172 195 0
173 196 0
170 193 0
171 195 0
168 192 0
171 194 0
169 192 0
171 194 0
169 193 0
170 193 0
169 192 0
172 195 0
170 194 0
169 193 0
172 195 0
171 194 0
169 193 0
172 196 0
172 196 0
172 195 0
168 192 0
171 193 0
172 196 0
172 195 0
168 191 0
174 196 0
169 192 0
170 193 0
167 191 0
170 193 0
169 192 0
171 195 0
171 194 0
166 189 0
170 194 0
168 192 0
168 191 0
169 194 0
172 195 0
169 192 0
166 191 0
169 193 0
166 189 0
169 192 0
169 192 0
168 191 0
170 193 0
169 192 0
170 192 0
168 191 0
170 192 0
169 192 0
169 193 0
167 191 0
168 192 0
164 188 0
165 189 0
170 194 0
167 190 0
170 192 0
169 193 0
168 191 0
167 190 0
168 191 0
168 191 0
166 189 0
165 188 0
166 190 0
167 190 0
166 189 0
165 188 0
166 189 0
165 188 0
166 189 0
166 188 0
162 186 0
159 182 0
165 189 0
162 186 0
166 189 0
162 186 0
163 186 0
160 183 0
160 183 0
162 187 0
162 185 0
161 185 0
160 184 0
169 192 0
164 186 0
160 182 0
161 184 0
161 184 0
163 186 0
161 184 0
159 182 0
160 182 0
164 187 0
161 184 0
157 179 0
160 183 0
161 184 0
163 187 0
162 184 0
161 184 0
165 188 0
155 178 0
161 183 0
158 179 0
160 182 0
157 180 0
163 185 0
158 181 0
154 175 0
155 178 0
164 185 0
155 178 0
158 180 0
160 182 0
153 175 0
156 178 0
157 180 0
152 173 0
154 175 0
159 181 0
156 177 0
157 179 0
156 179 0
153 174 0
148 171 0
159 181 0
156 177 0
151 171 0
147 168 0
149 170 0
154 176 0
153 174 0
157 178 0
158 179 0
152 172 0
157 179 0
155 177 0
156 178 0
150 170 0
146 167 0
151 171 0
146 166 0
148 168 0
148 170 0
146 166 0
151 173 0
146 166 0
142 163 0
144 165 0
145 165 0
147 167 0
143 161 0
137 155 0
151 169 0
151 171 0
142 163 0
143 161 0
149 170 0
146 163 0
150 169 0
147 165 0
150 169 0
144 162 0
144 162 0
141 160 0
142 163 0
148 164 0
147 162 0
140 158 0
145 162 0
138 155 0
138 156 0
133 152 0
139 159 0
141 160 0
138 153 0
141 157 0
135 153 0
135 152 0
140 158 0
138 153 0
128 143 0
139 154 0
135 151 0
144 161 0
141 155 0
138 154 0
137 154 0
143 157 0
139 154 0
143 158 0
139 152 0
142 157 0
131 146 0
141 157 0
131 145 0
141 153 0
129 141 0
129 138 0
141 152 0
144 154 0
132 140 0
136 147 0
135 142 0
128 134 0
137 143 0
135 143 0
134 145 0
134 143 0
140 143 0
132 138 0
141 145 0
134 138 0
134 138 0
137 136 0
143 145 0
136 136 0
137 134 0
135 138 0
138 139 0
144 142 0
140 140 0
142 140 0
135 132 0
143 142 0
145 140 0
139 135 0
144 138 0
139 134 0
145 140 0
146 141 0
146 142 0
150 145 0
147 143 0
147 142 11
144 140 11
149 144 0
150 143 19
148 142 16
152 146 32
153 146 28
150 145 22
155 151 28
155 150 30
154 147 30
156 151 28
155 150 30
159 153 41
155 151 25
156 150 30
161 155 45
156 152 32
157 153 28
160 153 42
160 155 45
160 153 48
158 152 44
158 151 39
160 153 44
163 156 48
160 155 47
160 154 39
159 154 39
162 155 48
159 153 42
162 156 53
160 154 44
164 158 51
164 157 49
161 155 45
162 156 45
161 155 47
163 155 51
161 155 44
165 158 53
163 156 48
164 158 49
159 153 42
160 155 44
162 157 51
163 157 47
161 155 51
160 155 37
165 158 52
162 156 51
163 157 51
165 159 51
163 157 52
158 154 28
162 156 42
162 156 49
163 156 49
156 151 32
163 156 45
160 155 39
161 155 44
158 152 36
159 153 42
163 156 44
158 152 30
160 154 37
157 150 36
158 152 32
162 156 37
160 153 44
161 155 39
161 156 39
157 151 32
157 152 34
155 150 22
157 152 34
161 156 34
164 159 42
158 156 30
158 157 22
156 152 25
159 156 30
157 156 11
159 158 19
159 161 11
156 155 16
160 162 11
158 162 0
158 160 0
157 162 0
162 167 0
159 167 0
158 164 0
161 170 0
160 167 0
162 170 0
160 168 0
158 164 0
162 172 0
167 177 0
163 175 0
160 168 0
158 167 0
164 173 0
165 177 0
166 177 0
166 181 0
163 181 0
165 178 0
167 183 0
168 184 0
169 185 0
169 186 0
166 183 0
169 186 0
166 183 0
168 187 0
171 189 0
172 194 0
173 190 0
172 190 0
168 188 0
171 192 0
172 193 0
167 189 0
171 191 0
171 192 0
171 192 0
170 189 0
170 189 0
170 190 0
172 194 0
171 194 0
170 191 0
171 191 0
171 191 0
168 190 0
170 192 0
171 195 0
170 193 0
172 196 0
167 191 0
171 195 0
173 196 0
171 195 0
169 193 0
172 196 0
170 194 0
171 194 0
173 196 0
173 196 0
168 192 0
172 195 0
171 195 0
170 193 0
169 194 0
171 195 0
170 194 0
169 192 0
172 195 0
175 197 0
171 194 0
170 193 0
172 196 0
171 194 0
174 197 0
170 193 0
167 191 0
171 194 0
169 193 0
172 195 0
170 194 0
171 195 0
170 192 0
172 196 0
171 195 0
171 195 0
172 194 0
169 193 0
173 196 0
171 195 0
169 193 0
171 194 0
168 192 0
173 196 0
169 193 0
173 196 0
167 191 0
168 192 0
171 194 0
167 190 0
168 193 0
169 191 0
168 191 0
168 191 0
171 194 0
168 191 0
166 190 0
166 189 0
168 192 0
170 193 0
170 194 0
171 195 0
168 191 0
166 189 0
166 189 0
166 190 0
168 191 0
170 194 0
170 193 0
170 194 0
168 191 0
170 193 0
164 187 0
167 190 0
168 192 0
166 190 0
168 193 0
168 191 0
167 191 0
169 192 0
166 188 0
169 192 0
165 189 0
162 185 0
167 190 0
168 192 0
167 191 0
167 190 0
166 190 0
167 189 0
165 188 0
170 193 0
168 191 0
160 183 0
167 190 0
168 192 0
164 187 0
165 188 0
158 181 0
162 185 0
165 188 0
166 190 0
167 190 0
166 189 0
162 184 0
162 185 0
163 186 0
161 184 0
164 188 0
163 186 0
164 186 0
159 182 0
163 186 0
160 183 0
162 184 0
158 182 0
163 186 0
161 183 0
166 188 0
158 181 0
162 185 0
161 183 0
162 184 0
158 180 0
162 184 0
160 183 0
160 183 0
152 174 0
162 184 0
162 185 0
151 173 0
160 182 0
159 180 0
158 180 0
153 174 0
155 177 0
164 185 0
162 185 0
157 179 0
160 182 0
154 176 0
158 179 0
153 176 0
158 180 0
153 174 0
154 176 0
150 172 0
154 176 0
154 176 0
150 171 0
148 170 0
155 177 0
143 164 0
145 166 0
161 182 0
154 176 0
149 170 0
152 173 0
146 166 0
152 174 0
152 173 0
145 166 0
151 171 0
145 166 0
151 172 0
155 176 0
156 177 0
145 165 0
149 169 0
145 166 0
146 167 0
144 164 0
145 167 0
143 162 0
145 166 0
147 167 0
147 166 0
143 162 0
146 167 0
148 168 0
147 168 0
147 165 0
144 164 0
155 175 0
141 160 0
151 169 0
149 167 0
144 163 0
139 157 0
139 157 0
144 165 0
145 164 0
145 163 0
145 164 0
148 165 0
142 159 0
144 164 0
143 160 0
138 154 0
134 150 0
145 164 0
142 157 0
150 166 0
139 154 0
139 155 0
132 146 0
140 156 0
137 153 0
144 161 0
145 160 0
145 159 0
137 150 0
144 163 0
136 150 0
136 151 0
144 160 0
139 154 0
142 157 0
137 152 0
141 157 0
132 145 0
136 147 0
137 150 0
141 152 0
129 138 0
144 157 0
129 140 0
134 143 0
133 142 0
137 145 0
129 136 0
134 143 0
138 143 0
136 141 0
135 140 0
141 149 0
131 133 0
137 141 0
130 134 0
135 137 0
148 151 0
134 138 0
141 143 0
138 137 0
139 139 0
141 140 0
134 131 0
144 142 0
141 138 0
139 137 0
139 138 0
142 136 0
140 136 0
146 142 0
144 138 0
142 139 0
150 146 0
146 141 0
142 137 0
148 144 0
146 142 0
150 145 16
150 146 16
149 145 19
154 149 28
150 145 0
154 149 22
154 149 22
152 147 22
152 148 16
154 149 22
155 150 22
156 150 30
153 148 32
158 153 34
155 150 34
156 152 34
158 153 39
157 152 36
157 149 37
159 153 37
162 156 47
163 156 49
161 155 44
157 152 41
159 154 37
159 153 44
162 155 51
162 155 44
161 155 41
157 152 34
163 157 48
161 156 41
163 156 52
163 155 51
162 155 45
159 153 41
161 156 48
163 157 49
162 156 49
161 155 41
158 151 39
165 158 54
163 157 47
161 154 52
162 155 45
164 156 51
163 157 44
161 154 44
163 158 49
160 155 39
165 158 53
159 154 37
162 155 42
165 159 56
164 156 45
162 157 45
164 156 53
157 151 34
163 156 47
160 155 36
157 152 25
156 150 32
160 153 39
161 154 39
161 155 42
157 152 28
155 150 22
160 155 34
159 154 32
160 154 34
156 150 34
155 151 25
160 155 39
157 154 28
159 157 28
155 152 25
158 156 22
158 156 19
157 155 16
156 154 22
159 159 25
156 155 16
158 159 0
159 163 11
160 162 0
157 160 0
161 167 0
160 164 0
160 165 0
162 169 0
160 166 0
161 165 0
158 162 0
163 172 0
161 172 0
164 177 0
161 170 0
164 176 0
168 180 0
162 174 0
165 181 0
165 179 0
166 178 0
168 181 0
167 180 0
167 182 0
166 182 0
167 184 0
166 181 0
169 186 0
169 186 0
173 191 0
169 187 0
167 186 0
171 190 0
170 191 0
169 186 0
171 191 0
169 188 0
169 188 0
167 187 0
167 185 0
171 192 0
168 189 0
171 191 0
170 191 0
171 190 0
170 191 0
169 188 0
167 186 0
170 191 0
172 194 0
171 191 0
171 191 0
168 187 0
172 194 0
173 195 0
172 195 0
172 196 0
170 194 0
171 194 0
172 195 0
172 196 0
171 194 0
169 192 0
168 192 0
173 197 0
171 195 0
173 196 0
172 196 0
168 192 0
171 195 0
171 194 0
172 196 0
172 195 0
174 197 0
172 195 0
173 195 0
171 194 0
171 195 0
169 192 0
170 194 0
172 196 0
169 193 0
174 196 0
171 195 0
169 193 0
172 195 0
169 193 0
171 195 0
172 196 0
172 195 0
168 191 0
171 194 0
169 192 0
169 193 0
170 194 0
169 191 0
168 192 0
172 194 0
170 193 0
172 195 0
171 194 0
168 192 0
167 190 0
172 194 0
169 192 0
170 192 0
170 194 0
168 191 0
168 192 0
171 194 0
171 195 0
166 189 0
170 194 0
172 194 0
171 195 0
168 191 0
169 191 0
168 191 0
171 195 0
169 192 0
168 192 0
162 185 0
167 190 0
169 193 0
168 191 0
165 189 0
168 191 0
167 191 0
166 189 0
170 193 0
167 190 0
171 194 0
165 187 0
170 192 0
168 192 0
168 191 0
166 189 0
166 189 0
163 187 0
167 190 0
170 193 0
167 189 0
168 191 0
163 186 0
168 191 0
164 189 0
163 185 0
166 190 0
165 188 0
167 190 0
163 186 0
163 185 0
166 188 0
164 187 0
163 186 0
162 184 0
169 192 0
167 190 0
166 190 0
164 187 0
164 188 0
165 187 0
160 183 0
162 185 0
162 185 0
162 185 0
158 180 0
162 186 0
162 185 0
168 191 0
163 185 0
159 182 0
159 182 0
164 186 0
164 187 0
160 182 0
161 183 0
159 180 0
164 187 0
160 184 0
160 182 0
158 181 0
164 186 0
160 181 0
158 180 0
158 183 0
158 180 0
156 180 0
159 181 0
159 181 0
157 179 0
158 180 0
157 180 0
154 176 0
161 183 0
155 177 0
153 175 0
154 176 0
156 178 0
151 173 0
157 178 0
154 176 0
147 169 0
156 177 0
155 178 0
158 179 0
153 175 0
153 177 0
149 171 0
152 174 0
153 175 0
150 171 0
158 179 0
157 179 0
151 173 0
153 175 0
148 170 0
152 173 0
153 175 0
149 170 0
148 168 0
153 174 0
149 171 0
149 171 0
145 166 0
144 166 0
146 166 0
156 177 0
139 159 0
154 174 0
150 170 0
156 177 0
153 173 0
150 169 0
149 169 0
150 171 0
141 161 0
143 162 0
148 167 0
145 165 0
140 160 0
147 167 0
150 168 0
147 168 0
142 161 0
146 166 0
144 162 0
138 156 0
151 168 0
144 160 0
147 166 0
144 163 0
142 159 0
137 153 0
141 158 0
134 151 0
142 157 0
133 150 0
138 157 0
144 163 0
135 151 0
136 151 0
139 156 0
146 161 0
139 155 0
144 160 0
142 158 0
138 153 0
144 160 0
139 156 0
139 155 0
140 156 0
136 149 0
141 154 0
131 146 0
137 152 0
145 161 0
144 157 0
139 150 0
130 143 0
135 146 0
143 154 0
133 143 0
133 143 0
134 143 0
142 152 0
141 151 0
137 146 0
126 134 0
134 141 0
132 140 0
136 142 0
130 134 0
138 142 0
132 136 0
131 133 0
136 139 0
141 144 0
135 137 0
137 137 0
141 144 0
141 143 0
138 136 0
142 140 0
148 148 0
138 134 0
144 138 0
142 138 0
142 139 0
143 140 0
141 136 0
146 143 0
147 143 0
142 137 0
145 141 0
148 142 0
149 144 0
149 144 0
150 144 0
148 144 0
148 144 11
147 143 11
147 143 16
149 145 11
149 144 0
151 146 11
154 148 22
149 142 19
157 151 28
152 146 25
156 151 25
156 149 30
153 148 22
157 152 28
155 151 30
155 150 25
161 153 42
158 151 37
158 152 36
159 153 37
158 152 34
159 152 45
161 156 41
162 155 45
162 155 48
161 155 45
157 153 34
158 152 39
161 155 39
163 156 44
160 154 36
160 154 42
163 157 51
161 155 42
159 154 41
160 155 42
161 156 48
163 157 45
162 156 47
162 154 45
159 154 41
167 158 57
163 157 51
161 155 42
162 155 44
162 155 47
164 158 48
160 155 39
160 155 44
158 153 41
160 154 44
162 157 42
159 154 41
159 153 34
163 155 48
161 154 44
162 155 42
160 154 36
159 154 37
157 152 28
158 151 39
160 154 34
156 152 25
157 152 25
160 153 37
157 152 30
157 153 30
159 154 34
159 153 37
157 152 28
154 151 16
158 154 25
157 155 22
155 152 19
157 156 16
157 155 19
157 156 25
156 156 16
158 161 11
157 159 11
158 160 0
159 160 11
157 161 11
158 161 0
159 163 0
158 161 0
160 165 0
158 163 0
161 169 0
161 171 0
162 171 0
160 168 0
162 170 0
163 173 0
164 175 0
160 169 0
163 173 0
165 177 0
165 175 0
164 177 0
166 181 0
161 174 0
167 183 0
169 183 0
167 184 0
164 181 0
170 184 0
167 183 0
168 185 0
165 183 0
167 186 0
165 184 0
169 188 0
169 188 0
169 187 0
171 191 0
167 186 0
170 190 0
169 189 0
168 189 0
171 192 0
169 188 0
169 188 0
172 191 0
169 189 0
171 190 0
170 191 0
169 190 0
170 191 0
169 191 0
168 188 0
171 191 0
171 193 0
174 195 0
171 195 0
170 193 0
173 196 0
172 195 0
173 197 0
171 194 0
172 196 0
173 196 0
172 195 0
172 195 0
173 196 0
170 193 0
169 193 0
169 194 0
171 194 0
174 197 0
172 196 0
172 195 0
170 194 0
170 193 0
169 193 0
171 194 0
170 193 0
173 196 0
172 195 0
171 194 0
169 193 0
169 194 0
173 197 0
171 194 0
173 197 0
170 194 0
170 193 0
171 194 0
170 193 0
171 195 0
169 193 0
169 191 0
172 194 0
171 195 0
169 193 0
169 193 0
167 191 0
173 196 0
168 192 0
166 190 0
171 194 0
165 187 0
170 193 0
170 194 0
172 194 0
171 194 0
169 193 0
172 195 0
171 194 0
166 189 0
167 191 0
168 192 0
168 192 0
167 190 0
168 191 0
168 191 0
167 190 0
166 190 0
167 190 0
172 195 0
164 187 0
169 192 0
168 191 0
171 193 0
169 192 0
167 190 0
166 190 0
167 190 0
169 193 0
166 190 0
167 190 0
167 190 0
166 189 0
170 193 0
168 192 0
165 190 0
167 190 0
168 191 0
166 188 0
169 192 0
167 190 0
162 186 0
165 189 0
163 186 0
163 186 0
163 185 0
165 188 0
164 187 0
165 188 0
164 187 0
163 185 0
168 190 0
167 190 0
165 188 0
163 186 0
167 191 0
166 189 0
166 190 0
164 187 0
160 183 0
162 185 0
161 184 0
159 181 0
158 182 0
167 189 0
163 186 0
165 188 0
162 185 0
161 183 0
165 188 0
168 190 0
162 185 0
165 187 0
159 182 0
169 192 0
162 185 0
160 182 0
158 181 0
164 187 0
159 181 0
159 182 0
157 179 0
161 183 0
161 183 0
161 184 0
165 187 0
163 186 0
151 173 0
164 187 0
162 184 0
160 181 0
163 186 0
161 183 0
159 181 0
161 180 0
157 180 0
155 175 0
161 182 0
156 177 0
159 181 0
152 173 0
150 171 0
153 175 0
153 176 0
154 175 0
156 178 0
154 175 0
153 175 0
157 178 0
148 168 0
157 178 0
156 178 0
155 176 0
155 176 0
149 170 0
151 172 0
153 175 0
150 171 0
156 179 0
149 169 0
151 171 0
151 171 0
147 168 0
141 163 0
157 177 0
148 169 0
145 164 0
148 168 0
155 175 0
151 172 0
151 171 0
152 173 0
141 161 0
147 165 0
144 163 0
140 158 0
145 164 0
147 166 0
131 150 0
150 167 0
151 171 0
156 176 0
146 165 0
144 163 0
146 164 0
153 172 0
140 160 0
152 171 0
151 170 0
143 162 0
142 161 0
148 166 0
148 166 0
135 152 0
149 168 0
139 158 0
149 167 0
150 167 0
136 153 0
141 161 0
136 149 0
140 157 0
148 167 0
144 160 0
139 158 0
129 146 0
142 156 0
140 154 0
142 159 0
135 150 0
135 149 0
132 144 0
142 158 0
142 157 0
147 162 0
139 151 0
136 148 0
139 153 0
137 151 0
143 152 0
124 136 0
134 147 0
142 152 0
134 145 0
132 144 0
141 151 0
134 144 0
133 140 0
136 142 0
130 138 0
133 139 0
142 146 0
142 147 0
140 146 0
128 134 0
139 143 0
139 141 0
137 138 0
137 139 0
139 140 0
139 140 0
143 145 0
138 139 0
145 141 0
140 139 0
137 133 0
144 140 0
134 131 0
143 140 0
141 138 0
139 134 0
143 139 0
145 141 0
145 138 0
146 141 0
145 140 0
146 141 0
146 142 0
146 141 0
148 143 11
148 143 0
150 145 0
148 143 11
150 145 0
154 149 22
151 147 0
145 140 16
152 148 16
153 147 19
151 147 16
152 147 22
153 148 25
151 146 30
156 149 30
153 148 25
151 147 25
156 150 30
157 151 36
156 150 32
157 153 28
156 151 32
158 153 36
158 152 37
160 154 39
160 154 34
156 151 34
160 153 42
157 152 25
156 152 34
161 155 42
159 153 39
159 153 39
159 154 37
157 151 34
161 154 39
158 153 39
159 153 34
160 152 44
160 154 41
160 153 45
159 153 37
158 151 34
160 153 39
159 154 30
159 153 39
161 156 39
158 152 36
158 152 34
160 154 39
159 152 39
160 154 44
157 152 32
157 151 34
158 154 36
159 155 37
163 155 48
162 154 44
159 154 32
157 151 36
158 152 28
157 151 36
156 150 19
158 153 34
158 153 32
159 153 34
154 149 25
158 153 34
154 150 19
154 151 19
158 153 22
154 149 28
157 154 19
155 150 25
158 155 16
159 156 30
155 155 16
158 160 0
157 158 0
156 158 16
157 159 11
156 159 0
160 161 0
160 162 0
160 165 0
159 164 0
158 162 0
162 168 0
160 165 0
161 169 0
160 168 0
161 169 0
158 166 0
165 178 0
164 175 0
164 174 0
163 174 0
165 179 0
162 171 0
168 181 0
165 180 0
162 175 0
166 183 0
161 177 0
164 182 0
163 180 0
168 185 0
165 182 0
168 186 0
167 184 0
170 188 0
170 186 0
167 188 0
169 187 0
169 191 0
167 185 0
170 191 0
173 193 0
170 189 0
168 187 0
171 192 0
170 190 0
171 192 0
169 189 0
168 186 0
173 194 0
171 190 0
170 191 0
172 192 0
169 190 0
170 191 0
170 189 0
171 192 0
167 186 0
170 190 0
173 196 0
172 196 0
170 194 0
170 194 0
172 196 0
173 196 0
171 195 0
171 194 0
173 196 0
167 190 0
171 194 0
171 194 0
173 196 0
170 194 0
171 194 0
173 195 0
171 194 0
172 194 0
171 195 0
171 195 0
170 194 0
168 192 0
171 195 0
171 194 0
170 194 0
170 194 0
170 193 0
172 195 0
172 196 0
170 193 0
169 193 0
169 194 0
173 196 0
168 192 0
169 193 0
169 193 0
173 196 0
169 193 0
169 192 0
168 191 0
172 196 0
171 194 0
171 195 0
169 192 0
170 193 0
168 193 0
169 192 0
173 197 0
170 193 0
172 195 0
171 195 0
167 191 0
172 195 0
170 193 0
168 192 0
170 193 0
169 192 0
170 194 0
169 193 0
167 190 0
172 195 0
169 192 0
170 193 0
170 193 0
168 191 0
169 192 0
171 193 0
167 191 0
171 195 0
169 192 0
169 192 0
168 191 0
170 193 0
166 189 0
168 191 0
161 184 0
168 191 0
166 189 0
170 193 0
168 190 0
167 191 0
168 191 0
165 189 0
166 190 0
169 192 0
165 188 0
167 190 0
169 191 0
163 187 0
170 194 0
168 191 0
168 191 0
159 182 0
161 184 0
166 189 0
170 193 0
168 190 0
168 190 0
164 187 0
165 187 0
165 189 0
161 183 0
162 186 0
164 188 0
155 177 0
157 180 0
156 179 0
165 188 0
164 187 0
160 182 0
163 185 0
163 185 0
162 185 0
166 189 0
158 181 0
164 188 0
158 181 0
159 183 0
166 188 0
162 184 0
162 185 0
156 179 0
161 183 0
166 188 0
160 183 0
154 176 0
159 181 0
162 184 0
157 178 0
156 178 0
163 184 0
163 186 0
162 183 0
160 183 0
162 184 0
160 183 0
156 178 0
156 177 0
156 177 0
162 184 0
161 183 0
161 183 0
158 181 0
156 179 0
157 177 0
161 183 0
163 185 0
160 181 0
155 177 0
157 178 0
155 176 0
155 177 0
154 175 0
149 172 0
157 179 0
150 171 0
154 174 0
160 182 0
149 170 0
148 170 0
154 176 0
148 169 0
155 177 0
153 174 0
148 169 0
149 170 0
159 181 0
155 176 0
151 171 0
146 166 0
156 176 0
154 174 0
156 178 0
144 164 0
135 156 0
153 172 0
153 174 0
151 171 0
154 175 0
149 168 0
151 170 0
150 171 0
153 173 0
153 173 0
147 167 0
148 169 0
149 167 0
138 158 0
140 159 0
142 160 0
146 166 0
133 150 0
145 163 0
135 152 0
146 164 0
150 168 0
149 167 0
146 165 0
145 163 0
141 158 0
149 168 0
146 164 0
147 166 0
147 164 0
147 167 0
136 151 0
143 160 0
139 153 0
152 169 0
137 153 0
136 152 0
143 161 0
134 151 0
147 164 0
141 159 0
146 162 0
135 151 0
142 160 0
143 159 0
137 151 0
143 157 0
141 153 0
141 153 0
139 152 0
136 149 0
130 141 0
132 142 0
126 135 0
136 146 0
136 150 0
135 144 0
144 155 0
142 151 0
136 146 0
144 153 0
139 146 0
134 139 0
144 152 0
145 151 0
138 143 0
134 140 0
138 140 0
133 132 0
134 136 0
138 137 0
135 136 0
138 139 0
135 135 0
140 141 0
135 131 0
137 133 0
138 136 0
143 142 0
146 144 0
140 136 0
148 144 0
145 143 0
146 142 0
147 143 0
141 137 0
145 140 0
145 138 0
146 140 0
144 140 0
146 140 0
146 142 0
146 141 0
146 141 0
146 142 0
146 141 0
150 145 11
151 145 19
154 147 30
153 148 11
150 147 11
151 146 19
153 148 16
152 149 16
152 149 19
153 149 19
156 150 30
155 150 30
150 144 11
154 150 28
156 150 32
152 147 22
157 151 30
157 151 32
160 154 36
155 150 28
155 150 34
159 154 36
158 153 34
156 150 32
157 150 37
157 151 22
160 154 36
154 149 32
163 157 47
158 152 41
163 156 41
160 153 42
157 151 36
153 149 25
157 153 36
158 153 39
157 152 34
161 155 39
160 154 37
160 154 44
159 153 36
161 155 41
159 153 39
160 154 41
159 154 32
157 151 30
158 153 36
155 151 25
157 152 30
159 153 34
159 153 32
156 149 28
154 150 19
159 153 37
157 151 30
155 148 25
156 151 25
159 152 28
156 150 28
154 148 22
155 151 16
154 150 22
159 153 30
158 155 19
156 153 16
154 149 22
154 152 22
154 149 16
157 155 19
155 153 0
154 154 11
157 156 0
156 159 11
158 159 11
156 159 0
156 158 0
156 155 0
159 163 0
158 160 0
160 166 0
162 168 0
157 162 0
161 168 0
160 167 0
160 167 0
162 171 0
160 167 0
163 171 0
162 172 0
166 178 0
165 177 0
163 174 0
164 178 0
164 176 0
165 176 0
168 182 0
166 180 0
167 180 0
167 182 0
166 182 0
166 180 0
168 186 0
170 186 0
168 185 0
168 187 0
169 189 0
167 185 0
168 187 0
169 189 0
170 189 0
169 189 0
170 190 0
170 188 0
173 192 0
171 191 0
171 189 0
171 192 0
169 188 0
172 191 0
170 190 0
173 192 0
168 188 0
171 190 0
173 192 0
170 190 0
171 191 0
170 190 0
172 194 0
171 191 0
172 191 0
173 196 0
173 197 0
171 195 0
169 192 0
171 194 0
171 194 0
171 195 0
171 195 0
170 193 0
172 195 0
173 195 0
170 194 0
170 193 0
173 196 0
172 196 0
169 192 0
171 194 0
173 196 0
169 192 0
174 197 0
171 195 0
171 195 0
169 193 0
172 196 0
166 189 0
171 194 0
172 195 0
172 196 0
170 194 0
170 193 0
169 193 0
170 193 0
169 192 0
170 194 0
171 195 0
170 192 0
173 196 0
170 193 0
171 194 0
171 194 0
168 192 0
170 192 0
170 194 0
168 192 0
171 195 0
170 194 0
168 191 0
170 193 0
170 193 0
171 196 0
170 194 0
171 194 0
167 190 0
171 194 0
172 196 0
168 191 0
169 193 0
172 195 0
168 191 0
169 193 0
168 192 0
169 192 0
169 192 0
165 188 0
169 191 0
171 194 0
169 193 0
171 194 0
172 194 0
170 193 0
167 190 0
170 193 0
170 194 0
168 191 0
165 188 0
169 191 0
170 193 0
163 186 0
170 192 0
169 193 0
168 192 0
166 188 0
169 192 0
169 191 0
164 187 0
163 186 0
167 190 0
168 191 0
167 190 0
163 186 0
166 189 0
166 189 0
163 186 0
167 190 0
167 189 0
164 187 0
166 189 0
166 188 0
164 186 0
167 191 0
165 187 0
169 192 0
165 188 0
167 190 0
165 188 0
166 189 0
166 188 0
158 180 0
164 187 0
160 183 0
166 188 0
166 188 0
160 182 0
164 187 0
164 186 0
162 185 0
161 184 0
167 190 0
163 185 0
161 183 0
163 186 0
161 184 0
160 184 0
163 185 0
154 176 0
162 184 0
158 182 0
161 183 0
163 185 0
162 186 0
164 187 0
158 179 0
149 171 0
160 184 0
158 181 0
155 178 0
164 186 0
159 182 0
158 181 0
159 181 0
160 183 0
151 173 0
160 180 0
152 174 0
157 180 0
162 182 0
154 176 0
160 182 0
155 177 0
155 177 0
158 181 0
156 178 0
160 182 0
157 179 0
157 176 0
155 177 0
152 173 0
156 178 0
154 176 0
150 172 0
154 176 0
147 168 0
157 180 0
157 179 0
152 173 0
149 170 0
147 167 0
154 176 0
150 170 0
150 171 0
154 175 0
151 170 0
151 172 0
151 171 0
149 169 0
151 173 0
152 172 0
147 167 0
143 163 0
155 177 0
147 168 0
148 166 0
150 171 0
153 172 0
149 168 0
147 168 0
147 167 0
145 163 0
148 166 0
147 166 0
152 171 0
142 161 0
147 167 0
145 164 0
149 166 0
151 170 0
147 165 0
141 160 0
146 165 0
144 164 0
140 157 0
144 161 0
146 164 0
146 162 0
144 162 0
143 160 0
143 162 0
143 160 0
136 153 0
146 164 0
138 154 0
138 153 0
146 163 0
144 161 0
147 163 0
139 154 0
140 153 0
140 156 0
142 159 0
143 156 0
151 167 0
133 147 0
143 159 0
142 154 0
145 159 0
131 146 0
140 152 0
126 138 0
139 151 0
139 149 0
142 154 0
135 142 0
142 151 0
141 153 0
128 134 0
136 145 0
138 144 0
140 148 0
136 139 0
138 143 0
141 146 0
139 143 0
137 140 0
129 133 0
138 138 0
143 145 0
135 135 0
141 140 0
139 137 0
134 135 0
142 140 0
141 141 0
141 139 0
142 139 0
140 140 0
139 137 0
141 136 0
144 141 0
144 143 0
145 140 0
145 141 0
144 140 0
148 143 0
145 140 0
148 143 0
150 144 0
150 144 0
150 144 0
145 142 0
148 141 0
150 144 0
148 143 0
149 143 0
150 145 11
152 146 11
149 144 0
153 148 19
152 147 25
151 148 22
156 151 25
153 148 25
155 150 25
153 149 22
152 147 22
157 151 22
155 149 30
154 149 25
154 150 22
159 153 36
157 152 30
156 151 34
156 150 32
156 150 30
156 151 32
157 151 36
154 149 19
159 153 37
157 152 32
153 148 25
159 153 36
156 152 28
159 154 32
157 152 22
162 156 41
158 153 37
156 151 25
157 151 36
160 154 37
159 153 37
160 153 39
158 152 32
157 152 36
157 151 32
158 152 32
158 152 34
160 154 39
158 153 32
159 153 36
159 153 36
161 153 42
155 150 25
158 153 32
157 152 30
156 152 28
157 152 28
155 149 16
156 151 22
155 150 19
157 152 25
156 152 11
155 151 19
159 154 34
158 154 25
159 156 25
156 152 22
157 154 16
152 149 16
156 156 11
155 151 11
155 153 11
156 153 11
153 152 0
154 154 11
156 154 0
156 158 0
154 154 0
155 156 0
155 158 0
158 163 0
156 161 0
160 165 0
161 165 0
165 174 0
159 166 0
162 170 0
161 167 0
161 170 0
162 172 0
164 175 0
164 175 0
165 177 0
166 176 0
163 177 0
164 176 0
166 180 0
165 180 0
165 181 0
168 183 0
164 181 0
166 179 0
170 187 0
168 187 0
167 185 0
168 187 0
168 185 0
171 189 0
167 186 0
170 187 0
170 188 0
169 187 0
167 186 0
168 186 0
170 192 0
171 192 0
170 188 0
171 191 0
169 191 0
171 191 0
168 188 0
171 190 0
170 189 0
170 189 0
173 192 0
169 189 0
172 193 0
170 190 0
173 192 0
169 188 0
169 190 0
171 192 0
171 194 0
168 192 0
173 196 0
172 196 0
172 195 0
170 194 0
168 192 0
168 191 0
172 196 0
170 194 0
168 192 0
171 195 0
171 193 0
168 192 0
174 197 0
168 191 0
171 194 0
167 191 0
168 192 0
172 195 0
171 194 0
169 192 0
168 190 0
172 196 0
170 194 0
174 197 0
172 195 0
172 196 0
170 194 0
172 195 0
170 194 0
171 194 0
171 194 0
169 192 0
172 195 0
168 192 0
172 195 0
172 196 0
174 198 0
169 193 0
174 196 0
167 191 0
169 193 0
172 195 0
170 193 0
169 192 0
168 191 0
167 191 0
169 192 0
167 191 0
168 190 0
166 189 0
165 190 0
169 193 0
168 191 0
173 197 0
170 193 0
167 190 0
172 195 0
170 194 0
172 196 0
170 193 0
166 189 0
168 192 0
167 190 0
167 190 0
168 192 0
170 193 0
170 194 0
165 187 0
168 192 0
171 193 0
166 189 0
168 191 0
168 192 0
164 187 0
168 191 0
166 190 0
168 192 0
171 195 0
166 188 0
166 189 0
164 187 0
167 191 0
167 190 0
168 191 0
167 191 0
167 190 0
170 191 0
166 189 0
167 190 0
167 190 0
166 188 0
164 187 0
159 181 0
159 182 0
166 189 0
162 185 0
166 189 0
162 186 0
161 184 0
168 191 0
163 187 0
167 189 0
167 190 0
164 188 0
163 186 0
163 186 0
161 185 0
161 184 0
160 183 0
163 186 0
163 186 0
166 189 0
166 188 0
158 180 0
163 185 0
160 183 0
166 190 0
163 186 0
165 187 0
161 183 0
164 187 0
164 185 0
161 185 0
162 183 0
164 186 0
165 188 0
158 180 0
160 183 0
156 178 0
159 182 0
161 185 0
164 187 0
156 178 0
154 177 0
164 186 0
159 181 0
154 175 0
156 178 0
162 183 0
154 178 0
154 175 0
159 181 0
163 184 0
159 182 0
150 172 0
153 174 0
157 178 0
154 177 0
158 179 0
152 174 0
151 171 0
157 178 0
152 175 0
162 184 0
154 176 0
154 176 0
158 180 0
154 175 0
154 175 0
153 176 0
154 175 0
154 175 0
156 177 0
150 171 0
158 178 0
153 174 0
151 172 0
152 172 0
156 177 0
141 162 0
160 181 0
156 178 0
144 165 0
152 174 0
154 171 0
146 167 0
156 176 0
156 177 0
146 168 0
150 169 0
149 170 0
146 165 0
150 169 0
143 162 0
155 173 0
146 164 0
142 161 0
147 166 0
146 164 0
153 171 0
154 174 0
144 161 0
152 171 0
149 169 0
150 170 0
148 166 0
144 164 0
150 169 0
139 156 0
149 168 0
143 162 0
131 149 0
150 166 0
147 164 0
144 163 0
137 154 0
140 156 0
145 162 0
149 167 0
148 163 0
144 158 0
144 160 0
148 164 0
145 161 0
143 160 0
143 160 0
145 161 0
146 161 0
132 146 0
143 158 0
140 153 0
136 150 0
141 153 0
141 153 0
137 147 0
142 153 0
144 154 0
139 151 0
138 150 0
135 146 0
144 153 0
144 151 0
142 151 0
143 149 0
146 151 0
142 148 0
140 147 0
140 144 0
137 144 0
138 143 0
129 132 0
142 145 0
136 135 0
141 143 0
140 141 0
138 140 0
141 141 0
138 138 0
140 140 0
145 144 0
139 136 0
143 143 0
143 140 0
146 144 0
145 141 0
136 130 0
144 141 0
146 141 0
146 142 0
143 139 0
139 135 0
146 141 0
146 140 0
147 141 0
150 145 0
147 141 0
145 139 0
152 146 0
148 142 0
151 146 0
151 145 11
148 144 0
148 143 0
150 145 11
151 147 11
150 145 19
152 147 11
151 148 11
151 146 19
154 149 22
155 149 19
150 144 11
155 151 25
149 145 0
153 148 16
158 152 36
152 147 28
153 149 28
157 153 30
155 149 28
155 149 28
155 150 25
156 151 30
155 150 25
158 152 34
158 151 30
155 150 22
156 151 22
157 150 34
156 151 22
158 151 28
155 150 32
156 151 32
156 151 22
156 151 25
157 151 30
156 150 25
158 152 36
155 151 19
156 152 28
159 153 32
154 148 25
160 154 36
154 148 25
156 150 22
157 151 30
157 151 30
157 151 34
157 151 28
154 147 22
156 149 19
156 150 30
156 150 28
153 148 19
157 150 28
153 145 19
154 149 22
157 152 22
153 148 11
154 150 16
153 149 11
154 150 19
156 153 19
158 157 16
158 157 0
156 157 11
155 154 11
157 157 0
152 152 0
156 156 0
155 153 0
160 164 0
156 158 0
158 159 0
157 164 0
159 165 0
164 171 0
161 166 0
156 159 0
157 164 0
160 167 0
160 167 0
161 168 0
161 168 0
165 173 0
164 173 0
162 170 0
166 177 0
166 178 0
162 173 0
161 172 0
165 179 0
164 177 0
167 182 0
164 180 0
167 182 0
167 182 0
169 186 0
170 187 0
168 185 0
168 185 0
169 187 0
171 190 0
171 191 0
169 186 0
168 186 0
171 190 0
170 189 0
172 191 0
168 187 0
168 185 0
168 188 0
169 187 0
170 190 0
169 188 0
169 189 0
173 194 0
173 194 0
168 187 0
168 188 0
171 191 0
171 191 0
169 189 0
169 189 0
172 193 0
168 186 0
172 195 0
170 192 0
171 195 0
175 198 0
171 196 0
171 195 0
171 195 0
171 195 0
171 194 0
172 195 0
172 195 0
169 192 0
169 193 0
172 195 0
173 197 0
174 197 0
172 196 0
171 195 0
170 194 0
171 194 0
172 196 0
171 194 0
171 193 0
167 191 0
168 191 0
171 194 0
170 194 0
174 196 0
172 195 0
172 194 0
171 195 0
170 193 0
169 194 0
173 196 0
171 195 0
171 194 0
169 193 0
172 196 0
169 193 0
169 192 0
170 194 0
172 195 0
168 191 0
173 196 0
168 191 0
170 194 0
171 193 0
171 194 0
170 194 0
170 193 0
170 194 0
170 194 0
170 193 0
171 194 0
171 195 0
170 193 0
169 192 0
168 192 0
167 190 0
170 194 0
165 189 0
169 192 0
168 190 0
170 193 0
169 192 0
171 194 0
168 192 0
170 194 0
169 193 0
168 191 0
170 193 0
167 190 0
171 193 0
167 190 0
163 186 0
168 192 0
170 194 0
169 191 0
170 193 0
168 191 0
169 193 0
167 189 0
165 188 0
167 190 0
170 192 0
171 194 0
166 190 0
170 192 0
165 188 0
168 191 0
167 189 0
168 192 0
168 191 0
164 186 0
168 191 0
167 190 0
157 179 0
165 189 0
168 190 0
165 188 0
166 189 0
167 191 0
167 190 0
159 182 0
167 191 0
164 186 0
165 188 0
163 186 0
165 187 0
161 183 0
161 184 0
164 187 0
164 187 0
163 185 0
167 189 0
166 188 0
165 188 0
165 187 0
164 186 0
159 183 0
163 187 0
163 186 0
169 192 0
162 185 0
162 183 0
159 182 0
157 179 0
163 186 0
156 177 0
163 186 0
162 185 0
161 184 0
158 181 0
161 182 0
163 185 0
160 182 0
156 177 0
153 176 0
157 179 0
153 175 0
163 186 0
160 182 0
154 176 0
153 176 0
159 181 0
157 181 0
154 176 0
151 172 0
151 173 0
160 182 0
154 174 0
150 171 0
156 177 0
163 185 0
149 170 0
156 179 0
155 175 0
152 173 0
156 178 0
155 176 0
159 180 0
156 178 0
161 183 0
153 174 0
154 175 0
158 179 0
157 179 0
147 168 0
150 171 0
153 175 0
150 170 0
151 172 0
153 174 0
156 177 0
160 180 0
145 166 0
153 174 0
154 173 0
156 176 0
150 170 0
159 179 0
151 172 0
151 171 0
155 175 0
149 169 0
141 161 0
150 169 0
153 173 0
152 173 0
145 163 0
154 176 0
148 168 0
146 164 0
156 175 0
143 161 0
150 169 0
150 169 0
144 161 0
140 158 0
144 163 0
142 160 0
139 157 0
144 161 0
142 161 0
144 161 0
147 166 0
150 168 0
148 165 0
146 163 0
147 164 0
146 163 0
149 167 0
137 152 0
151 165 0
145 158 0
135 151 0
143 157 0
139 153 0
141 157 0
147 162 0
134 148 0
141 158 0
146 160 0
146 162 0
142 158 0
142 157 0
141 156 0
129 143 0
137 150 0
140 154 0
129 138 0
128 141 0
142 153 0
135 149 0
149 161 0
139 149 0
144 153 0
138 146 0
142 148 0
137 143 0
141 147 0
134 139 0
139 146 0
140 145 0
135 136 0
141 144 0
122 126 0
139 141 0
139 144 0
142 143 0
142 143 0
138 138 0
141 139 0
141 138 0
145 146 0
140 139 0
139 135 0
145 143 0
144 140 0
138 132 0
139 136 0
145 140 0
143 138 0
147 144 0
147 143 0
145 142 0
147 144 0
143 138 0
143 137 0
150 145 0
150 143 0
148 142 0
149 144 0
150 145 0
149 144 0
150 143 0
148 141 0
150 144 0
151 146 0
152 147 11
153 148 0
151 145 11
154 148 22
149 145 11
151 147 0
154 148 11
153 147 11
155 149 19
156 150 25
154 149 11
154 147 16
153 148 16
152 146 28
152 147 22
153 149 19
159 153 34
154 149 22
152 146 19
155 150 19
155 149 32
154 149 22
156 151 30
155 151 22
156 151 28
155 150 19
154 149 28
156 151 22
160 155 36
157 152 28
156 151 25
157 151 30
155 149 25
156 149 32
155 149 19
154 149 22
154 148 19
158 152 22
155 149 25
158 151 32
156 151 28
158 153 32
155 150 16
156 150 28
156 151 22
154 149 25
154 148 28
155 148 28
155 150 22
157 152 22
155 151 19
156 151 19
154 149 16
153 149 0
157 153 19
152 149 0
153 151 16
154 150 0
158 155 16
155 153 0
156 155 0
155 153 0
157 155 0
154 153 0
157 156 0
156 158 0
158 160 0
161 165 0
157 159 0
158 160 0
159 163 0
161 165 0
159 163 0
161 167 0
163 170 0
161 167 0
162 170 0
163 172 0
164 175 0
161 169 0
164 174 0
165 177 0
164 177 0
162 174 0
166 178 0
163 176 0
166 180 0
166 180 0
164 178 0
166 179 0
165 180 0
167 183 0
168 182 0
168 187 0
166 183 0
170 188 0
167 186 0
167 187 0
169 184 0
167 185 0
169 188 0
171 191 0
172 192 0
172 191 0
170 190 0
168 189 0
168 186 0
166 185 0
170 190 0
167 186 0
170 190 0
171 190 0
168 187 0
169 189 0
169 190 0
169 188 0
169 190 0
171 191 0
170 190 0
171 193 0
168 189 0
172 190 0
169 189 0
172 196 0
173 197 0
171 194 0
171 196 0
172 195 0
174 198 0
172 195 0
169 193 0
171 195 0
172 196 0
171 195 0
171 195 0
171 195 0
170 194 0
173 196 0
172 196 0
170 194 0
172 195 0
171 194 0
172 196 0
169 192 0
171 194 0
171 194 0
171 195 0
172 196 0
174 197 0
170 194 0
171 194 0
169 193 0
169 192 0
169 193 0
172 195 0
171 194 0
172 196 0
172 194 0
171 194 0
171 195 0
169 193 0
171 194 0
169 192 0
171 193 0
170 193 0
164 188 0
170 193 0
168 192 0
166 189 0
169 193 0
169 192 0
170 193 0
170 193 0
168 192 0
162 186 0
168 192 0
170 193 0
169 192 0
168 192 0
168 192 0
169 193 0
169 192 0
169 193 0
170 193 0
162 186 0
167 190 0
165 188 0
167 190 0
166 190 0
171 193 0
170 193 0
169 192 0
169 192 0
165 188 0
164 187 0
169 193 0
166 188 0
167 190 0
170 193 0
165 189 0
169 192 0
165 189 0
167 189 0
167 191 0
166 189 0
169 193 0
165 188 0
168 191 0
168 192 0
168 190 0
171 195 0
168 191 0
171 194 0
167 191 0
164 187 0
167 191 0
167 189 0
165 189 0
167 191 0
165 188 0
167 189 0
166 189 0
162 185 0
170 193 0
165 187 0
165 188 0
166 189 0
165 188 0
166 188 0
163 187 0
165 187 0
167 190 0
168 190 0
161 184 0
163 186 0
168 192 0
164 187 0
168 191 0
164 187 0
160 183 0
165 188 0
166 189 0
160 183 0
166 188 0
159 181 0
153 175 0
162 184 0
165 188 0
164 186 0
164 186 0
165 188 0
159 182 0
162 183 0
156 179 0
160 182 0
162 185 0
162 185 0
159 182 0
161 184 0
161 183 0
156 178 0
159 181 0
157 179 0
159 181 0
158 179 0
154 176 0
157 177 0
156 178 0
157 179 0
156 179 0
158 180 0
158 179 0
160 181 0
156 176 0
155 176 0
153 174 0
163 185 0
150 170 0
154 177 0
154 175 0
159 181 0
155 178 0
153 175 0
151 172 0
154 176 0
157 178 0
151 171 0
151 173 0
146 168 0
157 179 0
154 176 0
157 177 0
150 171 0
155 174 0
156 176 0
156 176 0
146 166 0
150 171 0
158 178 0
152 173 0
147 168 0
154 174 0
150 169 0
151 170 0
151 171 0
153 171 0
157 177 0
158 179 0
153 173 0
146 165 0
142 159 0
146 166 0
148 169 0
151 169 0
152 173 0
150 167 0
146 166 0
143 163 0
144 162 0
145 163 0
148 166 0
147 167 0
145 164 0
147 164 0
152 169 0
133 151 0
148 164 0
141 157 0
145 163 0
143 160 0
149 165 0
144 160 0
140 156 0
140 156 0
147 164 0
143 160 0
150 167 0
142 159 0
156 173 0
150 166 0
144 160 0
144 161 0
140 153 0
144 158 0
143 158 0
143 157 0
140 157 0
137 151 0
139 151 0
145 158 0
139 151 0
142 152 0
135 148 0
138 145 0
135 146 0
142 155 0
140 149 0
139 148 0
142 152 0
140 148 0
139 147 0
139 148 0
142 147 0
143 149 0
139 143 0
131 136 0
136 140 0
141 141 0
140 143 0
134 138 0
132 132 0
139 139 0
139 139 0
144 144 0
142 140 0
139 138 0
142 139 0
142 140 0
144 141 0
144 142 0
145 141 0
148 142 0
146 140 0
143 139 0
138 134 0
139 135 0
144 138 0
148 142 0
147 141 0
147 141 0
149 143 0
149 144 0
150 145 0
148 141 0
149 145 0
147 142 0
150 144 0
147 142 0
150 143 0
152 146 0
149 143 0
151 147 11
152 145 0
151 145 11
150 146 11
151 146 16
154 147 11
155 148 11
151 145 16
153 149 16
152 146 19
153 149 11
152 148 0
154 149 25
153 148 16
152 146 11
153 147 25
157 151 22
154 148 19
154 148 16
153 149 16
156 152 19
154 148 19
157 151 25
156 151 28
156 150 19
155 149 22
154 149 22
156 149 32
152 146 19
159 153 37
155 148 25
156 150 30
155 149 19
156 149 28
155 149 25
156 150 30
156 151 28
156 149 25
153 147 16
154 147 22
154 148 22
157 150 19
155 151 16
152 146 16
154 149 19
155 149 22
154 149 11
154 150 11
152 147 0
154 150 11
153 148 16
156 153 11
157 153 11
153 149 11
154 152 0
152 149 0
157 155 0
153 151 0
155 153 0
156 157 0
154 153 0
154 154 0
157 157 0
154 154 0
156 156 0
156 158 0
157 159 0
157 160 0
160 162 0
157 161 0
157 159 0
160 163 0
161 171 0
161 168 0
160 165 0
161 169 0
163 172 0
163 172 0
163 173 0
163 172 0
165 178 0
166 179 0
165 178 0
165 179 0
165 177 0
165 180 0
163 175 0
162 175 0
166 178 0
163 178 0
168 184 0
168 185 0
167 183 0
168 184 0
166 181 0
169 189 0
169 189 0
171 189 0
174 193 0
169 186 0
169 189 0
168 184 0
172 191 0
171 190 0
168 187 0
172 193 0
170 190 0
171 191 0
171 190 0
171 191 0
170 190 0
170 190 0
170 192 0
170 190 0
170 189 0
170 190 0
170 191 0
170 189 0
174 194 0
171 191 0
169 189 0
173 192 0
172 196 0
171 195 0
173 197 0
171 194 0
170 194 0
174 197 0
172 196 0
174 196 0
171 195 0
170 195 0
171 195 0
170 194 0
170 194 0
172 195 0
171 195 0
169 193 0
168 192 0
172 195 0
172 195 0
173 196 0
166 189 0
171 195 0
169 193 0
170 193 0
172 196 0
173 196 0
172 195 0
171 194 0
168 191 0
171 194 0
173 196 0
171 193 0
171 195 0
168 192 0
173 197 0
168 192 0
172 195 0
170 193 0
172 196 0
171 194 0
171 194 0
170 194 0
172 195 0
170 193 0
171 195 0
170 193 0
169 193 0
169 192 0
168 191 0
168 192 0
167 191 0
171 195 0
171 194 0
169 193 0
172 196 0
166 190 0
166 189 0
166 189 0
165 189 0
166 189 0
167 191 0
168 191 0
169 192 0
168 192 0
170 194 0
170 193 0
172 195 0
167 190 0
169 192 0
167 191 0
166 190 0
166 189 0
170 193 0
167 189 0
163 187 0
165 188 0
168 191 0
171 195 0
165 189 0
168 192 0
166 188 0
171 195 0
165 189 0
164 188 0
165 188 0
164 187 0
171 193 0
165 188 0
166 189 0
163 187 0
169 191 0
163 187 0
163 186 0
167 191 0
164 187 0
171 194 0
167 191 0
165 188 0
166 189 0
163 186 0
168 190 0
168 191 0
163 186 0
167 189 0
165 187 0
164 187 0
164 187 0
164 188 0
166 190 0
162 186 0
159 182 0
160 182 0
163 185 0
165 188 0
163 186 0
168 190 0
163 186 0
163 187 0
166 190 0
161 184 0
164 186 0
170 193 0
156 178 0
162 184 0
162 186 0
164 186 0
161 184 0
166 189 0
160 182 0
160 183 0
159 182 0
161 183 0
157 179 0
162 184 0
157 180 0
156 178 0
157 180 0
166 188 0
159 181 0
161 182 0
158 181 0
157 179 0
160 182 0
157 180 0
161 185 0
163 185 0
158 180 0
158 179 0
161 183 0
158 180 0
154 175 0
160 184 0
162 185 0
158 179 0
153 174 0
154 175 0
156 178 0
156 177 0
154 177 0
153 173 0
153 173 0
151 174 0
159 180 0
160 182 0
154 175 0
155 176 0
157 177 0
155 175 0
149 171 0
152 173 0
156 176 0
153 171 0
152 173 0
152 173 0
155 176 0
147 166 0
154 174 0
152 172 0
155 177 0
151 171 0
148 169 0
154 173 0
139 159 0
146 167 0
151 173 0
151 171 0
143 162 0
146 164 0
153 172 0
152 171 0
156 175 0
155 174 0
146 164 0
152 170 0
150 168 0
142 160 0
147 165 0
157 175 0
146 167 0
147 165 0
148 167 0
149 162 0
149 166 0
148 166 0
149 165 0
151 169 0
140 154 0
146 163 0
147 165 0
143 159 0
145 160 0
133 148 0
152 170 0
143 158 0
143 160 0
153 168 0
153 170 0
155 173 0
142 158 0
149 165 0
148 164 0
134 147 0
141 157 0
146 158 0
144 157 0
134 149 0
144 158 0
140 155 0
135 147 0
145 157 0
150 164 0
138 149 0
139 150 0
143 153 0
136 144 0
145 153 0
144 155 0
142 150 0
136 141 0
139 148 0
135 142 0
141 144 0
135 139 0
140 144 0
138 143 0
141 146 0
138 139 0
141 143 0
145 149 0
133 132 0
143 143 0
138 136 0
144 142 0
143 141 0
140 137 0
138 138 0
135 132 0
137 134 0
144 141 0
143 139 0
145 140 0
145 140 0
142 136 0
145 139 0
142 136 0
143 139 0
148 143 0
147 141 0
142 136 0
146 140 0
149 143 0
147 140 0
147 141 0
148 142 0
148 143 0
148 143 0
149 143 0
150 145 0
150 145 0
152 145 0
150 146 0
152 146 11
152 145 0
151 146 0
153 147 16
151 143 11
151 146 0
150 145 0
154 149 19
150 144 11
151 145 11
151 145 11
153 147 19
149 145 0
154 149 16
155 149 19
152 145 0
152 147 16
152 147 11
153 147 25
152 148 16
151 146 0
154 148 22
153 147 25
157 151 25
153 148 25
155 148 25
157 151 25
156 150 16
153 147 11
151 146 0
156 149 22
155 150 19
153 146 11
157 152 28
156 150 19
151 146 0
155 148 19
158 152 22
151 145 0
156 151 19
156 150 22
152 147 0
151 146 11
154 148 11
152 146 11
154 149 16
154 150 16
153 148 11
153 152 0
154 148 0
156 155 0
154 152 0
158 157 0
155 153 0
152 151 0
153 152 0
156 154 0
159 163 0
158 159 0
155 153 0
158 159 0
155 158 0
157 159 0
155 156 0
154 153 0
157 157 0
160 164 0
160 164 0
158 162 0
160 167 0
158 166 0
164 173 0
165 174 0
163 175 0
160 168 0
163 171 0
162 172 0
161 169 0
163 175 0
165 175 0
163 174 0
167 182 0
168 183 0
163 175 0
167 183 0
166 179 0
165 182 0
168 184 0
168 186 0
167 185 0
167 184 0
167 186 0
168 184 0
168 184 0
168 186 0
166 186 0
171 191 0
168 187 0
165 185 0
169 188 0
169 188 0
171 190 0
169 185 0
172 192 0
169 189 0
168 187 0
169 189 0
171 193 0
172 191 0
172 191 0
169 190 0
170 189 0
169 191 0
170 191 0
172 192 0
169 186 0
171 191 0
171 192 0
170 189 0
173 196 0
173 196 0
171 195 0
171 194 0
173 196 0
172 195 0
170 193 0
171 195 0
169 192 0
172 195 0
172 196 0
171 194 0
171 195 0
170 194 0
172 195 0
172 196 0
171 195 0
170 194 0
172 195 0
167 190 0
170 194 0
169 193 0
171 195 0
170 195 0
171 194 0
171 194 0
168 191 0
174 196 0
173 197 0
172 195 0
168 191 0
169 194 0
168 191 0
170 192 0
172 194 0
171 194 0
172 196 0
170 192 0
172 195 0
171 194 0
172 196 0
172 196 0
169 194 0
167 191 0
170 193 0
167 190 0
167 190 0
169 192 0
170 194 0
171 195 0
171 195 0
169 192 0
168 192 0
168 191 0
170 193 0
170 193 0
169 194 0
170 194 0
171 195 0
168 192 0
168 192 0
167 190 0
166 189 0
166 190 0
169 192 0
171 195 0
169 192 0
165 189 0
173 196 0
171 195 0
170 193 0
163 186 0
173 196 0
172 195 0
163 186 0
168 192 0
168 192 0
170 193 0
167 190 0
166 189 0
169 190 0
171 194 0
167 190 0
166 188 0
169 194 0
170 192 0
164 187 0
167 190 0
168 192 0
168 191 0
165 188 0
167 189 0
167 190 0
162 185 0
165 188 0
164 187 0
169 191 0
165 189 0
165 188 0
167 190 0
164 186 0
168 191 0
165 188 0
166 189 0
165 187 0
167 190 0
167 191 0
159 182 0
166 188 0
166 189 0
160 183 0
166 189 0
163 186 0
161 184 0
163 185 0
162 184 0
168 190 0
164 186 0
156 179 0
164 187 0
164 186 0
163 186 0
160 183 0
161 183 0
166 189 0
163 187 0
158 180 0
163 185 0
162 184 0
167 190 0
162 185 0
161 183 0
161 183 0
164 188 0
163 185 0
163 186 0
158 180 0
157 179 0
159 181 0
156 178 0
162 184 0
159 181 0
161 184 0
159 182 0
161 182 0
157 178 0
160 181 0
153 175 0
158 180 0
156 177 0
156 178 0
161 183 0
163 186 0
153 174 0
159 180 0
157 179 0
160 182 0
156 178 0
157 179 0
159 180 0
153 174 0
158 179 0
161 182 0
156 176 0
152 172 0
157 178 0
157 179 0
156 178 0
156 176 0
148 169 0
155 177 0
158 180 0
148 168 0
159 179 0
155 175 0
158 178 0
148 168 0
155 176 0
153 173 0
149 168 0
150 169 0
151 172 0
156 177 0
147 164 0
152 172 0
150 169 0
154 174 0
151 170 0
151 171 0
153 172 0
141 159 0
153 172 0
148 167 0
150 169 0
152 170 0
145 164 0
151 169 0
152 169 0
150 170 0
156 175 0
152 171 0
147 166 0
151 169 0
147 164 0
153 171 0
153 170 0
150 168 0
140 155 0
150 166 0
143 160 0
144 158 0
147 164 0
147 164 0
149 165 0
138 153 0
150 167 0
144 160 0
151 169 0
140 155 0
144 162 0
137 153 0
143 158 0
148 162 0
145 160 0
151 167 0
143 157 0
142 155 0
146 158 0
142 156 0
139 149 0
140 151 0
146 157 0
135 144 0
136 148 0
135 147 0
142 152 0
145 156 0
141 148 0
137 143 0
139 146 0
135 142 0
133 138 0
137 143 0
136 143 0
137 142 0
146 148 0
138 141 0
138 139 0
140 145 0
141 141 0
141 144 0
146 146 0
140 138 0
149 149 0
141 140 0
142 139 0
141 139 0
133 127 0
148 145 0
143 140 0
146 142 0
140 138 0
145 141 0
143 138 0
145 141 0
145 138 0
143 138 0
148 143 0
142 137 0
144 138 0
146 140 0
146 138 0
148 142 0
146 139 0
150 143 0
150 143 0
150 145 0
150 145 0
150 144 0
147 141 0
149 143 0
149 143 0
148 142 0
148 143 0
149 146 0
153 147 0
149 142 0
149 143 11
154 148 11
154 148 16
152 147 0
152 147 11
151 146 11
150 144 19
151 145 16
153 146 19
152 146 11
154 147 22
150 145 0
151 145 11
154 149 11
154 148 16
150 145 16
153 147 19
154 148 19
152 147 0
152 146 22
154 148 16
155 148 22
155 148 16
155 150 19
156 149 22
153 147 16
153 146 22
157 152 22
152 145 16
152 146 0
151 144 11
152 146 11
153 148 11
153 147 11
152 145 16
151 146 0
155 149 11
154 149 0
155 151 0
155 152 0
150 144 0
154 148 0
153 148 0
153 149 0
155 152 0
153 150 0
153 150 0
154 152 0
155 156 0
159 158 0
157 156 0
157 157 0
159 161 0
155 155 0
158 159 0
158 160 0
156 158 0
157 160 0
158 161 0
160 166 0
160 166 0
161 169 0
162 167 0
160 166 0
161 171 0
165 174 0
160 165 0
162 170 0
163 174 0
165 176 0
161 170 0
166 179 0
164 177 0
168 180 0
167 182 0
165 179 0
164 176 0
167 179 0
166 180 0
169 183 0
166 179 0
167 182 0
168 185 0
166 182 0
167 181 0
169 187 0
171 190 0
169 186 0
167 187 0
168 188 0
171 190 0
170 190 0
171 191 0
171 192 0
171 187 0
170 189 0
168 185 0
169 189 0
170 189 0
173 192 0
168 187 0
166 186 0
169 188 0
172 192 0
172 193 0
174 195 0
171 190 0
166 185 0
170 192 0
168 187 0
172 192 0
171 191 0
171 191 0
173 196 0
172 196 0
171 194 0
171 195 0
170 193 0
172 195 0
171 195 0
169 192 0
169 191 0
174 196 0
171 195 0
171 193 0
172 195 0
170 193 0
171 195 0
171 194 0
171 195 0
172 195 0
172 195 0
172 196 0
169 193 0
170 194 0
171 195 0
170 194 0
170 194 0
170 193 0
168 192 0
169 192 0
169 193 0
172 195 0
169 192 0
170 193 0
169 193 0
170 193 0
169 192 0
171 193 0
170 193 0
172 195 0
170 193 0
168 192 0
170 194 0
168 192 0
172 195 0
167 190 0
171 194 0
169 192 0
171 194 0
170 193 0
168 191 0
169 193 0
170 193 0
170 194 0
171 195 0
167 191 0
169 192 0
168 192 0
170 193 0
169 192 0
168 191 0
169 193 0
169 193 0
163 186 0
167 191 0
169 192 0
168 192 0
166 190 0
169 192 0
166 189 0
167 191 0
170 194 0
170 193 0
165 189 0
167 190 0
168 191 0
168 192 0
171 193 0
166 190 0
166 189 0
167 189 0
170 195 0
167 190 0
170 193 0
165 188 0
169 192 0
170 193 0
167 189 0
167 190 0
168 191 0
169 192 0
168 191 0
168 192 0
166 189 0
167 189 0
167 189 0
170 193 0
168 191 0
168 191 0
168 190 0
166 189 0
167 191 0
164 188 0
167 190 0
167 190 0
159 182 0
166 189 0
163 185 0
161 183 0
163 186 0
161 183 0
160 182 0
171 193 0
162 184 0
163 185 0
165 187 0
163 184 0
160 184 0
164 186 0
162 185 0
161 183 0
163 186 0
161 184 0
170 192 0
167 190 0
164 186 0
163 185 0
156 179 0
168 190 0
165 188 0
162 185 0
159 181 0
162 184 0
163 185 0
154 177 0
156 178 0
158 180 0
159 182 0
164 186 0
165 187 0
162 184 0
159 181 0
164 187 0
158 181 0
163 185 0
157 180 0
166 187 0
159 181 0
154 176 0
152 174 0
160 183 0
154 176 0
162 185 0
159 181 0
158 180 0
159 178 0
154 177 0
162 185 0
152 173 0
158 178 0
156 178 0
158 179 0
157 178 0
155 177 0
152 174 0
158 178 0
157 178 0
159 181 0
156 177 0
162 183 0
159 182 0
160 182 0
163 185 0
156 176 0
152 171 0
157 177 0
153 173 0
154 173 0
159 180 0
154 174 0
156 177 0
151 171 0
149 169 0
157 178 0
152 170 0
154 174 0
152 174 0
152 172 0
148 169 0
151 169 0
152 172 0
148 166 0
152 172 0
138 156 0
147 165 0
147 163 0
150 170 0
145 163 0
146 164 0
153 171 0
151 167 0
152 171 0
143 160 0
146 163 0
144 162 0
152 170 0
146 161 0
141 157 0
141 159 0
153 171 0
147 166 0
149 165 0
148 164 0
151 167 0
145 163 0
140 156 0
152 168 0
151 167 0
140 154 0
148 164 0
144 157 0
145 158 0
144 160 0
138 154 0
137 149 0
148 161 0
147 161 0
145 157 0
140 152 0
139 154 0
145 156 0
147 163 0
141 155 0
144 153 0
145 158 0
146 159 0
146 159 0
129 138 0
143 151 0
133 140 0
143 151 0
140 144 0
141 145 0
141 149 0
142 147 0
139 142 0
145 151 0
146 150 0
138 140 0
139 143 0
141 146 0
139 139 0
139 141 0
144 144 0
137 134 0
137 135 0
140 140 0
142 142 0
147 147 0
137 133 0
144 139 0
148 145 0
140 137 0
145 141 0
143 139 0
139 135 0
139 135 0
141 135 0
140 134 0
143 137 0
147 142 0
144 141 0
147 141 0
147 142 0
144 138 0
145 138 0
145 138 0
147 140 0
149 142 0
148 142 0
149 141 0
150 144 0
147 140 0
148 142 0
149 144 0
152 147 0
151 146 0
152 146 0
154 148 0
148 142 0
153 147 0
151 145 0
151 145 0
150 143 0
151 144 0
152 145 0
154 147 19
150 145 11
152 145 0
151 144 0
153 147 11
151 145 0
156 149 16
153 147 11
152 147 11
151 146 0
151 145 11
154 148 16
152 146 11
152 146 11
154 147 16
154 148 19
150 143 11
153 147 0
154 148 19
150 144 0
154 149 0
152 146 11
152 145 0
152 148 0
152 146 0
153 148 0
153 148 11
150 145 0
154 148 0
153 148 0
152 148 0
150 144 0
153 148 0
150 145 0
155 152 0
152 149 0
155 151 0
155 152 0
155 153 0
152 149 0
156 156 0
158 158 0
153 151 0
154 155 0
157 156 0
155 156 0
158 160 0
158 160 0
157 158 0
160 164 0
157 163 0
160 164 0
160 165 0
159 163 0
158 164 0
158 165 0
161 170 0
160 167 0
163 170 0
166 174 0
159 167 0
164 174 0
163 175 0
163 172 0
163 172 0
166 178 0
164 176 0
165 176 0
166 182 0
165 180 0
166 182 0
166 178 0
167 183 0
168 182 0
165 182 0
168 186 0
169 187 0
168 187 0
165 182 0
169 187 0
167 185 0
168 187 0
169 189 0
170 189 0
171 190 0
168 187 0
170 188 0
170 189 0
171 191 0
170 188 0
168 188 0
171 191 0
169 187 0
173 193 0
173 193 0
170 188 0
173 193 0
169 190 0
170 190 0
165 184 0
173 194 0
172 194 0
171 191 0
171 191 0
173 195 0
171 191 0
172 196 0
172 195 0
172 195 0
167 190 0
170 193 0
174 197 0
172 196 0
172 195 0
171 194 0
173 196 0
170 194 0
174 196 0
170 193 0
172 195 0
174 197 0
169 193 0
171 194 0
170 193 0
169 193 0
171 195 0
173 197 0
169 192 0
170 193 0
171 194 0
171 193 0
170 193 0
170 193 0
170 194 0
173 196 0
172 195 0
171 194 0
175 198 0
168 191 0
173 196 0
167 191 0
172 195 0
171 194 0
168 191 0
173 195 0
171 195 0
170 193 0
169 193 0
169 193 0
171 194 0
171 193 0
172 195 0
168 191 0
165 188 0
171 195 0
169 192 0
170 193 0
171 194 0
170 194 0
170 194 0
167 190 0
171 194 0
168 192 0
168 190 0
171 195 0
170 192 0
171 195 0
169 192 0
166 189 0
168 191 0
169 191 0
165 189 0
165 189 0
168 192 0
169 193 0
167 190 0
169 192 0
167 191 0
167 190 0
166 189 0
167 191 0
170 193 0
169 192 0
168 191 0
170 193 0
167 189 0
166 190 0
167 189 0
165 189 0
163 187 0
167 190 0
166 190 0
167 190 0
165 189 0
169 193 0
163 186 0
166 189 0
168 191 0
166 189 0
167 190 0
167 189 0
167 190 0
166 189 0
168 191 0
166 188 0
166 189 0
164 187 0
167 190 0
162 186 0
164 186 0
165 187 0
158 180 0
167 190 0
164 186 0
161 184 0
161 185 0
166 189 0
168 191 0
164 187 0
160 183 0
167 190 0
165 188 0
165 188 0
168 190 0
159 183 0
169 192 0
158 180 0
160 184 0
166 189 0
158 180 0
158 181 0
162 183 0
163 185 0
160 182 0
161 185 0
164 185 0
158 181 0
164 188 0
164 188 0
160 182 0
161 183 0
167 190 0
159 181 0
158 181 0
163 186 0
159 180 0
159 182 0
156 178 0
157 180 0
155 177 0
160 182 0
164 186 0
153 174 0
160 181 0
159 181 0
161 185 0
157 178 0
144 164 0
159 180 0
155 177 0
158 179 0
157 180 0
153 174 0
158 179 0
157 177 0
164 186 0
158 179 0
147 169 0
159 180 0
154 175 0
157 179 0
159 178 0
153 175 0
158 179 0
154 175 0
154 176 0
158 178 0
153 173 0
155 175 0
152 174 0
161 181 0
160 179 0
161 183 0
148 168 0
154 174 0
156 175 0
153 172 0
156 175 0
155 175 0
155 176 0
149 170 0
149 169 0
152 171 0
154 173 0
158 179 0
149 169 0
147 167 0
145 165 0
155 174 0
155 172 0
157 175 0
160 177 0
154 173 0
143 161 0
143 163 0
154 173 0
153 173 0
143 161 0
152 171 0
150 169 0
150 167 0
146 164 0
144 160 0
145 164 0
150 166 0
145 164 0
153 170 0
152 169 0
148 162 0
149 164 0
138 152 0
139 155 0
149 164 0
143 159 0
141 156 0
150 168 0
143 157 0
150 165 0
150 165 0
144 159 0
153 170 0
145 158 0
149 163 0
145 159 0
146 161 0
142 155 0
140 155 0
145 157 0
141 153 0
141 152 0
141 153 0
138 147 0
134 145 0
136 145 0
139 146 0
139 150 0
147 154 0
142 148 0
148 153 0
141 147 0
139 146 0
138 143 0
141 144 0
142 144 0
139 142 0
141 144 0
144 145 0
140 140 0
143 142 0
137 136 0
142 144 0
143 141 0
149 148 0
138 137 0
136 131 0
141 139 0
138 134 0
140 137 0
142 137 0
142 140 0
142 138 0
148 145 0
142 137 0
144 138 0
144 138 0
149 144 0
149 145 0
145 140 0
144 136 0
145 140 0
146 140 0
142 136 0
149 143 0
145 137 0
148 140 0
143 136 0
149 143 0
151 146 0
151 146 0
151 145 0
152 146 0
149 143 0
151 144 0
148 143 0
148 143 0
153 145 0
149 144 0
150 145 0
149 143 0
150 144 0
151 146 0
151 145 11
150 144 0
154 146 11
151 144 0
154 147 0
154 148 11
152 147 0
150 144 0
151 146 11
153 147 11
152 145 0
151 146 11
151 145 0
152 145 11
153 146 16
153 147 16
149 144 0
153 146 0
150 144 0
152 145 0
151 145 0
152 146 0
149 144 0
151 144 0
152 149 0
152 148 0
151 145 0
151 146 0
154 150 0
153 148 0
153 151 0
156 153 0
151 147 0
152 148 0
155 152 0
154 151 0
155 153 0
155 155 0
155 155 0
156 154 0
155 155 0
155 155 0
154 154 0
157 159 0
156 159 0
155 154 0
156 157 0
159 163 0
158 162 0
159 163 0
159 163 0
160 168 0
159 163 0
160 167 0
164 172 0
161 168 0
165 176 0
160 168 0
164 173 0
159 166 0
165 176 0
164 172 0
165 175 0
168 181 0
164 176 0
163 176 0
165 178 0
167 183 0
169 185 0
166 181 0
167 183 0
167 180 0
170 187 0
167 183 0
167 183 0
170 189 0
165 182 0
171 188 0
166 184 0
169 188 0
169 188 0
168 185 0
168 185 0
169 189 0
168 188 0
168 188 0
170 188 0
167 184 0
169 188 0
172 193 0
169 188 0
166 185 0
172 191 0
168 189 0
167 185 0
170 190 0
169 191 0
171 192 0
172 192 0
169 189 0
172 193 0
171 191 0
170 187 0
171 190 0
170 189 0
172 195 0
170 194 0
168 192 0
170 194 0
172 195 0
168 192 0
171 195 0
174 197 0
173 196 0
173 197 0
173 196 0
167 191 0
169 192 0
172 195 0
172 196 0
172 195 0
169 191 0
171 194 0
172 196 0
171 193 0
172 196 0
172 196 0
171 194 0
171 194 0
170 193 0
170 194 0
170 194 0
173 196 0
172 195 0
165 189 0
171 194 0
171 195 0
172 196 0
171 194 0
170 193 0
173 196 0
172 195 0
171 194 0
167 190 0
170 193 0
171 195 0
166 189 0
170 193 0
171 195 0
172 196 0
169 193 0
170 193 0
169 192 0
170 192 0
170 194 0
169 192 0
168 192 0
169 192 0
167 191 0
169 192 0
168 192 0
166 189 0
168 192 0
170 193 0
171 194 0
169 192 0
167 190 0
169 193 0
168 191 0
168 191 0
167 190 0
168 192 0
168 191 0
171 194 0
172 195 0
168 192 0
167 191 0
164 187 0
165 188 0
166 188 0
166 191 0
171 194 0
167 190 0
169 192 0
167 190 0
169 192 0
164 187 0
170 193 0
168 191 0
169 191 0
171 194 0
169 191 0
168 191 0
166 189 0
167 190 0
165 189 0
166 188 0
166 189 0
168 190 0
171 193 0
170 193 0
166 189 0
165 188 0
168 191 0
171 194 0
169 193 0
166 189 0
168 191 0
166 189 0
161 184 0
167 190 0
169 192 0
161 183 0
163 185 0
164 188 0
163 186 0
159 181 0
164 186 0
166 190 0
160 184 0
162 185 0
165 188 0
154 177 0
164 187 0
166 189 0
165 188 0
162 185 0
166 188 0
166 188 0
158 180 0
161 184 0
166 189 0
163 185 0
162 185 0
166 189 0
166 189 0
163 185 0
162 185 0
159 181 0
155 177 0
158 180 0
164 187 0
155 178 0
157 177 0
156 178 0
156 178 0
165 189 0
166 188 0
154 176 0
158 180 0
156 178 0
155 175 0
160 181 0
156 178 0
164 185 0
156 178 0
156 178 0
158 179 0
159 180 0
154 175 0
160 181 0
156 178 0
160 182 0
150 171 0
146 166 0
157 178 0
154 175 0
157 180 0
160 182 0
152 173 0
156 177 0
156 177 0
156 177 0
156 178 0
158 180 0
157 179 0
156 176 0
154 175 0
155 177 0
152 172 0
153 175 0
157 177 0
154 175 0
158 179 0
157 179 0
152 171 0
153 173 0
153 173 0
156 176 0
155 174 0
155 174 0
152 172 0
153 172 0
156 177 0
154 176 0
153 174 0
147 164 0
146 164 0
149 168 0
143 162 0
144 163 0
145 164 0
144 161 0
147 164 0
146 162 0
148 168 0
149 168 0
150 166 0
148 166 0
145 164 0
145 162 0
143 160 0
144 162 0
141 157 0
155 172 0
146 161 0
147 162 0
153 170 0
147 160 0
139 153 0
141 155 0
148 163 0
143 160 0
147 163 0
147 164 0
143 155 0
148 162 0
135 147 0
146 161 0
145 157 0
143 157 0
137 150 0
151 162 0
140 153 0
145 158 0
138 153 0
147 159 0
135 145 0
144 155 0
142 152 0
137 148 0
140 147 0
149 157 0
148 155 0
141 148 0
145 153 0
138 148 0
135 139 0
136 142 0
144 148 0
143 144 0
139 144 0
139 141 0
138 139 0
145 148 0
147 148 0
145 147 0
141 140 0
142 144 0
140 141 0
144 145 0
137 134 0
142 139 0
148 147 0
133 128 0
138 135 0
141 139 0
141 136 0
137 131 0
147 145 0
147 142 0
145 138 0
139 133 0
142 136 0
142 136 0
143 137 0
148 142 0
147 142 0
146 139 0
148 143 0
146 141 0
149 143 0
140 133 0
146 139 0
146 141 0
147 139 0
152 147 0
150 143 0
150 146 0
147 140 0
151 144 0
148 141 0
149 142 0
150 144 0
152 146 0
151 144 0
151 145 0
149 143 0
152 145 0
150 144 0
149 142 0
152 145 0
149 143 0
151 144 0
152 146 0
151 146 0
149 144 0
151 143 0
152 145 0
149 143 0
150 141 0
151 146 0
151 147 0
151 144 0
148 140 0
153 148 0
151 147 0
149 143 0
148 143 0
154 149 0
151 144 0
154 146 0
152 146 0
153 147 0
152 146 0
151 147 0
153 148 0
152 147 0
150 144 0
154 151 0
155 154 0
153 149 0
157 152 0
154 149 0
155 151 0
158 156 0
156 155 0
154 152 0
156 155 0
152 151 0
157 158 0
154 153 0
154 154 0
158 161 0
158 159 0
159 161 0
159 162 0
158 162 0
160 164 0
161 167 0
157 162 0
159 164 0
163 170 0
159 166 0
161 165 0
160 166 0
162 171 0
163 174 0
159 167 0
163 174 0
162 173 0
161 169 0
167 179 0
164 179 0
163 173 0
164 177 0
167 180 0
166 180 0
167 181 0
163 175 0
166 179 0
169 182 0
171 187 0
168 186 0
168 185 0
168 186 0
168 184 0
165 182 0
166 183 0
169 187 0
166 184 0
171 188 0
173 192 0
170 188 0
170 190 0
171 191 0
166 184 0
167 183 0
170 188 0
169 190 0
172 193 0
170 190 0
170 189 0
170 191 0
169 189 0
168 188 0
169 187 0
168 187 0
170 190 0
170 190 0
170 190 0
169 189 0
171 193 0
172 193 0
171 192 0
174 197 0
171 194 0
171 195 0
169 192 0
173 196 0
172 195 0
172 195 0
174 196 0
171 195 0
172 195 0
176 199 0
172 196 0
174 197 0
171 194 0
169 192 0
171 194 0
168 191 0
169 192 0
170 193 0
174 197 0
170 194 0
174 197 0
170 194 0
173 195 0
173 196 0
170 193 0
172 195 0
172 196 0
171 194 0
170 194 0
169 193 0
171 195 0
168 192 0
172 195 0
168 192 0
168 192 0
170 193 0
174 197 0
173 196 0
172 195 0
169 193 0
171 194 0
166 190 0
171 194 0
173 196 0
173 196 0
168 191 0
168 191 0
166 189 0
172 195 0
171 195 0
166 189 0
171 194 0
166 190 0
167 190 0
172 195 0
166 189 0
168 192 0
171 194 0
171 194 0
169 192 0
168 190 0
168 192 0
170 194 0
164 187 0
174 197 0
170 193 0
166 189 0
166 189 0
168 192 0
166 190 0
169 192 0
169 193 0
166 189 0
170 193 0
168 192 0
168 192 0
168 191 0
169 192 0
164 187 0
168 191 0
169 191 0
165 189 0
168 192 0
163 187 0
170 193 0
163 185 0
167 190 0
167 189 0
165 188 0
168 191 0
169 192 0
160 184 0
164 187 0
163 186 0
168 190 0
167 190 0
166 189 0
166 190 0
166 189 0
167 190 0
170 192 0
166 188 0
166 190 0
168 191 0
166 189 0
163 186 0
167 190 0
163 186 0
164 187 0
171 194 0
163 185 0
163 185 0
162 183 0
159 182 0
164 187 0
162 185 0
164 187 0
165 188 0
169 191 0
164 188 0
164 188 0
165 188 0
168 191 0
164 188 0
165 188 0
163 186 0
162 184 0
165 186 0
160 182 0
163 185 0
163 185 0
159 180 0
165 187 0
159 183 0
162 184 0
166 188 0
160 181 0
160 183 0
156 177 0
163 186 0
158 181 0
157 179 0
160 182 0
161 182 0
161 183 0
154 176 0
165 187 0
163 185 0
162 183 0
157 179 0
161 183 0
159 180 0
157 180 0
163 184 0
159 182 0
161 182 0
154 177 0
160 183 0
158 181 0
157 177 0
159 181 0
163 185 0
154 174 0
158 180 0
154 176 0
155 176 0
154 177 0
160 180 0
152 173 0
154 174 0
154 174 0
156 175 0
156 176 0
153 173 0
158 179 0
154 174 0
154 175 0
161 182 0
158 179 0
152 173 0
154 176 0
152 168 0
159 179 0
155 175 0
152 173 0
153 173 0
153 172 0
157 176 0
154 175 0
145 164 0
153 172 0
153 172 0
150 167 0
152 171 0
151 172 0
153 170 0
149 169 0
146 163 0
155 174 0
150 168 0
149 167 0
148 168 0
148 164 0
138 156 0
149 167 0
149 168 0
156 174 0
149 166 0
151 168 0
149 166 0
152 168 0
154 172 0
146 162 0
147 164 0
148 162 0
150 165 0
156 176 0
141 156 0
140 160 0
148 162 0
147 163 0
139 154 0
144 159 0
150 166 0
151 167 0
142 156 0
153 169 0
154 168 0
142 156 0
138 151 0
143 157 0
144 155 0
145 157 0
143 156 0
140 147 0
145 157 0
143 152 0
136 143 0
142 149 0
144 152 0
134 141 0
144 150 0
137 145 0
138 145 0
142 147 0
142 146 0
141 145 0
138 139 0
136 139 0
134 135 0
143 144 0
143 145 0
141 142 0
146 145 0
139 139 0
140 137 0
147 146 0
143 141 0
137 132 0
142 139 0
148 146 0
144 139 0
140 135 0
148 143 0
140 136 0
150 147 0
146 143 0
143 137 0
140 134 0
140 134 0
146 140 0
143 135 0
143 137 0
145 139 0
137 130 0
144 139 0
149 144 0
145 140 0
147 141 0
149 144 0
143 137 0
144 138 0
151 145 0
145 136 0
150 144 0
149 143 0
148 141 0
147 142 0
150 144 0
150 144 0
145 137 0
147 139 0
149 141 0
147 139 0
151 143 0
148 142 0
150 142 0
149 141 0
149 143 0
151 144 0
150 145 0
153 148 0
148 140 0
152 146 0
151 145 0
148 142 0
150 144 0
150 143 0
152 147 0
153 146 0
153 147 0
150 143 0
151 144 0
153 147 0
149 143 0
150 144 0
153 151 0
150 147 0
153 150 0
151 145 0
154 149 0
152 146 0
154 149 0
154 151 0
155 151 0
154 149 0
153 150 0
154 150 0
155 151 0
156 151 0
153 152 0
154 154 0
157 155 0
154 152 0
156 155 0
154 153 0
160 162 0
156 158 0
158 159 0
156 158 0
159 160 0
158 162 0
160 165 0
157 162 0
160 165 0
159 166 0
160 167 0
160 167 0
161 165 0
162 168 0
163 172 0
162 169 0
162 172 0
165 177 0
164 176 0
164 177 0
161 169 0
163 175 0
164 176 0
164 176 0
167 182 0
168 183 0
167 183 0
165 179 0
164 179 0
169 187 0
167 181 0
168 183 0
170 187 0
166 184 0
166 183 0
170 190 0
167 186 0
169 185 0
169 187 0
167 184 0
168 188 0
169 189 0
167 184 0
169 188 0
170 188 0
168 185 0
171 192 0
170 190 0
168 184 0
170 189 0
169 188 0
169 190 0
169 190 0
169 189 0
172 193 0
172 191 0
172 191 0
171 191 0
170 191 0
171 190 0
171 192 0
169 189 0
169 190 0
173 197 0
174 197 0
171 195 0
169 193 0
173 196 0
171 194 0
171 193 0
173 196 0
174 197 0
171 194 0
167 190 0
174 196 0
173 196 0
173 197 0
172 196 0
173 197 0
167 191 0
170 193 0
169 193 0
169 193 0
169 193 0
172 196 0
169 193 0
170 193 0
170 193 0
173 196 0
170 193 0
173 196 0
171 194 0
170 193 0
167 191 0
171 194 0
172 195 0
170 192 0
172 195 0
169 192 0
171 195 0
170 193 0
174 197 0
171 195 0
169 193 0
170 194 0
171 194 0
172 196 0
173 196 0
171 194 0
171 194 0
173 196 0
169 193 0
170 193 0
169 192 0
173 195 0
166 190 0
173 195 0
167 190 0
171 193 0
168 192 0
170 193 0
165 189 0
171 194 0
172 195 0
169 193 0
170 192 0
170 195 0
169 192 0
167 189 0
169 192 0
173 195 0
170 194 0
172 196 0
166 189 0
172 195 0
167 190 0
170 194 0
164 187 0
168 191 0
164 187 0
171 193 0
167 190 0
170 194 0
166 190 0
168 191 0
165 188 0
170 193 0
169 193 0
167 190 0
168 192 0
169 193 0
171 194 0
168 191 0
167 190 0
169 191 0
170 193 0
170 193 0
165 188 0
166 188 0
163 186 0
163 186 0
166 189 0
169 192 0
164 186 0
167 190 0
163 185 0
169 192 0
167 190 0
164 187 0
166 188 0
165 186 0
166 190 0
165 188 0
163 186 0
164 187 0
168 191 0
162 185 0
157 180 0
161 184 0
161 185 0
163 187 0
164 187 0
161 185 0
167 190 0
167 189 0
162 184 0
166 188 0
162 186 0
158 182 0
164 187 0
162 185 0
167 190 0
159 181 0
163 185 0
161 182 0
167 190 0
159 181 0
163 185 0
162 185 0
163 187 0
160 183 0
166 190 0
162 184 0
161 183 0
157 179 0
157 179 0
157 179 0
165 188 0
161 183 0
160 183 0
160 183 0
164 186 0
153 175 0
164 186 0
164 187 0
157 179 0
161 182 0
163 186 0
160 182 0
159 180 0
150 170 0
156 179 0
154 175 0
160 181 0
159 181 0
163 183 0
153 174 0
156 177 0
160 183 0
153 173 0
163 182 0
159 179 0
156 177 0
162 182 0
157 179 0
157 178 0
156 178 0
149 169 0
154 173 0
158 180 0
160 181 0
156 176 0
155 175 0
155 176 0
157 178 0
155 174 0
154 174 0
150 168 0
153 172 0
155 175 0
148 167 0
151 170 0
151 170 0
154 173 0
146 165 0
149 168 0
151 169 0
149 169 0
152 173 0
148 166 0
149 167 0
153 171 0
153 171 0
152 171 0
151 170 0
149 168 0
157 177 0
155 174 0
147 166 0
152 170 0
149 166 0
149 166 0
156 173 0
154 170 0
150 166 0
146 162 0
156 170 0
149 166 0
152 170 0
151 168 0
150 164 0
149 166 0
151 169 0
138 152 0
143 156 0
150 164 0
145 160 0
151 163 0
147 161 0
152 167 0
139 151 0
149 161 0
142 152 0
152 167 0
152 166 0
144 154 0
146 157 0
148 159 0
146 155 0
135 146 0
147 157 0
140 146 0
148 156 0
143 151 0
139 145 0
140 145 0
136 142 0
147 151 0
145 152 0
141 147 0
139 140 0
137 138 0
144 150 0
144 145 0
141 142 0
144 145 0
143 143 0
136 136 0
143 146 0
148 148 0
140 140 0
143 140 0
143 141 0
139 137 0
144 145 0
145 143 0
145 145 0
146 143 0
148 141 0
138 134 0
138 132 0
140 137 0
142 137 0
143 139 0
140 134 0
144 138 0
142 135 0
143 139 0
144 138 0
147 141 0
147 142 0
146 138 0
145 139 0
146 141 0
146 139 0
150 145 0
152 146 0
146 139 0
148 142 0
149 143 0
149 142 0
149 142 0
150 141 0
147 139 0
149 142 0
151 144 0
148 142 0
150 145 0
149 143 0
147 141 0
146 139 0
150 142 0
153 147 0
148 142 0
152 147 0
152 146 0
150 141 0
152 146 0
152 144 0
149 141 0
150 144 0
152 146 0
149 142 0
148 142 0
149 142 0
153 148 0
151 148 0
152 145 0
152 146 0
152 146 0
153 148 0
153 148 0
153 147 0
153 149 0
155 153 0
153 149 0
153 149 0
153 148 0
153 150 0
155 153 0
154 153 0
152 149 0
147 144 0
155 155 0
155 153 0
153 151 0
153 152 0
153 153 0
155 156 0
156 158 0
157 158 0
154 155 0
160 163 0
156 157 0
160 165 0
158 163 0
161 168 0
155 159 0
159 166 0
159 167 0
156 160 0
158 167 0
168 180 0
159 167 0
164 175 0
162 171 0
161 171 0
161 172 0
164 177 0
165 177 0
165 176 0
166 178 0
165 179 0
166 181 0
165 180 0
166 180 0
167 181 0
167 183 0
166 178 0
165 179 0
165 181 0
172 190 0
168 185 0
167 184 0
170 187 0
166 181 0
171 189 0
165 180 0
168 186 0
167 187 0
169 186 0
172 189 0
169 185 0
168 186 0
171 189 0
169 188 0
170 188 0
168 186 0
171 190 0
170 190 0
170 190 0
168 187 0
172 191 0
173 193 0
171 191 0
170 190 0
171 189 0
174 194 0
170 191 0
170 191 0
171 191 0
173 193 0
172 193 0
